(Exported by FreeCAD)
(Post Processor: grbl_post)
(Output Time:2020-02-02 16:14:12.886064)
(begin preamble)
G17 G90
G21
(begin operation: T3: AluminiumMill)
(Path: T3: AluminiumMill)
(T3: AluminiumMill)
(begin toolchange)
; M6 T3
M3 S17000.0000
(finish operation: T3: AluminiumMill)
(begin operation: Profile_Edges)
(Path: Profile_Edges)
(Profile_Edges)
(Compensated Tool Path. Diameter: 3.0)
G0 Z8.0000
G0 X12.3120 Y9.4676
G0 Z6.0000
G1 X12.3120 Y9.4676 Z2.9000 F399.60
G2 X12.5858 Y9.0701 Z2.9000 I-0.9282 J-0.9325 F799.80
G2 X11.3380 Y7.2500 Z2.9000 I-1.1936 J-0.5195 F799.80
G1 X5.8620 Y7.2500 Z2.9000 F799.80
G1 X5.5869 Y7.2728 Z2.9000 F799.80
G2 X5.8620 Y9.8500 Z2.9000 I0.2169 J1.2801 F799.80
G1 X11.3380 Y9.8500 Z2.9000 F799.80
G2 X12.3120 Y9.4676 Z2.9000 I0.0458 J-1.3149 F799.80
G1 X12.3120 Y9.4676 Z2.6000 F399.60
G2 X12.5858 Y9.0701 Z2.6000 I-0.9282 J-0.9325 F799.80
G2 X11.3380 Y7.2500 Z2.6000 I-1.1936 J-0.5195 F799.80
G1 X5.8620 Y7.2500 Z2.6000 F799.80
G1 X5.5869 Y7.2728 Z2.6000 F799.80
G2 X5.8620 Y9.8500 Z2.6000 I0.2169 J1.2801 F799.80
G1 X11.3380 Y9.8500 Z2.6000 F799.80
G2 X12.3120 Y9.4676 Z2.6000 I0.0458 J-1.3149 F799.80
G1 X12.3120 Y9.4676 Z2.3000 F399.60
G2 X12.5858 Y9.0701 Z2.3000 I-0.9282 J-0.9325 F799.80
G2 X11.3380 Y7.2500 Z2.3000 I-1.1936 J-0.5195 F799.80
G1 X5.8620 Y7.2500 Z2.3000 F799.80
G1 X5.5869 Y7.2728 Z2.3000 F799.80
G2 X5.8620 Y9.8500 Z2.3000 I0.2169 J1.2801 F799.80
G1 X11.3380 Y9.8500 Z2.3000 F799.80
G2 X12.3120 Y9.4676 Z2.3000 I0.0458 J-1.3149 F799.80
G1 X12.3120 Y9.4676 Z2.0000 F399.60
G2 X12.5858 Y9.0701 Z2.0000 I-0.9282 J-0.9325 F799.80
G2 X11.3380 Y7.2500 Z2.0000 I-1.1936 J-0.5195 F799.80
G1 X5.8620 Y7.2500 Z2.0000 F799.80
G1 X5.5869 Y7.2728 Z2.0000 F799.80
G2 X5.8620 Y9.8500 Z2.0000 I0.2169 J1.2801 F799.80
G1 X11.3380 Y9.8500 Z2.0000 F799.80
G2 X12.3120 Y9.4676 Z2.0000 I0.0458 J-1.3149 F799.80
G1 X12.3120 Y9.4676 Z1.7000 F399.60
G2 X12.5858 Y9.0701 Z1.7000 I-0.9282 J-0.9325 F799.80
G2 X11.3380 Y7.2500 Z1.7000 I-1.1936 J-0.5195 F799.80
G1 X5.8620 Y7.2500 Z1.7000 F799.80
G1 X5.5869 Y7.2728 Z1.7000 F799.80
G2 X5.8620 Y9.8500 Z1.7000 I0.2169 J1.2801 F799.80
G1 X11.3380 Y9.8500 Z1.7000 F799.80
G2 X12.3120 Y9.4676 Z1.7000 I0.0458 J-1.3149 F799.80
G1 X12.3120 Y9.4676 Z1.4000 F399.60
G2 X12.5858 Y9.0701 Z1.4000 I-0.9282 J-0.9325 F799.80
G2 X11.3380 Y7.2500 Z1.4000 I-1.1936 J-0.5195 F799.80
G1 X5.8620 Y7.2500 Z1.4000 F799.80
G1 X5.5869 Y7.2728 Z1.4000 F799.80
G2 X5.8620 Y9.8500 Z1.4000 I0.2169 J1.2801 F799.80
G1 X11.3380 Y9.8500 Z1.4000 F799.80
G2 X12.3120 Y9.4676 Z1.4000 I0.0458 J-1.3149 F799.80
G1 X12.3120 Y9.4676 Z1.1000 F399.60
G2 X12.5858 Y9.0701 Z1.1000 I-0.9282 J-0.9325 F799.80
G2 X11.3380 Y7.2500 Z1.1000 I-1.1936 J-0.5195 F799.80
G1 X5.8620 Y7.2500 Z1.1000 F799.80
G1 X5.5869 Y7.2728 Z1.1000 F799.80
G2 X5.8620 Y9.8500 Z1.1000 I0.2169 J1.2801 F799.80
G1 X11.3380 Y9.8500 Z1.1000 F799.80
G2 X12.3120 Y9.4676 Z1.1000 I0.0458 J-1.3149 F799.80
G1 X12.3120 Y9.4676 Z0.8000 F399.60
G2 X12.5858 Y9.0701 Z0.8000 I-0.9282 J-0.9325 F799.80
G2 X11.3380 Y7.2500 Z0.8000 I-1.1936 J-0.5195 F799.80
G1 X5.8620 Y7.2500 Z0.8000 F799.80
G1 X5.5869 Y7.2728 Z0.8000 F799.80
G2 X5.8620 Y9.8500 Z0.8000 I0.2169 J1.2801 F799.80
G1 X11.3380 Y9.8500 Z0.8000 F799.80
G2 X12.3120 Y9.4676 Z0.8000 I0.0458 J-1.3149 F799.80
G1 X12.3120 Y9.4676 Z0.5000 F399.60
G2 X12.5858 Y9.0701 Z0.5000 I-0.9282 J-0.9325 F799.80
G2 X11.3380 Y7.2500 Z0.5000 I-1.1936 J-0.5195 F799.80
G1 X5.8620 Y7.2500 Z0.5000 F799.80
G1 X5.5869 Y7.2728 Z0.5000 F799.80
G2 X5.8620 Y9.8500 Z0.5000 I0.2169 J1.2801 F799.80
G1 X11.3380 Y9.8500 Z0.5000 F799.80
G2 X12.3120 Y9.4676 Z0.5000 I0.0458 J-1.3149 F799.80
G1 X12.3120 Y9.4676 Z0.2000 F399.60
G2 X12.5858 Y9.0701 Z0.2000 I-0.9282 J-0.9325 F799.80
G2 X11.3380 Y7.2500 Z0.2000 I-1.1936 J-0.5195 F799.80
G1 X5.8620 Y7.2500 Z0.2000 F799.80
G1 X5.5869 Y7.2728 Z0.2000 F799.80
G2 X5.8620 Y9.8500 Z0.2000 I0.2169 J1.2801 F799.80
G1 X11.3380 Y9.8500 Z0.2000 F799.80
G2 X12.3120 Y9.4676 Z0.2000 I0.0458 J-1.3149 F799.80
G1 X12.3120 Y9.4676 Z-0.1000 F399.60
G2 X12.5858 Y9.0701 Z-0.1000 I-0.9282 J-0.9325 F799.80
G2 X11.3380 Y7.2500 Z-0.1000 I-1.1936 J-0.5195 F799.80
G1 X5.8620 Y7.2500 Z-0.1000 F799.80
G1 X5.5869 Y7.2728 Z-0.1000 F799.80
G2 X5.8620 Y9.8500 Z-0.1000 I0.2169 J1.2801 F799.80
G1 X11.3380 Y9.8500 Z-0.1000 F799.80
G2 X12.3120 Y9.4676 Z-0.1000 I0.0458 J-1.3149 F799.80
G1 X12.3120 Y9.4676 Z-0.2000 F399.60
G2 X12.5858 Y9.0701 Z-0.2000 I-0.9282 J-0.9325 F799.80
G2 X11.3380 Y7.2500 Z-0.2000 I-1.1936 J-0.5195 F799.80
G1 X5.8620 Y7.2500 Z-0.2000 F799.80
G1 X5.5869 Y7.2728 Z-0.2000 F799.80
G2 X5.8620 Y9.8500 Z-0.2000 I0.2169 J1.2801 F799.80
G1 X11.3380 Y9.8500 Z-0.2000 F799.80
G2 X12.3120 Y9.4676 Z-0.2000 I0.0458 J-1.3149 F799.80
G0 Z8.0000
G0 X56.5344 Y13.5572
G0 Z6.0000
G1 X56.5344 Y13.5572 Z2.9000 F399.60
G2 X56.5500 Y13.4214 Z2.9000 I-0.0777 J-0.0777 F799.80
G1 X56.5500 Y12.2286 Z2.9000 F799.80
G2 X56.4959 Y12.0706 Z2.9000 I-0.1440 J-0.0390 F799.80
G2 X56.3500 Y12.2286 Z2.9000 I-0.0459 J0.1040 F799.80
G1 X56.3500 Y13.4214 Z2.9000 F799.80
G2 X56.3758 Y13.5539 Z2.9000 I0.2168 J0.0266 F799.80
G2 X56.5344 Y13.5572 Z2.9000 I0.0809 J-0.0744 F799.80
G1 X56.5344 Y13.5572 Z2.6000 F399.60
G2 X56.5500 Y13.4214 Z2.6000 I-0.0777 J-0.0777 F799.80
G1 X56.5500 Y12.2286 Z2.6000 F799.80
G2 X56.4959 Y12.0706 Z2.6000 I-0.1440 J-0.0390 F799.80
G2 X56.3500 Y12.2286 Z2.6000 I-0.0459 J0.1040 F799.80
G1 X56.3500 Y13.4214 Z2.6000 F799.80
G2 X56.3758 Y13.5539 Z2.6000 I0.2168 J0.0266 F799.80
G2 X56.5344 Y13.5572 Z2.6000 I0.0809 J-0.0744 F799.80
G1 X56.5344 Y13.5572 Z2.3000 F399.60
G2 X56.5500 Y13.4214 Z2.3000 I-0.0777 J-0.0777 F799.80
G1 X56.5500 Y12.2286 Z2.3000 F799.80
G2 X56.4959 Y12.0706 Z2.3000 I-0.1440 J-0.0390 F799.80
G2 X56.3500 Y12.2286 Z2.3000 I-0.0459 J0.1040 F799.80
G1 X56.3500 Y13.4214 Z2.3000 F799.80
G2 X56.3758 Y13.5539 Z2.3000 I0.2168 J0.0266 F799.80
G2 X56.5344 Y13.5572 Z2.3000 I0.0809 J-0.0744 F799.80
G1 X56.5344 Y13.5572 Z2.0000 F399.60
G2 X56.5500 Y13.4214 Z2.0000 I-0.0777 J-0.0777 F799.80
G1 X56.5500 Y12.2286 Z2.0000 F799.80
G2 X56.4959 Y12.0706 Z2.0000 I-0.1440 J-0.0390 F799.80
G2 X56.3500 Y12.2286 Z2.0000 I-0.0459 J0.1040 F799.80
G1 X56.3500 Y13.4214 Z2.0000 F799.80
G2 X56.3758 Y13.5539 Z2.0000 I0.2168 J0.0266 F799.80
G2 X56.5344 Y13.5572 Z2.0000 I0.0809 J-0.0744 F799.80
G1 X56.5344 Y13.5572 Z1.7000 F399.60
G2 X56.5500 Y13.4214 Z1.7000 I-0.0777 J-0.0777 F799.80
G1 X56.5500 Y12.2286 Z1.7000 F799.80
G2 X56.4959 Y12.0706 Z1.7000 I-0.1440 J-0.0390 F799.80
G2 X56.3500 Y12.2286 Z1.7000 I-0.0459 J0.1040 F799.80
G1 X56.3500 Y13.4214 Z1.7000 F799.80
G2 X56.3758 Y13.5539 Z1.7000 I0.2168 J0.0266 F799.80
G2 X56.5344 Y13.5572 Z1.7000 I0.0809 J-0.0744 F799.80
G1 X56.5344 Y13.5572 Z1.4000 F399.60
G2 X56.5500 Y13.4214 Z1.4000 I-0.0777 J-0.0777 F799.80
G1 X56.5500 Y12.2286 Z1.4000 F799.80
G2 X56.4959 Y12.0706 Z1.4000 I-0.1440 J-0.0390 F799.80
G2 X56.3500 Y12.2286 Z1.4000 I-0.0459 J0.1040 F799.80
G1 X56.3500 Y13.4214 Z1.4000 F799.80
G2 X56.3758 Y13.5539 Z1.4000 I0.2168 J0.0266 F799.80
G2 X56.5344 Y13.5572 Z1.4000 I0.0809 J-0.0744 F799.80
G1 X56.5344 Y13.5572 Z1.1000 F399.60
G2 X56.5500 Y13.4214 Z1.1000 I-0.0777 J-0.0777 F799.80
G1 X56.5500 Y12.2286 Z1.1000 F799.80
G2 X56.4959 Y12.0706 Z1.1000 I-0.1440 J-0.0390 F799.80
G2 X56.3500 Y12.2286 Z1.1000 I-0.0459 J0.1040 F799.80
G1 X56.3500 Y13.4214 Z1.1000 F799.80
G2 X56.3758 Y13.5539 Z1.1000 I0.2168 J0.0266 F799.80
G2 X56.5344 Y13.5572 Z1.1000 I0.0809 J-0.0744 F799.80
G1 X56.5344 Y13.5572 Z0.8000 F399.60
G2 X56.5500 Y13.4214 Z0.8000 I-0.0777 J-0.0777 F799.80
G1 X56.5500 Y12.2286 Z0.8000 F799.80
G2 X56.4959 Y12.0706 Z0.8000 I-0.1440 J-0.0390 F799.80
G2 X56.3500 Y12.2286 Z0.8000 I-0.0459 J0.1040 F799.80
G1 X56.3500 Y13.4214 Z0.8000 F799.80
G2 X56.3758 Y13.5539 Z0.8000 I0.2168 J0.0266 F799.80
G2 X56.5344 Y13.5572 Z0.8000 I0.0809 J-0.0744 F799.80
G1 X56.5344 Y13.5572 Z0.5000 F399.60
G2 X56.5500 Y13.4214 Z0.5000 I-0.0777 J-0.0777 F799.80
G1 X56.5500 Y12.2286 Z0.5000 F799.80
G2 X56.4959 Y12.0706 Z0.5000 I-0.1440 J-0.0390 F799.80
G2 X56.3500 Y12.2286 Z0.5000 I-0.0459 J0.1040 F799.80
G1 X56.3500 Y13.4214 Z0.5000 F799.80
G2 X56.3758 Y13.5539 Z0.5000 I0.2168 J0.0266 F799.80
G2 X56.5344 Y13.5572 Z0.5000 I0.0809 J-0.0744 F799.80
G1 X56.5344 Y13.5572 Z0.2000 F399.60
G2 X56.5500 Y13.4214 Z0.2000 I-0.0777 J-0.0777 F799.80
G1 X56.5500 Y12.2286 Z0.2000 F799.80
G2 X56.4959 Y12.0706 Z0.2000 I-0.1440 J-0.0390 F799.80
G2 X56.3500 Y12.2286 Z0.2000 I-0.0459 J0.1040 F799.80
G1 X56.3500 Y13.4214 Z0.2000 F799.80
G2 X56.3758 Y13.5539 Z0.2000 I0.2168 J0.0266 F799.80
G2 X56.5344 Y13.5572 Z0.2000 I0.0809 J-0.0744 F799.80
G1 X56.5344 Y13.5572 Z-0.1000 F399.60
G2 X56.5500 Y13.4214 Z-0.1000 I-0.0777 J-0.0777 F799.80
G1 X56.5500 Y12.2286 Z-0.1000 F799.80
G2 X56.4959 Y12.0706 Z-0.1000 I-0.1440 J-0.0390 F799.80
G2 X56.3500 Y12.2286 Z-0.1000 I-0.0459 J0.1040 F799.80
G1 X56.3500 Y13.4214 Z-0.1000 F799.80
G2 X56.3758 Y13.5539 Z-0.1000 I0.2168 J0.0266 F799.80
G2 X56.5344 Y13.5572 Z-0.1000 I0.0809 J-0.0744 F799.80
G1 X56.5344 Y13.5572 Z-0.2000 F399.60
G2 X56.5500 Y13.4214 Z-0.2000 I-0.0777 J-0.0777 F799.80
G1 X56.5500 Y12.2286 Z-0.2000 F799.80
G2 X56.4959 Y12.0706 Z-0.2000 I-0.1440 J-0.0390 F799.80
G2 X56.3500 Y12.2286 Z-0.2000 I-0.0459 J0.1040 F799.80
G1 X56.3500 Y13.4214 Z-0.2000 F799.80
G2 X56.3758 Y13.5539 Z-0.2000 I0.2168 J0.0266 F799.80
G2 X56.5344 Y13.5572 Z-0.2000 I0.0809 J-0.0744 F799.80
G0 Z8.0000
G0 X61.4539 Y8.6242
G0 Z6.0000
G1 X61.4539 Y8.6242 Z2.9000 F399.60
G2 X61.3214 Y8.4500 Z2.9000 I-0.0744 J-0.0809 F799.80
G1 X60.1286 Y8.4500 Z2.9000 F799.80
G2 X59.9961 Y8.4758 Z2.9000 I-0.0266 J0.2168 F799.80
G2 X60.1286 Y8.6500 Z2.9000 I0.0744 J0.0809 F799.80
G1 X61.3214 Y8.6500 Z2.9000 F799.80
G2 X61.4539 Y8.6242 Z2.9000 I0.0266 J-0.2168 F799.80
G1 X61.4539 Y8.6242 Z2.6000 F399.60
G2 X61.3214 Y8.4500 Z2.6000 I-0.0744 J-0.0809 F799.80
G1 X60.1286 Y8.4500 Z2.6000 F799.80
G2 X59.9961 Y8.4758 Z2.6000 I-0.0266 J0.2168 F799.80
G2 X60.1286 Y8.6500 Z2.6000 I0.0744 J0.0809 F799.80
G1 X61.3214 Y8.6500 Z2.6000 F799.80
G2 X61.4539 Y8.6242 Z2.6000 I0.0266 J-0.2168 F799.80
G1 X61.4539 Y8.6242 Z2.3000 F399.60
G2 X61.3214 Y8.4500 Z2.3000 I-0.0744 J-0.0809 F799.80
G1 X60.1286 Y8.4500 Z2.3000 F799.80
G2 X59.9961 Y8.4758 Z2.3000 I-0.0266 J0.2168 F799.80
G2 X60.1286 Y8.6500 Z2.3000 I0.0744 J0.0809 F799.80
G1 X61.3214 Y8.6500 Z2.3000 F799.80
G2 X61.4539 Y8.6242 Z2.3000 I0.0266 J-0.2168 F799.80
G1 X61.4539 Y8.6242 Z2.0000 F399.60
G2 X61.3214 Y8.4500 Z2.0000 I-0.0744 J-0.0809 F799.80
G1 X60.1286 Y8.4500 Z2.0000 F799.80
G2 X59.9961 Y8.4758 Z2.0000 I-0.0266 J0.2168 F799.80
G2 X60.1286 Y8.6500 Z2.0000 I0.0744 J0.0809 F799.80
G1 X61.3214 Y8.6500 Z2.0000 F799.80
G2 X61.4539 Y8.6242 Z2.0000 I0.0266 J-0.2168 F799.80
G1 X61.4539 Y8.6242 Z1.7000 F399.60
G2 X61.3214 Y8.4500 Z1.7000 I-0.0744 J-0.0809 F799.80
G1 X60.1286 Y8.4500 Z1.7000 F799.80
G2 X59.9961 Y8.4758 Z1.7000 I-0.0266 J0.2168 F799.80
G2 X60.1286 Y8.6500 Z1.7000 I0.0744 J0.0809 F799.80
G1 X61.3214 Y8.6500 Z1.7000 F799.80
G2 X61.4539 Y8.6242 Z1.7000 I0.0266 J-0.2168 F799.80
G1 X61.4539 Y8.6242 Z1.4000 F399.60
G2 X61.3214 Y8.4500 Z1.4000 I-0.0744 J-0.0809 F799.80
G1 X60.1286 Y8.4500 Z1.4000 F799.80
G2 X59.9961 Y8.4758 Z1.4000 I-0.0266 J0.2168 F799.80
G2 X60.1286 Y8.6500 Z1.4000 I0.0744 J0.0809 F799.80
G1 X61.3214 Y8.6500 Z1.4000 F799.80
G2 X61.4539 Y8.6242 Z1.4000 I0.0266 J-0.2168 F799.80
G1 X61.4539 Y8.6242 Z1.1000 F399.60
G2 X61.3214 Y8.4500 Z1.1000 I-0.0744 J-0.0809 F799.80
G1 X60.1286 Y8.4500 Z1.1000 F799.80
G2 X59.9961 Y8.4758 Z1.1000 I-0.0266 J0.2168 F799.80
G2 X60.1286 Y8.6500 Z1.1000 I0.0744 J0.0809 F799.80
G1 X61.3214 Y8.6500 Z1.1000 F799.80
G2 X61.4539 Y8.6242 Z1.1000 I0.0266 J-0.2168 F799.80
G1 X61.4539 Y8.6242 Z0.8000 F399.60
G2 X61.3214 Y8.4500 Z0.8000 I-0.0744 J-0.0809 F799.80
G1 X60.1286 Y8.4500 Z0.8000 F799.80
G2 X59.9961 Y8.4758 Z0.8000 I-0.0266 J0.2168 F799.80
G2 X60.1286 Y8.6500 Z0.8000 I0.0744 J0.0809 F799.80
G1 X61.3214 Y8.6500 Z0.8000 F799.80
G2 X61.4539 Y8.6242 Z0.8000 I0.0266 J-0.2168 F799.80
G1 X61.4539 Y8.6242 Z0.5000 F399.60
G2 X61.3214 Y8.4500 Z0.5000 I-0.0744 J-0.0809 F799.80
G1 X60.1286 Y8.4500 Z0.5000 F799.80
G2 X59.9961 Y8.4758 Z0.5000 I-0.0266 J0.2168 F799.80
G2 X60.1286 Y8.6500 Z0.5000 I0.0744 J0.0809 F799.80
G1 X61.3214 Y8.6500 Z0.5000 F799.80
G2 X61.4539 Y8.6242 Z0.5000 I0.0266 J-0.2168 F799.80
G1 X61.4539 Y8.6242 Z0.2000 F399.60
G2 X61.3214 Y8.4500 Z0.2000 I-0.0744 J-0.0809 F799.80
G1 X60.1286 Y8.4500 Z0.2000 F799.80
G2 X59.9961 Y8.4758 Z0.2000 I-0.0266 J0.2168 F799.80
G2 X60.1286 Y8.6500 Z0.2000 I0.0744 J0.0809 F799.80
G1 X61.3214 Y8.6500 Z0.2000 F799.80
G2 X61.4539 Y8.6242 Z0.2000 I0.0266 J-0.2168 F799.80
G1 X61.4539 Y8.6242 Z-0.1000 F399.60
G2 X61.3214 Y8.4500 Z-0.1000 I-0.0744 J-0.0809 F799.80
G1 X60.1286 Y8.4500 Z-0.1000 F799.80
G2 X59.9961 Y8.4758 Z-0.1000 I-0.0266 J0.2168 F799.80
G2 X60.1286 Y8.6500 Z-0.1000 I0.0744 J0.0809 F799.80
G1 X61.3214 Y8.6500 Z-0.1000 F799.80
G2 X61.4539 Y8.6242 Z-0.1000 I0.0266 J-0.2168 F799.80
G1 X61.4539 Y8.6242 Z-0.2000 F399.60
G2 X61.3214 Y8.4500 Z-0.2000 I-0.0744 J-0.0809 F799.80
G1 X60.1286 Y8.4500 Z-0.2000 F799.80
G2 X59.9961 Y8.4758 Z-0.2000 I-0.0266 J0.2168 F799.80
G2 X60.1286 Y8.6500 Z-0.2000 I0.0744 J0.0809 F799.80
G1 X61.3214 Y8.6500 Z-0.2000 F799.80
G2 X61.4539 Y8.6242 Z-0.2000 I0.0266 J-0.2168 F799.80
G0 Z8.0000
G0 X56.5344 Y5.0072
G0 Z6.0000
G1 X56.5344 Y5.0072 Z2.9000 F399.60
G2 X56.5500 Y4.8714 Z2.9000 I-0.0777 J-0.0777 F799.80
G1 X56.5500 Y3.6786 Z2.9000 F799.80
G2 X56.4959 Y3.5206 Z2.9000 I-0.1440 J-0.0390 F799.80
G2 X56.3500 Y3.6786 Z2.9000 I-0.0459 J0.1040 F799.80
G1 X56.3500 Y4.8714 Z2.9000 F799.80
G2 X56.3758 Y5.0039 Z2.9000 I0.2168 J0.0266 F799.80
G2 X56.5344 Y5.0072 Z2.9000 I0.0809 J-0.0744 F799.80
G1 X56.5344 Y5.0072 Z2.6000 F399.60
G2 X56.5500 Y4.8714 Z2.6000 I-0.0777 J-0.0777 F799.80
G1 X56.5500 Y3.6786 Z2.6000 F799.80
G2 X56.4959 Y3.5206 Z2.6000 I-0.1440 J-0.0390 F799.80
G2 X56.3500 Y3.6786 Z2.6000 I-0.0459 J0.1040 F799.80
G1 X56.3500 Y4.8714 Z2.6000 F799.80
G2 X56.3758 Y5.0039 Z2.6000 I0.2168 J0.0266 F799.80
G2 X56.5344 Y5.0072 Z2.6000 I0.0809 J-0.0744 F799.80
G1 X56.5344 Y5.0072 Z2.3000 F399.60
G2 X56.5500 Y4.8714 Z2.3000 I-0.0777 J-0.0777 F799.80
G1 X56.5500 Y3.6786 Z2.3000 F799.80
G2 X56.4959 Y3.5206 Z2.3000 I-0.1440 J-0.0390 F799.80
G2 X56.3500 Y3.6786 Z2.3000 I-0.0459 J0.1040 F799.80
G1 X56.3500 Y4.8714 Z2.3000 F799.80
G2 X56.3758 Y5.0039 Z2.3000 I0.2168 J0.0266 F799.80
G2 X56.5344 Y5.0072 Z2.3000 I0.0809 J-0.0744 F799.80
G1 X56.5344 Y5.0072 Z2.0000 F399.60
G2 X56.5500 Y4.8714 Z2.0000 I-0.0777 J-0.0777 F799.80
G1 X56.5500 Y3.6786 Z2.0000 F799.80
G2 X56.4959 Y3.5206 Z2.0000 I-0.1440 J-0.0390 F799.80
G2 X56.3500 Y3.6786 Z2.0000 I-0.0459 J0.1040 F799.80
G1 X56.3500 Y4.8714 Z2.0000 F799.80
G2 X56.3758 Y5.0039 Z2.0000 I0.2168 J0.0266 F799.80
G2 X56.5344 Y5.0072 Z2.0000 I0.0809 J-0.0744 F799.80
G1 X56.5344 Y5.0072 Z1.7000 F399.60
G2 X56.5500 Y4.8714 Z1.7000 I-0.0777 J-0.0777 F799.80
G1 X56.5500 Y3.6786 Z1.7000 F799.80
G2 X56.4959 Y3.5206 Z1.7000 I-0.1440 J-0.0390 F799.80
G2 X56.3500 Y3.6786 Z1.7000 I-0.0459 J0.1040 F799.80
G1 X56.3500 Y4.8714 Z1.7000 F799.80
G2 X56.3758 Y5.0039 Z1.7000 I0.2168 J0.0266 F799.80
G2 X56.5344 Y5.0072 Z1.7000 I0.0809 J-0.0744 F799.80
G1 X56.5344 Y5.0072 Z1.4000 F399.60
G2 X56.5500 Y4.8714 Z1.4000 I-0.0777 J-0.0777 F799.80
G1 X56.5500 Y3.6786 Z1.4000 F799.80
G2 X56.4959 Y3.5206 Z1.4000 I-0.1440 J-0.0390 F799.80
G2 X56.3500 Y3.6786 Z1.4000 I-0.0459 J0.1040 F799.80
G1 X56.3500 Y4.8714 Z1.4000 F799.80
G2 X56.3758 Y5.0039 Z1.4000 I0.2168 J0.0266 F799.80
G2 X56.5344 Y5.0072 Z1.4000 I0.0809 J-0.0744 F799.80
G1 X56.5344 Y5.0072 Z1.1000 F399.60
G2 X56.5500 Y4.8714 Z1.1000 I-0.0777 J-0.0777 F799.80
G1 X56.5500 Y3.6786 Z1.1000 F799.80
G2 X56.4959 Y3.5206 Z1.1000 I-0.1440 J-0.0390 F799.80
G2 X56.3500 Y3.6786 Z1.1000 I-0.0459 J0.1040 F799.80
G1 X56.3500 Y4.8714 Z1.1000 F799.80
G2 X56.3758 Y5.0039 Z1.1000 I0.2168 J0.0266 F799.80
G2 X56.5344 Y5.0072 Z1.1000 I0.0809 J-0.0744 F799.80
G1 X56.5344 Y5.0072 Z0.8000 F399.60
G2 X56.5500 Y4.8714 Z0.8000 I-0.0777 J-0.0777 F799.80
G1 X56.5500 Y3.6786 Z0.8000 F799.80
G2 X56.4959 Y3.5206 Z0.8000 I-0.1440 J-0.0390 F799.80
G2 X56.3500 Y3.6786 Z0.8000 I-0.0459 J0.1040 F799.80
G1 X56.3500 Y4.8714 Z0.8000 F799.80
G2 X56.3758 Y5.0039 Z0.8000 I0.2168 J0.0266 F799.80
G2 X56.5344 Y5.0072 Z0.8000 I0.0809 J-0.0744 F799.80
G1 X56.5344 Y5.0072 Z0.5000 F399.60
G2 X56.5500 Y4.8714 Z0.5000 I-0.0777 J-0.0777 F799.80
G1 X56.5500 Y3.6786 Z0.5000 F799.80
G2 X56.4959 Y3.5206 Z0.5000 I-0.1440 J-0.0390 F799.80
G2 X56.3500 Y3.6786 Z0.5000 I-0.0459 J0.1040 F799.80
G1 X56.3500 Y4.8714 Z0.5000 F799.80
G2 X56.3758 Y5.0039 Z0.5000 I0.2168 J0.0266 F799.80
G2 X56.5344 Y5.0072 Z0.5000 I0.0809 J-0.0744 F799.80
G1 X56.5344 Y5.0072 Z0.2000 F399.60
G2 X56.5500 Y4.8714 Z0.2000 I-0.0777 J-0.0777 F799.80
G1 X56.5500 Y3.6786 Z0.2000 F799.80
G2 X56.4959 Y3.5206 Z0.2000 I-0.1440 J-0.0390 F799.80
G2 X56.3500 Y3.6786 Z0.2000 I-0.0459 J0.1040 F799.80
G1 X56.3500 Y4.8714 Z0.2000 F799.80
G2 X56.3758 Y5.0039 Z0.2000 I0.2168 J0.0266 F799.80
G2 X56.5344 Y5.0072 Z0.2000 I0.0809 J-0.0744 F799.80
G1 X56.5344 Y5.0072 Z-0.1000 F399.60
G2 X56.5500 Y4.8714 Z-0.1000 I-0.0777 J-0.0777 F799.80
G1 X56.5500 Y3.6786 Z-0.1000 F799.80
G2 X56.4959 Y3.5206 Z-0.1000 I-0.1440 J-0.0390 F799.80
G2 X56.3500 Y3.6786 Z-0.1000 I-0.0459 J0.1040 F799.80
G1 X56.3500 Y4.8714 Z-0.1000 F799.80
G2 X56.3758 Y5.0039 Z-0.1000 I0.2168 J0.0266 F799.80
G2 X56.5344 Y5.0072 Z-0.1000 I0.0809 J-0.0744 F799.80
G1 X56.5344 Y5.0072 Z-0.2000 F399.60
G2 X56.5500 Y4.8714 Z-0.2000 I-0.0777 J-0.0777 F799.80
G1 X56.5500 Y3.6786 Z-0.2000 F799.80
G2 X56.4959 Y3.5206 Z-0.2000 I-0.1440 J-0.0390 F799.80
G2 X56.3500 Y3.6786 Z-0.2000 I-0.0459 J0.1040 F799.80
G1 X56.3500 Y4.8714 Z-0.2000 F799.80
G2 X56.3758 Y5.0039 Z-0.2000 I0.2168 J0.0266 F799.80
G2 X56.5344 Y5.0072 Z-0.2000 I0.0809 J-0.0744 F799.80
G0 Z8.0000
G0 X52.9046 Y8.6245
G0 Z6.0000
G1 X52.9015 Y8.6271 Z2.9000 F399.60
G2 X52.7763 Y8.4500 Z2.9000 I-0.0687 J-0.0842 F799.80
G1 X51.5786 Y8.4500 Z2.9000 F799.80
G2 X51.4461 Y8.4758 Z2.9000 I-0.0266 J0.2168 F799.80
G2 X51.5786 Y8.6500 Z2.9000 I0.0744 J0.0809 F799.80
G1 X52.7763 Y8.6500 Z2.9000 F799.80
G2 X52.9015 Y8.6271 Z2.9000 I0.0249 J-0.2178 F799.80
G1 X52.9015 Y8.6271 Z2.6000 F399.60
G2 X52.7763 Y8.4500 Z2.6000 I-0.0687 J-0.0842 F799.80
G1 X51.5786 Y8.4500 Z2.6000 F799.80
G2 X51.4461 Y8.4758 Z2.6000 I-0.0266 J0.2168 F799.80
G2 X51.5786 Y8.6500 Z2.6000 I0.0744 J0.0809 F799.80
G1 X52.7763 Y8.6500 Z2.6000 F799.80
G2 X52.9015 Y8.6271 Z2.6000 I0.0249 J-0.2178 F799.80
G1 X52.9015 Y8.6271 Z2.3000 F399.60
G2 X52.7763 Y8.4500 Z2.3000 I-0.0687 J-0.0842 F799.80
G1 X51.5786 Y8.4500 Z2.3000 F799.80
G2 X51.4461 Y8.4758 Z2.3000 I-0.0266 J0.2168 F799.80
G2 X51.5786 Y8.6500 Z2.3000 I0.0744 J0.0809 F799.80
G1 X52.7763 Y8.6500 Z2.3000 F799.80
G2 X52.9015 Y8.6271 Z2.3000 I0.0249 J-0.2178 F799.80
G1 X52.9015 Y8.6271 Z2.0000 F399.60
G2 X52.7763 Y8.4500 Z2.0000 I-0.0687 J-0.0842 F799.80
G1 X51.5786 Y8.4500 Z2.0000 F799.80
G2 X51.4461 Y8.4758 Z2.0000 I-0.0266 J0.2168 F799.80
G2 X51.5786 Y8.6500 Z2.0000 I0.0744 J0.0809 F799.80
G1 X52.7763 Y8.6500 Z2.0000 F799.80
G2 X52.9015 Y8.6271 Z2.0000 I0.0249 J-0.2178 F799.80
G1 X52.9015 Y8.6271 Z1.7000 F399.60
G2 X52.7763 Y8.4500 Z1.7000 I-0.0687 J-0.0842 F799.80
G1 X51.5786 Y8.4500 Z1.7000 F799.80
G2 X51.4461 Y8.4758 Z1.7000 I-0.0266 J0.2168 F799.80
G2 X51.5786 Y8.6500 Z1.7000 I0.0744 J0.0809 F799.80
G1 X52.7763 Y8.6500 Z1.7000 F799.80
G2 X52.9015 Y8.6271 Z1.7000 I0.0249 J-0.2178 F799.80
G1 X52.9015 Y8.6271 Z1.4000 F399.60
G2 X52.7763 Y8.4500 Z1.4000 I-0.0687 J-0.0842 F799.80
G1 X51.5786 Y8.4500 Z1.4000 F799.80
G2 X51.4461 Y8.4758 Z1.4000 I-0.0266 J0.2168 F799.80
G2 X51.5786 Y8.6500 Z1.4000 I0.0744 J0.0809 F799.80
G1 X52.7763 Y8.6500 Z1.4000 F799.80
G2 X52.9015 Y8.6271 Z1.4000 I0.0249 J-0.2178 F799.80
G1 X52.9015 Y8.6271 Z1.1000 F399.60
G2 X52.7763 Y8.4500 Z1.1000 I-0.0687 J-0.0842 F799.80
G1 X51.5786 Y8.4500 Z1.1000 F799.80
G2 X51.4461 Y8.4758 Z1.1000 I-0.0266 J0.2168 F799.80
G2 X51.5786 Y8.6500 Z1.1000 I0.0744 J0.0809 F799.80
G1 X52.7763 Y8.6500 Z1.1000 F799.80
G2 X52.9015 Y8.6271 Z1.1000 I0.0249 J-0.2178 F799.80
G1 X52.9015 Y8.6271 Z0.8000 F399.60
G2 X52.7763 Y8.4500 Z0.8000 I-0.0687 J-0.0842 F799.80
G1 X51.5786 Y8.4500 Z0.8000 F799.80
G2 X51.4461 Y8.4758 Z0.8000 I-0.0266 J0.2168 F799.80
G2 X51.5786 Y8.6500 Z0.8000 I0.0744 J0.0809 F799.80
G1 X52.7763 Y8.6500 Z0.8000 F799.80
G2 X52.9015 Y8.6271 Z0.8000 I0.0249 J-0.2178 F799.80
G1 X52.9015 Y8.6271 Z0.5000 F399.60
G2 X52.7763 Y8.4500 Z0.5000 I-0.0687 J-0.0842 F799.80
G1 X51.5786 Y8.4500 Z0.5000 F799.80
G2 X51.4461 Y8.4758 Z0.5000 I-0.0266 J0.2168 F799.80
G2 X51.5786 Y8.6500 Z0.5000 I0.0744 J0.0809 F799.80
G1 X52.7763 Y8.6500 Z0.5000 F799.80
G2 X52.9015 Y8.6271 Z0.5000 I0.0249 J-0.2178 F799.80
G1 X52.9015 Y8.6271 Z0.2000 F399.60
G2 X52.7763 Y8.4500 Z0.2000 I-0.0687 J-0.0842 F799.80
G1 X51.5786 Y8.4500 Z0.2000 F799.80
G2 X51.4461 Y8.4758 Z0.2000 I-0.0266 J0.2168 F799.80
G2 X51.5786 Y8.6500 Z0.2000 I0.0744 J0.0809 F799.80
G1 X52.7763 Y8.6500 Z0.2000 F799.80
G2 X52.9015 Y8.6271 Z0.2000 I0.0249 J-0.2178 F799.80
G1 X52.9015 Y8.6271 Z-0.1000 F399.60
G2 X52.7763 Y8.4500 Z-0.1000 I-0.0687 J-0.0842 F799.80
G1 X51.5786 Y8.4500 Z-0.1000 F799.80
G2 X51.4461 Y8.4758 Z-0.1000 I-0.0266 J0.2168 F799.80
G2 X51.5786 Y8.6500 Z-0.1000 I0.0744 J0.0809 F799.80
G1 X52.7763 Y8.6500 Z-0.1000 F799.80
G2 X52.9015 Y8.6271 Z-0.1000 I0.0249 J-0.2178 F799.80
G1 X52.9015 Y8.6271 Z-0.2000 F399.60
G2 X52.7763 Y8.4500 Z-0.2000 I-0.0687 J-0.0842 F799.80
G1 X51.5786 Y8.4500 Z-0.2000 F799.80
G2 X51.4461 Y8.4758 Z-0.2000 I-0.0266 J0.2168 F799.80
G2 X51.5786 Y8.6500 Z-0.2000 I0.0744 J0.0809 F799.80
G1 X52.7763 Y8.6500 Z-0.2000 F799.80
G2 X52.9015 Y8.6271 Z-0.2000 I0.0249 J-0.2178 F799.80
G0 Z8.0000
(finish operation: Profile_Edges)
(begin operation: TagDressup001)
(Path: TagDressup001)
G0 Z8.0000
G0 X66.0607 Y18.1607 Z8.0000
G0 X66.0607 Y18.1607 Z6.0000
G1 X66.0607 Y18.1607 Z2.9000 F399.60
G3 X65.0000 Y18.6000 Z2.9000 I-1.0607 J-1.0607 F799.80
G1 X0.0000 Y18.6000 Z2.9000 F799.80
G3 X-1.5000 Y17.1000 Z2.9000 I0.0000 J-1.5000 F799.80
G1 X-1.5000 Y0.0000 Z2.9000 F799.80
G3 X-0.0000 Y-1.5000 Z2.9000 I1.5000 J0.0000 F799.80
G1 X65.0000 Y-1.5000 Z2.9000 F799.80
G3 X66.5000 Y0.0000 Z2.9000 I-0.0000 J1.5000 F799.80
G1 X66.5000 Y17.1000 Z2.9000 F799.80
G3 X66.0607 Y18.1607 Z2.9000 I-1.5000 J-0.0000 F799.80
G1 X66.0607 Y18.1607 Z2.6000 F399.60
G3 X65.0000 Y18.6000 Z2.6000 I-1.0607 J-1.0607 F799.80
G1 X0.0000 Y18.6000 Z2.6000 F799.80
G3 X-1.5000 Y17.1000 Z2.6000 I0.0000 J-1.5000 F799.80
G1 X-1.5000 Y0.0000 Z2.6000 F799.80
G3 X-0.0000 Y-1.5000 Z2.6000 I1.5000 J0.0000 F799.80
G1 X65.0000 Y-1.5000 Z2.6000 F799.80
G3 X66.5000 Y0.0000 Z2.6000 I-0.0000 J1.5000 F799.80
G1 X66.5000 Y17.1000 Z2.6000 F799.80
G3 X66.0607 Y18.1607 Z2.6000 I-1.5000 J-0.0000 F799.80
G1 X66.0607 Y18.1607 Z2.3000 F399.60
G3 X65.0000 Y18.6000 Z2.3000 I-1.0607 J-1.0607 F799.80
G1 X0.0000 Y18.6000 Z2.3000 F799.80
G3 X-1.5000 Y17.1000 Z2.3000 I0.0000 J-1.5000 F799.80
G1 X-1.5000 Y0.0000 Z2.3000 F799.80
G3 X-0.0000 Y-1.5000 Z2.3000 I1.5000 J0.0000 F799.80
G1 X65.0000 Y-1.5000 Z2.3000 F799.80
G3 X66.5000 Y0.0000 Z2.3000 I-0.0000 J1.5000 F799.80
G1 X66.5000 Y17.1000 Z2.3000 F799.80
G3 X66.0607 Y18.1607 Z2.3000 I-1.5000 J-0.0000 F799.80
G1 X66.0607 Y18.1607 Z2.0000 F399.60
G3 X65.0000 Y18.6000 Z2.0000 I-1.0607 J-1.0607 F799.80
G1 X0.0000 Y18.6000 Z2.0000 F799.80
G3 X-1.5000 Y17.1000 Z2.0000 I0.0000 J-1.5000 F799.80
G1 X-1.5000 Y0.0000 Z2.0000 F799.80
G3 X-0.0000 Y-1.5000 Z2.0000 I1.5000 J0.0000 F799.80
G1 X65.0000 Y-1.5000 Z2.0000 F799.80
G3 X66.5000 Y0.0000 Z2.0000 I-0.0000 J1.5000 F799.80
G1 X66.5000 Y17.1000 Z2.0000 F799.80
G3 X66.0607 Y18.1607 Z2.0000 I-1.5000 J-0.0000 F799.80
G1 X66.0607 Y18.1607 Z1.7000 F399.60
G3 X65.0000 Y18.6000 Z1.7000 I-1.0607 J-1.0607 F799.80
G1 X0.0000 Y18.6000 Z1.7000 F799.80
G3 X-1.5000 Y17.1000 Z1.7000 I0.0000 J-1.5000 F799.80
G1 X-1.5000 Y0.0000 Z1.7000 F799.80
G3 X-0.0000 Y-1.5000 Z1.7000 I1.5000 J0.0000 F799.80
G1 X65.0000 Y-1.5000 Z1.7000 F799.80
G3 X66.5000 Y0.0000 Z1.7000 I-0.0000 J1.5000 F799.80
G1 X66.5000 Y17.1000 Z1.7000 F799.80
G3 X66.0607 Y18.1607 Z1.7000 I-1.5000 J-0.0000 F799.80
G1 X66.0607 Y18.1607 Z1.4000 F399.60
G3 X65.0000 Y18.6000 Z1.4000 I-1.0607 J-1.0607 F799.80
G1 X0.0000 Y18.6000 Z1.4000 F799.80
G3 X-1.5000 Y17.1000 Z1.4000 I0.0000 J-1.5000 F799.80
G1 X-1.5000 Y0.0000 Z1.4000 F799.80
G3 X-0.0000 Y-1.5000 Z1.4000 I1.5000 J0.0000 F799.80
G1 X65.0000 Y-1.5000 Z1.4000 F799.80
G3 X66.5000 Y0.0000 Z1.4000 I-0.0000 J1.5000 F799.80
G1 X66.5000 Y17.1000 Z1.4000 F799.80
G3 X66.0607 Y18.1607 Z1.4000 I-1.5000 J-0.0000 F799.80
G1 X66.0607 Y18.1607 Z1.1000 F399.60
G3 X65.0000 Y18.6000 Z1.1000 I-1.0607 J-1.0607 F799.80
G1 X0.0000 Y18.6000 Z1.1000 F799.80
G3 X-1.5000 Y17.1000 Z1.1000 I0.0000 J-1.5000 F799.80
G1 X-1.5000 Y0.0000 Z1.1000 F799.80
G3 X-0.0000 Y-1.5000 Z1.1000 I1.5000 J0.0000 F799.80
G1 X65.0000 Y-1.5000 Z1.1000 F799.80
G3 X66.5000 Y0.0000 Z1.1000 I-0.0000 J1.5000 F799.80
G1 X66.5000 Y17.1000 Z1.1000 F799.80
G3 X66.0607 Y18.1607 Z1.1000 I-1.5000 J-0.0000 F799.80
G1 X66.0607 Y18.1607 Z0.8000 F399.60
G3 X65.0000 Y18.6000 Z0.8000 I-1.0607 J-1.0607 F799.80
G1 X0.0000 Y18.6000 Z0.8000 F799.80
G3 X-1.5000 Y17.1000 Z0.8000 I0.0000 J-1.5000 F799.80
G1 X-1.5000 Y0.0000 Z0.8000 F799.80
G3 X-0.0000 Y-1.5000 Z0.8000 I1.5000 J0.0000 F799.80
G1 X65.0000 Y-1.5000 Z0.8000 F799.80
G3 X66.5000 Y0.0000 Z0.8000 I-0.0000 J1.5000 F799.80
G1 X66.5000 Y17.1000 Z0.8000 F799.80
G3 X66.0607 Y18.1607 Z0.8000 I-1.5000 J-0.0000 F799.80
G1 X66.0607 Y18.1607 Z0.5000 F399.60
G3 X65.0000 Y18.6000 Z0.5000 I-1.0607 J-1.0607 F799.80
G1 X50.5420 Y18.6000 Z0.5000 F799.80
G1 X50.4420 Y18.6000 Z0.6000 F599.70
G1 X47.0580 Y18.6000 Z0.6000 F799.80
G1 X46.9580 Y18.6000 Z0.5000 F599.70
G1 X18.0420 Y18.6000 Z0.5000 F799.80
G1 X17.9420 Y18.6000 Z0.6000 F599.70
G1 X14.5580 Y18.6000 Z0.6000 F799.80
G1 X14.4580 Y18.6000 Z0.5000 F599.70
G1 X0.0000 Y18.6000 Z0.5000 F799.80
G3 X-1.5000 Y17.1000 Z0.5000 I0.0000 J-1.5000 F799.80
G1 X-1.5000 Y0.0000 Z0.5000 F799.80
G3 X-0.0000 Y-1.5000 Z0.5000 I1.5000 J0.0000 F799.80
G1 X14.4580 Y-1.5000 Z0.5000 F799.80
G1 X14.5580 Y-1.5000 Z0.6000 F599.70
G1 X17.9420 Y-1.5000 Z0.6000 F799.80
G1 X18.0420 Y-1.5000 Z0.5000 F599.70
G1 X46.9580 Y-1.5000 Z0.5000 F799.80
G1 X47.0580 Y-1.5000 Z0.6000 F599.70
G1 X50.4420 Y-1.5000 Z0.6000 F799.80
G1 X50.5420 Y-1.5000 Z0.5000 F599.70
G1 X65.0000 Y-1.5000 Z0.5000 F799.80
G3 X66.5000 Y0.0000 Z0.5000 I-0.0000 J1.5000 F799.80
G1 X66.5000 Y17.1000 Z0.5000 F799.80
G3 X66.0607 Y18.1607 Z0.5000 I-1.5000 J-0.0000 F799.80
G1 X66.0607 Y18.1607 Z0.2000 F399.60
G3 X65.0000 Y18.6000 Z0.2000 I-1.0607 J-1.0607 F799.80
G1 X50.8420 Y18.6000 Z0.2000 F799.80
G1 X50.4420 Y18.6000 Z0.6000 F599.70
G1 X47.0580 Y18.6000 Z0.6000 F799.80
G1 X46.6580 Y18.6000 Z0.2000 F599.70
G1 X18.3420 Y18.6000 Z0.2000 F799.80
G1 X17.9420 Y18.6000 Z0.6000 F599.70
G1 X14.5580 Y18.6000 Z0.6000 F799.80
G1 X14.1580 Y18.6000 Z0.2000 F599.70
G1 X0.0000 Y18.6000 Z0.2000 F799.80
G3 X-1.5000 Y17.1000 Z0.2000 I0.0000 J-1.5000 F799.80
G1 X-1.5000 Y0.0000 Z0.2000 F799.80
G3 X-0.0000 Y-1.5000 Z0.2000 I1.5000 J0.0000 F799.80
G1 X14.1580 Y-1.5000 Z0.2000 F799.80
G1 X14.5580 Y-1.5000 Z0.6000 F599.70
G1 X17.9420 Y-1.5000 Z0.6000 F799.80
G1 X18.3420 Y-1.5000 Z0.2000 F599.70
G1 X46.6580 Y-1.5000 Z0.2000 F799.80
G1 X47.0580 Y-1.5000 Z0.6000 F599.70
G1 X50.4420 Y-1.5000 Z0.6000 F799.80
G1 X50.8420 Y-1.5000 Z0.2000 F599.70
G1 X65.0000 Y-1.5000 Z0.2000 F799.80
G3 X66.5000 Y0.0000 Z0.2000 I-0.0000 J1.5000 F799.80
G1 X66.5000 Y17.1000 Z0.2000 F799.80
G3 X66.0607 Y18.1607 Z0.2000 I-1.5000 J-0.0000 F799.80
G1 X66.0607 Y18.1607 Z-0.1000 F399.60
G3 X65.0000 Y18.6000 Z-0.1000 I-1.0607 J-1.0607 F799.80
G1 X51.1420 Y18.6000 Z-0.1000 F799.80
G1 X50.4420 Y18.6000 Z0.6000 F599.70
G1 X47.0580 Y18.6000 Z0.6000 F799.80
G1 X46.3580 Y18.6000 Z-0.1000 F599.70
G1 X18.6420 Y18.6000 Z-0.1000 F799.80
G1 X17.9420 Y18.6000 Z0.6000 F599.70
G1 X14.5580 Y18.6000 Z0.6000 F799.80
G1 X13.8580 Y18.6000 Z-0.1000 F599.70
G1 X0.0000 Y18.6000 Z-0.1000 F799.80
G3 X-1.5000 Y17.1000 Z-0.1000 I0.0000 J-1.5000 F799.80
G1 X-1.5000 Y0.0000 Z-0.1000 F799.80
G3 X-0.0000 Y-1.5000 Z-0.1000 I1.5000 J0.0000 F799.80
G1 X13.8580 Y-1.5000 Z-0.1000 F799.80
G1 X14.5580 Y-1.5000 Z0.6000 F599.70
G1 X17.9420 Y-1.5000 Z0.6000 F799.80
G1 X18.6420 Y-1.5000 Z-0.1000 F599.70
G1 X46.3580 Y-1.5000 Z-0.1000 F799.80
G1 X47.0580 Y-1.5000 Z0.6000 F599.70
G1 X50.4420 Y-1.5000 Z0.6000 F799.80
G1 X51.1420 Y-1.5000 Z-0.1000 F599.70
G1 X65.0000 Y-1.5000 Z-0.1000 F799.80
G3 X66.5000 Y0.0000 Z-0.1000 I-0.0000 J1.5000 F799.80
G1 X66.5000 Y17.1000 Z-0.1000 F799.80
G3 X66.0607 Y18.1607 Z-0.1000 I-1.5000 J-0.0000 F799.80
G1 X66.0607 Y18.1607 Z-0.2000 F399.60
G3 X65.0000 Y18.6000 Z-0.2000 I-1.0607 J-1.0607 F799.80
G1 X51.2420 Y18.6000 Z-0.2000 F799.80
G1 X50.4420 Y18.6000 Z0.6000 F599.70
G1 X47.0580 Y18.6000 Z0.6000 F799.80
G1 X46.2580 Y18.6000 Z-0.2000 F599.70
G1 X18.7420 Y18.6000 Z-0.2000 F799.80
G1 X17.9420 Y18.6000 Z0.6000 F599.70
G1 X14.5580 Y18.6000 Z0.6000 F799.80
G1 X13.7580 Y18.6000 Z-0.2000 F599.70
G1 X0.0000 Y18.6000 Z-0.2000 F799.80
G3 X-1.5000 Y17.1000 Z-0.2000 I0.0000 J-1.5000 F799.80
G1 X-1.5000 Y0.0000 Z-0.2000 F799.80
G3 X-0.0000 Y-1.5000 Z-0.2000 I1.5000 J0.0000 F799.80
G1 X13.7580 Y-1.5000 Z-0.2000 F799.80
G1 X14.5580 Y-1.5000 Z0.6000 F599.70
G1 X17.9420 Y-1.5000 Z0.6000 F799.80
G1 X18.7420 Y-1.5000 Z-0.2000 F599.70
G1 X46.2580 Y-1.5000 Z-0.2000 F799.80
G1 X47.0580 Y-1.5000 Z0.6000 F599.70
G1 X50.4420 Y-1.5000 Z0.6000 F799.80
G1 X51.2420 Y-1.5000 Z-0.2000 F599.70
G1 X65.0000 Y-1.5000 Z-0.2000 F799.80
G3 X66.5000 Y0.0000 Z-0.2000 I-0.0000 J1.5000 F799.80
G1 X66.5000 Y17.1000 Z-0.2000 F799.80
G3 X66.0607 Y18.1607 Z-0.2000 I-1.5000 J-0.0000 F799.80
G0 X66.0607 Y18.1607 Z8.0000
(finish operation: TagDressup001)
(begin postamble)
M5
G17 G90
; M2
