(Exported by FreeCAD)
(Post Processor: grbl_post)
(Output Time:2020-02-08 19:39:13.601516)
(begin preamble)
G17 G90
G21
(begin operation: T3: AluminiumMill)
(Path: T3: AluminiumMill)
(T3: AluminiumMill)
(begin toolchange)
; M6 T3
M3 S17000.0000
(finish operation: T3: AluminiumMill)
(begin operation: Holes_Slits_First)
(Path: Holes_Slits_First)
(Holes_Slits_First)
(Compensated Tool Path. Diameter: 3.0)
G0 Z8.0000
G0 X5.5197 Y5.4197
G0 Z6.0000
G1 X5.5197 Y5.4197 Z2.9000 F399.60
G2 X5.6535 Y5.2144 Z2.9000 I-0.4197 J-0.4197 F799.80
G2 X5.3144 Y4.4465 Z2.9000 I-0.5535 J-0.2144 F799.80
G2 X4.5465 Y4.7856 Z2.9000 I-0.2144 J0.5535 F799.80
G2 X5.5197 Y5.4197 Z2.9000 I0.5535 J0.2144 F799.80
G1 X5.5197 Y5.4197 Z2.6000 F399.60
G2 X5.6535 Y5.2144 Z2.6000 I-0.4197 J-0.4197 F799.80
G2 X5.3144 Y4.4465 Z2.6000 I-0.5535 J-0.2144 F799.80
G2 X4.5465 Y4.7856 Z2.6000 I-0.2144 J0.5535 F799.80
G2 X5.5197 Y5.4197 Z2.6000 I0.5535 J0.2144 F799.80
G1 X5.5197 Y5.4197 Z2.3000 F399.60
G2 X5.6535 Y5.2144 Z2.3000 I-0.4197 J-0.4197 F799.80
G2 X5.3144 Y4.4465 Z2.3000 I-0.5535 J-0.2144 F799.80
G2 X4.5465 Y4.7856 Z2.3000 I-0.2144 J0.5535 F799.80
G2 X5.5197 Y5.4197 Z2.3000 I0.5535 J0.2144 F799.80
G1 X5.5197 Y5.4197 Z2.0000 F399.60
G2 X5.6535 Y5.2144 Z2.0000 I-0.4197 J-0.4197 F799.80
G2 X5.3144 Y4.4465 Z2.0000 I-0.5535 J-0.2144 F799.80
G2 X4.5465 Y4.7856 Z2.0000 I-0.2144 J0.5535 F799.80
G2 X5.5197 Y5.4197 Z2.0000 I0.5535 J0.2144 F799.80
G1 X5.5197 Y5.4197 Z1.7000 F399.60
G2 X5.6535 Y5.2144 Z1.7000 I-0.4197 J-0.4197 F799.80
G2 X5.3144 Y4.4465 Z1.7000 I-0.5535 J-0.2144 F799.80
G2 X4.5465 Y4.7856 Z1.7000 I-0.2144 J0.5535 F799.80
G2 X5.5197 Y5.4197 Z1.7000 I0.5535 J0.2144 F799.80
G1 X5.5197 Y5.4197 Z1.4000 F399.60
G2 X5.6535 Y5.2144 Z1.4000 I-0.4197 J-0.4197 F799.80
G2 X5.3144 Y4.4465 Z1.4000 I-0.5535 J-0.2144 F799.80
G2 X4.5465 Y4.7856 Z1.4000 I-0.2144 J0.5535 F799.80
G2 X5.5197 Y5.4197 Z1.4000 I0.5535 J0.2144 F799.80
G1 X5.5197 Y5.4197 Z1.1000 F399.60
G2 X5.6535 Y5.2144 Z1.1000 I-0.4197 J-0.4197 F799.80
G2 X5.3144 Y4.4465 Z1.1000 I-0.5535 J-0.2144 F799.80
G2 X4.5465 Y4.7856 Z1.1000 I-0.2144 J0.5535 F799.80
G2 X5.5197 Y5.4197 Z1.1000 I0.5535 J0.2144 F799.80
G1 X5.5197 Y5.4197 Z0.8000 F399.60
G2 X5.6535 Y5.2144 Z0.8000 I-0.4197 J-0.4197 F799.80
G2 X5.3144 Y4.4465 Z0.8000 I-0.5535 J-0.2144 F799.80
G2 X4.5465 Y4.7856 Z0.8000 I-0.2144 J0.5535 F799.80
G2 X5.5197 Y5.4197 Z0.8000 I0.5535 J0.2144 F799.80
G1 X5.5197 Y5.4197 Z0.5000 F399.60
G2 X5.6535 Y5.2144 Z0.5000 I-0.4197 J-0.4197 F799.80
G2 X5.3144 Y4.4465 Z0.5000 I-0.5535 J-0.2144 F799.80
G2 X4.5465 Y4.7856 Z0.5000 I-0.2144 J0.5535 F799.80
G2 X5.5197 Y5.4197 Z0.5000 I0.5535 J0.2144 F799.80
G1 X5.5197 Y5.4197 Z0.2000 F399.60
G2 X5.6535 Y5.2144 Z0.2000 I-0.4197 J-0.4197 F799.80
G2 X5.3144 Y4.4465 Z0.2000 I-0.5535 J-0.2144 F799.80
G2 X4.5465 Y4.7856 Z0.2000 I-0.2144 J0.5535 F799.80
G2 X5.5197 Y5.4197 Z0.2000 I0.5535 J0.2144 F799.80
G1 X5.5197 Y5.4197 Z-0.1000 F399.60
G2 X5.6535 Y5.2144 Z-0.1000 I-0.4197 J-0.4197 F799.80
G2 X5.3144 Y4.4465 Z-0.1000 I-0.5535 J-0.2144 F799.80
G2 X4.5465 Y4.7856 Z-0.1000 I-0.2144 J0.5535 F799.80
G2 X5.5197 Y5.4197 Z-0.1000 I0.5535 J0.2144 F799.80
G1 X5.5197 Y5.4197 Z-0.2000 F399.60
G2 X5.6535 Y5.2144 Z-0.2000 I-0.4197 J-0.4197 F799.80
G2 X5.3144 Y4.4465 Z-0.2000 I-0.5535 J-0.2144 F799.80
G2 X4.5465 Y4.7856 Z-0.2000 I-0.2144 J0.5535 F799.80
G2 X5.5197 Y5.4197 Z-0.2000 I0.5535 J0.2144 F799.80
G0 Z8.0000
G0 X15.1125 Y5.1764
G0 Z6.0000
G1 X15.1125 Y5.1764 Z2.9000 F399.60
G2 X14.8714 Y4.7500 Z2.9000 I-0.1740 J-0.1830 F799.80
G1 X12.0286 Y4.7500 Z2.9000 F799.80
G2 X11.8517 Y4.7792 Z2.9000 I-0.0199 J0.4308 F799.80
G2 X12.0286 Y5.2500 Z2.9000 I0.1097 J0.2274 F799.80
G1 X14.8714 Y5.2500 Z2.9000 F799.80
G2 X15.0483 Y5.2208 Z2.9000 I0.0199 J-0.4308 F799.80
G2 X15.1125 Y5.1764 Z2.9000 I-0.1097 J-0.2274 F799.80
G1 X15.1125 Y5.1764 Z2.6000 F399.60
G2 X14.8714 Y4.7500 Z2.6000 I-0.1740 J-0.1830 F799.80
G1 X12.0286 Y4.7500 Z2.6000 F799.80
G2 X11.8517 Y4.7792 Z2.6000 I-0.0199 J0.4308 F799.80
G2 X12.0286 Y5.2500 Z2.6000 I0.1097 J0.2274 F799.80
G1 X14.8714 Y5.2500 Z2.6000 F799.80
G2 X15.0483 Y5.2208 Z2.6000 I0.0199 J-0.4308 F799.80
G2 X15.1125 Y5.1764 Z2.6000 I-0.1097 J-0.2274 F799.80
G1 X15.1125 Y5.1764 Z2.3000 F399.60
G2 X14.8714 Y4.7500 Z2.3000 I-0.1740 J-0.1830 F799.80
G1 X12.0286 Y4.7500 Z2.3000 F799.80
G2 X11.8517 Y4.7792 Z2.3000 I-0.0199 J0.4308 F799.80
G2 X12.0286 Y5.2500 Z2.3000 I0.1097 J0.2274 F799.80
G1 X14.8714 Y5.2500 Z2.3000 F799.80
G2 X15.0483 Y5.2208 Z2.3000 I0.0199 J-0.4308 F799.80
G2 X15.1125 Y5.1764 Z2.3000 I-0.1097 J-0.2274 F799.80
G1 X15.1125 Y5.1764 Z2.0000 F399.60
G2 X14.8714 Y4.7500 Z2.0000 I-0.1740 J-0.1830 F799.80
G1 X12.0286 Y4.7500 Z2.0000 F799.80
G2 X11.8517 Y4.7792 Z2.0000 I-0.0199 J0.4308 F799.80
G2 X12.0286 Y5.2500 Z2.0000 I0.1097 J0.2274 F799.80
G1 X14.8714 Y5.2500 Z2.0000 F799.80
G2 X15.0483 Y5.2208 Z2.0000 I0.0199 J-0.4308 F799.80
G2 X15.1125 Y5.1764 Z2.0000 I-0.1097 J-0.2274 F799.80
G1 X15.1125 Y5.1764 Z1.7000 F399.60
G2 X14.8714 Y4.7500 Z1.7000 I-0.1740 J-0.1830 F799.80
G1 X12.0286 Y4.7500 Z1.7000 F799.80
G2 X11.8517 Y4.7792 Z1.7000 I-0.0199 J0.4308 F799.80
G2 X12.0286 Y5.2500 Z1.7000 I0.1097 J0.2274 F799.80
G1 X14.8714 Y5.2500 Z1.7000 F799.80
G2 X15.0483 Y5.2208 Z1.7000 I0.0199 J-0.4308 F799.80
G2 X15.1125 Y5.1764 Z1.7000 I-0.1097 J-0.2274 F799.80
G1 X15.1125 Y5.1764 Z1.4000 F399.60
G2 X14.8714 Y4.7500 Z1.4000 I-0.1740 J-0.1830 F799.80
G1 X12.0286 Y4.7500 Z1.4000 F799.80
G2 X11.8517 Y4.7792 Z1.4000 I-0.0199 J0.4308 F799.80
G2 X12.0286 Y5.2500 Z1.4000 I0.1097 J0.2274 F799.80
G1 X14.8714 Y5.2500 Z1.4000 F799.80
G2 X15.0483 Y5.2208 Z1.4000 I0.0199 J-0.4308 F799.80
G2 X15.1125 Y5.1764 Z1.4000 I-0.1097 J-0.2274 F799.80
G1 X15.1125 Y5.1764 Z1.1000 F399.60
G2 X14.8714 Y4.7500 Z1.1000 I-0.1740 J-0.1830 F799.80
G1 X12.0286 Y4.7500 Z1.1000 F799.80
G2 X11.8517 Y4.7792 Z1.1000 I-0.0199 J0.4308 F799.80
G2 X12.0286 Y5.2500 Z1.1000 I0.1097 J0.2274 F799.80
G1 X14.8714 Y5.2500 Z1.1000 F799.80
G2 X15.0483 Y5.2208 Z1.1000 I0.0199 J-0.4308 F799.80
G2 X15.1125 Y5.1764 Z1.1000 I-0.1097 J-0.2274 F799.80
G1 X15.1125 Y5.1764 Z0.8000 F399.60
G2 X14.8714 Y4.7500 Z0.8000 I-0.1740 J-0.1830 F799.80
G1 X12.0286 Y4.7500 Z0.8000 F799.80
G2 X11.8517 Y4.7792 Z0.8000 I-0.0199 J0.4308 F799.80
G2 X12.0286 Y5.2500 Z0.8000 I0.1097 J0.2274 F799.80
G1 X14.8714 Y5.2500 Z0.8000 F799.80
G2 X15.0483 Y5.2208 Z0.8000 I0.0199 J-0.4308 F799.80
G2 X15.1125 Y5.1764 Z0.8000 I-0.1097 J-0.2274 F799.80
G1 X15.1125 Y5.1764 Z0.5000 F399.60
G2 X14.8714 Y4.7500 Z0.5000 I-0.1740 J-0.1830 F799.80
G1 X12.0286 Y4.7500 Z0.5000 F799.80
G2 X11.8517 Y4.7792 Z0.5000 I-0.0199 J0.4308 F799.80
G2 X12.0286 Y5.2500 Z0.5000 I0.1097 J0.2274 F799.80
G1 X14.8714 Y5.2500 Z0.5000 F799.80
G2 X15.0483 Y5.2208 Z0.5000 I0.0199 J-0.4308 F799.80
G2 X15.1125 Y5.1764 Z0.5000 I-0.1097 J-0.2274 F799.80
G1 X15.1125 Y5.1764 Z0.2000 F399.60
G2 X14.8714 Y4.7500 Z0.2000 I-0.1740 J-0.1830 F799.80
G1 X12.0286 Y4.7500 Z0.2000 F799.80
G2 X11.8517 Y4.7792 Z0.2000 I-0.0199 J0.4308 F799.80
G2 X12.0286 Y5.2500 Z0.2000 I0.1097 J0.2274 F799.80
G1 X14.8714 Y5.2500 Z0.2000 F799.80
G2 X15.0483 Y5.2208 Z0.2000 I0.0199 J-0.4308 F799.80
G2 X15.1125 Y5.1764 Z0.2000 I-0.1097 J-0.2274 F799.80
G1 X15.1125 Y5.1764 Z-0.1000 F399.60
G2 X14.8714 Y4.7500 Z-0.1000 I-0.1740 J-0.1830 F799.80
G1 X12.0286 Y4.7500 Z-0.1000 F799.80
G2 X11.8517 Y4.7792 Z-0.1000 I-0.0199 J0.4308 F799.80
G2 X12.0286 Y5.2500 Z-0.1000 I0.1097 J0.2274 F799.80
G1 X14.8714 Y5.2500 Z-0.1000 F799.80
G2 X15.0483 Y5.2208 Z-0.1000 I0.0199 J-0.4308 F799.80
G2 X15.1125 Y5.1764 Z-0.1000 I-0.1097 J-0.2274 F799.80
G1 X15.1125 Y5.1764 Z-0.2000 F399.60
G2 X14.8714 Y4.7500 Z-0.2000 I-0.1740 J-0.1830 F799.80
G1 X12.0286 Y4.7500 Z-0.2000 F799.80
G2 X11.8517 Y4.7792 Z-0.2000 I-0.0199 J0.4308 F799.80
G2 X12.0286 Y5.2500 Z-0.2000 I0.1097 J0.2274 F799.80
G1 X14.8714 Y5.2500 Z-0.2000 F799.80
G2 X15.0483 Y5.2208 Z-0.2000 I0.0199 J-0.4308 F799.80
G2 X15.1125 Y5.1764 Z-0.2000 I-0.1097 J-0.2274 F799.80
G0 Z8.0000
(finish operation: Holes_Slits_First)
(begin operation: Holes_Slits_Repeat)
(Path: Holes_Slits_Repeat)
(Holes_Slits_First)
(Compensated Tool Path. Diameter: 3.0)
G0 Z8.0000
G0 X5.5197 Y25.4197
G0 Z6.0000
G1 X5.5197 Y25.4197 Z2.9000 F399.60
G2 X5.6535 Y25.2144 Z2.9000 I-0.4197 J-0.4197 F799.80
G2 X5.3144 Y24.4465 Z2.9000 I-0.5535 J-0.2144 F799.80
G2 X4.5465 Y24.7856 Z2.9000 I-0.2144 J0.5535 F799.80
G2 X5.5197 Y25.4197 Z2.9000 I0.5535 J0.2144 F799.80
G1 X5.5197 Y25.4197 Z2.6000 F399.60
G2 X5.6535 Y25.2144 Z2.6000 I-0.4197 J-0.4197 F799.80
G2 X5.3144 Y24.4465 Z2.6000 I-0.5535 J-0.2144 F799.80
G2 X4.5465 Y24.7856 Z2.6000 I-0.2144 J0.5535 F799.80
G2 X5.5197 Y25.4197 Z2.6000 I0.5535 J0.2144 F799.80
G1 X5.5197 Y25.4197 Z2.3000 F399.60
G2 X5.6535 Y25.2144 Z2.3000 I-0.4197 J-0.4197 F799.80
G2 X5.3144 Y24.4465 Z2.3000 I-0.5535 J-0.2144 F799.80
G2 X4.5465 Y24.7856 Z2.3000 I-0.2144 J0.5535 F799.80
G2 X5.5197 Y25.4197 Z2.3000 I0.5535 J0.2144 F799.80
G1 X5.5197 Y25.4197 Z2.0000 F399.60
G2 X5.6535 Y25.2144 Z2.0000 I-0.4197 J-0.4197 F799.80
G2 X5.3144 Y24.4465 Z2.0000 I-0.5535 J-0.2144 F799.80
G2 X4.5465 Y24.7856 Z2.0000 I-0.2144 J0.5535 F799.80
G2 X5.5197 Y25.4197 Z2.0000 I0.5535 J0.2144 F799.80
G1 X5.5197 Y25.4197 Z1.7000 F399.60
G2 X5.6535 Y25.2144 Z1.7000 I-0.4197 J-0.4197 F799.80
G2 X5.3144 Y24.4465 Z1.7000 I-0.5535 J-0.2144 F799.80
G2 X4.5465 Y24.7856 Z1.7000 I-0.2144 J0.5535 F799.80
G2 X5.5197 Y25.4197 Z1.7000 I0.5535 J0.2144 F799.80
G1 X5.5197 Y25.4197 Z1.4000 F399.60
G2 X5.6535 Y25.2144 Z1.4000 I-0.4197 J-0.4197 F799.80
G2 X5.3144 Y24.4465 Z1.4000 I-0.5535 J-0.2144 F799.80
G2 X4.5465 Y24.7856 Z1.4000 I-0.2144 J0.5535 F799.80
G2 X5.5197 Y25.4197 Z1.4000 I0.5535 J0.2144 F799.80
G1 X5.5197 Y25.4197 Z1.1000 F399.60
G2 X5.6535 Y25.2144 Z1.1000 I-0.4197 J-0.4197 F799.80
G2 X5.3144 Y24.4465 Z1.1000 I-0.5535 J-0.2144 F799.80
G2 X4.5465 Y24.7856 Z1.1000 I-0.2144 J0.5535 F799.80
G2 X5.5197 Y25.4197 Z1.1000 I0.5535 J0.2144 F799.80
G1 X5.5197 Y25.4197 Z0.8000 F399.60
G2 X5.6535 Y25.2144 Z0.8000 I-0.4197 J-0.4197 F799.80
G2 X5.3144 Y24.4465 Z0.8000 I-0.5535 J-0.2144 F799.80
G2 X4.5465 Y24.7856 Z0.8000 I-0.2144 J0.5535 F799.80
G2 X5.5197 Y25.4197 Z0.8000 I0.5535 J0.2144 F799.80
G1 X5.5197 Y25.4197 Z0.5000 F399.60
G2 X5.6535 Y25.2144 Z0.5000 I-0.4197 J-0.4197 F799.80
G2 X5.3144 Y24.4465 Z0.5000 I-0.5535 J-0.2144 F799.80
G2 X4.5465 Y24.7856 Z0.5000 I-0.2144 J0.5535 F799.80
G2 X5.5197 Y25.4197 Z0.5000 I0.5535 J0.2144 F799.80
G1 X5.5197 Y25.4197 Z0.2000 F399.60
G2 X5.6535 Y25.2144 Z0.2000 I-0.4197 J-0.4197 F799.80
G2 X5.3144 Y24.4465 Z0.2000 I-0.5535 J-0.2144 F799.80
G2 X4.5465 Y24.7856 Z0.2000 I-0.2144 J0.5535 F799.80
G2 X5.5197 Y25.4197 Z0.2000 I0.5535 J0.2144 F799.80
G1 X5.5197 Y25.4197 Z-0.1000 F399.60
G2 X5.6535 Y25.2144 Z-0.1000 I-0.4197 J-0.4197 F799.80
G2 X5.3144 Y24.4465 Z-0.1000 I-0.5535 J-0.2144 F799.80
G2 X4.5465 Y24.7856 Z-0.1000 I-0.2144 J0.5535 F799.80
G2 X5.5197 Y25.4197 Z-0.1000 I0.5535 J0.2144 F799.80
G1 X5.5197 Y25.4197 Z-0.2000 F399.60
G2 X5.6535 Y25.2144 Z-0.2000 I-0.4197 J-0.4197 F799.80
G2 X5.3144 Y24.4465 Z-0.2000 I-0.5535 J-0.2144 F799.80
G2 X4.5465 Y24.7856 Z-0.2000 I-0.2144 J0.5535 F799.80
G2 X5.5197 Y25.4197 Z-0.2000 I0.5535 J0.2144 F799.80
G0 Z8.0000
G0 X15.1125 Y25.1764
G0 Z6.0000
G1 X15.1125 Y25.1764 Z2.9000 F399.60
G2 X14.8714 Y24.7500 Z2.9000 I-0.1740 J-0.1830 F799.80
G1 X12.0286 Y24.7500 Z2.9000 F799.80
G2 X11.8517 Y24.7792 Z2.9000 I-0.0199 J0.4308 F799.80
G2 X12.0286 Y25.2500 Z2.9000 I0.1097 J0.2274 F799.80
G1 X14.8714 Y25.2500 Z2.9000 F799.80
G2 X15.0483 Y25.2208 Z2.9000 I0.0199 J-0.4308 F799.80
G2 X15.1125 Y25.1764 Z2.9000 I-0.1097 J-0.2274 F799.80
G1 X15.1125 Y25.1764 Z2.6000 F399.60
G2 X14.8714 Y24.7500 Z2.6000 I-0.1740 J-0.1830 F799.80
G1 X12.0286 Y24.7500 Z2.6000 F799.80
G2 X11.8517 Y24.7792 Z2.6000 I-0.0199 J0.4308 F799.80
G2 X12.0286 Y25.2500 Z2.6000 I0.1097 J0.2274 F799.80
G1 X14.8714 Y25.2500 Z2.6000 F799.80
G2 X15.0483 Y25.2208 Z2.6000 I0.0199 J-0.4308 F799.80
G2 X15.1125 Y25.1764 Z2.6000 I-0.1097 J-0.2274 F799.80
G1 X15.1125 Y25.1764 Z2.3000 F399.60
G2 X14.8714 Y24.7500 Z2.3000 I-0.1740 J-0.1830 F799.80
G1 X12.0286 Y24.7500 Z2.3000 F799.80
G2 X11.8517 Y24.7792 Z2.3000 I-0.0199 J0.4308 F799.80
G2 X12.0286 Y25.2500 Z2.3000 I0.1097 J0.2274 F799.80
G1 X14.8714 Y25.2500 Z2.3000 F799.80
G2 X15.0483 Y25.2208 Z2.3000 I0.0199 J-0.4308 F799.80
G2 X15.1125 Y25.1764 Z2.3000 I-0.1097 J-0.2274 F799.80
G1 X15.1125 Y25.1764 Z2.0000 F399.60
G2 X14.8714 Y24.7500 Z2.0000 I-0.1740 J-0.1830 F799.80
G1 X12.0286 Y24.7500 Z2.0000 F799.80
G2 X11.8517 Y24.7792 Z2.0000 I-0.0199 J0.4308 F799.80
G2 X12.0286 Y25.2500 Z2.0000 I0.1097 J0.2274 F799.80
G1 X14.8714 Y25.2500 Z2.0000 F799.80
G2 X15.0483 Y25.2208 Z2.0000 I0.0199 J-0.4308 F799.80
G2 X15.1125 Y25.1764 Z2.0000 I-0.1097 J-0.2274 F799.80
G1 X15.1125 Y25.1764 Z1.7000 F399.60
G2 X14.8714 Y24.7500 Z1.7000 I-0.1740 J-0.1830 F799.80
G1 X12.0286 Y24.7500 Z1.7000 F799.80
G2 X11.8517 Y24.7792 Z1.7000 I-0.0199 J0.4308 F799.80
G2 X12.0286 Y25.2500 Z1.7000 I0.1097 J0.2274 F799.80
G1 X14.8714 Y25.2500 Z1.7000 F799.80
G2 X15.0483 Y25.2208 Z1.7000 I0.0199 J-0.4308 F799.80
G2 X15.1125 Y25.1764 Z1.7000 I-0.1097 J-0.2274 F799.80
G1 X15.1125 Y25.1764 Z1.4000 F399.60
G2 X14.8714 Y24.7500 Z1.4000 I-0.1740 J-0.1830 F799.80
G1 X12.0286 Y24.7500 Z1.4000 F799.80
G2 X11.8517 Y24.7792 Z1.4000 I-0.0199 J0.4308 F799.80
G2 X12.0286 Y25.2500 Z1.4000 I0.1097 J0.2274 F799.80
G1 X14.8714 Y25.2500 Z1.4000 F799.80
G2 X15.0483 Y25.2208 Z1.4000 I0.0199 J-0.4308 F799.80
G2 X15.1125 Y25.1764 Z1.4000 I-0.1097 J-0.2274 F799.80
G1 X15.1125 Y25.1764 Z1.1000 F399.60
G2 X14.8714 Y24.7500 Z1.1000 I-0.1740 J-0.1830 F799.80
G1 X12.0286 Y24.7500 Z1.1000 F799.80
G2 X11.8517 Y24.7792 Z1.1000 I-0.0199 J0.4308 F799.80
G2 X12.0286 Y25.2500 Z1.1000 I0.1097 J0.2274 F799.80
G1 X14.8714 Y25.2500 Z1.1000 F799.80
G2 X15.0483 Y25.2208 Z1.1000 I0.0199 J-0.4308 F799.80
G2 X15.1125 Y25.1764 Z1.1000 I-0.1097 J-0.2274 F799.80
G1 X15.1125 Y25.1764 Z0.8000 F399.60
G2 X14.8714 Y24.7500 Z0.8000 I-0.1740 J-0.1830 F799.80
G1 X12.0286 Y24.7500 Z0.8000 F799.80
G2 X11.8517 Y24.7792 Z0.8000 I-0.0199 J0.4308 F799.80
G2 X12.0286 Y25.2500 Z0.8000 I0.1097 J0.2274 F799.80
G1 X14.8714 Y25.2500 Z0.8000 F799.80
G2 X15.0483 Y25.2208 Z0.8000 I0.0199 J-0.4308 F799.80
G2 X15.1125 Y25.1764 Z0.8000 I-0.1097 J-0.2274 F799.80
G1 X15.1125 Y25.1764 Z0.5000 F399.60
G2 X14.8714 Y24.7500 Z0.5000 I-0.1740 J-0.1830 F799.80
G1 X12.0286 Y24.7500 Z0.5000 F799.80
G2 X11.8517 Y24.7792 Z0.5000 I-0.0199 J0.4308 F799.80
G2 X12.0286 Y25.2500 Z0.5000 I0.1097 J0.2274 F799.80
G1 X14.8714 Y25.2500 Z0.5000 F799.80
G2 X15.0483 Y25.2208 Z0.5000 I0.0199 J-0.4308 F799.80
G2 X15.1125 Y25.1764 Z0.5000 I-0.1097 J-0.2274 F799.80
G1 X15.1125 Y25.1764 Z0.2000 F399.60
G2 X14.8714 Y24.7500 Z0.2000 I-0.1740 J-0.1830 F799.80
G1 X12.0286 Y24.7500 Z0.2000 F799.80
G2 X11.8517 Y24.7792 Z0.2000 I-0.0199 J0.4308 F799.80
G2 X12.0286 Y25.2500 Z0.2000 I0.1097 J0.2274 F799.80
G1 X14.8714 Y25.2500 Z0.2000 F799.80
G2 X15.0483 Y25.2208 Z0.2000 I0.0199 J-0.4308 F799.80
G2 X15.1125 Y25.1764 Z0.2000 I-0.1097 J-0.2274 F799.80
G1 X15.1125 Y25.1764 Z-0.1000 F399.60
G2 X14.8714 Y24.7500 Z-0.1000 I-0.1740 J-0.1830 F799.80
G1 X12.0286 Y24.7500 Z-0.1000 F799.80
G2 X11.8517 Y24.7792 Z-0.1000 I-0.0199 J0.4308 F799.80
G2 X12.0286 Y25.2500 Z-0.1000 I0.1097 J0.2274 F799.80
G1 X14.8714 Y25.2500 Z-0.1000 F799.80
G2 X15.0483 Y25.2208 Z-0.1000 I0.0199 J-0.4308 F799.80
G2 X15.1125 Y25.1764 Z-0.1000 I-0.1097 J-0.2274 F799.80
G1 X15.1125 Y25.1764 Z-0.2000 F399.60
G2 X14.8714 Y24.7500 Z-0.2000 I-0.1740 J-0.1830 F799.80
G1 X12.0286 Y24.7500 Z-0.2000 F799.80
G2 X11.8517 Y24.7792 Z-0.2000 I-0.0199 J0.4308 F799.80
G2 X12.0286 Y25.2500 Z-0.2000 I0.1097 J0.2274 F799.80
G1 X14.8714 Y25.2500 Z-0.2000 F799.80
G2 X15.0483 Y25.2208 Z-0.2000 I0.0199 J-0.4308 F799.80
G2 X15.1125 Y25.1764 Z-0.2000 I-0.1097 J-0.2274 F799.80
G0 Z8.0000
(Holes_Slits_First)
(Compensated Tool Path. Diameter: 3.0)
G0 Z8.0000
G0 X5.5197 Y45.4197
G0 Z6.0000
G1 X5.5197 Y45.4197 Z2.9000 F399.60
G2 X5.6535 Y45.2144 Z2.9000 I-0.4197 J-0.4197 F799.80
G2 X5.3144 Y44.4465 Z2.9000 I-0.5535 J-0.2144 F799.80
G2 X4.5465 Y44.7856 Z2.9000 I-0.2144 J0.5535 F799.80
G2 X5.5197 Y45.4197 Z2.9000 I0.5535 J0.2144 F799.80
G1 X5.5197 Y45.4197 Z2.6000 F399.60
G2 X5.6535 Y45.2144 Z2.6000 I-0.4197 J-0.4197 F799.80
G2 X5.3144 Y44.4465 Z2.6000 I-0.5535 J-0.2144 F799.80
G2 X4.5465 Y44.7856 Z2.6000 I-0.2144 J0.5535 F799.80
G2 X5.5197 Y45.4197 Z2.6000 I0.5535 J0.2144 F799.80
G1 X5.5197 Y45.4197 Z2.3000 F399.60
G2 X5.6535 Y45.2144 Z2.3000 I-0.4197 J-0.4197 F799.80
G2 X5.3144 Y44.4465 Z2.3000 I-0.5535 J-0.2144 F799.80
G2 X4.5465 Y44.7856 Z2.3000 I-0.2144 J0.5535 F799.80
G2 X5.5197 Y45.4197 Z2.3000 I0.5535 J0.2144 F799.80
G1 X5.5197 Y45.4197 Z2.0000 F399.60
G2 X5.6535 Y45.2144 Z2.0000 I-0.4197 J-0.4197 F799.80
G2 X5.3144 Y44.4465 Z2.0000 I-0.5535 J-0.2144 F799.80
G2 X4.5465 Y44.7856 Z2.0000 I-0.2144 J0.5535 F799.80
G2 X5.5197 Y45.4197 Z2.0000 I0.5535 J0.2144 F799.80
G1 X5.5197 Y45.4197 Z1.7000 F399.60
G2 X5.6535 Y45.2144 Z1.7000 I-0.4197 J-0.4197 F799.80
G2 X5.3144 Y44.4465 Z1.7000 I-0.5535 J-0.2144 F799.80
G2 X4.5465 Y44.7856 Z1.7000 I-0.2144 J0.5535 F799.80
G2 X5.5197 Y45.4197 Z1.7000 I0.5535 J0.2144 F799.80
G1 X5.5197 Y45.4197 Z1.4000 F399.60
G2 X5.6535 Y45.2144 Z1.4000 I-0.4197 J-0.4197 F799.80
G2 X5.3144 Y44.4465 Z1.4000 I-0.5535 J-0.2144 F799.80
G2 X4.5465 Y44.7856 Z1.4000 I-0.2144 J0.5535 F799.80
G2 X5.5197 Y45.4197 Z1.4000 I0.5535 J0.2144 F799.80
G1 X5.5197 Y45.4197 Z1.1000 F399.60
G2 X5.6535 Y45.2144 Z1.1000 I-0.4197 J-0.4197 F799.80
G2 X5.3144 Y44.4465 Z1.1000 I-0.5535 J-0.2144 F799.80
G2 X4.5465 Y44.7856 Z1.1000 I-0.2144 J0.5535 F799.80
G2 X5.5197 Y45.4197 Z1.1000 I0.5535 J0.2144 F799.80
G1 X5.5197 Y45.4197 Z0.8000 F399.60
G2 X5.6535 Y45.2144 Z0.8000 I-0.4197 J-0.4197 F799.80
G2 X5.3144 Y44.4465 Z0.8000 I-0.5535 J-0.2144 F799.80
G2 X4.5465 Y44.7856 Z0.8000 I-0.2144 J0.5535 F799.80
G2 X5.5197 Y45.4197 Z0.8000 I0.5535 J0.2144 F799.80
G1 X5.5197 Y45.4197 Z0.5000 F399.60
G2 X5.6535 Y45.2144 Z0.5000 I-0.4197 J-0.4197 F799.80
G2 X5.3144 Y44.4465 Z0.5000 I-0.5535 J-0.2144 F799.80
G2 X4.5465 Y44.7856 Z0.5000 I-0.2144 J0.5535 F799.80
G2 X5.5197 Y45.4197 Z0.5000 I0.5535 J0.2144 F799.80
G1 X5.5197 Y45.4197 Z0.2000 F399.60
G2 X5.6535 Y45.2144 Z0.2000 I-0.4197 J-0.4197 F799.80
G2 X5.3144 Y44.4465 Z0.2000 I-0.5535 J-0.2144 F799.80
G2 X4.5465 Y44.7856 Z0.2000 I-0.2144 J0.5535 F799.80
G2 X5.5197 Y45.4197 Z0.2000 I0.5535 J0.2144 F799.80
G1 X5.5197 Y45.4197 Z-0.1000 F399.60
G2 X5.6535 Y45.2144 Z-0.1000 I-0.4197 J-0.4197 F799.80
G2 X5.3144 Y44.4465 Z-0.1000 I-0.5535 J-0.2144 F799.80
G2 X4.5465 Y44.7856 Z-0.1000 I-0.2144 J0.5535 F799.80
G2 X5.5197 Y45.4197 Z-0.1000 I0.5535 J0.2144 F799.80
G1 X5.5197 Y45.4197 Z-0.2000 F399.60
G2 X5.6535 Y45.2144 Z-0.2000 I-0.4197 J-0.4197 F799.80
G2 X5.3144 Y44.4465 Z-0.2000 I-0.5535 J-0.2144 F799.80
G2 X4.5465 Y44.7856 Z-0.2000 I-0.2144 J0.5535 F799.80
G2 X5.5197 Y45.4197 Z-0.2000 I0.5535 J0.2144 F799.80
G0 Z8.0000
G0 X15.1125 Y45.1764
G0 Z6.0000
G1 X15.1125 Y45.1764 Z2.9000 F399.60
G2 X14.8714 Y44.7500 Z2.9000 I-0.1740 J-0.1830 F799.80
G1 X12.0286 Y44.7500 Z2.9000 F799.80
G2 X11.8517 Y44.7792 Z2.9000 I-0.0199 J0.4308 F799.80
G2 X12.0286 Y45.2500 Z2.9000 I0.1097 J0.2274 F799.80
G1 X14.8714 Y45.2500 Z2.9000 F799.80
G2 X15.0483 Y45.2208 Z2.9000 I0.0199 J-0.4308 F799.80
G2 X15.1125 Y45.1764 Z2.9000 I-0.1097 J-0.2274 F799.80
G1 X15.1125 Y45.1764 Z2.6000 F399.60
G2 X14.8714 Y44.7500 Z2.6000 I-0.1740 J-0.1830 F799.80
G1 X12.0286 Y44.7500 Z2.6000 F799.80
G2 X11.8517 Y44.7792 Z2.6000 I-0.0199 J0.4308 F799.80
G2 X12.0286 Y45.2500 Z2.6000 I0.1097 J0.2274 F799.80
G1 X14.8714 Y45.2500 Z2.6000 F799.80
G2 X15.0483 Y45.2208 Z2.6000 I0.0199 J-0.4308 F799.80
G2 X15.1125 Y45.1764 Z2.6000 I-0.1097 J-0.2274 F799.80
G1 X15.1125 Y45.1764 Z2.3000 F399.60
G2 X14.8714 Y44.7500 Z2.3000 I-0.1740 J-0.1830 F799.80
G1 X12.0286 Y44.7500 Z2.3000 F799.80
G2 X11.8517 Y44.7792 Z2.3000 I-0.0199 J0.4308 F799.80
G2 X12.0286 Y45.2500 Z2.3000 I0.1097 J0.2274 F799.80
G1 X14.8714 Y45.2500 Z2.3000 F799.80
G2 X15.0483 Y45.2208 Z2.3000 I0.0199 J-0.4308 F799.80
G2 X15.1125 Y45.1764 Z2.3000 I-0.1097 J-0.2274 F799.80
G1 X15.1125 Y45.1764 Z2.0000 F399.60
G2 X14.8714 Y44.7500 Z2.0000 I-0.1740 J-0.1830 F799.80
G1 X12.0286 Y44.7500 Z2.0000 F799.80
G2 X11.8517 Y44.7792 Z2.0000 I-0.0199 J0.4308 F799.80
G2 X12.0286 Y45.2500 Z2.0000 I0.1097 J0.2274 F799.80
G1 X14.8714 Y45.2500 Z2.0000 F799.80
G2 X15.0483 Y45.2208 Z2.0000 I0.0199 J-0.4308 F799.80
G2 X15.1125 Y45.1764 Z2.0000 I-0.1097 J-0.2274 F799.80
G1 X15.1125 Y45.1764 Z1.7000 F399.60
G2 X14.8714 Y44.7500 Z1.7000 I-0.1740 J-0.1830 F799.80
G1 X12.0286 Y44.7500 Z1.7000 F799.80
G2 X11.8517 Y44.7792 Z1.7000 I-0.0199 J0.4308 F799.80
G2 X12.0286 Y45.2500 Z1.7000 I0.1097 J0.2274 F799.80
G1 X14.8714 Y45.2500 Z1.7000 F799.80
G2 X15.0483 Y45.2208 Z1.7000 I0.0199 J-0.4308 F799.80
G2 X15.1125 Y45.1764 Z1.7000 I-0.1097 J-0.2274 F799.80
G1 X15.1125 Y45.1764 Z1.4000 F399.60
G2 X14.8714 Y44.7500 Z1.4000 I-0.1740 J-0.1830 F799.80
G1 X12.0286 Y44.7500 Z1.4000 F799.80
G2 X11.8517 Y44.7792 Z1.4000 I-0.0199 J0.4308 F799.80
G2 X12.0286 Y45.2500 Z1.4000 I0.1097 J0.2274 F799.80
G1 X14.8714 Y45.2500 Z1.4000 F799.80
G2 X15.0483 Y45.2208 Z1.4000 I0.0199 J-0.4308 F799.80
G2 X15.1125 Y45.1764 Z1.4000 I-0.1097 J-0.2274 F799.80
G1 X15.1125 Y45.1764 Z1.1000 F399.60
G2 X14.8714 Y44.7500 Z1.1000 I-0.1740 J-0.1830 F799.80
G1 X12.0286 Y44.7500 Z1.1000 F799.80
G2 X11.8517 Y44.7792 Z1.1000 I-0.0199 J0.4308 F799.80
G2 X12.0286 Y45.2500 Z1.1000 I0.1097 J0.2274 F799.80
G1 X14.8714 Y45.2500 Z1.1000 F799.80
G2 X15.0483 Y45.2208 Z1.1000 I0.0199 J-0.4308 F799.80
G2 X15.1125 Y45.1764 Z1.1000 I-0.1097 J-0.2274 F799.80
G1 X15.1125 Y45.1764 Z0.8000 F399.60
G2 X14.8714 Y44.7500 Z0.8000 I-0.1740 J-0.1830 F799.80
G1 X12.0286 Y44.7500 Z0.8000 F799.80
G2 X11.8517 Y44.7792 Z0.8000 I-0.0199 J0.4308 F799.80
G2 X12.0286 Y45.2500 Z0.8000 I0.1097 J0.2274 F799.80
G1 X14.8714 Y45.2500 Z0.8000 F799.80
G2 X15.0483 Y45.2208 Z0.8000 I0.0199 J-0.4308 F799.80
G2 X15.1125 Y45.1764 Z0.8000 I-0.1097 J-0.2274 F799.80
G1 X15.1125 Y45.1764 Z0.5000 F399.60
G2 X14.8714 Y44.7500 Z0.5000 I-0.1740 J-0.1830 F799.80
G1 X12.0286 Y44.7500 Z0.5000 F799.80
G2 X11.8517 Y44.7792 Z0.5000 I-0.0199 J0.4308 F799.80
G2 X12.0286 Y45.2500 Z0.5000 I0.1097 J0.2274 F799.80
G1 X14.8714 Y45.2500 Z0.5000 F799.80
G2 X15.0483 Y45.2208 Z0.5000 I0.0199 J-0.4308 F799.80
G2 X15.1125 Y45.1764 Z0.5000 I-0.1097 J-0.2274 F799.80
G1 X15.1125 Y45.1764 Z0.2000 F399.60
G2 X14.8714 Y44.7500 Z0.2000 I-0.1740 J-0.1830 F799.80
G1 X12.0286 Y44.7500 Z0.2000 F799.80
G2 X11.8517 Y44.7792 Z0.2000 I-0.0199 J0.4308 F799.80
G2 X12.0286 Y45.2500 Z0.2000 I0.1097 J0.2274 F799.80
G1 X14.8714 Y45.2500 Z0.2000 F799.80
G2 X15.0483 Y45.2208 Z0.2000 I0.0199 J-0.4308 F799.80
G2 X15.1125 Y45.1764 Z0.2000 I-0.1097 J-0.2274 F799.80
G1 X15.1125 Y45.1764 Z-0.1000 F399.60
G2 X14.8714 Y44.7500 Z-0.1000 I-0.1740 J-0.1830 F799.80
G1 X12.0286 Y44.7500 Z-0.1000 F799.80
G2 X11.8517 Y44.7792 Z-0.1000 I-0.0199 J0.4308 F799.80
G2 X12.0286 Y45.2500 Z-0.1000 I0.1097 J0.2274 F799.80
G1 X14.8714 Y45.2500 Z-0.1000 F799.80
G2 X15.0483 Y45.2208 Z-0.1000 I0.0199 J-0.4308 F799.80
G2 X15.1125 Y45.1764 Z-0.1000 I-0.1097 J-0.2274 F799.80
G1 X15.1125 Y45.1764 Z-0.2000 F399.60
G2 X14.8714 Y44.7500 Z-0.2000 I-0.1740 J-0.1830 F799.80
G1 X12.0286 Y44.7500 Z-0.2000 F799.80
G2 X11.8517 Y44.7792 Z-0.2000 I-0.0199 J0.4308 F799.80
G2 X12.0286 Y45.2500 Z-0.2000 I0.1097 J0.2274 F799.80
G1 X14.8714 Y45.2500 Z-0.2000 F799.80
G2 X15.0483 Y45.2208 Z-0.2000 I0.0199 J-0.4308 F799.80
G2 X15.1125 Y45.1764 Z-0.2000 I-0.1097 J-0.2274 F799.80
G0 Z8.0000
(finish operation: Holes_Slits_Repeat)
(begin operation: Contour_First)
(Path: Contour_First)
G0 Z8.0000
G0 X20.0607 Y10.0607 Z8.0000
G0 X20.0607 Y10.0607 Z6.0000
G1 X20.0607 Y10.0607 Z2.9000 F399.60
G1 X19.0607 Y11.0607 Z2.9000 F799.80
G3 X18.0000 Y11.5000 Z2.9000 I-1.0607 J-1.0607 F799.80
G1 X0.0000 Y11.5000 Z2.9000 F799.80
G3 X-1.5000 Y10.0000 Z2.9000 I0.0000 J-1.5000 F799.80
G1 X-1.5000 Y0.0000 Z2.9000 F799.80
G3 X0.0000 Y-1.5000 Z2.9000 I1.5000 J0.0000 F799.80
G1 X18.0000 Y-1.5000 Z2.9000 F799.80
G3 X19.0607 Y-1.0607 Z2.9000 I0.0000 J1.5000 F799.80
G1 X21.0607 Y0.9393 Z2.9000 F799.80
G3 X21.5000 Y2.0000 Z2.9000 I-1.0607 J1.0607 F799.80
G1 X21.5000 Y8.0000 Z2.9000 F799.80
G3 X21.0607 Y9.0607 Z2.9000 I-1.5000 J0.0000 F799.80
G1 X20.0607 Y10.0607 Z2.9000 F799.80
G1 X20.0607 Y10.0607 Z2.6000 F399.60
G1 X19.0607 Y11.0607 Z2.6000 F799.80
G3 X18.0000 Y11.5000 Z2.6000 I-1.0607 J-1.0607 F799.80
G1 X0.0000 Y11.5000 Z2.6000 F799.80
G3 X-1.5000 Y10.0000 Z2.6000 I0.0000 J-1.5000 F799.80
G1 X-1.5000 Y0.0000 Z2.6000 F799.80
G3 X0.0000 Y-1.5000 Z2.6000 I1.5000 J0.0000 F799.80
G1 X18.0000 Y-1.5000 Z2.6000 F799.80
G3 X19.0607 Y-1.0607 Z2.6000 I0.0000 J1.5000 F799.80
G1 X21.0607 Y0.9393 Z2.6000 F799.80
G3 X21.5000 Y2.0000 Z2.6000 I-1.0607 J1.0607 F799.80
G1 X21.5000 Y8.0000 Z2.6000 F799.80
G3 X21.0607 Y9.0607 Z2.6000 I-1.5000 J0.0000 F799.80
G1 X20.0607 Y10.0607 Z2.6000 F799.80
G1 X20.0607 Y10.0607 Z2.3000 F399.60
G1 X19.0607 Y11.0607 Z2.3000 F799.80
G3 X18.0000 Y11.5000 Z2.3000 I-1.0607 J-1.0607 F799.80
G1 X0.0000 Y11.5000 Z2.3000 F799.80
G3 X-1.5000 Y10.0000 Z2.3000 I0.0000 J-1.5000 F799.80
G1 X-1.5000 Y0.0000 Z2.3000 F799.80
G3 X0.0000 Y-1.5000 Z2.3000 I1.5000 J0.0000 F799.80
G1 X18.0000 Y-1.5000 Z2.3000 F799.80
G3 X19.0607 Y-1.0607 Z2.3000 I0.0000 J1.5000 F799.80
G1 X21.0607 Y0.9393 Z2.3000 F799.80
G3 X21.5000 Y2.0000 Z2.3000 I-1.0607 J1.0607 F799.80
G1 X21.5000 Y8.0000 Z2.3000 F799.80
G3 X21.0607 Y9.0607 Z2.3000 I-1.5000 J0.0000 F799.80
G1 X20.0607 Y10.0607 Z2.3000 F799.80
G1 X20.0607 Y10.0607 Z2.0000 F399.60
G1 X19.0607 Y11.0607 Z2.0000 F799.80
G3 X18.0000 Y11.5000 Z2.0000 I-1.0607 J-1.0607 F799.80
G1 X0.0000 Y11.5000 Z2.0000 F799.80
G3 X-1.5000 Y10.0000 Z2.0000 I0.0000 J-1.5000 F799.80
G1 X-1.5000 Y0.0000 Z2.0000 F799.80
G3 X0.0000 Y-1.5000 Z2.0000 I1.5000 J0.0000 F799.80
G1 X18.0000 Y-1.5000 Z2.0000 F799.80
G3 X19.0607 Y-1.0607 Z2.0000 I0.0000 J1.5000 F799.80
G1 X21.0607 Y0.9393 Z2.0000 F799.80
G3 X21.5000 Y2.0000 Z2.0000 I-1.0607 J1.0607 F799.80
G1 X21.5000 Y8.0000 Z2.0000 F799.80
G3 X21.0607 Y9.0607 Z2.0000 I-1.5000 J0.0000 F799.80
G1 X20.0607 Y10.0607 Z2.0000 F799.80
G1 X20.0607 Y10.0607 Z1.7000 F399.60
G1 X19.0607 Y11.0607 Z1.7000 F799.80
G3 X18.0000 Y11.5000 Z1.7000 I-1.0607 J-1.0607 F799.80
G1 X0.0000 Y11.5000 Z1.7000 F799.80
G3 X-1.5000 Y10.0000 Z1.7000 I0.0000 J-1.5000 F799.80
G1 X-1.5000 Y0.0000 Z1.7000 F799.80
G3 X0.0000 Y-1.5000 Z1.7000 I1.5000 J0.0000 F799.80
G1 X18.0000 Y-1.5000 Z1.7000 F799.80
G3 X19.0607 Y-1.0607 Z1.7000 I0.0000 J1.5000 F799.80
G1 X21.0607 Y0.9393 Z1.7000 F799.80
G3 X21.5000 Y2.0000 Z1.7000 I-1.0607 J1.0607 F799.80
G1 X21.5000 Y8.0000 Z1.7000 F799.80
G3 X21.0607 Y9.0607 Z1.7000 I-1.5000 J0.0000 F799.80
G1 X20.0607 Y10.0607 Z1.7000 F799.80
G1 X20.0607 Y10.0607 Z1.4000 F399.60
G1 X19.0607 Y11.0607 Z1.4000 F799.80
G3 X18.0000 Y11.5000 Z1.4000 I-1.0607 J-1.0607 F799.80
G1 X14.2830 Y11.5000 Z1.4000 F799.80
G1 X14.1830 Y11.5000 Z1.5000 F599.70
G1 X12.8170 Y11.5000 Z1.5000 F799.80
G1 X12.7170 Y11.5000 Z1.4000 F599.70
G1 X5.2830 Y11.5000 Z1.4000 F799.80
G1 X5.1830 Y11.5000 Z1.5000 F599.70
G1 X3.8170 Y11.5000 Z1.5000 F799.80
G1 X3.7170 Y11.5000 Z1.4000 F599.70
G1 X0.0000 Y11.5000 Z1.4000 F799.80
G3 X-1.5000 Y10.0000 Z1.4000 I0.0000 J-1.5000 F799.80
G1 X-1.5000 Y0.0000 Z1.4000 F799.80
G3 X0.0000 Y-1.5000 Z1.4000 I1.5000 J0.0000 F799.80
G1 X8.2170 Y-1.5000 Z1.4000 F799.80
G1 X8.3170 Y-1.5000 Z1.5000 F599.70
G1 X9.6830 Y-1.5000 Z1.5000 F799.80
G1 X9.7830 Y-1.5000 Z1.4000 F599.70
G1 X18.0000 Y-1.5000 Z1.4000 F799.80
G3 X19.0607 Y-1.0607 Z1.4000 I0.0000 J1.5000 F799.80
G1 X21.0607 Y0.9393 Z1.4000 F799.80
G3 X21.5000 Y2.0000 Z1.4000 I-1.0607 J1.0607 F799.80
G1 X21.5000 Y4.2170 Z1.4000 F799.80
G1 X21.5000 Y4.3170 Z1.5000 F599.70
G1 X21.5000 Y5.6830 Z1.5000 F799.80
G1 X21.5000 Y5.7830 Z1.4000 F599.70
G1 X21.5000 Y8.0000 Z1.4000 F799.80
G3 X21.0607 Y9.0607 Z1.4000 I-1.5000 J0.0000 F799.80
G1 X20.0607 Y10.0607 Z1.4000 F799.80
G1 X20.0607 Y10.0607 Z1.1000 F399.60
G1 X19.0607 Y11.0607 Z1.1000 F799.80
G3 X18.0000 Y11.5000 Z1.1000 I-1.0607 J-1.0607 F799.80
G1 X14.5830 Y11.5000 Z1.1000 F799.80
G1 X14.1830 Y11.5000 Z1.5000 F599.70
G1 X12.8170 Y11.5000 Z1.5000 F799.80
G1 X12.4170 Y11.5000 Z1.1000 F599.70
G1 X5.5830 Y11.5000 Z1.1000 F799.80
G1 X5.1830 Y11.5000 Z1.5000 F599.70
G1 X3.8170 Y11.5000 Z1.5000 F799.80
G1 X3.4170 Y11.5000 Z1.1000 F599.70
G1 X0.0000 Y11.5000 Z1.1000 F799.80
G3 X-1.5000 Y10.0000 Z1.1000 I0.0000 J-1.5000 F799.80
G1 X-1.5000 Y0.0000 Z1.1000 F799.80
G3 X0.0000 Y-1.5000 Z1.1000 I1.5000 J0.0000 F799.80
G1 X7.9170 Y-1.5000 Z1.1000 F799.80
G1 X8.3170 Y-1.5000 Z1.5000 F599.70
G1 X9.6830 Y-1.5000 Z1.5000 F799.80
G1 X10.0830 Y-1.5000 Z1.1000 F599.70
G1 X18.0000 Y-1.5000 Z1.1000 F799.80
G3 X19.0607 Y-1.0607 Z1.1000 I0.0000 J1.5000 F799.80
G1 X21.0607 Y0.9393 Z1.1000 F799.80
G3 X21.5000 Y2.0000 Z1.1000 I-1.0607 J1.0607 F799.80
G1 X21.5000 Y3.9170 Z1.1000 F799.80
G1 X21.5000 Y4.3170 Z1.5000 F599.70
G1 X21.5000 Y5.6830 Z1.5000 F799.80
G1 X21.5000 Y6.0830 Z1.1000 F599.70
G1 X21.5000 Y8.0000 Z1.1000 F799.80
G3 X21.0607 Y9.0607 Z1.1000 I-1.5000 J0.0000 F799.80
G1 X20.0607 Y10.0607 Z1.1000 F799.80
G1 X20.0607 Y10.0607 Z0.8000 F399.60
G1 X19.0607 Y11.0607 Z0.8000 F799.80
G3 X18.0000 Y11.5000 Z0.8000 I-1.0607 J-1.0607 F799.80
G1 X14.8830 Y11.5000 Z0.8000 F799.80
G1 X14.1830 Y11.5000 Z1.5000 F599.70
G1 X12.8170 Y11.5000 Z1.5000 F799.80
G1 X12.1170 Y11.5000 Z0.8000 F599.70
G1 X5.8830 Y11.5000 Z0.8000 F799.80
G1 X5.1830 Y11.5000 Z1.5000 F599.70
G1 X3.8170 Y11.5000 Z1.5000 F799.80
G1 X3.1170 Y11.5000 Z0.8000 F599.70
G1 X0.0000 Y11.5000 Z0.8000 F799.80
G3 X-1.5000 Y10.0000 Z0.8000 I0.0000 J-1.5000 F799.80
G1 X-1.5000 Y0.0000 Z0.8000 F799.80
G3 X0.0000 Y-1.5000 Z0.8000 I1.5000 J0.0000 F799.80
G1 X7.6170 Y-1.5000 Z0.8000 F799.80
G1 X8.3170 Y-1.5000 Z1.5000 F599.70
G1 X9.6830 Y-1.5000 Z1.5000 F799.80
G1 X10.3830 Y-1.5000 Z0.8000 F599.70
G1 X18.0000 Y-1.5000 Z0.8000 F799.80
G3 X19.0607 Y-1.0607 Z0.8000 I0.0000 J1.5000 F799.80
G1 X21.0607 Y0.9393 Z0.8000 F799.80
G3 X21.5000 Y2.0000 Z0.8000 I-1.0607 J1.0607 F799.80
G1 X21.5000 Y3.6170 Z0.8000 F799.80
G1 X21.5000 Y4.3170 Z1.5000 F599.70
G1 X21.5000 Y5.6830 Z1.5000 F799.80
G1 X21.5000 Y6.3830 Z0.8000 F599.70
G1 X21.5000 Y8.0000 Z0.8000 F799.80
G3 X21.0607 Y9.0607 Z0.8000 I-1.5000 J0.0000 F799.80
G1 X20.0607 Y10.0607 Z0.8000 F799.80
G1 X20.0607 Y10.0607 Z0.5000 F399.60
G1 X19.0607 Y11.0607 Z0.5000 F799.80
G3 X18.0000 Y11.5000 Z0.5000 I-1.0607 J-1.0607 F799.80
G1 X15.1830 Y11.5000 Z0.5000 F799.80
G1 X14.1830 Y11.5000 Z1.5000 F599.70
G1 X12.8170 Y11.5000 Z1.5000 F799.80
G1 X11.8170 Y11.5000 Z0.5000 F599.70
G1 X6.1830 Y11.5000 Z0.5000 F799.80
G1 X5.1830 Y11.5000 Z1.5000 F599.70
G1 X3.8170 Y11.5000 Z1.5000 F799.80
G1 X2.8170 Y11.5000 Z0.5000 F599.70
G1 X0.0000 Y11.5000 Z0.5000 F799.80
G3 X-1.5000 Y10.0000 Z0.5000 I0.0000 J-1.5000 F799.80
G1 X-1.5000 Y0.0000 Z0.5000 F799.80
G3 X0.0000 Y-1.5000 Z0.5000 I1.5000 J0.0000 F799.80
G1 X7.3170 Y-1.5000 Z0.5000 F799.80
G1 X8.3170 Y-1.5000 Z1.5000 F599.70
G1 X9.6830 Y-1.5000 Z1.5000 F799.80
G1 X10.6830 Y-1.5000 Z0.5000 F599.70
G1 X18.0000 Y-1.5000 Z0.5000 F799.80
G3 X19.0607 Y-1.0607 Z0.5000 I0.0000 J1.5000 F799.80
G1 X21.0607 Y0.9393 Z0.5000 F799.80
G3 X21.5000 Y2.0000 Z0.5000 I-1.0607 J1.0607 F799.80
G1 X21.5000 Y3.3170 Z0.5000 F799.80
G1 X21.5000 Y4.3170 Z1.5000 F599.70
G1 X21.5000 Y5.6830 Z1.5000 F799.80
G1 X21.5000 Y6.6830 Z0.5000 F599.70
G1 X21.5000 Y8.0000 Z0.5000 F799.80
G3 X21.0607 Y9.0607 Z0.5000 I-1.5000 J0.0000 F799.80
G1 X20.0607 Y10.0607 Z0.5000 F799.80
G1 X20.0607 Y10.0607 Z0.2000 F399.60
G1 X19.0607 Y11.0607 Z0.2000 F799.80
G3 X18.0000 Y11.5000 Z0.2000 I-1.0607 J-1.0607 F799.80
G1 X15.4830 Y11.5000 Z0.2000 F799.80
G1 X14.1830 Y11.5000 Z1.5000 F599.70
G1 X12.8170 Y11.5000 Z1.5000 F799.80
G1 X11.5170 Y11.5000 Z0.2000 F599.70
G1 X6.4830 Y11.5000 Z0.2000 F799.80
G1 X5.1830 Y11.5000 Z1.5000 F599.70
G1 X3.8170 Y11.5000 Z1.5000 F799.80
G1 X2.5170 Y11.5000 Z0.2000 F599.70
G1 X0.0000 Y11.5000 Z0.2000 F799.80
G3 X-1.5000 Y10.0000 Z0.2000 I0.0000 J-1.5000 F799.80
G1 X-1.5000 Y0.0000 Z0.2000 F799.80
G3 X0.0000 Y-1.5000 Z0.2000 I1.5000 J0.0000 F799.80
G1 X7.0170 Y-1.5000 Z0.2000 F799.80
G1 X8.3170 Y-1.5000 Z1.5000 F599.70
G1 X9.6830 Y-1.5000 Z1.5000 F799.80
G1 X10.9830 Y-1.5000 Z0.2000 F599.70
G1 X18.0000 Y-1.5000 Z0.2000 F799.80
G3 X19.0607 Y-1.0607 Z0.2000 I0.0000 J1.5000 F799.80
G1 X21.0607 Y0.9393 Z0.2000 F799.80
G3 X21.5000 Y2.0000 Z0.2000 I-1.0607 J1.0607 F799.80
G1 X21.5000 Y3.0170 Z0.2000 F799.80
G1 X21.5000 Y4.3170 Z1.5000 F599.70
G1 X21.5000 Y5.6830 Z1.5000 F799.80
G1 X21.5000 Y6.9830 Z0.2000 F599.70
G1 X21.5000 Y8.0000 Z0.2000 F799.80
G3 X21.0607 Y9.0607 Z0.2000 I-1.5000 J0.0000 F799.80
G1 X20.0607 Y10.0607 Z0.2000 F799.80
G1 X20.0607 Y10.0607 Z-0.1000 F399.60
G1 X19.0607 Y11.0607 Z-0.1000 F799.80
G3 X18.0000 Y11.5000 Z-0.1000 I-1.0607 J-1.0607 F799.80
G1 X15.7830 Y11.5000 Z-0.1000 F799.80
G1 X14.1830 Y11.5000 Z1.5000 F599.70
G1 X12.8170 Y11.5000 Z1.5000 F799.80
G1 X11.2170 Y11.5000 Z-0.1000 F599.70
G1 X6.7830 Y11.5000 Z-0.1000 F799.80
G1 X5.1830 Y11.5000 Z1.5000 F599.70
G1 X3.8170 Y11.5000 Z1.5000 F799.80
G1 X2.2170 Y11.5000 Z-0.1000 F599.70
G1 X0.0000 Y11.5000 Z-0.1000 F799.80
G3 X-1.5000 Y10.0000 Z-0.1000 I0.0000 J-1.5000 F799.80
G1 X-1.5000 Y0.0000 Z-0.1000 F799.80
G3 X0.0000 Y-1.5000 Z-0.1000 I1.5000 J0.0000 F799.80
G1 X6.7170 Y-1.5000 Z-0.1000 F799.80
G1 X8.3170 Y-1.5000 Z1.5000 F599.70
G1 X9.6830 Y-1.5000 Z1.5000 F799.80
G1 X11.2830 Y-1.5000 Z-0.1000 F599.70
G1 X18.0000 Y-1.5000 Z-0.1000 F799.80
G3 X19.0607 Y-1.0607 Z-0.1000 I0.0000 J1.5000 F799.80
G1 X21.0607 Y0.9393 Z-0.1000 F799.80
G3 X21.5000 Y2.0000 Z-0.1000 I-1.0607 J1.0607 F799.80
G1 X21.5000 Y2.7170 Z-0.1000 F799.80
G1 X21.5000 Y4.3170 Z1.5000 F599.70
G1 X21.5000 Y5.6830 Z1.5000 F799.80
G1 X21.5000 Y7.2830 Z-0.1000 F599.70
G1 X21.5000 Y8.0000 Z-0.1000 F799.80
G3 X21.0607 Y9.0607 Z-0.1000 I-1.5000 J0.0000 F799.80
G1 X20.0607 Y10.0607 Z-0.1000 F799.80
G1 X20.0607 Y10.0607 Z-0.2000 F399.60
G1 X19.0607 Y11.0607 Z-0.2000 F799.80
G3 X18.0000 Y11.5000 Z-0.2000 I-1.0607 J-1.0607 F799.80
G1 X15.8830 Y11.5000 Z-0.2000 F799.80
G1 X14.1830 Y11.5000 Z1.5000 F599.70
G1 X12.8170 Y11.5000 Z1.5000 F799.80
G1 X11.1170 Y11.5000 Z-0.2000 F599.70
G1 X6.8830 Y11.5000 Z-0.2000 F799.80
G1 X5.1830 Y11.5000 Z1.5000 F599.70
G1 X3.8170 Y11.5000 Z1.5000 F799.80
G1 X2.1170 Y11.5000 Z-0.2000 F599.70
G1 X0.0000 Y11.5000 Z-0.2000 F799.80
G3 X-1.5000 Y10.0000 Z-0.2000 I0.0000 J-1.5000 F799.80
G1 X-1.5000 Y0.0000 Z-0.2000 F799.80
G3 X0.0000 Y-1.5000 Z-0.2000 I1.5000 J0.0000 F799.80
G1 X6.6170 Y-1.5000 Z-0.2000 F799.80
G1 X8.3170 Y-1.5000 Z1.5000 F599.70
G1 X9.6830 Y-1.5000 Z1.5000 F799.80
G1 X11.3830 Y-1.5000 Z-0.2000 F599.70
G1 X18.0000 Y-1.5000 Z-0.2000 F799.80
G3 X19.0607 Y-1.0607 Z-0.2000 I0.0000 J1.5000 F799.80
G1 X21.0607 Y0.9393 Z-0.2000 F799.80
G3 X21.5000 Y2.0000 Z-0.2000 I-1.0607 J1.0607 F799.80
G1 X21.5000 Y2.6170 Z-0.2000 F799.80
G1 X21.5000 Y4.3170 Z1.5000 F599.70
G1 X21.5000 Y5.6830 Z1.5000 F799.80
G1 X21.5000 Y7.3830 Z-0.2000 F599.70
G1 X21.5000 Y8.0000 Z-0.2000 F799.80
G3 X21.0607 Y9.0607 Z-0.2000 I-1.5000 J0.0000 F799.80
G1 X20.0607 Y10.0607 Z-0.2000 F799.80
G0 X20.0607 Y10.0607 Z8.0000
(finish operation: Contour_First)
(begin operation: Contour_Repeat)
(Path: Contour_Repeat)
G0 Z8.0000
G0 X20.0607 Y30.0607 Z8.0000
G0 X20.0607 Y30.0607 Z6.0000
G1 X20.0607 Y30.0607 Z2.9000 F399.60
G1 X19.0607 Y31.0607 Z2.9000 F799.80
G3 X18.0000 Y31.5000 Z2.9000 I-1.0607 J-1.0607 F799.80
G1 X0.0000 Y31.5000 Z2.9000 F799.80
G3 X-1.5000 Y30.0000 Z2.9000 I-0.0000 J-1.5000 F799.80
G1 X-1.5000 Y20.0000 Z2.9000 F799.80
G3 X-0.0000 Y18.5000 Z2.9000 I1.5000 J-0.0000 F799.80
G1 X18.0000 Y18.5000 Z2.9000 F799.80
G3 X19.0607 Y18.9393 Z2.9000 I0.0000 J1.5000 F799.80
G1 X21.0607 Y20.9393 Z2.9000 F799.80
G3 X21.5000 Y22.0000 Z2.9000 I-1.0607 J1.0607 F799.80
G1 X21.5000 Y28.0000 Z2.9000 F799.80
G3 X21.0607 Y29.0607 Z2.9000 I-1.5000 J0.0000 F799.80
G1 X20.0607 Y30.0607 Z2.9000 F799.80
G1 X20.0607 Y30.0607 Z2.6000 F399.60
G1 X19.0607 Y31.0607 Z2.6000 F799.80
G3 X18.0000 Y31.5000 Z2.6000 I-1.0607 J-1.0607 F799.80
G1 X0.0000 Y31.5000 Z2.6000 F799.80
G3 X-1.5000 Y30.0000 Z2.6000 I-0.0000 J-1.5000 F799.80
G1 X-1.5000 Y20.0000 Z2.6000 F799.80
G3 X-0.0000 Y18.5000 Z2.6000 I1.5000 J-0.0000 F799.80
G1 X18.0000 Y18.5000 Z2.6000 F799.80
G3 X19.0607 Y18.9393 Z2.6000 I0.0000 J1.5000 F799.80
G1 X21.0607 Y20.9393 Z2.6000 F799.80
G3 X21.5000 Y22.0000 Z2.6000 I-1.0607 J1.0607 F799.80
G1 X21.5000 Y28.0000 Z2.6000 F799.80
G3 X21.0607 Y29.0607 Z2.6000 I-1.5000 J0.0000 F799.80
G1 X20.0607 Y30.0607 Z2.6000 F799.80
G1 X20.0607 Y30.0607 Z2.3000 F399.60
G1 X19.0607 Y31.0607 Z2.3000 F799.80
G3 X18.0000 Y31.5000 Z2.3000 I-1.0607 J-1.0607 F799.80
G1 X0.0000 Y31.5000 Z2.3000 F799.80
G3 X-1.5000 Y30.0000 Z2.3000 I-0.0000 J-1.5000 F799.80
G1 X-1.5000 Y20.0000 Z2.3000 F799.80
G3 X-0.0000 Y18.5000 Z2.3000 I1.5000 J-0.0000 F799.80
G1 X18.0000 Y18.5000 Z2.3000 F799.80
G3 X19.0607 Y18.9393 Z2.3000 I0.0000 J1.5000 F799.80
G1 X21.0607 Y20.9393 Z2.3000 F799.80
G3 X21.5000 Y22.0000 Z2.3000 I-1.0607 J1.0607 F799.80
G1 X21.5000 Y28.0000 Z2.3000 F799.80
G3 X21.0607 Y29.0607 Z2.3000 I-1.5000 J0.0000 F799.80
G1 X20.0607 Y30.0607 Z2.3000 F799.80
G1 X20.0607 Y30.0607 Z2.0000 F399.60
G1 X19.0607 Y31.0607 Z2.0000 F799.80
G3 X18.0000 Y31.5000 Z2.0000 I-1.0607 J-1.0607 F799.80
G1 X0.0000 Y31.5000 Z2.0000 F799.80
G3 X-1.5000 Y30.0000 Z2.0000 I-0.0000 J-1.5000 F799.80
G1 X-1.5000 Y20.0000 Z2.0000 F799.80
G3 X-0.0000 Y18.5000 Z2.0000 I1.5000 J-0.0000 F799.80
G1 X18.0000 Y18.5000 Z2.0000 F799.80
G3 X19.0607 Y18.9393 Z2.0000 I0.0000 J1.5000 F799.80
G1 X21.0607 Y20.9393 Z2.0000 F799.80
G3 X21.5000 Y22.0000 Z2.0000 I-1.0607 J1.0607 F799.80
G1 X21.5000 Y28.0000 Z2.0000 F799.80
G3 X21.0607 Y29.0607 Z2.0000 I-1.5000 J0.0000 F799.80
G1 X20.0607 Y30.0607 Z2.0000 F799.80
G1 X20.0607 Y30.0607 Z1.7000 F399.60
G1 X19.0607 Y31.0607 Z1.7000 F799.80
G3 X18.0000 Y31.5000 Z1.7000 I-1.0607 J-1.0607 F799.80
G1 X0.0000 Y31.5000 Z1.7000 F799.80
G3 X-1.5000 Y30.0000 Z1.7000 I-0.0000 J-1.5000 F799.80
G1 X-1.5000 Y20.0000 Z1.7000 F799.80
G3 X-0.0000 Y18.5000 Z1.7000 I1.5000 J-0.0000 F799.80
G1 X18.0000 Y18.5000 Z1.7000 F799.80
G3 X19.0607 Y18.9393 Z1.7000 I0.0000 J1.5000 F799.80
G1 X21.0607 Y20.9393 Z1.7000 F799.80
G3 X21.5000 Y22.0000 Z1.7000 I-1.0607 J1.0607 F799.80
G1 X21.5000 Y28.0000 Z1.7000 F799.80
G3 X21.0607 Y29.0607 Z1.7000 I-1.5000 J0.0000 F799.80
G1 X20.0607 Y30.0607 Z1.7000 F799.80
G1 X20.0607 Y30.0607 Z1.4000 F399.60
G1 X19.0607 Y31.0607 Z1.4000 F799.80
G3 X18.0000 Y31.5000 Z1.4000 I-1.0607 J-1.0607 F799.80
G1 X0.0000 Y31.5000 Z1.4000 F799.80
G3 X-1.5000 Y30.0000 Z1.4000 I-0.0000 J-1.5000 F799.80
G1 X-1.5000 Y20.0000 Z1.4000 F799.80
G3 X-0.0000 Y18.5000 Z1.4000 I1.5000 J-0.0000 F799.80
G1 X18.0000 Y18.5000 Z1.4000 F799.80
G3 X19.0607 Y18.9393 Z1.4000 I0.0000 J1.5000 F799.80
G1 X21.0607 Y20.9393 Z1.4000 F799.80
G3 X21.5000 Y22.0000 Z1.4000 I-1.0607 J1.0607 F799.80
G1 X21.5000 Y28.0000 Z1.4000 F799.80
G3 X21.0607 Y29.0607 Z1.4000 I-1.5000 J0.0000 F799.80
G1 X20.0607 Y30.0607 Z1.4000 F799.80
G1 X20.0607 Y30.0607 Z1.1000 F399.60
G1 X19.0607 Y31.0607 Z1.1000 F799.80
G3 X18.0000 Y31.5000 Z1.1000 I-1.0607 J-1.0607 F799.80
G1 X0.0000 Y31.5000 Z1.1000 F799.80
G3 X-1.5000 Y30.0000 Z1.1000 I-0.0000 J-1.5000 F799.80
G1 X-1.5000 Y20.0000 Z1.1000 F799.80
G3 X-0.0000 Y18.5000 Z1.1000 I1.5000 J-0.0000 F799.80
G1 X18.0000 Y18.5000 Z1.1000 F799.80
G3 X19.0607 Y18.9393 Z1.1000 I0.0000 J1.5000 F799.80
G1 X21.0607 Y20.9393 Z1.1000 F799.80
G3 X21.5000 Y22.0000 Z1.1000 I-1.0607 J1.0607 F799.80
G1 X21.5000 Y28.0000 Z1.1000 F799.80
G3 X21.0607 Y29.0607 Z1.1000 I-1.5000 J0.0000 F799.80
G1 X20.0607 Y30.0607 Z1.1000 F799.80
G1 X20.0607 Y30.0607 Z0.8000 F399.60
G1 X19.0607 Y31.0607 Z0.8000 F799.80
G3 X18.0000 Y31.5000 Z0.8000 I-1.0607 J-1.0607 F799.80
G1 X0.0000 Y31.5000 Z0.8000 F799.80
G3 X-1.5000 Y30.0000 Z0.8000 I-0.0000 J-1.5000 F799.80
G1 X-1.5000 Y20.0000 Z0.8000 F799.80
G3 X-0.0000 Y18.5000 Z0.8000 I1.5000 J-0.0000 F799.80
G1 X18.0000 Y18.5000 Z0.8000 F799.80
G3 X19.0607 Y18.9393 Z0.8000 I0.0000 J1.5000 F799.80
G1 X21.0607 Y20.9393 Z0.8000 F799.80
G3 X21.5000 Y22.0000 Z0.8000 I-1.0607 J1.0607 F799.80
G1 X21.5000 Y28.0000 Z0.8000 F799.80
G3 X21.0607 Y29.0607 Z0.8000 I-1.5000 J0.0000 F799.80
G1 X20.0607 Y30.0607 Z0.8000 F799.80
G1 X20.0607 Y30.0607 Z0.5000 F399.60
G1 X19.0607 Y31.0607 Z0.5000 F799.80
G3 X18.0000 Y31.5000 Z0.5000 I-1.0607 J-1.0607 F799.80
G1 X0.0000 Y31.5000 Z0.5000 F799.80
G3 X-1.5000 Y30.0000 Z0.5000 I-0.0000 J-1.5000 F799.80
G1 X-1.5000 Y20.0000 Z0.5000 F799.80
G3 X-0.0000 Y18.5000 Z0.5000 I1.5000 J-0.0000 F799.80
G1 X18.0000 Y18.5000 Z0.5000 F799.80
G3 X19.0607 Y18.9393 Z0.5000 I0.0000 J1.5000 F799.80
G1 X21.0607 Y20.9393 Z0.5000 F799.80
G3 X21.5000 Y22.0000 Z0.5000 I-1.0607 J1.0607 F799.80
G1 X21.5000 Y28.0000 Z0.5000 F799.80
G3 X21.0607 Y29.0607 Z0.5000 I-1.5000 J0.0000 F799.80
G1 X20.0607 Y30.0607 Z0.5000 F799.80
G1 X20.0607 Y30.0607 Z0.2000 F399.60
G1 X19.0607 Y31.0607 Z0.2000 F799.80
G3 X18.0000 Y31.5000 Z0.2000 I-1.0607 J-1.0607 F799.80
G1 X0.0000 Y31.5000 Z0.2000 F799.80
G3 X-1.5000 Y30.0000 Z0.2000 I-0.0000 J-1.5000 F799.80
G1 X-1.5000 Y20.0000 Z0.2000 F799.80
G3 X-0.0000 Y18.5000 Z0.2000 I1.5000 J-0.0000 F799.80
G1 X18.0000 Y18.5000 Z0.2000 F799.80
G3 X19.0607 Y18.9393 Z0.2000 I0.0000 J1.5000 F799.80
G1 X21.0607 Y20.9393 Z0.2000 F799.80
G3 X21.5000 Y22.0000 Z0.2000 I-1.0607 J1.0607 F799.80
G1 X21.5000 Y28.0000 Z0.2000 F799.80
G3 X21.0607 Y29.0607 Z0.2000 I-1.5000 J0.0000 F799.80
G1 X20.0607 Y30.0607 Z0.2000 F799.80
G1 X20.0607 Y30.0607 Z-0.1000 F399.60
G1 X19.0607 Y31.0607 Z-0.1000 F799.80
G3 X18.0000 Y31.5000 Z-0.1000 I-1.0607 J-1.0607 F799.80
G1 X0.0000 Y31.5000 Z-0.1000 F799.80
G3 X-1.5000 Y30.0000 Z-0.1000 I-0.0000 J-1.5000 F799.80
G1 X-1.5000 Y20.0000 Z-0.1000 F799.80
G3 X-0.0000 Y18.5000 Z-0.1000 I1.5000 J-0.0000 F799.80
G1 X18.0000 Y18.5000 Z-0.1000 F799.80
G3 X19.0607 Y18.9393 Z-0.1000 I0.0000 J1.5000 F799.80
G1 X21.0607 Y20.9393 Z-0.1000 F799.80
G3 X21.5000 Y22.0000 Z-0.1000 I-1.0607 J1.0607 F799.80
G1 X21.5000 Y28.0000 Z-0.1000 F799.80
G3 X21.0607 Y29.0607 Z-0.1000 I-1.5000 J0.0000 F799.80
G1 X20.0607 Y30.0607 Z-0.1000 F799.80
G1 X20.0607 Y30.0607 Z-0.2000 F399.60
G1 X19.0607 Y31.0607 Z-0.2000 F799.80
G3 X18.0000 Y31.5000 Z-0.2000 I-1.0607 J-1.0607 F799.80
G1 X0.0000 Y31.5000 Z-0.2000 F799.80
G3 X-1.5000 Y30.0000 Z-0.2000 I-0.0000 J-1.5000 F799.80
G1 X-1.5000 Y20.0000 Z-0.2000 F799.80
G3 X-0.0000 Y18.5000 Z-0.2000 I1.5000 J-0.0000 F799.80
G1 X18.0000 Y18.5000 Z-0.2000 F799.80
G3 X19.0607 Y18.9393 Z-0.2000 I0.0000 J1.5000 F799.80
G1 X21.0607 Y20.9393 Z-0.2000 F799.80
G3 X21.5000 Y22.0000 Z-0.2000 I-1.0607 J1.0607 F799.80
G1 X21.5000 Y28.0000 Z-0.2000 F799.80
G3 X21.0607 Y29.0607 Z-0.2000 I-1.5000 J0.0000 F799.80
G1 X20.0607 Y30.0607 Z-0.2000 F799.80
G0 X20.0607 Y30.0607 Z8.0000
G0 X20.0607 Y50.0607 Z8.0000
G0 X20.0607 Y50.0607 Z6.0000
G1 X20.0607 Y50.0607 Z2.9000 F399.60
G1 X19.0607 Y51.0607 Z2.9000 F799.80
G3 X18.0000 Y51.5000 Z2.9000 I-1.0607 J-1.0607 F799.80
G1 X0.0000 Y51.5000 Z2.9000 F799.80
G3 X-1.5000 Y50.0000 Z2.9000 I-0.0000 J-1.5000 F799.80
G1 X-1.5000 Y40.0000 Z2.9000 F799.80
G3 X0.0000 Y38.5000 Z2.9000 I1.5000 J-0.0000 F799.80
G1 X18.0000 Y38.5000 Z2.9000 F799.80
G3 X19.0607 Y38.9393 Z2.9000 I0.0000 J1.5000 F799.80
G1 X21.0607 Y40.9393 Z2.9000 F799.80
G3 X21.5000 Y42.0000 Z2.9000 I-1.0607 J1.0607 F799.80
G1 X21.5000 Y48.0000 Z2.9000 F799.80
G3 X21.0607 Y49.0607 Z2.9000 I-1.5000 J0.0000 F799.80
G1 X20.0607 Y50.0607 Z2.9000 F799.80
G1 X20.0607 Y50.0607 Z2.6000 F399.60
G1 X19.0607 Y51.0607 Z2.6000 F799.80
G3 X18.0000 Y51.5000 Z2.6000 I-1.0607 J-1.0607 F799.80
G1 X0.0000 Y51.5000 Z2.6000 F799.80
G3 X-1.5000 Y50.0000 Z2.6000 I-0.0000 J-1.5000 F799.80
G1 X-1.5000 Y40.0000 Z2.6000 F799.80
G3 X0.0000 Y38.5000 Z2.6000 I1.5000 J-0.0000 F799.80
G1 X18.0000 Y38.5000 Z2.6000 F799.80
G3 X19.0607 Y38.9393 Z2.6000 I0.0000 J1.5000 F799.80
G1 X21.0607 Y40.9393 Z2.6000 F799.80
G3 X21.5000 Y42.0000 Z2.6000 I-1.0607 J1.0607 F799.80
G1 X21.5000 Y48.0000 Z2.6000 F799.80
G3 X21.0607 Y49.0607 Z2.6000 I-1.5000 J0.0000 F799.80
G1 X20.0607 Y50.0607 Z2.6000 F799.80
G1 X20.0607 Y50.0607 Z2.3000 F399.60
G1 X19.0607 Y51.0607 Z2.3000 F799.80
G3 X18.0000 Y51.5000 Z2.3000 I-1.0607 J-1.0607 F799.80
G1 X0.0000 Y51.5000 Z2.3000 F799.80
G3 X-1.5000 Y50.0000 Z2.3000 I-0.0000 J-1.5000 F799.80
G1 X-1.5000 Y40.0000 Z2.3000 F799.80
G3 X0.0000 Y38.5000 Z2.3000 I1.5000 J-0.0000 F799.80
G1 X18.0000 Y38.5000 Z2.3000 F799.80
G3 X19.0607 Y38.9393 Z2.3000 I0.0000 J1.5000 F799.80
G1 X21.0607 Y40.9393 Z2.3000 F799.80
G3 X21.5000 Y42.0000 Z2.3000 I-1.0607 J1.0607 F799.80
G1 X21.5000 Y48.0000 Z2.3000 F799.80
G3 X21.0607 Y49.0607 Z2.3000 I-1.5000 J0.0000 F799.80
G1 X20.0607 Y50.0607 Z2.3000 F799.80
G1 X20.0607 Y50.0607 Z2.0000 F399.60
G1 X19.0607 Y51.0607 Z2.0000 F799.80
G3 X18.0000 Y51.5000 Z2.0000 I-1.0607 J-1.0607 F799.80
G1 X0.0000 Y51.5000 Z2.0000 F799.80
G3 X-1.5000 Y50.0000 Z2.0000 I-0.0000 J-1.5000 F799.80
G1 X-1.5000 Y40.0000 Z2.0000 F799.80
G3 X0.0000 Y38.5000 Z2.0000 I1.5000 J-0.0000 F799.80
G1 X18.0000 Y38.5000 Z2.0000 F799.80
G3 X19.0607 Y38.9393 Z2.0000 I0.0000 J1.5000 F799.80
G1 X21.0607 Y40.9393 Z2.0000 F799.80
G3 X21.5000 Y42.0000 Z2.0000 I-1.0607 J1.0607 F799.80
G1 X21.5000 Y48.0000 Z2.0000 F799.80
G3 X21.0607 Y49.0607 Z2.0000 I-1.5000 J0.0000 F799.80
G1 X20.0607 Y50.0607 Z2.0000 F799.80
G1 X20.0607 Y50.0607 Z1.7000 F399.60
G1 X19.0607 Y51.0607 Z1.7000 F799.80
G3 X18.0000 Y51.5000 Z1.7000 I-1.0607 J-1.0607 F799.80
G1 X0.0000 Y51.5000 Z1.7000 F799.80
G3 X-1.5000 Y50.0000 Z1.7000 I-0.0000 J-1.5000 F799.80
G1 X-1.5000 Y40.0000 Z1.7000 F799.80
G3 X0.0000 Y38.5000 Z1.7000 I1.5000 J-0.0000 F799.80
G1 X18.0000 Y38.5000 Z1.7000 F799.80
G3 X19.0607 Y38.9393 Z1.7000 I0.0000 J1.5000 F799.80
G1 X21.0607 Y40.9393 Z1.7000 F799.80
G3 X21.5000 Y42.0000 Z1.7000 I-1.0607 J1.0607 F799.80
G1 X21.5000 Y48.0000 Z1.7000 F799.80
G3 X21.0607 Y49.0607 Z1.7000 I-1.5000 J0.0000 F799.80
G1 X20.0607 Y50.0607 Z1.7000 F799.80
G1 X20.0607 Y50.0607 Z1.4000 F399.60
G1 X19.0607 Y51.0607 Z1.4000 F799.80
G3 X18.0000 Y51.5000 Z1.4000 I-1.0607 J-1.0607 F799.80
G1 X0.0000 Y51.5000 Z1.4000 F799.80
G3 X-1.5000 Y50.0000 Z1.4000 I-0.0000 J-1.5000 F799.80
G1 X-1.5000 Y40.0000 Z1.4000 F799.80
G3 X0.0000 Y38.5000 Z1.4000 I1.5000 J-0.0000 F799.80
G1 X18.0000 Y38.5000 Z1.4000 F799.80
G3 X19.0607 Y38.9393 Z1.4000 I0.0000 J1.5000 F799.80
G1 X21.0607 Y40.9393 Z1.4000 F799.80
G3 X21.5000 Y42.0000 Z1.4000 I-1.0607 J1.0607 F799.80
G1 X21.5000 Y48.0000 Z1.4000 F799.80
G3 X21.0607 Y49.0607 Z1.4000 I-1.5000 J0.0000 F799.80
G1 X20.0607 Y50.0607 Z1.4000 F799.80
G1 X20.0607 Y50.0607 Z1.1000 F399.60
G1 X19.0607 Y51.0607 Z1.1000 F799.80
G3 X18.0000 Y51.5000 Z1.1000 I-1.0607 J-1.0607 F799.80
G1 X0.0000 Y51.5000 Z1.1000 F799.80
G3 X-1.5000 Y50.0000 Z1.1000 I-0.0000 J-1.5000 F799.80
G1 X-1.5000 Y40.0000 Z1.1000 F799.80
G3 X0.0000 Y38.5000 Z1.1000 I1.5000 J-0.0000 F799.80
G1 X18.0000 Y38.5000 Z1.1000 F799.80
G3 X19.0607 Y38.9393 Z1.1000 I0.0000 J1.5000 F799.80
G1 X21.0607 Y40.9393 Z1.1000 F799.80
G3 X21.5000 Y42.0000 Z1.1000 I-1.0607 J1.0607 F799.80
G1 X21.5000 Y48.0000 Z1.1000 F799.80
G3 X21.0607 Y49.0607 Z1.1000 I-1.5000 J0.0000 F799.80
G1 X20.0607 Y50.0607 Z1.1000 F799.80
G1 X20.0607 Y50.0607 Z0.8000 F399.60
G1 X19.0607 Y51.0607 Z0.8000 F799.80
G3 X18.0000 Y51.5000 Z0.8000 I-1.0607 J-1.0607 F799.80
G1 X0.0000 Y51.5000 Z0.8000 F799.80
G3 X-1.5000 Y50.0000 Z0.8000 I-0.0000 J-1.5000 F799.80
G1 X-1.5000 Y40.0000 Z0.8000 F799.80
G3 X0.0000 Y38.5000 Z0.8000 I1.5000 J-0.0000 F799.80
G1 X18.0000 Y38.5000 Z0.8000 F799.80
G3 X19.0607 Y38.9393 Z0.8000 I0.0000 J1.5000 F799.80
G1 X21.0607 Y40.9393 Z0.8000 F799.80
G3 X21.5000 Y42.0000 Z0.8000 I-1.0607 J1.0607 F799.80
G1 X21.5000 Y48.0000 Z0.8000 F799.80
G3 X21.0607 Y49.0607 Z0.8000 I-1.5000 J0.0000 F799.80
G1 X20.0607 Y50.0607 Z0.8000 F799.80
G1 X20.0607 Y50.0607 Z0.5000 F399.60
G1 X19.0607 Y51.0607 Z0.5000 F799.80
G3 X18.0000 Y51.5000 Z0.5000 I-1.0607 J-1.0607 F799.80
G1 X0.0000 Y51.5000 Z0.5000 F799.80
G3 X-1.5000 Y50.0000 Z0.5000 I-0.0000 J-1.5000 F799.80
G1 X-1.5000 Y40.0000 Z0.5000 F799.80
G3 X0.0000 Y38.5000 Z0.5000 I1.5000 J-0.0000 F799.80
G1 X18.0000 Y38.5000 Z0.5000 F799.80
G3 X19.0607 Y38.9393 Z0.5000 I0.0000 J1.5000 F799.80
G1 X21.0607 Y40.9393 Z0.5000 F799.80
G3 X21.5000 Y42.0000 Z0.5000 I-1.0607 J1.0607 F799.80
G1 X21.5000 Y48.0000 Z0.5000 F799.80
G3 X21.0607 Y49.0607 Z0.5000 I-1.5000 J0.0000 F799.80
G1 X20.0607 Y50.0607 Z0.5000 F799.80
G1 X20.0607 Y50.0607 Z0.2000 F399.60
G1 X19.0607 Y51.0607 Z0.2000 F799.80
G3 X18.0000 Y51.5000 Z0.2000 I-1.0607 J-1.0607 F799.80
G1 X0.0000 Y51.5000 Z0.2000 F799.80
G3 X-1.5000 Y50.0000 Z0.2000 I-0.0000 J-1.5000 F799.80
G1 X-1.5000 Y40.0000 Z0.2000 F799.80
G3 X0.0000 Y38.5000 Z0.2000 I1.5000 J-0.0000 F799.80
G1 X18.0000 Y38.5000 Z0.2000 F799.80
G3 X19.0607 Y38.9393 Z0.2000 I0.0000 J1.5000 F799.80
G1 X21.0607 Y40.9393 Z0.2000 F799.80
G3 X21.5000 Y42.0000 Z0.2000 I-1.0607 J1.0607 F799.80
G1 X21.5000 Y48.0000 Z0.2000 F799.80
G3 X21.0607 Y49.0607 Z0.2000 I-1.5000 J0.0000 F799.80
G1 X20.0607 Y50.0607 Z0.2000 F799.80
G1 X20.0607 Y50.0607 Z-0.1000 F399.60
G1 X19.0607 Y51.0607 Z-0.1000 F799.80
G3 X18.0000 Y51.5000 Z-0.1000 I-1.0607 J-1.0607 F799.80
G1 X0.0000 Y51.5000 Z-0.1000 F799.80
G3 X-1.5000 Y50.0000 Z-0.1000 I-0.0000 J-1.5000 F799.80
G1 X-1.5000 Y40.0000 Z-0.1000 F799.80
G3 X0.0000 Y38.5000 Z-0.1000 I1.5000 J-0.0000 F799.80
G1 X18.0000 Y38.5000 Z-0.1000 F799.80
G3 X19.0607 Y38.9393 Z-0.1000 I0.0000 J1.5000 F799.80
G1 X21.0607 Y40.9393 Z-0.1000 F799.80
G3 X21.5000 Y42.0000 Z-0.1000 I-1.0607 J1.0607 F799.80
G1 X21.5000 Y48.0000 Z-0.1000 F799.80
G3 X21.0607 Y49.0607 Z-0.1000 I-1.5000 J0.0000 F799.80
G1 X20.0607 Y50.0607 Z-0.1000 F799.80
G1 X20.0607 Y50.0607 Z-0.2000 F399.60
G1 X19.0607 Y51.0607 Z-0.2000 F799.80
G3 X18.0000 Y51.5000 Z-0.2000 I-1.0607 J-1.0607 F799.80
G1 X0.0000 Y51.5000 Z-0.2000 F799.80
G3 X-1.5000 Y50.0000 Z-0.2000 I-0.0000 J-1.5000 F799.80
G1 X-1.5000 Y40.0000 Z-0.2000 F799.80
G3 X0.0000 Y38.5000 Z-0.2000 I1.5000 J-0.0000 F799.80
G1 X18.0000 Y38.5000 Z-0.2000 F799.80
G3 X19.0607 Y38.9393 Z-0.2000 I0.0000 J1.5000 F799.80
G1 X21.0607 Y40.9393 Z-0.2000 F799.80
G3 X21.5000 Y42.0000 Z-0.2000 I-1.0607 J1.0607 F799.80
G1 X21.5000 Y48.0000 Z-0.2000 F799.80
G3 X21.0607 Y49.0607 Z-0.2000 I-1.5000 J0.0000 F799.80
G1 X20.0607 Y50.0607 Z-0.2000 F799.80
G0 X20.0607 Y50.0607 Z8.0000
(finish operation: Contour_Repeat)
(begin postamble)
M5
G17 G90
; M2
