(Exported by FreeCAD)
(Post Processor: grbl_post)
(Output Time:2020-02-02 19:48:50.915558)
(begin preamble)
G17 G90
G21
(begin operation: T3: AluminiumMill)
(Path: T3: AluminiumMill)
(T3: AluminiumMill)
(begin toolchange)
; M6 T3
M3 S17000.0000
(finish operation: T3: AluminiumMill)
(begin operation: Holes_Slits_First)
(Path: Holes_Slits_First)
(Holes_Slits_First)
(Compensated Tool Path. Diameter: 3.0)
G0 Z8.0000
G0 X5.5197 Y5.4197
G0 Z6.0000
G1 X5.5197 Y5.4197 Z2.9000 F399.60
G2 X5.6535 Y5.2144 Z2.9000 I-0.4197 J-0.4197 F799.80
G2 X5.3144 Y4.4465 Z2.9000 I-0.5535 J-0.2144 F799.80
G2 X4.5465 Y4.7856 Z2.9000 I-0.2144 J0.5535 F799.80
G2 X5.5197 Y5.4197 Z2.9000 I0.5535 J0.2144 F799.80
G1 X5.5197 Y5.4197 Z2.6000 F399.60
G2 X5.6535 Y5.2144 Z2.6000 I-0.4197 J-0.4197 F799.80
G2 X5.3144 Y4.4465 Z2.6000 I-0.5535 J-0.2144 F799.80
G2 X4.5465 Y4.7856 Z2.6000 I-0.2144 J0.5535 F799.80
G2 X5.5197 Y5.4197 Z2.6000 I0.5535 J0.2144 F799.80
G1 X5.5197 Y5.4197 Z2.3000 F399.60
G2 X5.6535 Y5.2144 Z2.3000 I-0.4197 J-0.4197 F799.80
G2 X5.3144 Y4.4465 Z2.3000 I-0.5535 J-0.2144 F799.80
G2 X4.5465 Y4.7856 Z2.3000 I-0.2144 J0.5535 F799.80
G2 X5.5197 Y5.4197 Z2.3000 I0.5535 J0.2144 F799.80
G1 X5.5197 Y5.4197 Z2.0000 F399.60
G2 X5.6535 Y5.2144 Z2.0000 I-0.4197 J-0.4197 F799.80
G2 X5.3144 Y4.4465 Z2.0000 I-0.5535 J-0.2144 F799.80
G2 X4.5465 Y4.7856 Z2.0000 I-0.2144 J0.5535 F799.80
G2 X5.5197 Y5.4197 Z2.0000 I0.5535 J0.2144 F799.80
G1 X5.5197 Y5.4197 Z1.7000 F399.60
G2 X5.6535 Y5.2144 Z1.7000 I-0.4197 J-0.4197 F799.80
G2 X5.3144 Y4.4465 Z1.7000 I-0.5535 J-0.2144 F799.80
G2 X4.5465 Y4.7856 Z1.7000 I-0.2144 J0.5535 F799.80
G2 X5.5197 Y5.4197 Z1.7000 I0.5535 J0.2144 F799.80
G1 X5.5197 Y5.4197 Z1.4000 F399.60
G2 X5.6535 Y5.2144 Z1.4000 I-0.4197 J-0.4197 F799.80
G2 X5.3144 Y4.4465 Z1.4000 I-0.5535 J-0.2144 F799.80
G2 X4.5465 Y4.7856 Z1.4000 I-0.2144 J0.5535 F799.80
G2 X5.5197 Y5.4197 Z1.4000 I0.5535 J0.2144 F799.80
G1 X5.5197 Y5.4197 Z1.1000 F399.60
G2 X5.6535 Y5.2144 Z1.1000 I-0.4197 J-0.4197 F799.80
G2 X5.3144 Y4.4465 Z1.1000 I-0.5535 J-0.2144 F799.80
G2 X4.5465 Y4.7856 Z1.1000 I-0.2144 J0.5535 F799.80
G2 X5.5197 Y5.4197 Z1.1000 I0.5535 J0.2144 F799.80
G1 X5.5197 Y5.4197 Z0.8000 F399.60
G2 X5.6535 Y5.2144 Z0.8000 I-0.4197 J-0.4197 F799.80
G2 X5.3144 Y4.4465 Z0.8000 I-0.5535 J-0.2144 F799.80
G2 X4.5465 Y4.7856 Z0.8000 I-0.2144 J0.5535 F799.80
G2 X5.5197 Y5.4197 Z0.8000 I0.5535 J0.2144 F799.80
G1 X5.5197 Y5.4197 Z0.5000 F399.60
G2 X5.6535 Y5.2144 Z0.5000 I-0.4197 J-0.4197 F799.80
G2 X5.3144 Y4.4465 Z0.5000 I-0.5535 J-0.2144 F799.80
G2 X4.5465 Y4.7856 Z0.5000 I-0.2144 J0.5535 F799.80
G2 X5.5197 Y5.4197 Z0.5000 I0.5535 J0.2144 F799.80
G1 X5.5197 Y5.4197 Z0.2000 F399.60
G2 X5.6535 Y5.2144 Z0.2000 I-0.4197 J-0.4197 F799.80
G2 X5.3144 Y4.4465 Z0.2000 I-0.5535 J-0.2144 F799.80
G2 X4.5465 Y4.7856 Z0.2000 I-0.2144 J0.5535 F799.80
G2 X5.5197 Y5.4197 Z0.2000 I0.5535 J0.2144 F799.80
G1 X5.5197 Y5.4197 Z-0.1000 F399.60
G2 X5.6535 Y5.2144 Z-0.1000 I-0.4197 J-0.4197 F799.80
G2 X5.3144 Y4.4465 Z-0.1000 I-0.5535 J-0.2144 F799.80
G2 X4.5465 Y4.7856 Z-0.1000 I-0.2144 J0.5535 F799.80
G2 X5.5197 Y5.4197 Z-0.1000 I0.5535 J0.2144 F799.80
G1 X5.5197 Y5.4197 Z-0.2000 F399.60
G2 X5.6535 Y5.2144 Z-0.2000 I-0.4197 J-0.4197 F799.80
G2 X5.3144 Y4.4465 Z-0.2000 I-0.5535 J-0.2144 F799.80
G2 X4.5465 Y4.7856 Z-0.2000 I-0.2144 J0.5535 F799.80
G2 X5.5197 Y5.4197 Z-0.2000 I0.5535 J0.2144 F799.80
G0 Z8.0000
G0 X15.1125 Y5.1764
G0 Z6.0000
G1 X15.1125 Y5.1764 Z2.9000 F399.60
G2 X14.8714 Y4.7500 Z2.9000 I-0.1740 J-0.1830 F799.80
G1 X12.0286 Y4.7500 Z2.9000 F799.80
G2 X11.8517 Y4.7792 Z2.9000 I-0.0199 J0.4308 F799.80
G2 X12.0286 Y5.2500 Z2.9000 I0.1097 J0.2274 F799.80
G1 X14.8714 Y5.2500 Z2.9000 F799.80
G2 X15.0483 Y5.2208 Z2.9000 I0.0199 J-0.4308 F799.80
G2 X15.1125 Y5.1764 Z2.9000 I-0.1097 J-0.2274 F799.80
G1 X15.1125 Y5.1764 Z2.6000 F399.60
G2 X14.8714 Y4.7500 Z2.6000 I-0.1740 J-0.1830 F799.80
G1 X12.0286 Y4.7500 Z2.6000 F799.80
G2 X11.8517 Y4.7792 Z2.6000 I-0.0199 J0.4308 F799.80
G2 X12.0286 Y5.2500 Z2.6000 I0.1097 J0.2274 F799.80
G1 X14.8714 Y5.2500 Z2.6000 F799.80
G2 X15.0483 Y5.2208 Z2.6000 I0.0199 J-0.4308 F799.80
G2 X15.1125 Y5.1764 Z2.6000 I-0.1097 J-0.2274 F799.80
G1 X15.1125 Y5.1764 Z2.3000 F399.60
G2 X14.8714 Y4.7500 Z2.3000 I-0.1740 J-0.1830 F799.80
G1 X12.0286 Y4.7500 Z2.3000 F799.80
G2 X11.8517 Y4.7792 Z2.3000 I-0.0199 J0.4308 F799.80
G2 X12.0286 Y5.2500 Z2.3000 I0.1097 J0.2274 F799.80
G1 X14.8714 Y5.2500 Z2.3000 F799.80
G2 X15.0483 Y5.2208 Z2.3000 I0.0199 J-0.4308 F799.80
G2 X15.1125 Y5.1764 Z2.3000 I-0.1097 J-0.2274 F799.80
G1 X15.1125 Y5.1764 Z2.0000 F399.60
G2 X14.8714 Y4.7500 Z2.0000 I-0.1740 J-0.1830 F799.80
G1 X12.0286 Y4.7500 Z2.0000 F799.80
G2 X11.8517 Y4.7792 Z2.0000 I-0.0199 J0.4308 F799.80
G2 X12.0286 Y5.2500 Z2.0000 I0.1097 J0.2274 F799.80
G1 X14.8714 Y5.2500 Z2.0000 F799.80
G2 X15.0483 Y5.2208 Z2.0000 I0.0199 J-0.4308 F799.80
G2 X15.1125 Y5.1764 Z2.0000 I-0.1097 J-0.2274 F799.80
G1 X15.1125 Y5.1764 Z1.7000 F399.60
G2 X14.8714 Y4.7500 Z1.7000 I-0.1740 J-0.1830 F799.80
G1 X12.0286 Y4.7500 Z1.7000 F799.80
G2 X11.8517 Y4.7792 Z1.7000 I-0.0199 J0.4308 F799.80
G2 X12.0286 Y5.2500 Z1.7000 I0.1097 J0.2274 F799.80
G1 X14.8714 Y5.2500 Z1.7000 F799.80
G2 X15.0483 Y5.2208 Z1.7000 I0.0199 J-0.4308 F799.80
G2 X15.1125 Y5.1764 Z1.7000 I-0.1097 J-0.2274 F799.80
G1 X15.1125 Y5.1764 Z1.4000 F399.60
G2 X14.8714 Y4.7500 Z1.4000 I-0.1740 J-0.1830 F799.80
G1 X12.0286 Y4.7500 Z1.4000 F799.80
G2 X11.8517 Y4.7792 Z1.4000 I-0.0199 J0.4308 F799.80
G2 X12.0286 Y5.2500 Z1.4000 I0.1097 J0.2274 F799.80
G1 X14.8714 Y5.2500 Z1.4000 F799.80
G2 X15.0483 Y5.2208 Z1.4000 I0.0199 J-0.4308 F799.80
G2 X15.1125 Y5.1764 Z1.4000 I-0.1097 J-0.2274 F799.80
G1 X15.1125 Y5.1764 Z1.1000 F399.60
G2 X14.8714 Y4.7500 Z1.1000 I-0.1740 J-0.1830 F799.80
G1 X12.0286 Y4.7500 Z1.1000 F799.80
G2 X11.8517 Y4.7792 Z1.1000 I-0.0199 J0.4308 F799.80
G2 X12.0286 Y5.2500 Z1.1000 I0.1097 J0.2274 F799.80
G1 X14.8714 Y5.2500 Z1.1000 F799.80
G2 X15.0483 Y5.2208 Z1.1000 I0.0199 J-0.4308 F799.80
G2 X15.1125 Y5.1764 Z1.1000 I-0.1097 J-0.2274 F799.80
G1 X15.1125 Y5.1764 Z0.8000 F399.60
G2 X14.8714 Y4.7500 Z0.8000 I-0.1740 J-0.1830 F799.80
G1 X12.0286 Y4.7500 Z0.8000 F799.80
G2 X11.8517 Y4.7792 Z0.8000 I-0.0199 J0.4308 F799.80
G2 X12.0286 Y5.2500 Z0.8000 I0.1097 J0.2274 F799.80
G1 X14.8714 Y5.2500 Z0.8000 F799.80
G2 X15.0483 Y5.2208 Z0.8000 I0.0199 J-0.4308 F799.80
G2 X15.1125 Y5.1764 Z0.8000 I-0.1097 J-0.2274 F799.80
G1 X15.1125 Y5.1764 Z0.5000 F399.60
G2 X14.8714 Y4.7500 Z0.5000 I-0.1740 J-0.1830 F799.80
G1 X12.0286 Y4.7500 Z0.5000 F799.80
G2 X11.8517 Y4.7792 Z0.5000 I-0.0199 J0.4308 F799.80
G2 X12.0286 Y5.2500 Z0.5000 I0.1097 J0.2274 F799.80
G1 X14.8714 Y5.2500 Z0.5000 F799.80
G2 X15.0483 Y5.2208 Z0.5000 I0.0199 J-0.4308 F799.80
G2 X15.1125 Y5.1764 Z0.5000 I-0.1097 J-0.2274 F799.80
G1 X15.1125 Y5.1764 Z0.2000 F399.60
G2 X14.8714 Y4.7500 Z0.2000 I-0.1740 J-0.1830 F799.80
G1 X12.0286 Y4.7500 Z0.2000 F799.80
G2 X11.8517 Y4.7792 Z0.2000 I-0.0199 J0.4308 F799.80
G2 X12.0286 Y5.2500 Z0.2000 I0.1097 J0.2274 F799.80
G1 X14.8714 Y5.2500 Z0.2000 F799.80
G2 X15.0483 Y5.2208 Z0.2000 I0.0199 J-0.4308 F799.80
G2 X15.1125 Y5.1764 Z0.2000 I-0.1097 J-0.2274 F799.80
G1 X15.1125 Y5.1764 Z-0.1000 F399.60
G2 X14.8714 Y4.7500 Z-0.1000 I-0.1740 J-0.1830 F799.80
G1 X12.0286 Y4.7500 Z-0.1000 F799.80
G2 X11.8517 Y4.7792 Z-0.1000 I-0.0199 J0.4308 F799.80
G2 X12.0286 Y5.2500 Z-0.1000 I0.1097 J0.2274 F799.80
G1 X14.8714 Y5.2500 Z-0.1000 F799.80
G2 X15.0483 Y5.2208 Z-0.1000 I0.0199 J-0.4308 F799.80
G2 X15.1125 Y5.1764 Z-0.1000 I-0.1097 J-0.2274 F799.80
G1 X15.1125 Y5.1764 Z-0.2000 F399.60
G2 X14.8714 Y4.7500 Z-0.2000 I-0.1740 J-0.1830 F799.80
G1 X12.0286 Y4.7500 Z-0.2000 F799.80
G2 X11.8517 Y4.7792 Z-0.2000 I-0.0199 J0.4308 F799.80
G2 X12.0286 Y5.2500 Z-0.2000 I0.1097 J0.2274 F799.80
G1 X14.8714 Y5.2500 Z-0.2000 F799.80
G2 X15.0483 Y5.2208 Z-0.2000 I0.0199 J-0.4308 F799.80
G2 X15.1125 Y5.1764 Z-0.2000 I-0.1097 J-0.2274 F799.80
G0 Z8.0000
(finish operation: Holes_Slits_First)
(begin operation: Holes_Slits_Repeat)
(Path: Holes_Slits_Repeat)
(Holes_Slits_First)
(Compensated Tool Path. Diameter: 3.0)
G0 Z8.0000
G0 X5.5197 Y20.4197
G0 Z6.0000
G1 X5.5197 Y20.4197 Z2.9000 F399.60
G2 X5.6535 Y20.2144 Z2.9000 I-0.4197 J-0.4197 F799.80
G2 X5.3144 Y19.4465 Z2.9000 I-0.5535 J-0.2144 F799.80
G2 X4.5465 Y19.7856 Z2.9000 I-0.2144 J0.5535 F799.80
G2 X5.5197 Y20.4197 Z2.9000 I0.5535 J0.2144 F799.80
G1 X5.5197 Y20.4197 Z2.6000 F399.60
G2 X5.6535 Y20.2144 Z2.6000 I-0.4197 J-0.4197 F799.80
G2 X5.3144 Y19.4465 Z2.6000 I-0.5535 J-0.2144 F799.80
G2 X4.5465 Y19.7856 Z2.6000 I-0.2144 J0.5535 F799.80
G2 X5.5197 Y20.4197 Z2.6000 I0.5535 J0.2144 F799.80
G1 X5.5197 Y20.4197 Z2.3000 F399.60
G2 X5.6535 Y20.2144 Z2.3000 I-0.4197 J-0.4197 F799.80
G2 X5.3144 Y19.4465 Z2.3000 I-0.5535 J-0.2144 F799.80
G2 X4.5465 Y19.7856 Z2.3000 I-0.2144 J0.5535 F799.80
G2 X5.5197 Y20.4197 Z2.3000 I0.5535 J0.2144 F799.80
G1 X5.5197 Y20.4197 Z2.0000 F399.60
G2 X5.6535 Y20.2144 Z2.0000 I-0.4197 J-0.4197 F799.80
G2 X5.3144 Y19.4465 Z2.0000 I-0.5535 J-0.2144 F799.80
G2 X4.5465 Y19.7856 Z2.0000 I-0.2144 J0.5535 F799.80
G2 X5.5197 Y20.4197 Z2.0000 I0.5535 J0.2144 F799.80
G1 X5.5197 Y20.4197 Z1.7000 F399.60
G2 X5.6535 Y20.2144 Z1.7000 I-0.4197 J-0.4197 F799.80
G2 X5.3144 Y19.4465 Z1.7000 I-0.5535 J-0.2144 F799.80
G2 X4.5465 Y19.7856 Z1.7000 I-0.2144 J0.5535 F799.80
G2 X5.5197 Y20.4197 Z1.7000 I0.5535 J0.2144 F799.80
G1 X5.5197 Y20.4197 Z1.4000 F399.60
G2 X5.6535 Y20.2144 Z1.4000 I-0.4197 J-0.4197 F799.80
G2 X5.3144 Y19.4465 Z1.4000 I-0.5535 J-0.2144 F799.80
G2 X4.5465 Y19.7856 Z1.4000 I-0.2144 J0.5535 F799.80
G2 X5.5197 Y20.4197 Z1.4000 I0.5535 J0.2144 F799.80
G1 X5.5197 Y20.4197 Z1.1000 F399.60
G2 X5.6535 Y20.2144 Z1.1000 I-0.4197 J-0.4197 F799.80
G2 X5.3144 Y19.4465 Z1.1000 I-0.5535 J-0.2144 F799.80
G2 X4.5465 Y19.7856 Z1.1000 I-0.2144 J0.5535 F799.80
G2 X5.5197 Y20.4197 Z1.1000 I0.5535 J0.2144 F799.80
G1 X5.5197 Y20.4197 Z0.8000 F399.60
G2 X5.6535 Y20.2144 Z0.8000 I-0.4197 J-0.4197 F799.80
G2 X5.3144 Y19.4465 Z0.8000 I-0.5535 J-0.2144 F799.80
G2 X4.5465 Y19.7856 Z0.8000 I-0.2144 J0.5535 F799.80
G2 X5.5197 Y20.4197 Z0.8000 I0.5535 J0.2144 F799.80
G1 X5.5197 Y20.4197 Z0.5000 F399.60
G2 X5.6535 Y20.2144 Z0.5000 I-0.4197 J-0.4197 F799.80
G2 X5.3144 Y19.4465 Z0.5000 I-0.5535 J-0.2144 F799.80
G2 X4.5465 Y19.7856 Z0.5000 I-0.2144 J0.5535 F799.80
G2 X5.5197 Y20.4197 Z0.5000 I0.5535 J0.2144 F799.80
G1 X5.5197 Y20.4197 Z0.2000 F399.60
G2 X5.6535 Y20.2144 Z0.2000 I-0.4197 J-0.4197 F799.80
G2 X5.3144 Y19.4465 Z0.2000 I-0.5535 J-0.2144 F799.80
G2 X4.5465 Y19.7856 Z0.2000 I-0.2144 J0.5535 F799.80
G2 X5.5197 Y20.4197 Z0.2000 I0.5535 J0.2144 F799.80
G1 X5.5197 Y20.4197 Z-0.1000 F399.60
G2 X5.6535 Y20.2144 Z-0.1000 I-0.4197 J-0.4197 F799.80
G2 X5.3144 Y19.4465 Z-0.1000 I-0.5535 J-0.2144 F799.80
G2 X4.5465 Y19.7856 Z-0.1000 I-0.2144 J0.5535 F799.80
G2 X5.5197 Y20.4197 Z-0.1000 I0.5535 J0.2144 F799.80
G1 X5.5197 Y20.4197 Z-0.2000 F399.60
G2 X5.6535 Y20.2144 Z-0.2000 I-0.4197 J-0.4197 F799.80
G2 X5.3144 Y19.4465 Z-0.2000 I-0.5535 J-0.2144 F799.80
G2 X4.5465 Y19.7856 Z-0.2000 I-0.2144 J0.5535 F799.80
G2 X5.5197 Y20.4197 Z-0.2000 I0.5535 J0.2144 F799.80
G0 Z8.0000
G0 X15.1125 Y20.1764
G0 Z6.0000
G1 X15.1125 Y20.1764 Z2.9000 F399.60
G2 X14.8714 Y19.7500 Z2.9000 I-0.1740 J-0.1830 F799.80
G1 X12.0286 Y19.7500 Z2.9000 F799.80
G2 X11.8517 Y19.7792 Z2.9000 I-0.0199 J0.4308 F799.80
G2 X12.0286 Y20.2500 Z2.9000 I0.1097 J0.2274 F799.80
G1 X14.8714 Y20.2500 Z2.9000 F799.80
G2 X15.0483 Y20.2208 Z2.9000 I0.0199 J-0.4308 F799.80
G2 X15.1125 Y20.1764 Z2.9000 I-0.1097 J-0.2274 F799.80
G1 X15.1125 Y20.1764 Z2.6000 F399.60
G2 X14.8714 Y19.7500 Z2.6000 I-0.1740 J-0.1830 F799.80
G1 X12.0286 Y19.7500 Z2.6000 F799.80
G2 X11.8517 Y19.7792 Z2.6000 I-0.0199 J0.4308 F799.80
G2 X12.0286 Y20.2500 Z2.6000 I0.1097 J0.2274 F799.80
G1 X14.8714 Y20.2500 Z2.6000 F799.80
G2 X15.0483 Y20.2208 Z2.6000 I0.0199 J-0.4308 F799.80
G2 X15.1125 Y20.1764 Z2.6000 I-0.1097 J-0.2274 F799.80
G1 X15.1125 Y20.1764 Z2.3000 F399.60
G2 X14.8714 Y19.7500 Z2.3000 I-0.1740 J-0.1830 F799.80
G1 X12.0286 Y19.7500 Z2.3000 F799.80
G2 X11.8517 Y19.7792 Z2.3000 I-0.0199 J0.4308 F799.80
G2 X12.0286 Y20.2500 Z2.3000 I0.1097 J0.2274 F799.80
G1 X14.8714 Y20.2500 Z2.3000 F799.80
G2 X15.0483 Y20.2208 Z2.3000 I0.0199 J-0.4308 F799.80
G2 X15.1125 Y20.1764 Z2.3000 I-0.1097 J-0.2274 F799.80
G1 X15.1125 Y20.1764 Z2.0000 F399.60
G2 X14.8714 Y19.7500 Z2.0000 I-0.1740 J-0.1830 F799.80
G1 X12.0286 Y19.7500 Z2.0000 F799.80
G2 X11.8517 Y19.7792 Z2.0000 I-0.0199 J0.4308 F799.80
G2 X12.0286 Y20.2500 Z2.0000 I0.1097 J0.2274 F799.80
G1 X14.8714 Y20.2500 Z2.0000 F799.80
G2 X15.0483 Y20.2208 Z2.0000 I0.0199 J-0.4308 F799.80
G2 X15.1125 Y20.1764 Z2.0000 I-0.1097 J-0.2274 F799.80
G1 X15.1125 Y20.1764 Z1.7000 F399.60
G2 X14.8714 Y19.7500 Z1.7000 I-0.1740 J-0.1830 F799.80
G1 X12.0286 Y19.7500 Z1.7000 F799.80
G2 X11.8517 Y19.7792 Z1.7000 I-0.0199 J0.4308 F799.80
G2 X12.0286 Y20.2500 Z1.7000 I0.1097 J0.2274 F799.80
G1 X14.8714 Y20.2500 Z1.7000 F799.80
G2 X15.0483 Y20.2208 Z1.7000 I0.0199 J-0.4308 F799.80
G2 X15.1125 Y20.1764 Z1.7000 I-0.1097 J-0.2274 F799.80
G1 X15.1125 Y20.1764 Z1.4000 F399.60
G2 X14.8714 Y19.7500 Z1.4000 I-0.1740 J-0.1830 F799.80
G1 X12.0286 Y19.7500 Z1.4000 F799.80
G2 X11.8517 Y19.7792 Z1.4000 I-0.0199 J0.4308 F799.80
G2 X12.0286 Y20.2500 Z1.4000 I0.1097 J0.2274 F799.80
G1 X14.8714 Y20.2500 Z1.4000 F799.80
G2 X15.0483 Y20.2208 Z1.4000 I0.0199 J-0.4308 F799.80
G2 X15.1125 Y20.1764 Z1.4000 I-0.1097 J-0.2274 F799.80
G1 X15.1125 Y20.1764 Z1.1000 F399.60
G2 X14.8714 Y19.7500 Z1.1000 I-0.1740 J-0.1830 F799.80
G1 X12.0286 Y19.7500 Z1.1000 F799.80
G2 X11.8517 Y19.7792 Z1.1000 I-0.0199 J0.4308 F799.80
G2 X12.0286 Y20.2500 Z1.1000 I0.1097 J0.2274 F799.80
G1 X14.8714 Y20.2500 Z1.1000 F799.80
G2 X15.0483 Y20.2208 Z1.1000 I0.0199 J-0.4308 F799.80
G2 X15.1125 Y20.1764 Z1.1000 I-0.1097 J-0.2274 F799.80
G1 X15.1125 Y20.1764 Z0.8000 F399.60
G2 X14.8714 Y19.7500 Z0.8000 I-0.1740 J-0.1830 F799.80
G1 X12.0286 Y19.7500 Z0.8000 F799.80
G2 X11.8517 Y19.7792 Z0.8000 I-0.0199 J0.4308 F799.80
G2 X12.0286 Y20.2500 Z0.8000 I0.1097 J0.2274 F799.80
G1 X14.8714 Y20.2500 Z0.8000 F799.80
G2 X15.0483 Y20.2208 Z0.8000 I0.0199 J-0.4308 F799.80
G2 X15.1125 Y20.1764 Z0.8000 I-0.1097 J-0.2274 F799.80
G1 X15.1125 Y20.1764 Z0.5000 F399.60
G2 X14.8714 Y19.7500 Z0.5000 I-0.1740 J-0.1830 F799.80
G1 X12.0286 Y19.7500 Z0.5000 F799.80
G2 X11.8517 Y19.7792 Z0.5000 I-0.0199 J0.4308 F799.80
G2 X12.0286 Y20.2500 Z0.5000 I0.1097 J0.2274 F799.80
G1 X14.8714 Y20.2500 Z0.5000 F799.80
G2 X15.0483 Y20.2208 Z0.5000 I0.0199 J-0.4308 F799.80
G2 X15.1125 Y20.1764 Z0.5000 I-0.1097 J-0.2274 F799.80
G1 X15.1125 Y20.1764 Z0.2000 F399.60
G2 X14.8714 Y19.7500 Z0.2000 I-0.1740 J-0.1830 F799.80
G1 X12.0286 Y19.7500 Z0.2000 F799.80
G2 X11.8517 Y19.7792 Z0.2000 I-0.0199 J0.4308 F799.80
G2 X12.0286 Y20.2500 Z0.2000 I0.1097 J0.2274 F799.80
G1 X14.8714 Y20.2500 Z0.2000 F799.80
G2 X15.0483 Y20.2208 Z0.2000 I0.0199 J-0.4308 F799.80
G2 X15.1125 Y20.1764 Z0.2000 I-0.1097 J-0.2274 F799.80
G1 X15.1125 Y20.1764 Z-0.1000 F399.60
G2 X14.8714 Y19.7500 Z-0.1000 I-0.1740 J-0.1830 F799.80
G1 X12.0286 Y19.7500 Z-0.1000 F799.80
G2 X11.8517 Y19.7792 Z-0.1000 I-0.0199 J0.4308 F799.80
G2 X12.0286 Y20.2500 Z-0.1000 I0.1097 J0.2274 F799.80
G1 X14.8714 Y20.2500 Z-0.1000 F799.80
G2 X15.0483 Y20.2208 Z-0.1000 I0.0199 J-0.4308 F799.80
G2 X15.1125 Y20.1764 Z-0.1000 I-0.1097 J-0.2274 F799.80
G1 X15.1125 Y20.1764 Z-0.2000 F399.60
G2 X14.8714 Y19.7500 Z-0.2000 I-0.1740 J-0.1830 F799.80
G1 X12.0286 Y19.7500 Z-0.2000 F799.80
G2 X11.8517 Y19.7792 Z-0.2000 I-0.0199 J0.4308 F799.80
G2 X12.0286 Y20.2500 Z-0.2000 I0.1097 J0.2274 F799.80
G1 X14.8714 Y20.2500 Z-0.2000 F799.80
G2 X15.0483 Y20.2208 Z-0.2000 I0.0199 J-0.4308 F799.80
G2 X15.1125 Y20.1764 Z-0.2000 I-0.1097 J-0.2274 F799.80
G0 Z8.0000
(Holes_Slits_First)
(Compensated Tool Path. Diameter: 3.0)
G0 Z8.0000
G0 X5.5197 Y35.4197
G0 Z6.0000
G1 X5.5197 Y35.4197 Z2.9000 F399.60
G2 X5.6535 Y35.2144 Z2.9000 I-0.4197 J-0.4197 F799.80
G2 X5.3144 Y34.4465 Z2.9000 I-0.5535 J-0.2144 F799.80
G2 X4.5465 Y34.7856 Z2.9000 I-0.2144 J0.5535 F799.80
G2 X5.5197 Y35.4197 Z2.9000 I0.5535 J0.2144 F799.80
G1 X5.5197 Y35.4197 Z2.6000 F399.60
G2 X5.6535 Y35.2144 Z2.6000 I-0.4197 J-0.4197 F799.80
G2 X5.3144 Y34.4465 Z2.6000 I-0.5535 J-0.2144 F799.80
G2 X4.5465 Y34.7856 Z2.6000 I-0.2144 J0.5535 F799.80
G2 X5.5197 Y35.4197 Z2.6000 I0.5535 J0.2144 F799.80
G1 X5.5197 Y35.4197 Z2.3000 F399.60
G2 X5.6535 Y35.2144 Z2.3000 I-0.4197 J-0.4197 F799.80
G2 X5.3144 Y34.4465 Z2.3000 I-0.5535 J-0.2144 F799.80
G2 X4.5465 Y34.7856 Z2.3000 I-0.2144 J0.5535 F799.80
G2 X5.5197 Y35.4197 Z2.3000 I0.5535 J0.2144 F799.80
G1 X5.5197 Y35.4197 Z2.0000 F399.60
G2 X5.6535 Y35.2144 Z2.0000 I-0.4197 J-0.4197 F799.80
G2 X5.3144 Y34.4465 Z2.0000 I-0.5535 J-0.2144 F799.80
G2 X4.5465 Y34.7856 Z2.0000 I-0.2144 J0.5535 F799.80
G2 X5.5197 Y35.4197 Z2.0000 I0.5535 J0.2144 F799.80
G1 X5.5197 Y35.4197 Z1.7000 F399.60
G2 X5.6535 Y35.2144 Z1.7000 I-0.4197 J-0.4197 F799.80
G2 X5.3144 Y34.4465 Z1.7000 I-0.5535 J-0.2144 F799.80
G2 X4.5465 Y34.7856 Z1.7000 I-0.2144 J0.5535 F799.80
G2 X5.5197 Y35.4197 Z1.7000 I0.5535 J0.2144 F799.80
G1 X5.5197 Y35.4197 Z1.4000 F399.60
G2 X5.6535 Y35.2144 Z1.4000 I-0.4197 J-0.4197 F799.80
G2 X5.3144 Y34.4465 Z1.4000 I-0.5535 J-0.2144 F799.80
G2 X4.5465 Y34.7856 Z1.4000 I-0.2144 J0.5535 F799.80
G2 X5.5197 Y35.4197 Z1.4000 I0.5535 J0.2144 F799.80
G1 X5.5197 Y35.4197 Z1.1000 F399.60
G2 X5.6535 Y35.2144 Z1.1000 I-0.4197 J-0.4197 F799.80
G2 X5.3144 Y34.4465 Z1.1000 I-0.5535 J-0.2144 F799.80
G2 X4.5465 Y34.7856 Z1.1000 I-0.2144 J0.5535 F799.80
G2 X5.5197 Y35.4197 Z1.1000 I0.5535 J0.2144 F799.80
G1 X5.5197 Y35.4197 Z0.8000 F399.60
G2 X5.6535 Y35.2144 Z0.8000 I-0.4197 J-0.4197 F799.80
G2 X5.3144 Y34.4465 Z0.8000 I-0.5535 J-0.2144 F799.80
G2 X4.5465 Y34.7856 Z0.8000 I-0.2144 J0.5535 F799.80
G2 X5.5197 Y35.4197 Z0.8000 I0.5535 J0.2144 F799.80
G1 X5.5197 Y35.4197 Z0.5000 F399.60
G2 X5.6535 Y35.2144 Z0.5000 I-0.4197 J-0.4197 F799.80
G2 X5.3144 Y34.4465 Z0.5000 I-0.5535 J-0.2144 F799.80
G2 X4.5465 Y34.7856 Z0.5000 I-0.2144 J0.5535 F799.80
G2 X5.5197 Y35.4197 Z0.5000 I0.5535 J0.2144 F799.80
G1 X5.5197 Y35.4197 Z0.2000 F399.60
G2 X5.6535 Y35.2144 Z0.2000 I-0.4197 J-0.4197 F799.80
G2 X5.3144 Y34.4465 Z0.2000 I-0.5535 J-0.2144 F799.80
G2 X4.5465 Y34.7856 Z0.2000 I-0.2144 J0.5535 F799.80
G2 X5.5197 Y35.4197 Z0.2000 I0.5535 J0.2144 F799.80
G1 X5.5197 Y35.4197 Z-0.1000 F399.60
G2 X5.6535 Y35.2144 Z-0.1000 I-0.4197 J-0.4197 F799.80
G2 X5.3144 Y34.4465 Z-0.1000 I-0.5535 J-0.2144 F799.80
G2 X4.5465 Y34.7856 Z-0.1000 I-0.2144 J0.5535 F799.80
G2 X5.5197 Y35.4197 Z-0.1000 I0.5535 J0.2144 F799.80
G1 X5.5197 Y35.4197 Z-0.2000 F399.60
G2 X5.6535 Y35.2144 Z-0.2000 I-0.4197 J-0.4197 F799.80
G2 X5.3144 Y34.4465 Z-0.2000 I-0.5535 J-0.2144 F799.80
G2 X4.5465 Y34.7856 Z-0.2000 I-0.2144 J0.5535 F799.80
G2 X5.5197 Y35.4197 Z-0.2000 I0.5535 J0.2144 F799.80
G0 Z8.0000
G0 X15.1125 Y35.1764
G0 Z6.0000
G1 X15.1125 Y35.1764 Z2.9000 F399.60
G2 X14.8714 Y34.7500 Z2.9000 I-0.1740 J-0.1830 F799.80
G1 X12.0286 Y34.7500 Z2.9000 F799.80
G2 X11.8517 Y34.7792 Z2.9000 I-0.0199 J0.4308 F799.80
G2 X12.0286 Y35.2500 Z2.9000 I0.1097 J0.2274 F799.80
G1 X14.8714 Y35.2500 Z2.9000 F799.80
G2 X15.0483 Y35.2208 Z2.9000 I0.0199 J-0.4308 F799.80
G2 X15.1125 Y35.1764 Z2.9000 I-0.1097 J-0.2274 F799.80
G1 X15.1125 Y35.1764 Z2.6000 F399.60
G2 X14.8714 Y34.7500 Z2.6000 I-0.1740 J-0.1830 F799.80
G1 X12.0286 Y34.7500 Z2.6000 F799.80
G2 X11.8517 Y34.7792 Z2.6000 I-0.0199 J0.4308 F799.80
G2 X12.0286 Y35.2500 Z2.6000 I0.1097 J0.2274 F799.80
G1 X14.8714 Y35.2500 Z2.6000 F799.80
G2 X15.0483 Y35.2208 Z2.6000 I0.0199 J-0.4308 F799.80
G2 X15.1125 Y35.1764 Z2.6000 I-0.1097 J-0.2274 F799.80
G1 X15.1125 Y35.1764 Z2.3000 F399.60
G2 X14.8714 Y34.7500 Z2.3000 I-0.1740 J-0.1830 F799.80
G1 X12.0286 Y34.7500 Z2.3000 F799.80
G2 X11.8517 Y34.7792 Z2.3000 I-0.0199 J0.4308 F799.80
G2 X12.0286 Y35.2500 Z2.3000 I0.1097 J0.2274 F799.80
G1 X14.8714 Y35.2500 Z2.3000 F799.80
G2 X15.0483 Y35.2208 Z2.3000 I0.0199 J-0.4308 F799.80
G2 X15.1125 Y35.1764 Z2.3000 I-0.1097 J-0.2274 F799.80
G1 X15.1125 Y35.1764 Z2.0000 F399.60
G2 X14.8714 Y34.7500 Z2.0000 I-0.1740 J-0.1830 F799.80
G1 X12.0286 Y34.7500 Z2.0000 F799.80
G2 X11.8517 Y34.7792 Z2.0000 I-0.0199 J0.4308 F799.80
G2 X12.0286 Y35.2500 Z2.0000 I0.1097 J0.2274 F799.80
G1 X14.8714 Y35.2500 Z2.0000 F799.80
G2 X15.0483 Y35.2208 Z2.0000 I0.0199 J-0.4308 F799.80
G2 X15.1125 Y35.1764 Z2.0000 I-0.1097 J-0.2274 F799.80
G1 X15.1125 Y35.1764 Z1.7000 F399.60
G2 X14.8714 Y34.7500 Z1.7000 I-0.1740 J-0.1830 F799.80
G1 X12.0286 Y34.7500 Z1.7000 F799.80
G2 X11.8517 Y34.7792 Z1.7000 I-0.0199 J0.4308 F799.80
G2 X12.0286 Y35.2500 Z1.7000 I0.1097 J0.2274 F799.80
G1 X14.8714 Y35.2500 Z1.7000 F799.80
G2 X15.0483 Y35.2208 Z1.7000 I0.0199 J-0.4308 F799.80
G2 X15.1125 Y35.1764 Z1.7000 I-0.1097 J-0.2274 F799.80
G1 X15.1125 Y35.1764 Z1.4000 F399.60
G2 X14.8714 Y34.7500 Z1.4000 I-0.1740 J-0.1830 F799.80
G1 X12.0286 Y34.7500 Z1.4000 F799.80
G2 X11.8517 Y34.7792 Z1.4000 I-0.0199 J0.4308 F799.80
G2 X12.0286 Y35.2500 Z1.4000 I0.1097 J0.2274 F799.80
G1 X14.8714 Y35.2500 Z1.4000 F799.80
G2 X15.0483 Y35.2208 Z1.4000 I0.0199 J-0.4308 F799.80
G2 X15.1125 Y35.1764 Z1.4000 I-0.1097 J-0.2274 F799.80
G1 X15.1125 Y35.1764 Z1.1000 F399.60
G2 X14.8714 Y34.7500 Z1.1000 I-0.1740 J-0.1830 F799.80
G1 X12.0286 Y34.7500 Z1.1000 F799.80
G2 X11.8517 Y34.7792 Z1.1000 I-0.0199 J0.4308 F799.80
G2 X12.0286 Y35.2500 Z1.1000 I0.1097 J0.2274 F799.80
G1 X14.8714 Y35.2500 Z1.1000 F799.80
G2 X15.0483 Y35.2208 Z1.1000 I0.0199 J-0.4308 F799.80
G2 X15.1125 Y35.1764 Z1.1000 I-0.1097 J-0.2274 F799.80
G1 X15.1125 Y35.1764 Z0.8000 F399.60
G2 X14.8714 Y34.7500 Z0.8000 I-0.1740 J-0.1830 F799.80
G1 X12.0286 Y34.7500 Z0.8000 F799.80
G2 X11.8517 Y34.7792 Z0.8000 I-0.0199 J0.4308 F799.80
G2 X12.0286 Y35.2500 Z0.8000 I0.1097 J0.2274 F799.80
G1 X14.8714 Y35.2500 Z0.8000 F799.80
G2 X15.0483 Y35.2208 Z0.8000 I0.0199 J-0.4308 F799.80
G2 X15.1125 Y35.1764 Z0.8000 I-0.1097 J-0.2274 F799.80
G1 X15.1125 Y35.1764 Z0.5000 F399.60
G2 X14.8714 Y34.7500 Z0.5000 I-0.1740 J-0.1830 F799.80
G1 X12.0286 Y34.7500 Z0.5000 F799.80
G2 X11.8517 Y34.7792 Z0.5000 I-0.0199 J0.4308 F799.80
G2 X12.0286 Y35.2500 Z0.5000 I0.1097 J0.2274 F799.80
G1 X14.8714 Y35.2500 Z0.5000 F799.80
G2 X15.0483 Y35.2208 Z0.5000 I0.0199 J-0.4308 F799.80
G2 X15.1125 Y35.1764 Z0.5000 I-0.1097 J-0.2274 F799.80
G1 X15.1125 Y35.1764 Z0.2000 F399.60
G2 X14.8714 Y34.7500 Z0.2000 I-0.1740 J-0.1830 F799.80
G1 X12.0286 Y34.7500 Z0.2000 F799.80
G2 X11.8517 Y34.7792 Z0.2000 I-0.0199 J0.4308 F799.80
G2 X12.0286 Y35.2500 Z0.2000 I0.1097 J0.2274 F799.80
G1 X14.8714 Y35.2500 Z0.2000 F799.80
G2 X15.0483 Y35.2208 Z0.2000 I0.0199 J-0.4308 F799.80
G2 X15.1125 Y35.1764 Z0.2000 I-0.1097 J-0.2274 F799.80
G1 X15.1125 Y35.1764 Z-0.1000 F399.60
G2 X14.8714 Y34.7500 Z-0.1000 I-0.1740 J-0.1830 F799.80
G1 X12.0286 Y34.7500 Z-0.1000 F799.80
G2 X11.8517 Y34.7792 Z-0.1000 I-0.0199 J0.4308 F799.80
G2 X12.0286 Y35.2500 Z-0.1000 I0.1097 J0.2274 F799.80
G1 X14.8714 Y35.2500 Z-0.1000 F799.80
G2 X15.0483 Y35.2208 Z-0.1000 I0.0199 J-0.4308 F799.80
G2 X15.1125 Y35.1764 Z-0.1000 I-0.1097 J-0.2274 F799.80
G1 X15.1125 Y35.1764 Z-0.2000 F399.60
G2 X14.8714 Y34.7500 Z-0.2000 I-0.1740 J-0.1830 F799.80
G1 X12.0286 Y34.7500 Z-0.2000 F799.80
G2 X11.8517 Y34.7792 Z-0.2000 I-0.0199 J0.4308 F799.80
G2 X12.0286 Y35.2500 Z-0.2000 I0.1097 J0.2274 F799.80
G1 X14.8714 Y35.2500 Z-0.2000 F799.80
G2 X15.0483 Y35.2208 Z-0.2000 I0.0199 J-0.4308 F799.80
G2 X15.1125 Y35.1764 Z-0.2000 I-0.1097 J-0.2274 F799.80
G0 Z8.0000
(finish operation: Holes_Slits_Repeat)
(begin operation: Contour_First)
(Path: Contour_First)
G0 Z8.0000
G0 X20.0607 Y10.0607 Z8.0000
G0 X20.0607 Y10.0607 Z6.0000
G1 X20.0607 Y10.0607 Z2.9000 F399.60
G1 X19.0607 Y11.0607 Z2.9000 F799.80
G3 X18.0000 Y11.5000 Z2.9000 I-1.0607 J-1.0607 F799.80
G1 X0.0000 Y11.5000 Z2.9000 F799.80
G3 X-1.5000 Y10.0000 Z2.9000 I0.0000 J-1.5000 F799.80
G1 X-1.5000 Y0.0000 Z2.9000 F799.80
G3 X0.0000 Y-1.5000 Z2.9000 I1.5000 J0.0000 F799.80
G1 X18.0000 Y-1.5000 Z2.9000 F799.80
G3 X19.0607 Y-1.0607 Z2.9000 I0.0000 J1.5000 F799.80
G1 X21.0607 Y0.9393 Z2.9000 F799.80
G3 X21.5000 Y2.0000 Z2.9000 I-1.0607 J1.0607 F799.80
G1 X21.5000 Y8.0000 Z2.9000 F799.80
G3 X21.0607 Y9.0607 Z2.9000 I-1.5000 J-0.0000 F799.80
G1 X20.0607 Y10.0607 Z2.9000 F799.80
G1 X20.0607 Y10.0607 Z2.6000 F399.60
G1 X19.0607 Y11.0607 Z2.6000 F799.80
G3 X18.0000 Y11.5000 Z2.6000 I-1.0607 J-1.0607 F799.80
G1 X0.0000 Y11.5000 Z2.6000 F799.80
G3 X-1.5000 Y10.0000 Z2.6000 I0.0000 J-1.5000 F799.80
G1 X-1.5000 Y0.0000 Z2.6000 F799.80
G3 X0.0000 Y-1.5000 Z2.6000 I1.5000 J0.0000 F799.80
G1 X18.0000 Y-1.5000 Z2.6000 F799.80
G3 X19.0607 Y-1.0607 Z2.6000 I0.0000 J1.5000 F799.80
G1 X21.0607 Y0.9393 Z2.6000 F799.80
G3 X21.5000 Y2.0000 Z2.6000 I-1.0607 J1.0607 F799.80
G1 X21.5000 Y8.0000 Z2.6000 F799.80
G3 X21.0607 Y9.0607 Z2.6000 I-1.5000 J-0.0000 F799.80
G1 X20.0607 Y10.0607 Z2.6000 F799.80
G1 X20.0607 Y10.0607 Z2.3000 F399.60
G1 X19.0607 Y11.0607 Z2.3000 F799.80
G3 X18.0000 Y11.5000 Z2.3000 I-1.0607 J-1.0607 F799.80
G1 X0.0000 Y11.5000 Z2.3000 F799.80
G3 X-1.5000 Y10.0000 Z2.3000 I0.0000 J-1.5000 F799.80
G1 X-1.5000 Y0.0000 Z2.3000 F799.80
G3 X0.0000 Y-1.5000 Z2.3000 I1.5000 J0.0000 F799.80
G1 X18.0000 Y-1.5000 Z2.3000 F799.80
G3 X19.0607 Y-1.0607 Z2.3000 I0.0000 J1.5000 F799.80
G1 X21.0607 Y0.9393 Z2.3000 F799.80
G3 X21.5000 Y2.0000 Z2.3000 I-1.0607 J1.0607 F799.80
G1 X21.5000 Y8.0000 Z2.3000 F799.80
G3 X21.0607 Y9.0607 Z2.3000 I-1.5000 J-0.0000 F799.80
G1 X20.0607 Y10.0607 Z2.3000 F799.80
G1 X20.0607 Y10.0607 Z2.0000 F399.60
G1 X19.0607 Y11.0607 Z2.0000 F799.80
G3 X18.0000 Y11.5000 Z2.0000 I-1.0607 J-1.0607 F799.80
G1 X0.0000 Y11.5000 Z2.0000 F799.80
G3 X-1.5000 Y10.0000 Z2.0000 I0.0000 J-1.5000 F799.80
G1 X-1.5000 Y0.0000 Z2.0000 F799.80
G3 X0.0000 Y-1.5000 Z2.0000 I1.5000 J0.0000 F799.80
G1 X18.0000 Y-1.5000 Z2.0000 F799.80
G3 X19.0607 Y-1.0607 Z2.0000 I0.0000 J1.5000 F799.80
G1 X21.0607 Y0.9393 Z2.0000 F799.80
G3 X21.5000 Y2.0000 Z2.0000 I-1.0607 J1.0607 F799.80
G1 X21.5000 Y8.0000 Z2.0000 F799.80
G3 X21.0607 Y9.0607 Z2.0000 I-1.5000 J-0.0000 F799.80
G1 X20.0607 Y10.0607 Z2.0000 F799.80
G1 X20.0607 Y10.0607 Z1.7000 F399.60
G1 X19.0607 Y11.0607 Z1.7000 F799.80
G3 X18.0000 Y11.5000 Z1.7000 I-1.0607 J-1.0607 F799.80
G1 X0.0000 Y11.5000 Z1.7000 F799.80
G3 X-1.5000 Y10.0000 Z1.7000 I0.0000 J-1.5000 F799.80
G1 X-1.5000 Y0.0000 Z1.7000 F799.80
G3 X0.0000 Y-1.5000 Z1.7000 I1.5000 J0.0000 F799.80
G1 X18.0000 Y-1.5000 Z1.7000 F799.80
G3 X19.0607 Y-1.0607 Z1.7000 I0.0000 J1.5000 F799.80
G1 X21.0607 Y0.9393 Z1.7000 F799.80
G3 X21.5000 Y2.0000 Z1.7000 I-1.0607 J1.0607 F799.80
G1 X21.5000 Y8.0000 Z1.7000 F799.80
G3 X21.0607 Y9.0607 Z1.7000 I-1.5000 J-0.0000 F799.80
G1 X20.0607 Y10.0607 Z1.7000 F799.80
G1 X20.0607 Y10.0607 Z1.4000 F399.60
G1 X19.0607 Y11.0607 Z1.4000 F799.80
G3 X18.0000 Y11.5000 Z1.4000 I-1.0607 J-1.0607 F799.80
G1 X14.2830 Y11.5000 Z1.4000 F799.80
G1 X14.1830 Y11.5000 Z1.5000 F599.70
G1 X12.8170 Y11.5000 Z1.5000 F799.80
G1 X12.7170 Y11.5000 Z1.4000 F599.70
G1 X5.2830 Y11.5000 Z1.4000 F799.80
G1 X5.1830 Y11.5000 Z1.5000 F599.70
G1 X3.8170 Y11.5000 Z1.5000 F799.80
G1 X3.7170 Y11.5000 Z1.4000 F599.70
G1 X0.0000 Y11.5000 Z1.4000 F799.80
G3 X-1.5000 Y10.0000 Z1.4000 I0.0000 J-1.5000 F799.80
G1 X-1.5000 Y0.0000 Z1.4000 F799.80
G3 X0.0000 Y-1.5000 Z1.4000 I1.5000 J0.0000 F799.80
G1 X8.2170 Y-1.5000 Z1.4000 F799.80
G1 X8.3170 Y-1.5000 Z1.5000 F599.70
G1 X9.6830 Y-1.5000 Z1.5000 F799.80
G1 X9.7830 Y-1.5000 Z1.4000 F599.70
G1 X18.0000 Y-1.5000 Z1.4000 F799.80
G3 X19.0607 Y-1.0607 Z1.4000 I0.0000 J1.5000 F799.80
G1 X21.0607 Y0.9393 Z1.4000 F799.80
G3 X21.5000 Y2.0000 Z1.4000 I-1.0607 J1.0607 F799.80
G1 X21.5000 Y4.2170 Z1.4000 F799.80
G1 X21.5000 Y4.3170 Z1.5000 F599.70
G1 X21.5000 Y5.6830 Z1.5000 F799.80
G1 X21.5000 Y5.7830 Z1.4000 F599.70
G1 X21.5000 Y8.0000 Z1.4000 F799.80
G3 X21.0607 Y9.0607 Z1.4000 I-1.5000 J-0.0000 F799.80
G1 X20.0607 Y10.0607 Z1.4000 F799.80
G1 X20.0607 Y10.0607 Z1.1000 F399.60
G1 X19.0607 Y11.0607 Z1.1000 F799.80
G3 X18.0000 Y11.5000 Z1.1000 I-1.0607 J-1.0607 F799.80
G1 X14.5830 Y11.5000 Z1.1000 F799.80
G1 X14.1830 Y11.5000 Z1.5000 F599.70
G1 X12.8170 Y11.5000 Z1.5000 F799.80
G1 X12.4170 Y11.5000 Z1.1000 F599.70
G1 X5.5830 Y11.5000 Z1.1000 F799.80
G1 X5.1830 Y11.5000 Z1.5000 F599.70
G1 X3.8170 Y11.5000 Z1.5000 F799.80
G1 X3.4170 Y11.5000 Z1.1000 F599.70
G1 X0.0000 Y11.5000 Z1.1000 F799.80
G3 X-1.5000 Y10.0000 Z1.1000 I0.0000 J-1.5000 F799.80
G1 X-1.5000 Y0.0000 Z1.1000 F799.80
G3 X0.0000 Y-1.5000 Z1.1000 I1.5000 J0.0000 F799.80
G1 X7.9170 Y-1.5000 Z1.1000 F799.80
G1 X8.3170 Y-1.5000 Z1.5000 F599.70
G1 X9.6830 Y-1.5000 Z1.5000 F799.80
G1 X10.0830 Y-1.5000 Z1.1000 F599.70
G1 X18.0000 Y-1.5000 Z1.1000 F799.80
G3 X19.0607 Y-1.0607 Z1.1000 I0.0000 J1.5000 F799.80
G1 X21.0607 Y0.9393 Z1.1000 F799.80
G3 X21.5000 Y2.0000 Z1.1000 I-1.0607 J1.0607 F799.80
G1 X21.5000 Y3.9170 Z1.1000 F799.80
G1 X21.5000 Y4.3170 Z1.5000 F599.70
G1 X21.5000 Y5.6830 Z1.5000 F799.80
G1 X21.5000 Y6.0830 Z1.1000 F599.70
G1 X21.5000 Y8.0000 Z1.1000 F799.80
G3 X21.0607 Y9.0607 Z1.1000 I-1.5000 J-0.0000 F799.80
G1 X20.0607 Y10.0607 Z1.1000 F799.80
G1 X20.0607 Y10.0607 Z0.8000 F399.60
G1 X19.0607 Y11.0607 Z0.8000 F799.80
G3 X18.0000 Y11.5000 Z0.8000 I-1.0607 J-1.0607 F799.80
G1 X14.8830 Y11.5000 Z0.8000 F799.80
G1 X14.1830 Y11.5000 Z1.5000 F599.70
G1 X12.8170 Y11.5000 Z1.5000 F799.80
G1 X12.1170 Y11.5000 Z0.8000 F599.70
G1 X5.8830 Y11.5000 Z0.8000 F799.80
G1 X5.1830 Y11.5000 Z1.5000 F599.70
G1 X3.8170 Y11.5000 Z1.5000 F799.80
G1 X3.1170 Y11.5000 Z0.8000 F599.70
G1 X0.0000 Y11.5000 Z0.8000 F799.80
G3 X-1.5000 Y10.0000 Z0.8000 I0.0000 J-1.5000 F799.80
G1 X-1.5000 Y0.0000 Z0.8000 F799.80
G3 X0.0000 Y-1.5000 Z0.8000 I1.5000 J0.0000 F799.80
G1 X7.6170 Y-1.5000 Z0.8000 F799.80
G1 X8.3170 Y-1.5000 Z1.5000 F599.70
G1 X9.6830 Y-1.5000 Z1.5000 F799.80
G1 X10.3830 Y-1.5000 Z0.8000 F599.70
G1 X18.0000 Y-1.5000 Z0.8000 F799.80
G3 X19.0607 Y-1.0607 Z0.8000 I0.0000 J1.5000 F799.80
G1 X21.0607 Y0.9393 Z0.8000 F799.80
G3 X21.5000 Y2.0000 Z0.8000 I-1.0607 J1.0607 F799.80
G1 X21.5000 Y3.6170 Z0.8000 F799.80
G1 X21.5000 Y4.3170 Z1.5000 F599.70
G1 X21.5000 Y5.6830 Z1.5000 F799.80
G1 X21.5000 Y6.3830 Z0.8000 F599.70
G1 X21.5000 Y8.0000 Z0.8000 F799.80
G3 X21.0607 Y9.0607 Z0.8000 I-1.5000 J-0.0000 F799.80
G1 X20.0607 Y10.0607 Z0.8000 F799.80
G1 X20.0607 Y10.0607 Z0.5000 F399.60
G1 X19.0607 Y11.0607 Z0.5000 F799.80
G3 X18.0000 Y11.5000 Z0.5000 I-1.0607 J-1.0607 F799.80
G1 X15.1830 Y11.5000 Z0.5000 F799.80
G1 X14.1830 Y11.5000 Z1.5000 F599.70
G1 X12.8170 Y11.5000 Z1.5000 F799.80
G1 X11.8170 Y11.5000 Z0.5000 F599.70
G1 X6.1830 Y11.5000 Z0.5000 F799.80
G1 X5.1830 Y11.5000 Z1.5000 F599.70
G1 X3.8170 Y11.5000 Z1.5000 F799.80
G1 X2.8170 Y11.5000 Z0.5000 F599.70
G1 X0.0000 Y11.5000 Z0.5000 F799.80
G3 X-1.5000 Y10.0000 Z0.5000 I0.0000 J-1.5000 F799.80
G1 X-1.5000 Y0.0000 Z0.5000 F799.80
G3 X0.0000 Y-1.5000 Z0.5000 I1.5000 J0.0000 F799.80
G1 X7.3170 Y-1.5000 Z0.5000 F799.80
G1 X8.3170 Y-1.5000 Z1.5000 F599.70
G1 X9.6830 Y-1.5000 Z1.5000 F799.80
G1 X10.6830 Y-1.5000 Z0.5000 F599.70
G1 X18.0000 Y-1.5000 Z0.5000 F799.80
G3 X19.0607 Y-1.0607 Z0.5000 I0.0000 J1.5000 F799.80
G1 X21.0607 Y0.9393 Z0.5000 F799.80
G3 X21.5000 Y2.0000 Z0.5000 I-1.0607 J1.0607 F799.80
G1 X21.5000 Y3.3170 Z0.5000 F799.80
G1 X21.5000 Y4.3170 Z1.5000 F599.70
G1 X21.5000 Y5.6830 Z1.5000 F799.80
G1 X21.5000 Y6.6830 Z0.5000 F599.70
G1 X21.5000 Y8.0000 Z0.5000 F799.80
G3 X21.0607 Y9.0607 Z0.5000 I-1.5000 J-0.0000 F799.80
G1 X20.0607 Y10.0607 Z0.5000 F799.80
G1 X20.0607 Y10.0607 Z0.2000 F399.60
G1 X19.0607 Y11.0607 Z0.2000 F799.80
G3 X18.0000 Y11.5000 Z0.2000 I-1.0607 J-1.0607 F799.80
G1 X15.4830 Y11.5000 Z0.2000 F799.80
G1 X14.1830 Y11.5000 Z1.5000 F599.70
G1 X12.8170 Y11.5000 Z1.5000 F799.80
G1 X11.5170 Y11.5000 Z0.2000 F599.70
G1 X6.4830 Y11.5000 Z0.2000 F799.80
G1 X5.1830 Y11.5000 Z1.5000 F599.70
G1 X3.8170 Y11.5000 Z1.5000 F799.80
G1 X2.5170 Y11.5000 Z0.2000 F599.70
G1 X0.0000 Y11.5000 Z0.2000 F799.80
G3 X-1.5000 Y10.0000 Z0.2000 I0.0000 J-1.5000 F799.80
G1 X-1.5000 Y0.0000 Z0.2000 F799.80
G3 X0.0000 Y-1.5000 Z0.2000 I1.5000 J0.0000 F799.80
G1 X7.0170 Y-1.5000 Z0.2000 F799.80
G1 X8.3170 Y-1.5000 Z1.5000 F599.70
G1 X9.6830 Y-1.5000 Z1.5000 F799.80
G1 X10.9830 Y-1.5000 Z0.2000 F599.70
G1 X18.0000 Y-1.5000 Z0.2000 F799.80
G3 X19.0607 Y-1.0607 Z0.2000 I0.0000 J1.5000 F799.80
G1 X21.0607 Y0.9393 Z0.2000 F799.80
G3 X21.5000 Y2.0000 Z0.2000 I-1.0607 J1.0607 F799.80
G1 X21.5000 Y3.0170 Z0.2000 F799.80
G1 X21.5000 Y4.3170 Z1.5000 F599.70
G1 X21.5000 Y5.6830 Z1.5000 F799.80
G1 X21.5000 Y6.9830 Z0.2000 F599.70
G1 X21.5000 Y8.0000 Z0.2000 F799.80
G3 X21.0607 Y9.0607 Z0.2000 I-1.5000 J-0.0000 F799.80
G1 X20.0607 Y10.0607 Z0.2000 F799.80
G1 X20.0607 Y10.0607 Z-0.1000 F399.60
G1 X19.0607 Y11.0607 Z-0.1000 F799.80
G3 X18.0000 Y11.5000 Z-0.1000 I-1.0607 J-1.0607 F799.80
G1 X15.7830 Y11.5000 Z-0.1000 F799.80
G1 X14.1830 Y11.5000 Z1.5000 F599.70
G1 X12.8170 Y11.5000 Z1.5000 F799.80
G1 X11.2170 Y11.5000 Z-0.1000 F599.70
G1 X6.7830 Y11.5000 Z-0.1000 F799.80
G1 X5.1830 Y11.5000 Z1.5000 F599.70
G1 X3.8170 Y11.5000 Z1.5000 F799.80
G1 X2.2170 Y11.5000 Z-0.1000 F599.70
G1 X0.0000 Y11.5000 Z-0.1000 F799.80
G3 X-1.5000 Y10.0000 Z-0.1000 I0.0000 J-1.5000 F799.80
G1 X-1.5000 Y0.0000 Z-0.1000 F799.80
G3 X0.0000 Y-1.5000 Z-0.1000 I1.5000 J0.0000 F799.80
G1 X6.7170 Y-1.5000 Z-0.1000 F799.80
G1 X8.3170 Y-1.5000 Z1.5000 F599.70
G1 X9.6830 Y-1.5000 Z1.5000 F799.80
G1 X11.2830 Y-1.5000 Z-0.1000 F599.70
G1 X18.0000 Y-1.5000 Z-0.1000 F799.80
G3 X19.0607 Y-1.0607 Z-0.1000 I0.0000 J1.5000 F799.80
G1 X21.0607 Y0.9393 Z-0.1000 F799.80
G3 X21.5000 Y2.0000 Z-0.1000 I-1.0607 J1.0607 F799.80
G1 X21.5000 Y2.7170 Z-0.1000 F799.80
G1 X21.5000 Y4.3170 Z1.5000 F599.70
G1 X21.5000 Y5.6830 Z1.5000 F799.80
G1 X21.5000 Y7.2830 Z-0.1000 F599.70
G1 X21.5000 Y8.0000 Z-0.1000 F799.80
G3 X21.0607 Y9.0607 Z-0.1000 I-1.5000 J-0.0000 F799.80
G1 X20.0607 Y10.0607 Z-0.1000 F799.80
G1 X20.0607 Y10.0607 Z-0.2000 F399.60
G1 X19.0607 Y11.0607 Z-0.2000 F799.80
G3 X18.0000 Y11.5000 Z-0.2000 I-1.0607 J-1.0607 F799.80
G1 X15.8830 Y11.5000 Z-0.2000 F799.80
G1 X14.1830 Y11.5000 Z1.5000 F599.70
G1 X12.8170 Y11.5000 Z1.5000 F799.80
G1 X11.1170 Y11.5000 Z-0.2000 F599.70
G1 X6.8830 Y11.5000 Z-0.2000 F799.80
G1 X5.1830 Y11.5000 Z1.5000 F599.70
G1 X3.8170 Y11.5000 Z1.5000 F799.80
G1 X2.1170 Y11.5000 Z-0.2000 F599.70
G1 X0.0000 Y11.5000 Z-0.2000 F799.80
G3 X-1.5000 Y10.0000 Z-0.2000 I0.0000 J-1.5000 F799.80
G1 X-1.5000 Y0.0000 Z-0.2000 F799.80
G3 X0.0000 Y-1.5000 Z-0.2000 I1.5000 J0.0000 F799.80
G1 X6.6170 Y-1.5000 Z-0.2000 F799.80
G1 X8.3170 Y-1.5000 Z1.5000 F599.70
G1 X9.6830 Y-1.5000 Z1.5000 F799.80
G1 X11.3830 Y-1.5000 Z-0.2000 F599.70
G1 X18.0000 Y-1.5000 Z-0.2000 F799.80
G3 X19.0607 Y-1.0607 Z-0.2000 I0.0000 J1.5000 F799.80
G1 X21.0607 Y0.9393 Z-0.2000 F799.80
G3 X21.5000 Y2.0000 Z-0.2000 I-1.0607 J1.0607 F799.80
G1 X21.5000 Y2.6170 Z-0.2000 F799.80
G1 X21.5000 Y4.3170 Z1.5000 F599.70
G1 X21.5000 Y5.6830 Z1.5000 F799.80
G1 X21.5000 Y7.3830 Z-0.2000 F599.70
G1 X21.5000 Y8.0000 Z-0.2000 F799.80
G3 X21.0607 Y9.0607 Z-0.2000 I-1.5000 J-0.0000 F799.80
G1 X20.0607 Y10.0607 Z-0.2000 F799.80
G0 X20.0607 Y10.0607 Z8.0000
(finish operation: Contour_First)
(begin operation: Contour_Repeat)
(Path: Contour_Repeat)
G0 Z8.0000
G0 X20.0607 Y25.0607 Z8.0000
G0 X20.0607 Y25.0607 Z6.0000
G1 X20.0607 Y25.0607 Z2.9000 F399.60
G1 X19.0607 Y26.0607 Z2.9000 F799.80
G3 X18.0000 Y26.5000 Z2.9000 I-1.0607 J-1.0607 F799.80
G1 X0.0000 Y26.5000 Z2.9000 F799.80
G3 X-1.5000 Y25.0000 Z2.9000 I-0.0000 J-1.5000 F799.80
G1 X-1.5000 Y15.0000 Z2.9000 F799.80
G3 X-0.0000 Y13.5000 Z2.9000 I1.5000 J0.0000 F799.80
G1 X18.0000 Y13.5000 Z2.9000 F799.80
G3 X19.0607 Y13.9393 Z2.9000 I0.0000 J1.5000 F799.80
G1 X21.0607 Y15.9393 Z2.9000 F799.80
G3 X21.5000 Y17.0000 Z2.9000 I-1.0607 J1.0607 F799.80
G1 X21.5000 Y23.0000 Z2.9000 F799.80
G3 X21.0607 Y24.0607 Z2.9000 I-1.5000 J0.0000 F799.80
G1 X20.0607 Y25.0607 Z2.9000 F799.80
G1 X20.0607 Y25.0607 Z2.6000 F399.60
G1 X19.0607 Y26.0607 Z2.6000 F799.80
G3 X18.0000 Y26.5000 Z2.6000 I-1.0607 J-1.0607 F799.80
G1 X0.0000 Y26.5000 Z2.6000 F799.80
G3 X-1.5000 Y25.0000 Z2.6000 I-0.0000 J-1.5000 F799.80
G1 X-1.5000 Y15.0000 Z2.6000 F799.80
G3 X-0.0000 Y13.5000 Z2.6000 I1.5000 J0.0000 F799.80
G1 X18.0000 Y13.5000 Z2.6000 F799.80
G3 X19.0607 Y13.9393 Z2.6000 I0.0000 J1.5000 F799.80
G1 X21.0607 Y15.9393 Z2.6000 F799.80
G3 X21.5000 Y17.0000 Z2.6000 I-1.0607 J1.0607 F799.80
G1 X21.5000 Y23.0000 Z2.6000 F799.80
G3 X21.0607 Y24.0607 Z2.6000 I-1.5000 J0.0000 F799.80
G1 X20.0607 Y25.0607 Z2.6000 F799.80
G1 X20.0607 Y25.0607 Z2.3000 F399.60
G1 X19.0607 Y26.0607 Z2.3000 F799.80
G3 X18.0000 Y26.5000 Z2.3000 I-1.0607 J-1.0607 F799.80
G1 X0.0000 Y26.5000 Z2.3000 F799.80
G3 X-1.5000 Y25.0000 Z2.3000 I-0.0000 J-1.5000 F799.80
G1 X-1.5000 Y15.0000 Z2.3000 F799.80
G3 X-0.0000 Y13.5000 Z2.3000 I1.5000 J0.0000 F799.80
G1 X18.0000 Y13.5000 Z2.3000 F799.80
G3 X19.0607 Y13.9393 Z2.3000 I0.0000 J1.5000 F799.80
G1 X21.0607 Y15.9393 Z2.3000 F799.80
G3 X21.5000 Y17.0000 Z2.3000 I-1.0607 J1.0607 F799.80
G1 X21.5000 Y23.0000 Z2.3000 F799.80
G3 X21.0607 Y24.0607 Z2.3000 I-1.5000 J0.0000 F799.80
G1 X20.0607 Y25.0607 Z2.3000 F799.80
G1 X20.0607 Y25.0607 Z2.0000 F399.60
G1 X19.0607 Y26.0607 Z2.0000 F799.80
G3 X18.0000 Y26.5000 Z2.0000 I-1.0607 J-1.0607 F799.80
G1 X0.0000 Y26.5000 Z2.0000 F799.80
G3 X-1.5000 Y25.0000 Z2.0000 I-0.0000 J-1.5000 F799.80
G1 X-1.5000 Y15.0000 Z2.0000 F799.80
G3 X-0.0000 Y13.5000 Z2.0000 I1.5000 J0.0000 F799.80
G1 X18.0000 Y13.5000 Z2.0000 F799.80
G3 X19.0607 Y13.9393 Z2.0000 I0.0000 J1.5000 F799.80
G1 X21.0607 Y15.9393 Z2.0000 F799.80
G3 X21.5000 Y17.0000 Z2.0000 I-1.0607 J1.0607 F799.80
G1 X21.5000 Y23.0000 Z2.0000 F799.80
G3 X21.0607 Y24.0607 Z2.0000 I-1.5000 J0.0000 F799.80
G1 X20.0607 Y25.0607 Z2.0000 F799.80
G1 X20.0607 Y25.0607 Z1.7000 F399.60
G1 X19.0607 Y26.0607 Z1.7000 F799.80
G3 X18.0000 Y26.5000 Z1.7000 I-1.0607 J-1.0607 F799.80
G1 X0.0000 Y26.5000 Z1.7000 F799.80
G3 X-1.5000 Y25.0000 Z1.7000 I-0.0000 J-1.5000 F799.80
G1 X-1.5000 Y15.0000 Z1.7000 F799.80
G3 X-0.0000 Y13.5000 Z1.7000 I1.5000 J0.0000 F799.80
G1 X18.0000 Y13.5000 Z1.7000 F799.80
G3 X19.0607 Y13.9393 Z1.7000 I0.0000 J1.5000 F799.80
G1 X21.0607 Y15.9393 Z1.7000 F799.80
G3 X21.5000 Y17.0000 Z1.7000 I-1.0607 J1.0607 F799.80
G1 X21.5000 Y23.0000 Z1.7000 F799.80
G3 X21.0607 Y24.0607 Z1.7000 I-1.5000 J0.0000 F799.80
G1 X20.0607 Y25.0607 Z1.7000 F799.80
G1 X20.0607 Y25.0607 Z1.4000 F399.60
G1 X19.0607 Y26.0607 Z1.4000 F799.80
G3 X18.0000 Y26.5000 Z1.4000 I-1.0607 J-1.0607 F799.80
G1 X16.2630 Y26.5000 Z1.4000 F799.80
G1 X16.1630 Y26.5000 Z1.5000 F599.70
G1 X14.7970 Y26.5000 Z1.5000 F799.80
G1 X14.6970 Y26.5000 Z1.4000 F599.70
G1 X4.9030 Y26.5000 Z1.4000 F799.80
G1 X4.8030 Y26.5000 Z1.5000 F599.70
G1 X3.4370 Y26.5000 Z1.5000 F799.80
G1 X3.3370 Y26.5000 Z1.4000 F599.70
G1 X0.0000 Y26.5000 Z1.4000 F799.80
G3 X-1.5000 Y25.0000 Z1.4000 I-0.0000 J-1.5000 F799.80
G1 X-1.5000 Y15.0000 Z1.4000 F799.80
G3 X-0.0000 Y13.5000 Z1.4000 I1.5000 J0.0000 F799.80
G1 X11.7270 Y13.5000 Z1.4000 F799.80
G1 X11.8270 Y13.5000 Z1.5000 F599.70
G1 X13.1930 Y13.5000 Z1.5000 F799.80
G1 X13.2930 Y13.5000 Z1.4000 F599.70
G1 X18.0000 Y13.5000 Z1.4000 F799.80
G3 X19.0607 Y13.9393 Z1.4000 I0.0000 J1.5000 F799.80
G1 X21.0607 Y15.9393 Z1.4000 F799.80
G3 X21.5000 Y17.0000 Z1.4000 I-1.0607 J1.0607 F799.80
G1 X21.5000 Y19.0070 Z1.4000 F799.80
G1 X21.5000 Y19.1070 Z1.5000 F599.70
G1 X21.5000 Y20.4730 Z1.5000 F799.80
G1 X21.5000 Y20.5730 Z1.4000 F599.70
G1 X21.5000 Y23.0000 Z1.4000 F799.80
G3 X21.0607 Y24.0607 Z1.4000 I-1.5000 J0.0000 F799.80
G1 X20.0607 Y25.0607 Z1.4000 F799.80
G1 X20.0607 Y25.0607 Z1.1000 F399.60
G1 X19.0607 Y26.0607 Z1.1000 F799.80
G3 X18.0000 Y26.5000 Z1.1000 I-1.0607 J-1.0607 F799.80
G1 X16.5630 Y26.5000 Z1.1000 F799.80
G1 X16.1630 Y26.5000 Z1.5000 F599.70
G1 X14.7970 Y26.5000 Z1.5000 F799.80
G1 X14.3970 Y26.5000 Z1.1000 F599.70
G1 X5.2030 Y26.5000 Z1.1000 F799.80
G1 X4.8030 Y26.5000 Z1.5000 F599.70
G1 X3.4370 Y26.5000 Z1.5000 F799.80
G1 X3.0370 Y26.5000 Z1.1000 F599.70
G1 X0.0000 Y26.5000 Z1.1000 F799.80
G3 X-1.5000 Y25.0000 Z1.1000 I-0.0000 J-1.5000 F799.80
G1 X-1.5000 Y15.0000 Z1.1000 F799.80
G3 X-0.0000 Y13.5000 Z1.1000 I1.5000 J0.0000 F799.80
G1 X11.4270 Y13.5000 Z1.1000 F799.80
G1 X11.8270 Y13.5000 Z1.5000 F599.70
G1 X13.1930 Y13.5000 Z1.5000 F799.80
G1 X13.5930 Y13.5000 Z1.1000 F599.70
G1 X18.0000 Y13.5000 Z1.1000 F799.80
G3 X19.0607 Y13.9393 Z1.1000 I0.0000 J1.5000 F799.80
G1 X21.0607 Y15.9393 Z1.1000 F799.80
G3 X21.5000 Y17.0000 Z1.1000 I-1.0607 J1.0607 F799.80
G1 X21.5000 Y18.7070 Z1.1000 F799.80
G1 X21.5000 Y19.1070 Z1.5000 F599.70
G1 X21.5000 Y20.4730 Z1.5000 F799.80
G1 X21.5000 Y20.8730 Z1.1000 F599.70
G1 X21.5000 Y23.0000 Z1.1000 F799.80
G3 X21.0607 Y24.0607 Z1.1000 I-1.5000 J0.0000 F799.80
G1 X20.0607 Y25.0607 Z1.1000 F799.80
G1 X20.0607 Y25.0607 Z0.8000 F399.60
G1 X19.0607 Y26.0607 Z0.8000 F799.80
G3 X18.0000 Y26.5000 Z0.8000 I-1.0607 J-1.0607 F799.80
G1 X16.8630 Y26.5000 Z0.8000 F799.80
G1 X16.1630 Y26.5000 Z1.5000 F599.70
G1 X14.7970 Y26.5000 Z1.5000 F799.80
G1 X14.0970 Y26.5000 Z0.8000 F599.70
G1 X5.5030 Y26.5000 Z0.8000 F799.80
G1 X4.8030 Y26.5000 Z1.5000 F599.70
G1 X3.4370 Y26.5000 Z1.5000 F799.80
G1 X2.7370 Y26.5000 Z0.8000 F599.70
G1 X0.0000 Y26.5000 Z0.8000 F799.80
G3 X-1.5000 Y25.0000 Z0.8000 I-0.0000 J-1.5000 F799.80
G1 X-1.5000 Y15.0000 Z0.8000 F799.80
G3 X-0.0000 Y13.5000 Z0.8000 I1.5000 J0.0000 F799.80
G1 X11.1270 Y13.5000 Z0.8000 F799.80
G1 X11.8270 Y13.5000 Z1.5000 F599.70
G1 X13.1930 Y13.5000 Z1.5000 F799.80
G1 X13.8930 Y13.5000 Z0.8000 F599.70
G1 X18.0000 Y13.5000 Z0.8000 F799.80
G3 X19.0607 Y13.9393 Z0.8000 I0.0000 J1.5000 F799.80
G1 X21.0607 Y15.9393 Z0.8000 F799.80
G3 X21.5000 Y17.0000 Z0.8000 I-1.0607 J1.0607 F799.80
G1 X21.5000 Y18.4070 Z0.8000 F799.80
G1 X21.5000 Y19.1070 Z1.5000 F599.70
G1 X21.5000 Y20.4730 Z1.5000 F799.80
G1 X21.5000 Y21.1730 Z0.8000 F599.70
G1 X21.5000 Y23.0000 Z0.8000 F799.80
G3 X21.0607 Y24.0607 Z0.8000 I-1.5000 J0.0000 F799.80
G1 X20.0607 Y25.0607 Z0.8000 F799.80
G1 X20.0607 Y25.0607 Z0.5000 F399.60
G1 X19.0607 Y26.0607 Z0.5000 F799.80
G3 X18.0000 Y26.5000 Z0.5000 I-1.0607 J-1.0607 F799.80
G1 X17.1630 Y26.5000 Z0.5000 F799.80
G1 X16.1630 Y26.5000 Z1.5000 F599.70
G1 X14.7970 Y26.5000 Z1.5000 F799.80
G1 X13.7970 Y26.5000 Z0.5000 F599.70
G1 X5.8030 Y26.5000 Z0.5000 F799.80
G1 X4.8030 Y26.5000 Z1.5000 F599.70
G1 X3.4370 Y26.5000 Z1.5000 F799.80
G1 X2.4370 Y26.5000 Z0.5000 F599.70
G1 X0.0000 Y26.5000 Z0.5000 F799.80
G3 X-1.5000 Y25.0000 Z0.5000 I-0.0000 J-1.5000 F799.80
G1 X-1.5000 Y15.0000 Z0.5000 F799.80
G3 X-0.0000 Y13.5000 Z0.5000 I1.5000 J0.0000 F799.80
G1 X10.8270 Y13.5000 Z0.5000 F799.80
G1 X11.8270 Y13.5000 Z1.5000 F599.70
G1 X13.1930 Y13.5000 Z1.5000 F799.80
G1 X14.1930 Y13.5000 Z0.5000 F599.70
G1 X18.0000 Y13.5000 Z0.5000 F799.80
G3 X19.0607 Y13.9393 Z0.5000 I0.0000 J1.5000 F799.80
G1 X21.0607 Y15.9393 Z0.5000 F799.80
G3 X21.5000 Y17.0000 Z0.5000 I-1.0607 J1.0607 F799.80
G1 X21.5000 Y18.1070 Z0.5000 F799.80
G1 X21.5000 Y19.1070 Z1.5000 F599.70
G1 X21.5000 Y20.4730 Z1.5000 F799.80
G1 X21.5000 Y21.4730 Z0.5000 F599.70
G1 X21.5000 Y23.0000 Z0.5000 F799.80
G3 X21.0607 Y24.0607 Z0.5000 I-1.5000 J0.0000 F799.80
G1 X20.0607 Y25.0607 Z0.5000 F799.80
G1 X20.0607 Y25.0607 Z0.2000 F399.60
G1 X19.0607 Y26.0607 Z0.2000 F799.80
G3 X18.0000 Y26.5000 Z0.2000 I-1.0607 J-1.0607 F799.80
G1 X17.4630 Y26.5000 Z0.2000 F799.80
G1 X16.1630 Y26.5000 Z1.5000 F599.70
G1 X14.7970 Y26.5000 Z1.5000 F799.80
G1 X13.4970 Y26.5000 Z0.2000 F599.70
G1 X6.1030 Y26.5000 Z0.2000 F799.80
G1 X4.8030 Y26.5000 Z1.5000 F599.70
G1 X3.4370 Y26.5000 Z1.5000 F799.80
G1 X2.1370 Y26.5000 Z0.2000 F599.70
G1 X0.0000 Y26.5000 Z0.2000 F799.80
G3 X-1.5000 Y25.0000 Z0.2000 I-0.0000 J-1.5000 F799.80
G1 X-1.5000 Y15.0000 Z0.2000 F799.80
G3 X-0.0000 Y13.5000 Z0.2000 I1.5000 J0.0000 F799.80
G1 X10.5270 Y13.5000 Z0.2000 F799.80
G1 X11.8270 Y13.5000 Z1.5000 F599.70
G1 X13.1930 Y13.5000 Z1.5000 F799.80
G1 X14.4930 Y13.5000 Z0.2000 F599.70
G1 X18.0000 Y13.5000 Z0.2000 F799.80
G3 X19.0607 Y13.9393 Z0.2000 I0.0000 J1.5000 F799.80
G1 X21.0607 Y15.9393 Z0.2000 F799.80
G3 X21.5000 Y17.0000 Z0.2000 I-1.0607 J1.0607 F799.80
G1 X21.5000 Y17.8070 Z0.2000 F799.80
G1 X21.5000 Y19.1070 Z1.5000 F599.70
G1 X21.5000 Y20.4730 Z1.5000 F799.80
G1 X21.5000 Y21.7730 Z0.2000 F599.70
G1 X21.5000 Y23.0000 Z0.2000 F799.80
G3 X21.0607 Y24.0607 Z0.2000 I-1.5000 J0.0000 F799.80
G1 X20.0607 Y25.0607 Z0.2000 F799.80
G1 X20.0607 Y25.0607 Z-0.1000 F399.60
G1 X19.0607 Y26.0607 Z-0.1000 F799.80
G3 X18.0000 Y26.5000 Z-0.1000 I-1.0607 J-1.0607 F799.80
G1 X17.7630 Y26.5000 Z-0.1000 F799.80
G1 X16.1630 Y26.5000 Z1.5000 F599.70
G1 X14.7970 Y26.5000 Z1.5000 F799.80
G1 X13.1970 Y26.5000 Z-0.1000 F599.70
G1 X6.4030 Y26.5000 Z-0.1000 F799.80
G1 X4.8030 Y26.5000 Z1.5000 F599.70
G1 X3.4370 Y26.5000 Z1.5000 F799.80
G1 X1.8370 Y26.5000 Z-0.1000 F599.70
G1 X0.0000 Y26.5000 Z-0.1000 F799.80
G3 X-1.5000 Y25.0000 Z-0.1000 I-0.0000 J-1.5000 F799.80
G1 X-1.5000 Y15.0000 Z-0.1000 F799.80
G3 X-0.0000 Y13.5000 Z-0.1000 I1.5000 J0.0000 F799.80
G1 X10.2270 Y13.5000 Z-0.1000 F799.80
G1 X11.8270 Y13.5000 Z1.5000 F599.70
G1 X13.1930 Y13.5000 Z1.5000 F799.80
G1 X14.7930 Y13.5000 Z-0.1000 F599.70
G1 X18.0000 Y13.5000 Z-0.1000 F799.80
G3 X19.0607 Y13.9393 Z-0.1000 I0.0000 J1.5000 F799.80
G1 X21.0607 Y15.9393 Z-0.1000 F799.80
G3 X21.5000 Y17.0000 Z-0.1000 I-1.0607 J1.0607 F799.80
G1 X21.5000 Y17.5070 Z-0.1000 F799.80
G1 X21.5000 Y19.1070 Z1.5000 F599.70
G1 X21.5000 Y20.4730 Z1.5000 F799.80
G1 X21.5000 Y22.0730 Z-0.1000 F599.70
G1 X21.5000 Y23.0000 Z-0.1000 F799.80
G3 X21.0607 Y24.0607 Z-0.1000 I-1.5000 J0.0000 F799.80
G1 X20.0607 Y25.0607 Z-0.1000 F799.80
G1 X20.0607 Y25.0607 Z-0.2000 F399.60
G1 X19.0607 Y26.0607 Z-0.2000 F799.80
G3 X18.0000 Y26.5000 Z-0.2000 I-1.0607 J-1.0607 F799.80
G1 X17.8630 Y26.5000 Z-0.2000 F799.80
G1 X16.1630 Y26.5000 Z1.5000 F599.70
G1 X14.7970 Y26.5000 Z1.5000 F799.80
G1 X13.0970 Y26.5000 Z-0.2000 F599.70
G1 X6.5030 Y26.5000 Z-0.2000 F799.80
G1 X4.8030 Y26.5000 Z1.5000 F599.70
G1 X3.4370 Y26.5000 Z1.5000 F799.80
G1 X1.7370 Y26.5000 Z-0.2000 F599.70
G1 X0.0000 Y26.5000 Z-0.2000 F799.80
G3 X-1.5000 Y25.0000 Z-0.2000 I-0.0000 J-1.5000 F799.80
G1 X-1.5000 Y15.0000 Z-0.2000 F799.80
G3 X-0.0000 Y13.5000 Z-0.2000 I1.5000 J0.0000 F799.80
G1 X10.1270 Y13.5000 Z-0.2000 F799.80
G1 X11.8270 Y13.5000 Z1.5000 F599.70
G1 X13.1930 Y13.5000 Z1.5000 F799.80
G1 X14.8930 Y13.5000 Z-0.2000 F599.70
G1 X18.0000 Y13.5000 Z-0.2000 F799.80
G3 X19.0607 Y13.9393 Z-0.2000 I0.0000 J1.5000 F799.80
G1 X21.0607 Y15.9393 Z-0.2000 F799.80
G3 X21.5000 Y17.0000 Z-0.2000 I-1.0607 J1.0607 F799.80
G1 X21.5000 Y17.4070 Z-0.2000 F799.80
G1 X21.5000 Y19.1070 Z1.5000 F599.70
G1 X21.5000 Y20.4730 Z1.5000 F799.80
G1 X21.5000 Y22.1730 Z-0.2000 F599.70
G1 X21.5000 Y23.0000 Z-0.2000 F799.80
G3 X21.0607 Y24.0607 Z-0.2000 I-1.5000 J0.0000 F799.80
G1 X20.0607 Y25.0607 Z-0.2000 F799.80
G0 X20.0607 Y25.0607 Z8.0000
G0 X20.0607 Y40.0607 Z8.0000
G0 X20.0607 Y40.0607 Z6.0000
G1 X20.0607 Y40.0607 Z2.9000 F399.60
G1 X19.0607 Y41.0607 Z2.9000 F799.80
G3 X18.0000 Y41.5000 Z2.9000 I-1.0607 J-1.0607 F799.80
G1 X0.0000 Y41.5000 Z2.9000 F799.80
G3 X-1.5000 Y40.0000 Z2.9000 I-0.0000 J-1.5000 F799.80
G1 X-1.5000 Y30.0000 Z2.9000 F799.80
G3 X-0.0000 Y28.5000 Z2.9000 I1.5000 J-0.0000 F799.80
G1 X18.0000 Y28.5000 Z2.9000 F799.80
G3 X19.0607 Y28.9393 Z2.9000 I0.0000 J1.5000 F799.80
G1 X21.0607 Y30.9393 Z2.9000 F799.80
G3 X21.5000 Y32.0000 Z2.9000 I-1.0607 J1.0607 F799.80
G1 X21.5000 Y38.0000 Z2.9000 F799.80
G3 X21.0607 Y39.0607 Z2.9000 I-1.5000 J0.0000 F799.80
G1 X20.0607 Y40.0607 Z2.9000 F799.80
G1 X20.0607 Y40.0607 Z2.6000 F399.60
G1 X19.0607 Y41.0607 Z2.6000 F799.80
G3 X18.0000 Y41.5000 Z2.6000 I-1.0607 J-1.0607 F799.80
G1 X0.0000 Y41.5000 Z2.6000 F799.80
G3 X-1.5000 Y40.0000 Z2.6000 I-0.0000 J-1.5000 F799.80
G1 X-1.5000 Y30.0000 Z2.6000 F799.80
G3 X-0.0000 Y28.5000 Z2.6000 I1.5000 J-0.0000 F799.80
G1 X18.0000 Y28.5000 Z2.6000 F799.80
G3 X19.0607 Y28.9393 Z2.6000 I0.0000 J1.5000 F799.80
G1 X21.0607 Y30.9393 Z2.6000 F799.80
G3 X21.5000 Y32.0000 Z2.6000 I-1.0607 J1.0607 F799.80
G1 X21.5000 Y38.0000 Z2.6000 F799.80
G3 X21.0607 Y39.0607 Z2.6000 I-1.5000 J0.0000 F799.80
G1 X20.0607 Y40.0607 Z2.6000 F799.80
G1 X20.0607 Y40.0607 Z2.3000 F399.60
G1 X19.0607 Y41.0607 Z2.3000 F799.80
G3 X18.0000 Y41.5000 Z2.3000 I-1.0607 J-1.0607 F799.80
G1 X0.0000 Y41.5000 Z2.3000 F799.80
G3 X-1.5000 Y40.0000 Z2.3000 I-0.0000 J-1.5000 F799.80
G1 X-1.5000 Y30.0000 Z2.3000 F799.80
G3 X-0.0000 Y28.5000 Z2.3000 I1.5000 J-0.0000 F799.80
G1 X18.0000 Y28.5000 Z2.3000 F799.80
G3 X19.0607 Y28.9393 Z2.3000 I0.0000 J1.5000 F799.80
G1 X21.0607 Y30.9393 Z2.3000 F799.80
G3 X21.5000 Y32.0000 Z2.3000 I-1.0607 J1.0607 F799.80
G1 X21.5000 Y38.0000 Z2.3000 F799.80
G3 X21.0607 Y39.0607 Z2.3000 I-1.5000 J0.0000 F799.80
G1 X20.0607 Y40.0607 Z2.3000 F799.80
G1 X20.0607 Y40.0607 Z2.0000 F399.60
G1 X19.0607 Y41.0607 Z2.0000 F799.80
G3 X18.0000 Y41.5000 Z2.0000 I-1.0607 J-1.0607 F799.80
G1 X0.0000 Y41.5000 Z2.0000 F799.80
G3 X-1.5000 Y40.0000 Z2.0000 I-0.0000 J-1.5000 F799.80
G1 X-1.5000 Y30.0000 Z2.0000 F799.80
G3 X-0.0000 Y28.5000 Z2.0000 I1.5000 J-0.0000 F799.80
G1 X18.0000 Y28.5000 Z2.0000 F799.80
G3 X19.0607 Y28.9393 Z2.0000 I0.0000 J1.5000 F799.80
G1 X21.0607 Y30.9393 Z2.0000 F799.80
G3 X21.5000 Y32.0000 Z2.0000 I-1.0607 J1.0607 F799.80
G1 X21.5000 Y38.0000 Z2.0000 F799.80
G3 X21.0607 Y39.0607 Z2.0000 I-1.5000 J0.0000 F799.80
G1 X20.0607 Y40.0607 Z2.0000 F799.80
G1 X20.0607 Y40.0607 Z1.7000 F399.60
G1 X19.0607 Y41.0607 Z1.7000 F799.80
G3 X18.0000 Y41.5000 Z1.7000 I-1.0607 J-1.0607 F799.80
G1 X0.0000 Y41.5000 Z1.7000 F799.80
G3 X-1.5000 Y40.0000 Z1.7000 I-0.0000 J-1.5000 F799.80
G1 X-1.5000 Y30.0000 Z1.7000 F799.80
G3 X-0.0000 Y28.5000 Z1.7000 I1.5000 J-0.0000 F799.80
G1 X18.0000 Y28.5000 Z1.7000 F799.80
G3 X19.0607 Y28.9393 Z1.7000 I0.0000 J1.5000 F799.80
G1 X21.0607 Y30.9393 Z1.7000 F799.80
G3 X21.5000 Y32.0000 Z1.7000 I-1.0607 J1.0607 F799.80
G1 X21.5000 Y38.0000 Z1.7000 F799.80
G3 X21.0607 Y39.0607 Z1.7000 I-1.5000 J0.0000 F799.80
G1 X20.0607 Y40.0607 Z1.7000 F799.80
G1 X20.0607 Y40.0607 Z1.4000 F399.60
G1 X19.0607 Y41.0607 Z1.4000 F799.80
G3 X18.0000 Y41.5000 Z1.4000 I-1.0607 J-1.0607 F799.80
G1 X14.9830 Y41.5000 Z1.4000 F799.80
G1 X14.8830 Y41.5000 Z1.5000 F599.70
G1 X13.5170 Y41.5000 Z1.5000 F799.80
G1 X13.4170 Y41.5000 Z1.4000 F599.70
G1 X4.1730 Y41.5000 Z1.4000 F799.80
G1 X4.0730 Y41.5000 Z1.5000 F599.70
G1 X2.7070 Y41.5000 Z1.5000 F799.80
G1 X2.6070 Y41.5000 Z1.4000 F599.70
G1 X0.0000 Y41.5000 Z1.4000 F799.80
G3 X-1.5000 Y40.0000 Z1.4000 I-0.0000 J-1.5000 F799.80
G1 X-1.5000 Y30.0000 Z1.4000 F799.80
G3 X-0.0000 Y28.5000 Z1.4000 I1.5000 J-0.0000 F799.80
G1 X9.0870 Y28.5000 Z1.4000 F799.80
G1 X9.1870 Y28.5000 Z1.5000 F599.70
G1 X10.5530 Y28.5000 Z1.5000 F799.80
G1 X10.6530 Y28.5000 Z1.4000 F599.70
G1 X18.0000 Y28.5000 Z1.4000 F799.80
G3 X19.0607 Y28.9393 Z1.4000 I0.0000 J1.5000 F799.80
G1 X21.0607 Y30.9393 Z1.4000 F799.80
G3 X21.5000 Y32.0000 Z1.4000 I-1.0607 J1.0607 F799.80
G1 X21.5000 Y34.0270 Z1.4000 F799.80
G1 X21.5000 Y34.1270 Z1.5000 F599.70
G1 X21.5000 Y35.4930 Z1.5000 F799.80
G1 X21.5000 Y35.5930 Z1.4000 F599.70
G1 X21.5000 Y38.0000 Z1.4000 F799.80
G3 X21.0607 Y39.0607 Z1.4000 I-1.5000 J0.0000 F799.80
G1 X20.0607 Y40.0607 Z1.4000 F799.80
G1 X20.0607 Y40.0607 Z1.1000 F399.60
G1 X19.0607 Y41.0607 Z1.1000 F799.80
G3 X18.0000 Y41.5000 Z1.1000 I-1.0607 J-1.0607 F799.80
G1 X15.2830 Y41.5000 Z1.1000 F799.80
G1 X14.8830 Y41.5000 Z1.5000 F599.70
G1 X13.5170 Y41.5000 Z1.5000 F799.80
G1 X13.1170 Y41.5000 Z1.1000 F599.70
G1 X4.4730 Y41.5000 Z1.1000 F799.80
G1 X4.0730 Y41.5000 Z1.5000 F599.70
G1 X2.7070 Y41.5000 Z1.5000 F799.80
G1 X2.3070 Y41.5000 Z1.1000 F599.70
G1 X0.0000 Y41.5000 Z1.1000 F799.80
G3 X-1.5000 Y40.0000 Z1.1000 I-0.0000 J-1.5000 F799.80
G1 X-1.5000 Y30.0000 Z1.1000 F799.80
G3 X-0.0000 Y28.5000 Z1.1000 I1.5000 J-0.0000 F799.80
G1 X8.7870 Y28.5000 Z1.1000 F799.80
G1 X9.1870 Y28.5000 Z1.5000 F599.70
G1 X10.5530 Y28.5000 Z1.5000 F799.80
G1 X10.9530 Y28.5000 Z1.1000 F599.70
G1 X18.0000 Y28.5000 Z1.1000 F799.80
G3 X19.0607 Y28.9393 Z1.1000 I0.0000 J1.5000 F799.80
G1 X21.0607 Y30.9393 Z1.1000 F799.80
G3 X21.5000 Y32.0000 Z1.1000 I-1.0607 J1.0607 F799.80
G1 X21.5000 Y33.7270 Z1.1000 F799.80
G1 X21.5000 Y34.1270 Z1.5000 F599.70
G1 X21.5000 Y35.4930 Z1.5000 F799.80
G1 X21.5000 Y35.8930 Z1.1000 F599.70
G1 X21.5000 Y38.0000 Z1.1000 F799.80
G3 X21.0607 Y39.0607 Z1.1000 I-1.5000 J0.0000 F799.80
G1 X20.0607 Y40.0607 Z1.1000 F799.80
G1 X20.0607 Y40.0607 Z0.8000 F399.60
G1 X19.0607 Y41.0607 Z0.8000 F799.80
G3 X18.0000 Y41.5000 Z0.8000 I-1.0607 J-1.0607 F799.80
G1 X15.5830 Y41.5000 Z0.8000 F799.80
G1 X14.8830 Y41.5000 Z1.5000 F599.70
G1 X13.5170 Y41.5000 Z1.5000 F799.80
G1 X12.8170 Y41.5000 Z0.8000 F599.70
G1 X4.7730 Y41.5000 Z0.8000 F799.80
G1 X4.0730 Y41.5000 Z1.5000 F599.70
G1 X2.7070 Y41.5000 Z1.5000 F799.80
G1 X2.0070 Y41.5000 Z0.8000 F599.70
G1 X0.0000 Y41.5000 Z0.8000 F799.80
G3 X-1.5000 Y40.0000 Z0.8000 I-0.0000 J-1.5000 F799.80
G1 X-1.5000 Y30.0000 Z0.8000 F799.80
G3 X-0.0000 Y28.5000 Z0.8000 I1.5000 J-0.0000 F799.80
G1 X8.4870 Y28.5000 Z0.8000 F799.80
G1 X9.1870 Y28.5000 Z1.5000 F599.70
G1 X10.5530 Y28.5000 Z1.5000 F799.80
G1 X11.2530 Y28.5000 Z0.8000 F599.70
G1 X18.0000 Y28.5000 Z0.8000 F799.80
G3 X19.0607 Y28.9393 Z0.8000 I0.0000 J1.5000 F799.80
G1 X21.0607 Y30.9393 Z0.8000 F799.80
G3 X21.5000 Y32.0000 Z0.8000 I-1.0607 J1.0607 F799.80
G1 X21.5000 Y33.4270 Z0.8000 F799.80
G1 X21.5000 Y34.1270 Z1.5000 F599.70
G1 X21.5000 Y35.4930 Z1.5000 F799.80
G1 X21.5000 Y36.1930 Z0.8000 F599.70
G1 X21.5000 Y38.0000 Z0.8000 F799.80
G3 X21.0607 Y39.0607 Z0.8000 I-1.5000 J0.0000 F799.80
G1 X20.0607 Y40.0607 Z0.8000 F799.80
G1 X20.0607 Y40.0607 Z0.5000 F399.60
G1 X19.0607 Y41.0607 Z0.5000 F799.80
G3 X18.0000 Y41.5000 Z0.5000 I-1.0607 J-1.0607 F799.80
G1 X15.8830 Y41.5000 Z0.5000 F799.80
G1 X14.8830 Y41.5000 Z1.5000 F599.70
G1 X13.5170 Y41.5000 Z1.5000 F799.80
G1 X12.5170 Y41.5000 Z0.5000 F599.70
G1 X5.0730 Y41.5000 Z0.5000 F799.80
G1 X4.0730 Y41.5000 Z1.5000 F599.70
G1 X2.7070 Y41.5000 Z1.5000 F799.80
G1 X1.7070 Y41.5000 Z0.5000 F599.70
G1 X0.0000 Y41.5000 Z0.5000 F799.80
G3 X-1.5000 Y40.0000 Z0.5000 I-0.0000 J-1.5000 F799.80
G1 X-1.5000 Y30.0000 Z0.5000 F799.80
G3 X-0.0000 Y28.5000 Z0.5000 I1.5000 J-0.0000 F799.80
G1 X8.1870 Y28.5000 Z0.5000 F799.80
G1 X9.1870 Y28.5000 Z1.5000 F599.70
G1 X10.5530 Y28.5000 Z1.5000 F799.80
G1 X11.5530 Y28.5000 Z0.5000 F599.70
G1 X18.0000 Y28.5000 Z0.5000 F799.80
G3 X19.0607 Y28.9393 Z0.5000 I0.0000 J1.5000 F799.80
G1 X21.0607 Y30.9393 Z0.5000 F799.80
G3 X21.5000 Y32.0000 Z0.5000 I-1.0607 J1.0607 F799.80
G1 X21.5000 Y33.1270 Z0.5000 F799.80
G1 X21.5000 Y34.1270 Z1.5000 F599.70
G1 X21.5000 Y35.4930 Z1.5000 F799.80
G1 X21.5000 Y36.4930 Z0.5000 F599.70
G1 X21.5000 Y38.0000 Z0.5000 F799.80
G3 X21.0607 Y39.0607 Z0.5000 I-1.5000 J0.0000 F799.80
G1 X20.0607 Y40.0607 Z0.5000 F799.80
G1 X20.0607 Y40.0607 Z0.2000 F399.60
G1 X19.0607 Y41.0607 Z0.2000 F799.80
G3 X18.0000 Y41.5000 Z0.2000 I-1.0607 J-1.0607 F799.80
G1 X16.1830 Y41.5000 Z0.2000 F799.80
G1 X14.8830 Y41.5000 Z1.5000 F599.70
G1 X13.5170 Y41.5000 Z1.5000 F799.80
G1 X12.2170 Y41.5000 Z0.2000 F599.70
G1 X5.3730 Y41.5000 Z0.2000 F799.80
G1 X4.0730 Y41.5000 Z1.5000 F599.70
G1 X2.7070 Y41.5000 Z1.5000 F799.80
G1 X1.4070 Y41.5000 Z0.2000 F599.70
G1 X0.0000 Y41.5000 Z0.2000 F799.80
G3 X-1.5000 Y40.0000 Z0.2000 I-0.0000 J-1.5000 F799.80
G1 X-1.5000 Y30.0000 Z0.2000 F799.80
G3 X-0.0000 Y28.5000 Z0.2000 I1.5000 J-0.0000 F799.80
G1 X7.8870 Y28.5000 Z0.2000 F799.80
G1 X9.1870 Y28.5000 Z1.5000 F599.70
G1 X10.5530 Y28.5000 Z1.5000 F799.80
G1 X11.8530 Y28.5000 Z0.2000 F599.70
G1 X18.0000 Y28.5000 Z0.2000 F799.80
G3 X19.0607 Y28.9393 Z0.2000 I0.0000 J1.5000 F799.80
G1 X21.0607 Y30.9393 Z0.2000 F799.80
G3 X21.5000 Y32.0000 Z0.2000 I-1.0607 J1.0607 F799.80
G1 X21.5000 Y32.8270 Z0.2000 F799.80
G1 X21.5000 Y34.1270 Z1.5000 F599.70
G1 X21.5000 Y35.4930 Z1.5000 F799.80
G1 X21.5000 Y36.7930 Z0.2000 F599.70
G1 X21.5000 Y38.0000 Z0.2000 F799.80
G3 X21.0607 Y39.0607 Z0.2000 I-1.5000 J0.0000 F799.80
G1 X20.0607 Y40.0607 Z0.2000 F799.80
G1 X20.0607 Y40.0607 Z-0.1000 F399.60
G1 X19.0607 Y41.0607 Z-0.1000 F799.80
G3 X18.0000 Y41.5000 Z-0.1000 I-1.0607 J-1.0607 F799.80
G1 X16.4830 Y41.5000 Z-0.1000 F799.80
G1 X14.8830 Y41.5000 Z1.5000 F599.70
G1 X13.5170 Y41.5000 Z1.5000 F799.80
G1 X11.9170 Y41.5000 Z-0.1000 F599.70
G1 X5.6730 Y41.5000 Z-0.1000 F799.80
G1 X4.0730 Y41.5000 Z1.5000 F599.70
G1 X2.7070 Y41.5000 Z1.5000 F799.80
G1 X1.1070 Y41.5000 Z-0.1000 F599.70
G1 X0.0000 Y41.5000 Z-0.1000 F799.80
G3 X-1.5000 Y40.0000 Z-0.1000 I-0.0000 J-1.5000 F799.80
G1 X-1.5000 Y30.0000 Z-0.1000 F799.80
G3 X-0.0000 Y28.5000 Z-0.1000 I1.5000 J-0.0000 F799.80
G1 X14.3790 Y28.5000 Z-0.1000 F799.80
G1 X14.9302 Y28.5000 Z0.1088 F707.53
G1 X15.3194 Y28.5000 Z0.1766 F755.88
G1 X15.7037 Y28.5000 Z0.1705 F795.80
G1 X16.1125 Y28.5000 Z0.0854 F747.47
G1 X16.5810 Y28.5000 Z-0.1000 F703.80
G1 X18.0000 Y28.5000 Z-0.1000 F799.80
G3 X19.0607 Y28.9393 Z-0.1000 I0.0000 J1.5000 F799.80
G1 X21.0607 Y30.9393 Z-0.1000 F799.80
G3 X21.5000 Y32.0000 Z-0.1000 I-1.0607 J1.0607 F799.80
G1 X21.5000 Y32.5270 Z-0.1000 F799.80
G1 X21.5000 Y34.1270 Z1.5000 F599.70
G1 X21.5000 Y35.4930 Z1.5000 F799.80
G1 X21.5000 Y37.0930 Z-0.1000 F599.70
G1 X21.5000 Y38.0000 Z-0.1000 F799.80
G3 X21.0607 Y39.0607 Z-0.1000 I-1.5000 J0.0000 F799.80
G1 X20.0607 Y40.0607 Z-0.1000 F799.80
G1 X20.0607 Y40.0607 Z-0.2000 F399.60
G1 X19.0607 Y41.0607 Z-0.2000 F799.80
G3 X18.0000 Y41.5000 Z-0.2000 I-1.0607 J-1.0607 F799.80
G1 X16.5830 Y41.5000 Z-0.2000 F799.80
G1 X14.8830 Y41.5000 Z1.5000 F599.70
G1 X13.5170 Y41.5000 Z1.5000 F799.80
G1 X11.8170 Y41.5000 Z-0.2000 F599.70
G1 X5.7730 Y41.5000 Z-0.2000 F799.80
G1 X4.0730 Y41.5000 Z1.5000 F599.70
G1 X2.7070 Y41.5000 Z1.5000 F799.80
G1 X1.0070 Y41.5000 Z-0.2000 F599.70
G1 X0.0000 Y41.5000 Z-0.2000 F799.80
G3 X-1.5000 Y40.0000 Z-0.2000 I-0.0000 J-1.5000 F799.80
G1 X-1.5000 Y30.0000 Z-0.2000 F799.80
G3 X-0.0000 Y28.5000 Z-0.2000 I1.5000 J-0.0000 F799.80
G1 X14.1844 Y28.5000 Z-0.2000 F799.80
G1 X14.4318 Y28.5000 Z-0.0750 F680.65
G1 X14.6673 Y28.5000 Z0.0242 F698.21
G1 X15.0744 Y28.5000 Z0.1423 F727.86
G1 X15.4585 Y28.5000 Z0.1829 F772.97
G1 X15.8483 Y28.5000 Z0.1494 F777.95
G1 X16.2742 Y28.5000 Z0.0311 F730.78
G1 X16.7756 Y28.5000 Z-0.2000 F689.78
G1 X18.0000 Y28.5000 Z-0.2000 F799.80
G3 X19.0607 Y28.9393 Z-0.2000 I0.0000 J1.5000 F799.80
G1 X21.0607 Y30.9393 Z-0.2000 F799.80
G3 X21.5000 Y32.0000 Z-0.2000 I-1.0607 J1.0607 F799.80
G1 X21.5000 Y32.4270 Z-0.2000 F799.80
G1 X21.5000 Y34.1270 Z1.5000 F599.70
G1 X21.5000 Y35.4930 Z1.5000 F799.80
G1 X21.5000 Y37.1930 Z-0.2000 F599.70
G1 X21.5000 Y38.0000 Z-0.2000 F799.80
G3 X21.0607 Y39.0607 Z-0.2000 I-1.5000 J0.0000 F799.80
G1 X20.0607 Y40.0607 Z-0.2000 F799.80
G0 X20.0607 Y40.0607 Z8.0000
(finish operation: Contour_Repeat)
(begin postamble)
M5
G17 G90
; M2
