(Exported by FreeCAD)
(Post Processor: grbl_post)
(Output Time:2020-05-08 19:06:52.881755)
(Begin preamble)
G17 G90
G21
(Begin operation: Fixture)
(Path: Fixture)
G54
(Finish operation: Fixture)
(Begin operation: T6: 2FluteWoodMill_Slow)
(Path: T6: 2FluteWoodMill_Slow)
(T6: 2FluteWoodMill_Slow)
(Begin toolchange)
(M6 T6.0)
M3 S18000.0
(Finish operation: T6: 2FluteWoodMill_Slow)
(Begin operation: Adaptive)
(Path: Adaptive)
(Adaptive)
G0 Z23.000
(Finish operation: Adaptive)
(Begin operation: Fixture)
(Path: Fixture)
G54
G0 Z23.000
(Finish operation: Fixture)
(Begin operation: Adaptive001)
(Path: Adaptive001)
(Adaptive001)
(Helix to depth: 15.000000)
G0 X-15.273 Y15.174 Z23.000
G0 X-15.273 Y15.174 Z21.000
G1 X-15.273 Y15.174 Z18.000 F600.000
G1 X-15.273 Y15.174 Z18.000 F600.000
G1 X-15.123 Y15.333 Z17.981 F600.000
G1 X-15.008 Y15.518 Z17.961 F600.000
G1 X-14.930 Y15.722 Z17.942 F600.000
G1 X-14.894 Y15.938 Z17.923 F600.000
G1 X-14.901 Y16.156 Z17.903 F600.000
G1 X-14.951 Y16.369 Z17.884 F600.000
G1 X-15.040 Y16.568 Z17.865 F600.000
G1 X-15.167 Y16.746 Z17.846 F600.000
G1 X-15.327 Y16.895 Z17.826 F600.000
G1 X-15.512 Y17.011 Z17.807 F600.000
G1 X-15.716 Y17.088 Z17.788 F600.000
G1 X-15.932 Y17.124 Z17.768 F600.000
G1 X-16.150 Y17.117 Z17.749 F600.000
G1 X-16.363 Y17.068 Z17.730 F600.000
G1 X-16.562 Y16.978 Z17.710 F600.000
G1 X-16.740 Y16.851 Z17.691 F600.000
G1 X-16.889 Y16.692 Z17.672 F600.000
G1 X-17.005 Y16.507 Z17.652 F600.000
G1 X-17.082 Y16.302 Z17.633 F600.000
G1 X-17.118 Y16.087 Z17.614 F600.000
G1 X-17.111 Y15.869 Z17.594 F600.000
G1 X-17.062 Y15.656 Z17.575 F600.000
G1 X-16.972 Y15.457 Z17.556 F600.000
G1 X-16.845 Y15.279 Z17.537 F600.000
G1 X-16.686 Y15.130 Z17.517 F600.000
G1 X-16.501 Y15.014 Z17.498 F600.000
G1 X-16.296 Y14.937 Z17.479 F600.000
G1 X-16.081 Y14.901 Z17.459 F600.000
G1 X-15.862 Y14.908 Z17.440 F600.000
G1 X-15.650 Y14.957 Z17.421 F600.000
G1 X-15.451 Y15.047 Z17.401 F600.000
G1 X-15.273 Y15.174 Z17.382 F600.000
G1 X-15.123 Y15.333 Z17.363 F600.000
G1 X-15.008 Y15.518 Z17.343 F600.000
G1 X-14.930 Y15.722 Z17.324 F600.000
G1 X-14.894 Y15.938 Z17.305 F600.000
G1 X-14.901 Y16.156 Z17.285 F600.000
G1 X-14.951 Y16.369 Z17.266 F600.000
G1 X-15.040 Y16.568 Z17.247 F600.000
G1 X-15.167 Y16.746 Z17.228 F600.000
G1 X-15.327 Y16.895 Z17.208 F600.000
G1 X-15.512 Y17.011 Z17.189 F600.000
G1 X-15.716 Y17.088 Z17.170 F600.000
G1 X-15.932 Y17.124 Z17.150 F600.000
G1 X-16.150 Y17.117 Z17.131 F600.000
G1 X-16.363 Y17.068 Z17.112 F600.000
G1 X-16.562 Y16.978 Z17.092 F600.000
G1 X-16.740 Y16.851 Z17.073 F600.000
G1 X-16.889 Y16.692 Z17.054 F600.000
G1 X-17.005 Y16.507 Z17.034 F600.000
G1 X-17.082 Y16.302 Z17.015 F600.000
G1 X-17.118 Y16.087 Z16.996 F600.000
G1 X-17.111 Y15.869 Z16.976 F600.000
G1 X-17.062 Y15.656 Z16.957 F600.000
G1 X-16.972 Y15.457 Z16.938 F600.000
G1 X-16.845 Y15.279 Z16.919 F600.000
G1 X-16.686 Y15.130 Z16.899 F600.000
G1 X-16.501 Y15.014 Z16.880 F600.000
G1 X-16.296 Y14.937 Z16.861 F600.000
G1 X-16.081 Y14.901 Z16.841 F600.000
G1 X-15.862 Y14.908 Z16.822 F600.000
G1 X-15.650 Y14.957 Z16.803 F600.000
G1 X-15.451 Y15.047 Z16.783 F600.000
G1 X-15.273 Y15.174 Z16.764 F600.000
G1 X-15.123 Y15.333 Z16.745 F600.000
G1 X-15.008 Y15.518 Z16.725 F600.000
G1 X-14.930 Y15.722 Z16.706 F600.000
G1 X-14.894 Y15.938 Z16.687 F600.000
G1 X-14.901 Y16.156 Z16.667 F600.000
G1 X-14.951 Y16.369 Z16.648 F600.000
G1 X-15.040 Y16.568 Z16.629 F600.000
G1 X-15.167 Y16.746 Z16.610 F600.000
G1 X-15.327 Y16.895 Z16.590 F600.000
G1 X-15.512 Y17.011 Z16.571 F600.000
G1 X-15.716 Y17.088 Z16.552 F600.000
G1 X-15.932 Y17.124 Z16.532 F600.000
G1 X-16.150 Y17.117 Z16.513 F600.000
G1 X-16.363 Y17.068 Z16.494 F600.000
G1 X-16.562 Y16.978 Z16.474 F600.000
G1 X-16.740 Y16.851 Z16.455 F600.000
G1 X-16.889 Y16.692 Z16.436 F600.000
G1 X-17.005 Y16.507 Z16.416 F600.000
G1 X-17.082 Y16.302 Z16.397 F600.000
G1 X-17.118 Y16.087 Z16.378 F600.000
G1 X-17.111 Y15.869 Z16.358 F600.000
G1 X-17.062 Y15.656 Z16.339 F600.000
G1 X-16.972 Y15.457 Z16.320 F600.000
G1 X-16.845 Y15.279 Z16.301 F600.000
G1 X-16.686 Y15.130 Z16.281 F600.000
G1 X-16.501 Y15.014 Z16.262 F600.000
G1 X-16.296 Y14.937 Z16.243 F600.000
G1 X-16.081 Y14.901 Z16.223 F600.000
G1 X-15.862 Y14.908 Z16.204 F600.000
G1 X-15.650 Y14.957 Z16.185 F600.000
G1 X-15.451 Y15.047 Z16.165 F600.000
G1 X-15.273 Y15.174 Z16.146 F600.000
G1 X-15.123 Y15.333 Z16.127 F600.000
G1 X-15.008 Y15.518 Z16.107 F600.000
G1 X-14.930 Y15.722 Z16.088 F600.000
G1 X-14.894 Y15.938 Z16.069 F600.000
G1 X-14.901 Y16.156 Z16.049 F600.000
G1 X-14.951 Y16.369 Z16.030 F600.000
G1 X-15.040 Y16.568 Z16.011 F600.000
G1 X-15.167 Y16.746 Z15.992 F600.000
G1 X-15.327 Y16.895 Z15.972 F600.000
G1 X-15.512 Y17.011 Z15.953 F600.000
G1 X-15.716 Y17.088 Z15.934 F600.000
G1 X-15.932 Y17.124 Z15.914 F600.000
G1 X-16.150 Y17.117 Z15.895 F600.000
G1 X-16.363 Y17.068 Z15.876 F600.000
G1 X-16.562 Y16.978 Z15.856 F600.000
G1 X-16.740 Y16.851 Z15.837 F600.000
G1 X-16.889 Y16.692 Z15.818 F600.000
G1 X-17.005 Y16.507 Z15.798 F600.000
G1 X-17.082 Y16.302 Z15.779 F600.000
G1 X-17.118 Y16.087 Z15.760 F600.000
G1 X-17.111 Y15.869 Z15.740 F600.000
G1 X-17.062 Y15.656 Z15.721 F600.000
G1 X-16.972 Y15.457 Z15.702 F600.000
G1 X-16.845 Y15.279 Z15.683 F600.000
G1 X-16.686 Y15.130 Z15.663 F600.000
G1 X-16.501 Y15.014 Z15.644 F600.000
G1 X-16.296 Y14.937 Z15.625 F600.000
G1 X-16.081 Y14.901 Z15.605 F600.000
G1 X-15.862 Y14.908 Z15.586 F600.000
G1 X-15.650 Y14.957 Z15.567 F600.000
G1 X-15.451 Y15.047 Z15.547 F600.000
G1 X-15.273 Y15.174 Z15.528 F600.000
G1 X-15.123 Y15.333 Z15.509 F600.000
G1 X-15.008 Y15.518 Z15.489 F600.000
G1 X-14.930 Y15.722 Z15.470 F600.000
G1 X-14.894 Y15.938 Z15.451 F600.000
G1 X-14.901 Y16.156 Z15.431 F600.000
G1 X-14.951 Y16.369 Z15.412 F600.000
G1 X-15.040 Y16.568 Z15.393 F600.000
G1 X-15.167 Y16.746 Z15.374 F600.000
G1 X-15.327 Y16.895 Z15.354 F600.000
G1 X-15.512 Y17.011 Z15.335 F600.000
G1 X-15.716 Y17.088 Z15.316 F600.000
G1 X-15.932 Y17.124 Z15.296 F600.000
G1 X-16.150 Y17.117 Z15.277 F600.000
G1 X-16.363 Y17.068 Z15.258 F600.000
G1 X-16.562 Y16.978 Z15.238 F600.000
G1 X-16.740 Y16.851 Z15.219 F600.000
G1 X-16.889 Y16.692 Z15.200 F600.000
G1 X-17.005 Y16.507 Z15.180 F600.000
G1 X-17.082 Y16.302 Z15.161 F600.000
G1 X-17.118 Y16.087 Z15.142 F600.000
G1 X-17.111 Y15.869 Z15.122 F600.000
G1 X-17.062 Y15.656 Z15.103 F600.000
G1 X-16.972 Y15.457 Z15.084 F600.000
G1 X-16.845 Y15.279 Z15.065 F600.000
G1 X-16.686 Y15.130 Z15.045 F600.000
G1 X-16.501 Y15.014 Z15.026 F600.000
G1 X-16.296 Y14.937 Z15.007 F600.000
G1 X-16.081 Y14.901 Z15.000 F999.600
G1 X-15.862 Y14.908 Z15.000 F999.600
G1 X-15.650 Y14.957 Z15.000 F999.600
G1 X-15.451 Y15.047 Z15.000 F999.600
G1 X-15.273 Y15.174 Z15.000 F999.600
G1 X-15.123 Y15.333 Z15.000 F999.600
G1 X-15.008 Y15.518 Z15.000 F999.600
G1 X-14.930 Y15.722 Z15.000 F999.600
G1 X-14.894 Y15.938 Z15.000 F999.600
G1 X-14.901 Y16.156 Z15.000 F999.600
G1 X-14.951 Y16.369 Z15.000 F999.600
G1 X-15.040 Y16.568 Z15.000 F999.600
G1 X-15.167 Y16.746 Z15.000 F999.600
G1 X-15.327 Y16.895 Z15.000 F999.600
G1 X-15.512 Y17.011 Z15.000 F999.600
G1 X-15.716 Y17.088 Z15.000 F999.600
G1 X-15.932 Y17.124 Z15.000 F999.600
G1 X-16.150 Y17.117 Z15.000 F999.600
G1 X-16.363 Y17.068 Z15.000 F999.600
G1 X-16.562 Y16.978 Z15.000 F999.600
G1 X-16.740 Y16.851 Z15.000 F999.600
G1 X-16.889 Y16.692 Z15.000 F999.600
G1 X-17.005 Y16.507 Z15.000 F999.600
G1 X-17.082 Y16.302 Z15.000 F999.600
G1 X-17.118 Y16.087 Z15.000 F999.600
G1 X-17.111 Y15.869 Z15.000 F999.600
G1 X-17.062 Y15.656 Z15.000 F999.600
G1 X-16.972 Y15.457 Z15.000 F999.600
G1 X-16.845 Y15.279 Z15.000 F999.600
G1 X-16.686 Y15.130 Z15.000 F999.600
G1 X-16.501 Y15.014 Z15.000 F999.600
G1 X-16.296 Y14.937 Z15.000 F999.600
(Adaptive - depth: 15.000000)
G1 X-16.006 Y14.888 F999.600
G1 X-15.932 Y14.814 F999.600
G1 X-15.845 Y14.758 F999.600
G1 X-15.646 Y14.696 F999.600
G1 X-15.447 Y14.689 F999.600
G1 X-15.248 Y14.727 F999.600
G1 X-15.155 Y14.758 F999.600
G1 X-14.839 Y14.957 F999.600
G1 X-14.615 Y15.205 F999.600
G1 X-14.503 Y15.398 F999.600
G1 X-14.416 Y15.596 F999.600
G1 X-14.348 Y15.882 F999.600
G1 X-14.342 Y16.180 F999.600
G1 X-14.373 Y16.441 F999.600
G1 X-14.453 Y16.708 F999.600
G1 X-14.584 Y16.957 F999.600
G1 X-14.752 Y17.174 F999.600
G1 X-14.957 Y17.366 F999.600
G1 X-15.193 Y17.516 F999.600
G1 X-15.447 Y17.621 F999.600
G1 X-15.720 Y17.677 F999.600
G1 X-16.000 Y17.689 F999.600
G1 X-16.280 Y17.658 F999.600
G1 X-16.584 Y17.571 F999.600
G1 X-16.845 Y17.447 F999.600
G1 X-17.087 Y17.280 F999.600
G1 X-17.292 Y17.056 F999.600
G1 X-17.441 Y16.832 F999.600
G1 X-17.559 Y16.571 F999.600
G1 X-17.627 Y16.292 F999.600
G1 X-17.652 Y16.012 F999.600
G1 X-17.627 Y15.727 F999.600
G1 X-17.553 Y15.453 F999.600
G1 X-17.435 Y15.199 F999.600
G1 X-17.280 Y14.957 F999.600
G1 X-17.056 Y14.720 F999.600
G1 X-16.832 Y14.528 F999.600
G1 X-16.522 Y14.323 F999.600
G1 X-16.137 Y14.168 F999.600
G1 X-15.839 Y14.099 F999.600
G1 X-15.466 Y14.093 F999.600
G1 X-15.099 Y14.161 F999.600
G1 X-14.814 Y14.273 F999.600
G1 X-14.584 Y14.404 F999.600
G1 X-14.354 Y14.584 F999.600
G1 X-14.137 Y14.832 F999.600
G1 X-13.969 Y15.068 F999.600
G1 X-13.826 Y15.385 F999.600
G1 X-13.739 Y15.696 F999.600
G1 X-13.696 Y16.006 F999.600
G1 X-13.702 Y16.329 F999.600
G1 X-13.758 Y16.646 F999.600
G1 X-13.863 Y16.950 F999.600
G1 X-14.000 Y17.236 F999.600
G1 X-14.211 Y17.540 F999.600
G1 X-14.447 Y17.776 F999.600
G1 X-14.689 Y17.963 F999.600
G1 X-14.988 Y18.124 F999.600
G1 X-15.292 Y18.236 F999.600
G1 X-15.602 Y18.298 F999.600
G1 X-15.925 Y18.329 F999.600
G1 X-16.292 Y18.304 F999.600
G1 X-16.627 Y18.236 F999.600
G1 X-16.957 Y18.106 F999.600
G1 X-17.224 Y17.950 F999.600
G1 X-17.484 Y17.745 F999.600
G1 X-17.714 Y17.503 F999.600
G1 X-17.913 Y17.236 F999.600
G1 X-18.087 Y16.907 F999.600
G1 X-18.205 Y16.584 F999.600
G1 X-18.261 Y16.236 F999.600
G1 X-18.267 Y15.938 F999.600
G1 X-18.224 Y15.609 F999.600
G1 X-18.149 Y15.292 F999.600
G1 X-18.006 Y14.944 F999.600
G1 X-17.832 Y14.640 F999.600
G1 X-17.615 Y14.354 F999.600
G1 X-17.348 Y14.093 F999.600
G1 X-17.062 Y13.876 F999.600
G1 X-16.758 Y13.689 F999.600
G1 X-16.410 Y13.547 F999.600
G1 X-16.050 Y13.447 F999.600
G1 X-15.677 Y13.416 F999.600
G1 X-15.373 Y13.422 F999.600
G1 X-15.025 Y13.484 F999.600
G1 X-14.696 Y13.584 F999.600
G1 X-14.354 Y13.739 F999.600
G1 X-14.050 Y13.932 F999.600
G1 X-13.776 Y14.180 F999.600
G1 X-13.571 Y14.422 F999.600
G1 X-13.373 Y14.708 F999.600
G1 X-13.199 Y15.037 F999.600
G1 X-13.075 Y15.385 F999.600
G1 X-12.994 Y15.745 F999.600
G1 X-12.975 Y16.112 F999.600
G1 X-12.994 Y16.447 F999.600
G1 X-13.062 Y16.807 F999.600
G1 X-13.168 Y17.161 F999.600
G1 X-13.323 Y17.497 F999.600
G1 X-13.516 Y17.807 F999.600
G1 X-13.745 Y18.093 F999.600
G1 X-14.012 Y18.348 F999.600
G1 X-14.311 Y18.565 F999.600
G1 X-14.634 Y18.745 F999.600
G1 X-14.975 Y18.888 F999.600
G1 X-15.329 Y18.988 F999.600
G1 X-15.696 Y19.037 F999.600
G1 X-16.062 Y19.043 F999.600
G1 X-16.429 Y19.006 F999.600
G1 X-16.789 Y18.919 F999.600
G1 X-17.137 Y18.789 F999.600
G1 X-17.466 Y18.615 F999.600
G1 X-17.770 Y18.404 F999.600
G1 X-18.050 Y18.155 F999.600
G1 X-18.298 Y17.876 F999.600
G1 X-18.509 Y17.565 F999.600
G1 X-18.683 Y17.236 F999.600
G1 X-18.814 Y16.882 F999.600
G1 X-18.901 Y16.516 F999.600
G1 X-18.944 Y16.143 F999.600
G1 X-18.938 Y15.770 F999.600
G1 X-18.888 Y15.398 F999.600
G1 X-18.795 Y15.031 F999.600
G1 X-18.658 Y14.683 F999.600
G1 X-18.478 Y14.354 F999.600
G1 X-18.273 Y14.037 F999.600
G1 X-18.025 Y13.752 F999.600
G1 X-17.745 Y13.497 F999.600
G1 X-17.441 Y13.273 F999.600
G1 X-17.118 Y13.075 F999.600
G1 X-16.776 Y12.919 F999.600
G1 X-16.422 Y12.795 F999.600
G1 X-16.056 Y12.720 F999.600
G1 X-15.683 Y12.683 F999.600
G1 X-15.311 Y12.689 F999.600
G1 X-14.938 Y12.739 F999.600
G1 X-14.571 Y12.832 F999.600
G1 X-14.224 Y12.963 F999.600
G1 X-13.894 Y13.143 F999.600
G1 X-13.590 Y13.354 F999.600
G1 X-13.304 Y13.596 F999.600
G1 X-13.050 Y13.870 F999.600
G1 X-12.826 Y14.168 F999.600
G1 X-12.634 Y14.484 F999.600
G1 X-12.478 Y14.820 F999.600
G1 X-12.360 Y15.168 F999.600
G1 X-12.280 Y15.528 F999.600
G1 X-12.236 Y15.894 F999.600
G1 X-12.230 Y16.261 F999.600
G1 X-12.261 Y16.627 F999.600
G1 X-12.335 Y16.988 F999.600
G1 X-12.447 Y17.342 F999.600
G1 X-12.578 Y17.683 F999.600
G1 X-12.752 Y18.006 F999.600
G1 X-12.957 Y18.317 F999.600
G1 X-13.199 Y18.596 F999.600
G1 X-13.466 Y18.851 F999.600
G1 X-13.758 Y19.081 F999.600
G1 X-14.075 Y19.273 F999.600
G1 X-14.398 Y19.447 F999.600
G1 X-14.739 Y19.578 F999.600
G1 X-15.093 Y19.677 F999.600
G1 X-15.453 Y19.745 F999.600
G1 X-15.820 Y19.776 F999.600
G1 X-16.186 Y19.770 F999.600
G1 X-16.553 Y19.733 F999.600
G1 X-16.913 Y19.658 F999.600
G1 X-17.267 Y19.547 F999.600
G1 X-17.602 Y19.385 F999.600
G1 X-17.925 Y19.199 F999.600
G1 X-18.224 Y18.975 F999.600
G1 X-18.497 Y18.720 F999.600
G1 X-18.758 Y18.453 F999.600
G1 X-18.981 Y18.155 F999.600
G1 X-19.174 Y17.839 F999.600
G1 X-19.342 Y17.503 F999.600
G1 X-19.472 Y17.155 F999.600
G1 X-19.571 Y16.795 F999.600
G1 X-19.640 Y16.429 F999.600
G1 X-19.671 Y16.056 F999.600
G1 X-19.665 Y15.683 F999.600
G1 X-19.621 Y15.311 F999.600
G1 X-19.547 Y14.944 F999.600
G1 X-19.422 Y14.590 F999.600
G1 X-19.267 Y14.248 F999.600
G1 X-19.081 Y13.919 F999.600
G1 X-18.870 Y13.609 F999.600
G1 X-18.627 Y13.323 F999.600
G1 X-18.366 Y13.050 F999.600
G1 X-18.081 Y12.801 F999.600
G1 X-17.776 Y12.584 F999.600
G1 X-17.453 Y12.391 F999.600
G1 X-17.112 Y12.224 F999.600
G1 X-16.758 Y12.087 F999.600
G1 X-16.391 Y11.994 F999.600
G1 X-16.019 Y11.932 F999.600
G1 X-15.646 Y11.907 F999.600
G1 X-15.273 Y11.919 F999.600
G1 X-14.901 Y11.963 F999.600
G1 X-14.534 Y12.043 F999.600
G1 X-14.180 Y12.161 F999.600
G1 X-13.839 Y12.311 F999.600
G1 X-13.509 Y12.491 F999.600
G1 X-12.901 Y12.925 F999.600
G1 X-12.634 Y13.180 F999.600
G1 X-12.385 Y13.460 F999.600
G1 X-12.161 Y13.758 F999.600
G1 X-11.963 Y14.075 F999.600
G1 X-11.795 Y14.404 F999.600
G1 X-11.652 Y14.745 F999.600
G1 X-11.540 Y15.099 F999.600
G1 X-11.460 Y15.460 F999.600
G1 X-11.429 Y15.826 F999.600
G1 X-11.422 Y16.193 F999.600
G1 X-11.453 Y16.559 F999.600
G1 X-11.503 Y16.925 F999.600
G1 X-11.590 Y17.286 F999.600
G1 X-11.708 Y17.634 F999.600
G1 X-11.851 Y17.975 F999.600
G1 X-12.025 Y18.298 F999.600
G1 X-12.224 Y18.609 F999.600
G1 X-12.447 Y18.901 F999.600
G1 X-12.696 Y19.174 F999.600
G1 X-12.963 Y19.429 F999.600
G1 X-13.248 Y19.658 F999.600
G1 X-13.553 Y19.863 F999.600
G1 X-13.876 Y20.043 F999.600
G1 X-14.211 Y20.193 F999.600
G1 X-14.559 Y20.317 F999.600
G1 X-14.919 Y20.410 F999.600
G1 X-15.652 Y20.522 F999.600
G1 X-16.019 Y20.534 F999.600
G1 X-16.385 Y20.522 F999.600
G1 X-16.752 Y20.466 F999.600
G1 X-17.112 Y20.385 F999.600
G1 X-17.466 Y20.273 F999.600
G1 X-17.807 Y20.130 F999.600
G1 X-18.137 Y19.963 F999.600
G1 X-18.453 Y19.764 F999.600
G1 X-18.752 Y19.540 F999.600
G1 X-19.031 Y19.292 F999.600
G1 X-19.286 Y19.019 F999.600
G1 X-19.516 Y18.727 F999.600
G1 X-19.720 Y18.416 F999.600
G1 X-19.901 Y18.087 F999.600
G1 X-20.056 Y17.745 F999.600
G1 X-20.180 Y17.391 F999.600
G1 X-20.286 Y17.031 F999.600
G1 X-20.360 Y16.665 F999.600
G1 X-20.410 Y16.292 F999.600
G1 X-20.435 Y15.919 F999.600
G1 X-20.429 Y15.547 F999.600
G1 X-20.373 Y15.174 F999.600
G1 X-20.298 Y14.807 F999.600
G1 X-20.193 Y14.447 F999.600
G1 X-20.050 Y14.099 F999.600
G1 X-19.882 Y13.764 F999.600
G1 X-19.683 Y13.441 F999.600
G1 X-19.236 Y12.832 F999.600
G1 X-18.981 Y12.553 F999.600
G1 X-18.708 Y12.292 F999.600
G1 X-18.422 Y12.050 F999.600
G1 X-17.783 Y11.652 F999.600
G1 X-17.441 Y11.491 F999.600
G1 X-17.087 Y11.360 F999.600
G1 X-16.727 Y11.255 F999.600
G1 X-16.360 Y11.180 F999.600
G1 X-15.615 Y11.106 F999.600
G1 X-15.242 Y11.112 F999.600
G1 X-14.870 Y11.143 F999.600
G1 X-14.503 Y11.224 F999.600
G1 X-14.143 Y11.323 F999.600
G1 X-13.789 Y11.447 F999.600
G1 X-13.447 Y11.596 F999.600
G1 X-13.118 Y11.770 F999.600
G1 X-12.801 Y11.963 F999.600
G1 X-12.497 Y12.180 F999.600
G1 X-12.211 Y12.416 F999.600
G1 X-11.957 Y12.689 F999.600
G1 X-11.714 Y12.975 F999.600
G1 X-11.491 Y13.273 F999.600
G1 X-11.298 Y13.590 F999.600
G1 X-11.124 Y13.919 F999.600
G1 X-10.975 Y14.261 F999.600
G1 X-10.845 Y14.609 F999.600
G1 X-10.739 Y14.963 F999.600
G1 X-10.658 Y15.323 F999.600
G1 X-10.621 Y15.689 F999.600
G1 X-10.602 Y16.056 F999.600
G1 X-10.615 Y16.422 F999.600
G1 X-10.646 Y16.789 F999.600
G1 X-10.708 Y17.155 F999.600
G1 X-10.795 Y17.516 F999.600
G1 X-10.907 Y17.863 F999.600
G1 X-11.050 Y18.205 F999.600
G1 X-11.211 Y18.534 F999.600
G1 X-11.398 Y18.851 F999.600
G1 X-11.609 Y19.155 F999.600
G1 X-11.839 Y19.441 F999.600
G1 X-12.348 Y19.969 F999.600
G1 X-12.627 Y20.205 F999.600
G1 X-12.925 Y20.422 F999.600
G1 X-13.236 Y20.621 F999.600
G1 X-13.565 Y20.789 F999.600
G1 X-13.901 Y20.938 F999.600
G1 X-14.248 Y21.062 F999.600
G1 X-14.963 Y21.242 F999.600
G1 X-15.329 Y21.298 F999.600
G1 X-15.696 Y21.329 F999.600
G1 X-16.062 Y21.342 F999.600
G1 X-16.429 Y21.323 F999.600
G1 X-16.795 Y21.267 F999.600
G1 X-17.155 Y21.193 F999.600
G1 X-17.509 Y21.093 F999.600
G1 X-17.857 Y20.963 F999.600
G1 X-18.522 Y20.640 F999.600
G1 X-18.839 Y20.441 F999.600
G1 X-19.143 Y20.224 F999.600
G1 X-19.429 Y19.988 F999.600
G1 X-19.696 Y19.733 F999.600
G1 X-19.938 Y19.447 F999.600
G1 X-20.161 Y19.149 F999.600
G1 X-20.547 Y18.509 F999.600
G1 X-20.708 Y18.168 F999.600
G1 X-20.845 Y17.820 F999.600
G1 X-20.963 Y17.466 F999.600
G1 X-21.062 Y17.106 F999.600
G1 X-21.137 Y16.739 F999.600
G1 X-21.186 Y16.366 F999.600
G1 X-21.217 Y15.994 F999.600
G1 X-21.180 Y15.248 F999.600
G1 X-21.112 Y14.876 F999.600
G1 X-21.019 Y14.509 F999.600
G1 X-20.901 Y14.155 F999.600
G1 X-20.764 Y13.801 F999.600
G1 X-20.596 Y13.466 F999.600
G1 X-20.410 Y13.137 F999.600
G1 X-19.988 Y12.509 F999.600
G1 X-19.752 Y12.217 F999.600
G1 X-19.497 Y11.938 F999.600
G1 X-19.224 Y11.683 F999.600
G1 X-18.932 Y11.441 F999.600
G1 X-18.627 Y11.217 F999.600
G1 X-18.311 Y11.019 F999.600
G1 X-17.981 Y10.839 F999.600
G1 X-17.640 Y10.683 F999.600
G1 X-16.925 Y10.460 F999.600
G1 X-16.186 Y10.323 F999.600
G1 X-15.814 Y10.292 F999.600
G1 X-15.441 Y10.286 F999.600
G1 X-15.068 Y10.298 F999.600
G1 X-14.696 Y10.335 F999.600
G1 X-13.969 Y10.509 F999.600
G1 X-13.609 Y10.621 F999.600
G1 X-13.261 Y10.752 F999.600
G1 X-12.919 Y10.907 F999.600
G1 X-12.280 Y11.292 F999.600
G1 X-11.981 Y11.516 F999.600
G1 X-11.696 Y11.758 F999.600
G1 X-11.429 Y12.019 F999.600
G1 X-11.180 Y12.298 F999.600
G1 X-10.950 Y12.590 F999.600
G1 X-10.739 Y12.894 F999.600
G1 X-10.379 Y13.547 F999.600
G1 X-10.230 Y13.888 F999.600
G1 X-10.099 Y14.236 F999.600
G1 X-9.988 Y14.590 F999.600
G1 X-9.901 Y14.950 F999.600
G1 X-9.832 Y15.317 F999.600
G1 X-9.789 Y15.683 F999.600
G1 X-9.764 Y16.050 F999.600
G1 X-9.764 Y16.416 F999.600
G1 X-9.783 Y16.783 F999.600
G1 X-9.826 Y17.149 F999.600
G1 X-9.913 Y17.509 F999.600
G1 X-10.137 Y18.211 F999.600
G1 X-10.280 Y18.553 F999.600
G1 X-10.441 Y18.882 F999.600
G1 X-10.621 Y19.205 F999.600
G1 X-10.820 Y19.516 F999.600
G1 X-11.267 Y20.099 F999.600
G1 X-11.795 Y20.609 F999.600
G1 X-12.081 Y20.839 F999.600
G1 X-12.696 Y21.248 F999.600
G1 X-13.019 Y21.422 F999.600
G1 X-13.354 Y21.578 F999.600
G1 X-14.043 Y21.845 F999.600
G1 X-14.398 Y21.950 F999.600
G1 X-15.118 Y22.112 F999.600
G1 X-15.851 Y22.174 F999.600
G1 X-16.217 Y22.155 F999.600
G1 X-16.584 Y22.118 F999.600
G1 X-17.311 Y21.981 F999.600
G1 X-17.665 Y21.876 F999.600
G1 X-18.012 Y21.752 F999.600
G1 X-18.354 Y21.609 F999.600
G1 X-18.689 Y21.447 F999.600
G1 X-19.012 Y21.267 F999.600
G1 X-19.323 Y21.068 F999.600
G1 X-19.621 Y20.851 F999.600
G1 X-19.907 Y20.615 F999.600
G1 X-20.180 Y20.360 F999.600
G1 X-20.658 Y19.789 F999.600
G1 X-21.075 Y19.168 F999.600
G1 X-21.255 Y18.839 F999.600
G1 X-21.416 Y18.503 F999.600
G1 X-21.559 Y18.155 F999.600
G1 X-21.683 Y17.801 F999.600
G1 X-21.789 Y17.441 F999.600
G1 X-21.876 Y17.075 F999.600
G1 X-21.938 Y16.702 F999.600
G1 X-21.981 Y16.329 F999.600
G1 X-22.006 Y15.957 F999.600
G1 X-22.006 Y15.584 F999.600
G1 X-21.919 Y14.839 F999.600
G1 X-21.845 Y14.472 F999.600
G1 X-21.739 Y14.112 F999.600
G1 X-21.615 Y13.758 F999.600
G1 X-21.466 Y13.410 F999.600
G1 X-21.118 Y12.739 F999.600
G1 X-20.696 Y12.118 F999.600
G1 X-20.466 Y11.820 F999.600
G1 X-20.217 Y11.540 F999.600
G1 X-19.957 Y11.273 F999.600
G1 X-19.677 Y11.019 F999.600
G1 X-19.385 Y10.776 F999.600
G1 X-18.764 Y10.342 F999.600
G1 X-18.099 Y9.994 F999.600
G1 X-17.752 Y9.851 F999.600
G1 X-17.391 Y9.733 F999.600
G1 X-17.031 Y9.634 F999.600
G1 X-16.292 Y9.497 F999.600
G1 X-15.919 Y9.460 F999.600
G1 X-15.547 Y9.441 F999.600
G1 X-15.174 Y9.441 F999.600
G1 X-14.801 Y9.466 F999.600
G1 X-14.429 Y9.522 F999.600
G1 X-14.062 Y9.596 F999.600
G1 X-13.342 Y9.807 F999.600
G1 X-12.994 Y9.944 F999.600
G1 X-12.317 Y10.267 F999.600
G1 X-11.994 Y10.453 F999.600
G1 X-11.211 Y11.019 F999.600
G1 X-10.565 Y11.640 F999.600
G1 X-10.193 Y12.106 F999.600
G1 X-9.981 Y12.410 F999.600
G1 X-9.795 Y12.733 F999.600
G1 X-9.466 Y13.398 F999.600
G1 X-9.323 Y13.739 F999.600
G1 X-9.199 Y14.087 F999.600
G1 X-9.025 Y14.807 F999.600
G1 X-8.919 Y15.540 F999.600
G1 X-8.894 Y15.907 F999.600
G1 X-8.888 Y16.273 F999.600
G1 X-8.901 Y16.640 F999.600
G1 X-8.932 Y17.006 F999.600
G1 X-9.075 Y17.727 F999.600
G1 X-9.174 Y18.081 F999.600
G1 X-9.298 Y18.429 F999.600
G1 X-9.590 Y19.106 F999.600
G1 X-9.764 Y19.429 F999.600
G1 X-10.161 Y20.050 F999.600
G1 X-10.621 Y20.627 F999.600
G1 X-10.870 Y20.901 F999.600
G1 X-11.422 Y21.385 F999.600
G1 X-12.025 Y21.807 F999.600
G1 X-12.671 Y22.168 F999.600
G1 X-13.342 Y22.472 F999.600
G1 X-13.689 Y22.602 F999.600
G1 X-14.391 Y22.814 F999.600
G1 X-14.752 Y22.894 F999.600
G1 X-15.118 Y22.944 F999.600
G1 X-15.484 Y22.969 F999.600
G1 X-16.217 Y22.969 F999.600
G1 X-16.584 Y22.932 F999.600
G1 X-16.950 Y22.876 F999.600
G1 X-17.311 Y22.801 F999.600
G1 X-17.671 Y22.708 F999.600
G1 X-18.373 Y22.472 F999.600
G1 X-19.050 Y22.161 F999.600
G1 X-19.379 Y21.988 F999.600
G1 X-19.696 Y21.795 F999.600
G1 X-20.006 Y21.584 F999.600
G1 X-20.571 Y21.093 F999.600
G1 X-20.832 Y20.826 F999.600
G1 X-21.081 Y20.547 F999.600
G1 X-21.528 Y19.950 F999.600
G1 X-21.727 Y19.634 F999.600
G1 X-22.075 Y18.969 F999.600
G1 X-22.360 Y18.280 F999.600
G1 X-22.478 Y17.925 F999.600
G1 X-22.665 Y17.199 F999.600
G1 X-22.789 Y16.460 F999.600
G1 X-22.814 Y15.714 F999.600
G1 X-22.795 Y15.342 F999.600
G1 X-22.752 Y14.969 F999.600
G1 X-22.689 Y14.596 F999.600
G1 X-22.609 Y14.230 F999.600
G1 X-22.503 Y13.870 F999.600
G1 X-22.379 Y13.516 F999.600
G1 X-22.236 Y13.168 F999.600
G1 X-21.907 Y12.491 F999.600
G1 X-21.509 Y11.851 F999.600
G1 X-21.292 Y11.547 F999.600
G1 X-20.807 Y10.969 F999.600
G1 X-20.547 Y10.696 F999.600
G1 X-20.273 Y10.435 F999.600
G1 X-19.988 Y10.186 F999.600
G1 X-19.379 Y9.739 F999.600
G1 X-19.062 Y9.534 F999.600
G1 X-18.385 Y9.199 F999.600
G1 X-18.037 Y9.056 F999.600
G1 X-17.677 Y8.938 F999.600
G1 X-16.950 Y8.745 F999.600
G1 X-16.578 Y8.677 F999.600
G1 X-15.832 Y8.590 F999.600
G1 X-15.460 Y8.578 F999.600
G1 X-14.714 Y8.602 F999.600
G1 X-13.975 Y8.727 F999.600
G1 X-13.609 Y8.820 F999.600
G1 X-12.528 Y9.186 F999.600
G1 X-11.621 Y9.634 F999.600
G1 X-11.323 Y9.888 F999.600
G1 X-10.099 Y11.149 F999.600
G1 X-9.373 Y11.795 F999.600
G1 X-9.118 Y12.099 F999.600
G1 X-8.646 Y12.957 F999.600
G1 X-8.460 Y13.410 F999.600
G1 X-8.174 Y14.484 F999.600
G1 X-8.056 Y15.217 F999.600
G1 X-8.012 Y15.584 F999.600
G1 X-7.988 Y15.950 F999.600
G1 X-8.006 Y16.683 F999.600
G1 X-8.043 Y17.050 F999.600
G1 X-8.099 Y17.416 F999.600
G1 X-8.174 Y17.776 F999.600
G1 X-8.267 Y18.137 F999.600
G1 X-8.503 Y18.839 F999.600
G1 X-8.646 Y19.180 F999.600
G1 X-8.807 Y19.509 F999.600
G1 X-9.180 Y20.143 F999.600
G1 X-9.602 Y20.745 F999.600
G1 X-10.075 Y21.311 F999.600
G1 X-10.329 Y21.578 F999.600
G1 X-10.596 Y21.832 F999.600
G1 X-11.174 Y22.286 F999.600
G1 X-11.478 Y22.491 F999.600
G1 X-12.124 Y22.851 F999.600
G1 X-12.789 Y23.174 F999.600
G1 X-13.472 Y23.453 F999.600
G1 X-14.180 Y23.646 F999.600
G1 X-14.540 Y23.720 F999.600
G1 X-15.273 Y23.814 F999.600
G1 X-15.640 Y23.832 F999.600
G1 X-16.006 Y23.832 F999.600
G1 X-16.739 Y23.758 F999.600
G1 X-17.466 Y23.621 F999.600
G1 X-17.826 Y23.528 F999.600
G1 X-18.528 Y23.292 F999.600
G1 X-19.540 Y22.832 F999.600
G1 X-20.180 Y22.460 F999.600
G1 X-20.776 Y22.019 F999.600
G1 X-21.062 Y21.776 F999.600
G1 X-21.329 Y21.516 F999.600
G1 X-21.584 Y21.242 F999.600
G1 X-21.826 Y20.957 F999.600
G1 X-22.261 Y20.348 F999.600
G1 X-22.634 Y19.702 F999.600
G1 X-22.795 Y19.366 F999.600
G1 X-23.211 Y18.323 F999.600
G1 X-23.329 Y17.969 F999.600
G1 X-23.509 Y17.236 F999.600
G1 X-23.578 Y16.870 F999.600
G1 X-23.634 Y16.124 F999.600
G1 X-23.640 Y15.752 F999.600
G1 X-23.621 Y15.379 F999.600
G1 X-23.584 Y15.006 F999.600
G1 X-23.528 Y14.634 F999.600
G1 X-23.453 Y14.267 F999.600
G1 X-23.360 Y13.901 F999.600
G1 X-23.124 Y13.186 F999.600
G1 X-22.826 Y12.497 F999.600
G1 X-22.658 Y12.161 F999.600
G1 X-22.273 Y11.509 F999.600
G1 X-21.839 Y10.894 F999.600
G1 X-21.354 Y10.323 F999.600
G1 X-21.093 Y10.050 F999.600
G1 X-20.820 Y9.789 F999.600
G1 X-20.242 Y9.304 F999.600
G1 X-19.627 Y8.870 F999.600
G1 X-18.963 Y8.516 F999.600
G1 X-18.267 Y8.224 F999.600
G1 X-17.553 Y8.000 F999.600
G1 X-17.186 Y7.913 F999.600
G1 X-16.441 Y7.789 F999.600
G1 X-16.068 Y7.752 F999.600
G1 X-15.323 Y7.720 F999.600
G1 X-14.578 Y7.745 F999.600
G1 X-13.832 Y7.863 F999.600
G1 X-12.683 Y8.174 F999.600
G1 X-12.596 Y8.224 F999.600
G1 X-11.994 Y9.019 F999.600
G1 X-11.994 Y9.019 F999.600
G1 X-11.888 Y9.248 F999.600
G1 X-11.876 Y9.348 F999.600
G0 X-11.870 Y9.398
G0 X-11.733 Y10.242
G0 X-10.453 Y11.484
G0 X-9.851 Y11.696
G1 X-9.795 Y11.714 F999.600
G1 X-9.186 Y11.882 F999.600
G1 X-9.186 Y11.882 F999.600
G1 X-9.124 Y11.957 F999.600
G1 X-8.093 Y12.720 F999.600
G1 X-7.950 Y12.863 F999.600
G1 X-7.652 Y13.373 F999.600
G1 X-7.410 Y14.019 F999.600
G1 X-7.317 Y14.379 F999.600
G1 X-7.174 Y15.106 F999.600
G1 X-7.124 Y15.472 F999.600
G1 X-7.099 Y16.205 F999.600
G1 X-7.112 Y16.571 F999.600
G1 X-7.255 Y17.671 F999.600
G1 X-7.429 Y18.385 F999.600
G1 X-7.534 Y18.739 F999.600
G1 X-7.795 Y19.429 F999.600
G1 X-8.106 Y20.093 F999.600
G1 X-8.280 Y20.416 F999.600
G1 X-8.913 Y21.317 F999.600
G1 X-9.404 Y21.870 F999.600
G1 X-9.665 Y22.130 F999.600
G1 X-9.938 Y22.379 F999.600
G1 X-10.807 Y23.062 F999.600
G1 X-11.422 Y23.460 F999.600
G1 X-12.062 Y23.820 F999.600
G1 X-12.391 Y23.981 F999.600
G1 X-13.087 Y24.236 F999.600
G1 X-13.795 Y24.435 F999.600
G1 X-14.522 Y24.571 F999.600
G1 X-14.888 Y24.621 F999.600
G1 X-15.621 Y24.671 F999.600
G1 X-15.988 Y24.677 F999.600
G1 X-16.354 Y24.665 F999.600
G1 X-17.087 Y24.565 F999.600
G1 X-17.447 Y24.491 F999.600
G1 X-18.168 Y24.298 F999.600
G1 X-18.863 Y24.056 F999.600
G1 X-19.547 Y23.770 F999.600
G1 X-20.211 Y23.435 F999.600
G1 X-21.801 Y22.087 F999.600
G1 X-22.863 Y20.752 F999.600
G1 X-23.137 Y20.360 F999.600
G1 X-23.329 Y20.037 F999.600
G1 X-23.671 Y19.373 F999.600
G1 X-23.820 Y19.031 F999.600
G1 X-24.075 Y18.329 F999.600
G1 X-24.180 Y17.969 F999.600
G1 X-24.342 Y17.236 F999.600
G1 X-24.441 Y16.491 F999.600
G1 X-24.466 Y16.118 F999.600
G1 X-24.466 Y15.373 F999.600
G1 X-24.441 Y15.000 F999.600
G1 X-24.311 Y14.255 F999.600
G1 X-24.118 Y13.522 F999.600
G1 X-24.000 Y13.168 F999.600
G1 X-23.565 Y12.118 F999.600
G1 X-23.224 Y11.447 F999.600
G1 X-22.826 Y10.807 F999.600
G1 X-22.379 Y10.199 F999.600
G1 X-22.137 Y9.907 F999.600
G1 X-21.882 Y9.627 F999.600
G1 X-21.342 Y9.099 F999.600
G1 X-20.758 Y8.615 F999.600
G1 X-20.143 Y8.180 F999.600
G1 X-19.491 Y7.795 F999.600
G1 X-19.155 Y7.627 F999.600
G1 X-18.453 Y7.354 F999.600
G1 X-18.093 Y7.242 F999.600
G1 X-17.360 Y7.056 F999.600
G1 X-16.988 Y6.988 F999.600
G1 X-15.870 Y6.857 F999.600
G1 X-15.124 Y6.832 F999.600
G1 X-14.752 Y6.839 F999.600
G1 X-13.410 Y7.031 F999.600
G1 X-13.317 Y7.068 F999.600
G1 X-13.242 Y7.130 F999.600
G1 X-13.087 Y7.373 F999.600
G1 X-13.087 Y7.373 F999.600
G1 X-13.000 Y7.609 F999.600
G1 X-12.994 Y7.708 F999.600
G0 X-12.988 Y7.758
G0 X-12.950 Y8.621
G0 X-12.342 Y9.497
G0 X-12.193 Y9.807
G0 X-9.323 Y12.435
G0 X-8.652 Y12.609
G1 X-8.609 Y12.621 F999.600
G1 X-7.975 Y12.733 F999.600
G1 X-7.975 Y12.733 F999.600
G1 X-7.211 Y13.199 F999.600
G1 X-6.981 Y13.398 F999.600
G1 X-6.764 Y13.727 F999.600
G1 X-6.472 Y14.441 F999.600
G1 X-6.379 Y14.801 F999.600
G1 X-6.317 Y15.168 F999.600
G1 X-6.242 Y15.901 F999.600
G1 X-6.248 Y16.634 F999.600
G1 X-6.280 Y17.000 F999.600
G1 X-6.453 Y18.099 F999.600
G1 X-6.745 Y19.168 F999.600
G1 X-7.000 Y19.857 F999.600
G1 X-7.329 Y20.516 F999.600
G1 X-7.708 Y21.143 F999.600
G1 X-8.143 Y21.739 F999.600
G1 X-8.615 Y22.298 F999.600
G1 X-8.870 Y22.565 F999.600
G1 X-9.404 Y23.075 F999.600
G1 X-9.969 Y23.547 F999.600
G1 X-10.559 Y23.981 F999.600
G1 X-11.174 Y24.379 F999.600
G1 X-11.845 Y24.689 F999.600
G1 X-12.528 Y24.963 F999.600
G1 X-13.230 Y25.186 F999.600
G1 X-13.944 Y25.360 F999.600
G1 X-14.671 Y25.484 F999.600
G1 X-15.404 Y25.547 F999.600
G1 X-15.770 Y25.559 F999.600
G1 X-16.503 Y25.516 F999.600
G1 X-16.870 Y25.472 F999.600
G1 X-17.596 Y25.335 F999.600
G1 X-18.050 Y25.211 F999.600
G1 X-19.441 Y24.677 F999.600
G1 X-20.130 Y24.323 F999.600
G1 X-21.311 Y23.453 F999.600
G1 X-22.814 Y21.981 F999.600
G1 X-23.720 Y20.820 F999.600
G1 X-24.422 Y19.472 F999.600
G1 X-24.957 Y17.969 F999.600
G1 X-25.143 Y17.242 F999.600
G1 X-25.255 Y16.497 F999.600
G1 X-25.286 Y16.124 F999.600
G1 X-25.298 Y15.752 F999.600
G1 X-25.292 Y15.379 F999.600
G1 X-25.267 Y15.006 F999.600
G1 X-25.224 Y14.634 F999.600
G1 X-25.161 Y14.261 F999.600
G1 X-25.081 Y13.894 F999.600
G1 X-24.752 Y12.807 F999.600
G1 X-24.348 Y11.758 F999.600
G1 X-24.193 Y11.416 F999.600
G1 X-23.820 Y10.758 F999.600
G1 X-23.404 Y10.130 F999.600
G1 X-22.944 Y9.528 F999.600
G1 X-22.447 Y8.963 F999.600
G1 X-21.913 Y8.435 F999.600
G1 X-21.342 Y7.944 F999.600
G1 X-21.043 Y7.714 F999.600
G1 X-20.410 Y7.311 F999.600
G1 X-20.081 Y7.124 F999.600
G1 X-19.404 Y6.801 F999.600
G1 X-19.056 Y6.652 F999.600
G1 X-18.342 Y6.404 F999.600
G1 X-17.615 Y6.205 F999.600
G1 X-16.876 Y6.056 F999.600
G1 X-16.130 Y5.969 F999.600
G1 X-15.385 Y5.932 F999.600
G1 X-14.441 Y5.957 F999.600
G1 X-13.845 Y6.050 F999.600
G1 X-13.752 Y6.087 F999.600
G1 X-13.702 Y6.174 F999.600
G1 X-13.702 Y6.174 F999.600
G1 X-13.652 Y6.416 F999.600
G1 X-13.658 Y6.509 F999.600
G0 X-13.665 Y6.559
G0 X-13.547 Y7.745
G0 X-12.012 Y10.031
G0 X-11.168 Y10.901
G0 X-9.292 Y12.516
G0 X-8.062 Y13.298
G0 X-7.870 Y13.323
G0 X-7.621 Y13.292
G1 X-7.565 Y13.280 F999.600
G1 X-7.186 Y13.248 F999.600
G1 X-6.944 Y13.317 F999.600
G1 X-6.944 Y13.317 F999.600
G1 X-6.242 Y13.708 F999.600
G1 X-6.087 Y13.839 F999.600
G1 X-5.739 Y14.435 F999.600
G1 X-5.602 Y14.807 F999.600
G1 X-5.509 Y15.168 F999.600
G1 X-5.447 Y15.534 F999.600
G1 X-5.385 Y16.267 F999.600
G1 X-5.385 Y16.634 F999.600
G1 X-5.491 Y17.733 F999.600
G1 X-5.547 Y18.099 F999.600
G1 X-5.702 Y18.820 F999.600
G1 X-5.795 Y19.174 F999.600
G1 X-6.050 Y19.870 F999.600
G1 X-6.193 Y20.211 F999.600
G1 X-6.516 Y20.870 F999.600
G1 X-6.888 Y21.503 F999.600
G1 X-7.087 Y21.814 F999.600
G1 X-7.528 Y22.404 F999.600
G1 X-7.764 Y22.689 F999.600
G1 X-8.267 Y23.230 F999.600
G1 X-8.807 Y23.733 F999.600
G1 X-9.373 Y24.211 F999.600
G1 X-9.963 Y24.652 F999.600
G1 X-10.590 Y25.037 F999.600
G1 X-10.913 Y25.211 F999.600
G1 X-11.919 Y25.665 F999.600
G1 X-12.615 Y25.919 F999.600
G1 X-13.317 Y26.130 F999.600
G1 X-14.037 Y26.273 F999.600
G1 X-14.770 Y26.373 F999.600
G1 X-15.503 Y26.422 F999.600
G1 X-16.236 Y26.410 F999.600
G1 X-17.634 Y26.161 F999.600
G1 X-17.913 Y26.068 F999.600
G1 X-18.261 Y25.894 F999.600
G1 X-20.609 Y24.062 F999.600
G1 X-20.609 Y24.062 F999.600
G1 X-20.739 Y23.894 F999.600
G1 X-20.776 Y23.801 F999.600
G1 X-20.783 Y23.758 F999.600
G0 X-20.776 Y23.714
G0 X-20.652 Y23.584
G0 X-6.845 Y13.894
G1 X-6.758 Y13.832 F999.600
G1 X-6.540 Y13.696 F999.600
G1 X-6.335 Y13.658 F999.600
G1 X-6.143 Y13.696 F999.600
G1 X-6.143 Y13.696 F999.600
G1 X-5.497 Y13.994 F999.600
G1 X-5.255 Y14.168 F999.600
G1 X-5.130 Y14.317 F999.600
G1 X-4.894 Y14.745 F999.600
G1 X-4.752 Y15.112 F999.600
G1 X-4.671 Y15.472 F999.600
G1 X-4.559 Y16.205 F999.600
G1 X-4.534 Y16.571 F999.600
G1 X-4.547 Y17.304 F999.600
G1 X-4.584 Y17.671 F999.600
G1 X-4.696 Y18.404 F999.600
G1 X-4.863 Y19.124 F999.600
G1 X-5.193 Y20.174 F999.600
G1 X-5.323 Y20.516 F999.600
G1 X-5.652 Y21.174 F999.600
G1 X-6.019 Y21.807 F999.600
G1 X-6.640 Y22.727 F999.600
G1 X-6.863 Y23.019 F999.600
G1 X-7.354 Y23.571 F999.600
G1 X-7.876 Y24.093 F999.600
G1 X-8.429 Y24.584 F999.600
G1 X-9.006 Y25.043 F999.600
G1 X-9.609 Y25.466 F999.600
G1 X-10.236 Y25.851 F999.600
G1 X-10.888 Y26.199 F999.600
G1 X-11.559 Y26.503 F999.600
G1 X-11.901 Y26.640 F999.600
G1 X-12.609 Y26.851 F999.600
G1 X-13.329 Y27.025 F999.600
G1 X-14.422 Y27.199 F999.600
G1 X-15.720 Y27.261 F999.600
G1 X-16.000 Y27.242 F999.600
G1 X-16.280 Y27.174 F999.600
G1 X-18.031 Y26.075 F999.600
G1 X-18.031 Y26.075 F999.600
G1 X-18.161 Y25.907 F999.600
G1 X-18.199 Y25.814 F999.600
G1 X-18.205 Y25.770 F999.600
G0 X-18.199 Y25.727
G0 X-18.093 Y25.578
G0 X-5.901 Y14.311
G1 X-5.826 Y14.242 F999.600
G1 X-5.621 Y14.081 F999.600
G1 X-5.472 Y14.043 F999.600
G1 X-5.230 Y14.075 F999.600
G1 X-5.230 Y14.075 F999.600
G1 X-4.590 Y14.379 F999.600
G1 X-4.435 Y14.497 F999.600
G1 X-4.161 Y14.907 F999.600
G1 X-3.957 Y15.342 F999.600
G1 X-3.863 Y15.702 F999.600
G1 X-3.733 Y16.435 F999.600
G1 X-3.708 Y16.801 F999.600
G1 X-3.714 Y17.534 F999.600
G1 X-3.789 Y18.267 F999.600
G1 X-3.919 Y18.994 F999.600
G1 X-4.106 Y19.708 F999.600
G1 X-4.342 Y20.410 F999.600
G1 X-4.627 Y21.087 F999.600
G1 X-5.143 Y22.062 F999.600
G1 X-5.739 Y22.994 F999.600
G1 X-6.186 Y23.584 F999.600
G1 X-6.665 Y24.143 F999.600
G1 X-7.174 Y24.671 F999.600
G1 X-7.714 Y25.174 F999.600
G1 X-8.571 Y25.863 F999.600
G1 X-9.174 Y26.280 F999.600
G1 X-9.801 Y26.658 F999.600
G1 X-10.453 Y27.000 F999.600
G1 X-11.124 Y27.304 F999.600
G1 X-11.814 Y27.565 F999.600
G1 X-12.882 Y27.845 F999.600
G1 X-14.547 Y28.062 F999.600
G1 X-14.826 Y28.006 F999.600
G1 X-15.255 Y27.789 F999.600
G1 X-16.093 Y27.292 F999.600
G1 X-16.093 Y27.292 F999.600
G1 X-16.236 Y27.149 F999.600
G1 X-16.286 Y27.062 F999.600
G1 X-16.298 Y27.019 F999.600
G0 X-16.298 Y26.975
G0 X-16.205 Y26.820
G0 X-5.124 Y14.665
G1 X-5.056 Y14.590 F999.600
G1 X-4.870 Y14.410 F999.600
G1 X-4.677 Y14.335 F999.600
G1 X-4.484 Y14.335 F999.600
G1 X-4.484 Y14.335 F999.600
G1 X-4.006 Y14.491 F999.600
G1 X-3.739 Y14.627 F999.600
G1 X-3.665 Y14.689 F999.600
G1 X-3.429 Y15.000 F999.600
G1 X-3.161 Y15.522 F999.600
G1 X-3.050 Y15.876 F999.600
G1 X-2.969 Y16.236 F999.600
G1 X-2.913 Y16.602 F999.600
G1 X-2.863 Y17.335 F999.600
G1 X-2.894 Y18.068 F999.600
G1 X-2.932 Y18.435 F999.600
G1 X-3.143 Y19.522 F999.600
G1 X-3.329 Y20.236 F999.600
G1 X-3.578 Y20.932 F999.600
G1 X-3.720 Y21.273 F999.600
G1 X-4.217 Y22.267 F999.600
G1 X-4.795 Y23.205 F999.600
G1 X-5.224 Y23.801 F999.600
G1 X-5.919 Y24.665 F999.600
G1 X-6.161 Y24.938 F999.600
G1 X-6.683 Y25.460 F999.600
G1 X-7.236 Y25.944 F999.600
G1 X-8.106 Y26.621 F999.600
G1 X-9.012 Y27.248 F999.600
G1 X-9.658 Y27.609 F999.600
G1 X-9.988 Y27.776 F999.600
G1 X-10.665 Y28.068 F999.600
G1 X-11.708 Y28.435 F999.600
G1 X-13.087 Y28.752 F999.600
G1 X-13.273 Y28.739 F999.600
G1 X-14.584 Y28.124 F999.600
G1 X-14.584 Y28.124 F999.600
G1 X-14.739 Y27.994 F999.600
G1 X-14.795 Y27.913 F999.600
G1 X-14.814 Y27.863 F999.600
G0 X-14.814 Y27.826
G0 X-14.727 Y27.665
G0 X-4.348 Y14.870
G1 X-4.280 Y14.789 F999.600
G1 X-4.106 Y14.602 F999.600
G1 X-3.963 Y14.540 F999.600
G1 X-3.720 Y14.540 F999.600
G1 X-3.720 Y14.540 F999.600
G1 X-3.149 Y14.727 F999.600
G1 X-2.969 Y14.814 F999.600
G1 X-2.820 Y14.938 F999.600
G1 X-2.584 Y15.255 F999.600
G1 X-2.360 Y15.689 F999.600
G1 X-2.236 Y16.037 F999.600
G1 X-2.155 Y16.398 F999.600
G1 X-2.093 Y16.764 F999.600
G1 X-2.050 Y17.130 F999.600
G1 X-2.025 Y17.497 F999.600
G1 X-2.025 Y17.863 F999.600
G1 X-2.043 Y18.230 F999.600
G1 X-2.186 Y19.329 F999.600
G1 X-2.354 Y20.050 F999.600
G1 X-2.453 Y20.404 F999.600
G1 X-2.696 Y21.099 F999.600
G1 X-2.969 Y21.783 F999.600
G1 X-3.453 Y22.776 F999.600
G1 X-3.826 Y23.416 F999.600
G1 X-4.230 Y24.031 F999.600
G1 X-4.901 Y24.907 F999.600
G1 X-5.385 Y25.460 F999.600
G1 X-5.901 Y25.988 F999.600
G1 X-6.441 Y26.491 F999.600
G1 X-7.298 Y27.180 F999.600
G1 X-7.901 Y27.602 F999.600
G1 X-8.528 Y27.988 F999.600
G1 X-9.174 Y28.342 F999.600
G1 X-9.839 Y28.658 F999.600
G1 X-11.050 Y29.143 F999.600
G1 X-11.789 Y29.342 F999.600
G1 X-11.975 Y29.329 F999.600
G1 X-13.230 Y28.783 F999.600
G1 X-13.230 Y28.783 F999.600
G1 X-13.385 Y28.652 F999.600
G1 X-13.441 Y28.565 F999.600
G1 X-13.460 Y28.522 F999.600
G0 X-13.460 Y28.478
G0 X-13.379 Y28.317
G0 X-3.553 Y15.124
G1 X-3.491 Y15.043 F999.600
G1 X-3.329 Y14.851 F999.600
G1 X-3.149 Y14.752 F999.600
G1 X-2.957 Y14.733 F999.600
G1 X-2.957 Y14.733 F999.600
G1 X-2.460 Y14.845 F999.600
G1 X-2.273 Y14.925 F999.600
G1 X-2.118 Y15.043 F999.600
G1 X-1.919 Y15.267 F999.600
G1 X-1.609 Y15.770 F999.600
G1 X-1.460 Y16.112 F999.600
G1 X-1.366 Y16.472 F999.600
G1 X-1.292 Y16.832 F999.600
G1 X-1.205 Y17.565 F999.600
G1 X-1.211 Y18.298 F999.600
G1 X-1.230 Y18.665 F999.600
G1 X-1.385 Y19.764 F999.600
G1 X-1.559 Y20.478 F999.600
G1 X-1.901 Y21.528 F999.600
G1 X-2.174 Y22.211 F999.600
G1 X-2.652 Y23.205 F999.600
G1 X-3.205 Y24.161 F999.600
G1 X-3.615 Y24.776 F999.600
G1 X-3.832 Y25.075 F999.600
G1 X-4.801 Y26.186 F999.600
G1 X-5.317 Y26.714 F999.600
G1 X-5.857 Y27.217 F999.600
G1 X-6.429 Y27.677 F999.600
G1 X-7.025 Y28.112 F999.600
G1 X-7.957 Y28.708 F999.600
G1 X-8.932 Y29.230 F999.600
G1 X-9.863 Y29.652 F999.600
G1 X-10.404 Y29.851 F999.600
G1 X-10.497 Y29.863 F999.600
G1 X-10.590 Y29.857 F999.600
G1 X-11.801 Y29.398 F999.600
G1 X-11.801 Y29.398 F999.600
G1 X-11.963 Y29.280 F999.600
G1 X-12.050 Y29.161 F999.600
G0 X-12.050 Y29.118
G0 X-11.981 Y28.950
G0 X-2.857 Y15.236
G1 X-2.801 Y15.149 F999.600
G1 X-2.640 Y14.944 F999.600
G1 X-2.466 Y14.845 F999.600
G1 X-2.273 Y14.826 F999.600
G1 X-2.273 Y14.826 F999.600
G1 X-1.776 Y14.919 F999.600
G1 X-1.491 Y15.031 F999.600
G1 X-1.404 Y15.087 F999.600
G1 X-1.143 Y15.385 F999.600
G1 X-0.901 Y15.814 F999.600
G1 X-0.752 Y16.155 F999.600
G1 X-0.621 Y16.503 F999.600
G1 X-0.528 Y16.863 F999.600
G1 X-0.422 Y17.596 F999.600
G1 X-0.398 Y17.963 F999.600
G1 X-0.410 Y18.696 F999.600
G1 X-0.472 Y19.429 F999.600
G1 X-0.522 Y19.795 F999.600
G1 X-0.671 Y20.516 F999.600
G1 X-0.870 Y21.230 F999.600
G1 X-1.248 Y22.273 F999.600
G1 X-1.683 Y23.292 F999.600
G1 X-2.186 Y24.273 F999.600
G1 X-2.584 Y24.894 F999.600
G1 X-3.236 Y25.783 F999.600
G1 X-3.714 Y26.348 F999.600
G1 X-4.466 Y27.155 F999.600
G1 X-5.255 Y27.919 F999.600
G1 X-5.832 Y28.379 F999.600
G1 X-6.429 Y28.814 F999.600
G1 X-7.354 Y29.410 F999.600
G1 X-8.317 Y29.950 F999.600
G1 X-9.012 Y30.261 F999.600
G1 X-9.199 Y30.298 F999.600
G1 X-10.037 Y30.068 F999.600
G1 X-10.317 Y29.963 F999.600
G1 X-10.317 Y29.963 F999.600
G1 X-10.478 Y29.845 F999.600
G1 X-10.565 Y29.727 F999.600
G0 X-10.571 Y29.683
G0 X-10.509 Y29.509
G0 X-2.056 Y15.360
G1 X-2.006 Y15.267 F999.600
G1 X-1.857 Y15.056 F999.600
G1 X-1.727 Y14.975 F999.600
G1 X-1.491 Y14.938 F999.600
G1 X-1.491 Y14.938 F999.600
G1 X-1.093 Y15.012 F999.600
G1 X-0.901 Y15.075 F999.600
G1 X-0.814 Y15.118 F999.600
G1 X-0.658 Y15.248 F999.600
G1 X-0.460 Y15.472 F999.600
G1 X-0.242 Y15.801 F999.600
G1 X-0.068 Y16.130 F999.600
G1 X0.081 Y16.466 F999.600
G1 X0.193 Y16.814 F999.600
G1 X0.280 Y17.174 F999.600
G1 X0.348 Y17.534 F999.600
G1 X0.416 Y18.267 F999.600
G1 X0.404 Y19.000 F999.600
G1 X0.373 Y19.366 F999.600
G1 X0.273 Y20.099 F999.600
G1 X0.025 Y21.180 F999.600
G1 X-0.186 Y21.888 F999.600
G1 X-0.429 Y22.584 F999.600
G1 X-0.857 Y23.602 F999.600
G1 X-1.174 Y24.267 F999.600
G1 X-1.733 Y25.217 F999.600
G1 X-2.366 Y26.124 F999.600
G1 X-3.075 Y26.981 F999.600
G1 X-3.820 Y27.795 F999.600
G1 X-4.342 Y28.317 F999.600
G1 X-4.901 Y28.801 F999.600
G1 X-5.484 Y29.248 F999.600
G1 X-6.391 Y29.870 F999.600
G1 X-7.795 Y30.652 F999.600
G1 X-7.888 Y30.665 F999.600
G1 X-7.981 Y30.658 F999.600
G1 X-9.006 Y30.366 F999.600
G1 X-9.006 Y30.366 F999.600
G1 X-9.180 Y30.267 F999.600
G1 X-9.255 Y30.193 F999.600
G1 X-9.273 Y30.155 F999.600
G0 X-9.286 Y30.112
G0 X-9.230 Y29.938
G0 X-1.441 Y15.478
G1 X-1.391 Y15.385 F999.600
G1 X-1.255 Y15.168 F999.600
G1 X-1.093 Y15.043 F999.600
G1 X-0.901 Y15.000 F999.600
G1 X-0.901 Y15.000 F999.600
G1 X-0.503 Y15.025 F999.600
G1 X-0.304 Y15.075 F999.600
G1 X-0.124 Y15.161 F999.600
G1 X0.224 Y15.484 F999.600
G1 X0.460 Y15.783 F999.600
G1 X0.696 Y16.180 F999.600
G1 X0.845 Y16.516 F999.600
G1 X0.969 Y16.863 F999.600
G1 X1.062 Y17.217 F999.600
G1 X1.186 Y17.944 F999.600
G1 X1.224 Y18.311 F999.600
G1 X1.236 Y19.043 F999.600
G1 X1.211 Y19.410 F999.600
G1 X1.062 Y20.509 F999.600
G1 X0.894 Y21.230 F999.600
G1 X0.696 Y21.950 F999.600
G1 X0.342 Y23.006 F999.600
G1 X-0.230 Y24.373 F999.600
G1 X-0.578 Y25.019 F999.600
G1 X-0.957 Y25.652 F999.600
G1 X-1.590 Y26.565 F999.600
G1 X-2.267 Y27.435 F999.600
G1 X-2.739 Y27.994 F999.600
G1 X-2.988 Y28.267 F999.600
G1 X-3.509 Y28.789 F999.600
G1 X-4.062 Y29.280 F999.600
G1 X-4.640 Y29.739 F999.600
G1 X-5.540 Y30.385 F999.600
G1 X-6.422 Y30.925 F999.600
G1 X-6.602 Y30.975 F999.600
G1 X-6.696 Y30.975 F999.600
G1 X-7.441 Y30.814 F999.600
G1 X-7.441 Y30.814 F999.600
G1 X-7.615 Y30.714 F999.600
G1 X-7.708 Y30.602 F999.600
G0 X-7.720 Y30.559
G0 X-7.677 Y30.385
G0 X-0.820 Y15.491
G1 X-0.776 Y15.398 F999.600
G1 X-0.658 Y15.168 F999.600
G1 X-0.540 Y15.068 F999.600
G1 X-0.304 Y15.000 F999.600
G1 X-0.304 Y15.000 F999.600
G1 X0.180 Y15.031 F999.600
G1 X0.460 Y15.093 F999.600
G1 X0.547 Y15.130 F999.600
G1 X0.845 Y15.366 F999.600
G1 X1.211 Y15.807 F999.600
G1 X1.410 Y16.118 F999.600
G1 X1.571 Y16.447 F999.600
G1 X1.820 Y17.143 F999.600
G1 X1.969 Y17.863 F999.600
G1 X2.012 Y18.230 F999.600
G1 X2.050 Y18.963 F999.600
G1 X2.050 Y19.329 F999.600
G1 X1.994 Y20.062 F999.600
G1 X1.882 Y20.795 F999.600
G1 X1.807 Y21.155 F999.600
G1 X1.522 Y22.230 F999.600
G1 X1.168 Y23.286 F999.600
G1 X0.901 Y23.975 F999.600
G1 X0.435 Y24.988 F999.600
G1 X0.093 Y25.646 F999.600
G1 X-0.304 Y26.267 F999.600
G1 X-0.938 Y27.174 F999.600
G1 X-1.839 Y28.342 F999.600
G1 X-2.584 Y29.149 F999.600
G1 X-3.124 Y29.652 F999.600
G1 X-3.683 Y30.137 F999.600
G1 X-5.137 Y31.174 F999.600
G1 X-5.224 Y31.217 F999.600
G1 X-5.317 Y31.242 F999.600
G1 X-6.248 Y31.062 F999.600
G1 X-6.242 Y31.062 F999.600
G1 X-6.429 Y30.975 F999.600
G1 X-6.528 Y30.870 F999.600
G0 X-6.540 Y30.832
G0 X-6.503 Y30.652
G0 X-0.056 Y15.497
G1 X-0.012 Y15.404 F999.600
G1 X0.099 Y15.174 F999.600
G1 X0.224 Y15.075 F999.600
G1 X0.478 Y15.006 F999.600
G1 X0.478 Y15.006 F999.600
G1 X1.037 Y15.037 F999.600
G1 X1.224 Y15.087 F999.600
G1 X1.466 Y15.242 F999.600
G1 X1.739 Y15.503 F999.600
G1 X1.913 Y15.727 F999.600
G1 X2.118 Y16.031 F999.600
G1 X2.298 Y16.354 F999.600
G1 X2.584 Y17.031 F999.600
G1 X2.689 Y17.385 F999.600
G1 X2.770 Y17.745 F999.600
G1 X2.832 Y18.112 F999.600
G1 X2.888 Y18.845 F999.600
G1 X2.901 Y19.211 F999.600
G1 X2.863 Y19.944 F999.600
G1 X2.714 Y21.043 F999.600
G1 X2.559 Y21.764 F999.600
G1 X2.137 Y23.186 F999.600
G1 X1.745 Y24.230 F999.600
G1 X1.298 Y25.248 F999.600
G1 X0.957 Y25.913 F999.600
G1 X0.559 Y26.547 F999.600
G1 X-0.068 Y27.472 F999.600
G1 X-0.727 Y28.360 F999.600
G1 X-1.435 Y29.211 F999.600
G1 X-2.186 Y30.019 F999.600
G1 X-2.447 Y30.280 F999.600
G1 X-3.776 Y31.335 F999.600
G1 X-3.857 Y31.385 F999.600
G1 X-3.950 Y31.416 F999.600
G1 X-4.043 Y31.422 F999.600
G1 X-5.161 Y31.286 F999.600
G1 X-5.161 Y31.286 F999.600
G1 X-5.348 Y31.211 F999.600
G1 X-5.447 Y31.112 F999.600
G0 X-5.460 Y31.075
G0 X-5.429 Y30.901
G0 X0.658 Y15.516
G1 X0.696 Y15.422 F999.600
G1 X0.807 Y15.186 F999.600
G1 X0.919 Y15.075 F999.600
G1 X1.168 Y14.981 F999.600
G1 X1.168 Y14.981 F999.600
G1 X1.540 Y14.957 F999.600
G1 X1.820 Y14.994 F999.600
G1 X1.913 Y15.025 F999.600
G1 X2.298 Y15.298 F999.600
G1 X2.627 Y15.634 F999.600
G1 X2.857 Y15.919 F999.600
G1 X3.050 Y16.236 F999.600
G1 X3.354 Y16.907 F999.600
G1 X3.553 Y17.621 F999.600
G1 X3.671 Y18.354 F999.600
G1 X3.708 Y18.720 F999.600
G1 X3.720 Y19.453 F999.600
G1 X3.683 Y20.186 F999.600
G1 X3.540 Y21.286 F999.600
G1 X3.398 Y22.012 F999.600
G1 X3.211 Y22.733 F999.600
G1 X2.988 Y23.441 F999.600
G1 X2.596 Y24.478 F999.600
G1 X2.149 Y25.497 F999.600
G1 X1.820 Y26.161 F999.600
G1 X1.242 Y27.112 F999.600
G1 X0.609 Y28.031 F999.600
G1 X-0.292 Y29.205 F999.600
G1 X-1.006 Y30.050 F999.600
G1 X-1.509 Y30.590 F999.600
G1 X-2.565 Y31.522 F999.600
G1 X-2.652 Y31.565 F999.600
G1 X-2.745 Y31.578 F999.600
G1 X-3.584 Y31.478 F999.600
G1 X-3.584 Y31.478 F999.600
G1 X-3.814 Y31.373 F999.600
G1 X-3.876 Y31.304 F999.600
G0 X-3.894 Y31.267
G0 X-3.870 Y31.087
G0 X1.267 Y15.460
G1 X1.298 Y15.360 F999.600
G1 X1.404 Y15.118 F999.600
G1 X1.516 Y15.006 F999.600
G1 X1.758 Y14.913 F999.600
G1 X1.758 Y14.913 F999.600
G1 X2.317 Y14.870 F999.600
G1 X2.596 Y14.907 F999.600
G1 X3.000 Y15.155 F999.600
G1 X3.280 Y15.416 F999.600
G1 X3.571 Y15.776 F999.600
G1 X3.770 Y16.087 F999.600
G1 X3.944 Y16.410 F999.600
G1 X4.217 Y17.099 F999.600
G1 X4.329 Y17.453 F999.600
G1 X4.410 Y17.814 F999.600
G1 X4.522 Y18.547 F999.600
G1 X4.559 Y19.280 F999.600
G1 X4.547 Y20.012 F999.600
G1 X4.441 Y21.112 F999.600
G1 X4.323 Y21.845 F999.600
G1 X4.081 Y22.925 F999.600
G1 X3.876 Y23.634 F999.600
G1 X3.335 Y25.019 F999.600
G1 X2.882 Y26.037 F999.600
G1 X2.534 Y26.696 F999.600
G1 X1.950 Y27.646 F999.600
G1 X1.317 Y28.559 F999.600
G1 X0.186 Y30.037 F999.600
G1 X-0.304 Y30.590 F999.600
G1 X-1.298 Y31.571 F999.600
G1 X-1.379 Y31.621 F999.600
G1 X-1.472 Y31.646 F999.600
G1 X-2.311 Y31.609 F999.600
G1 X-2.311 Y31.609 F999.600
G1 X-2.503 Y31.553 F999.600
G1 X-2.584 Y31.503 F999.600
G1 X-2.609 Y31.472 F999.600
G0 X-2.627 Y31.435
G0 X-2.609 Y31.255
G0 X2.075 Y15.398
G1 X2.106 Y15.304 F999.600
G1 X2.205 Y15.043 F999.600
G1 X2.348 Y14.894 F999.600
G1 X2.540 Y14.814 F999.600
G1 X2.540 Y14.814 F999.600
G1 X3.006 Y14.745 F999.600
G1 X3.286 Y14.776 F999.600
G1 X3.621 Y14.963 F999.600
G1 X4.050 Y15.342 F999.600
G1 X4.292 Y15.621 F999.600
G1 X4.497 Y15.925 F999.600
G1 X4.683 Y16.242 F999.600
G1 X4.851 Y16.571 F999.600
G1 X5.099 Y17.261 F999.600
G1 X5.273 Y17.981 F999.600
G1 X5.366 Y18.714 F999.600
G1 X5.398 Y19.081 F999.600
G1 X5.398 Y20.180 F999.600
G1 X5.335 Y20.913 F999.600
G1 X5.174 Y22.012 F999.600
G1 X4.950 Y23.093 F999.600
G1 X4.857 Y23.453 F999.600
G1 X4.621 Y24.161 F999.600
G1 X4.360 Y24.857 F999.600
G1 X3.932 Y25.888 F999.600
G1 X3.441 Y26.882 F999.600
G1 X2.882 Y27.845 F999.600
G1 X2.037 Y29.068 F999.600
G1 X1.149 Y30.267 F999.600
G1 X0.348 Y31.180 F999.600
G1 X-0.068 Y31.590 F999.600
G1 X-0.230 Y31.689 F999.600
G1 X-0.323 Y31.702 F999.600
G1 X-0.882 Y31.677 F999.600
G1 X-0.882 Y31.677 F999.600
G1 X-1.075 Y31.621 F999.600
G1 X-1.155 Y31.571 F999.600
G1 X-1.180 Y31.540 F999.600
G0 X-1.199 Y31.497
G0 X-1.193 Y31.317
G0 X2.677 Y15.273
G1 X2.702 Y15.174 F999.600
G1 X2.783 Y14.925 F999.600
G1 X2.882 Y14.801 F999.600
G1 X3.118 Y14.683 F999.600
G1 X3.118 Y14.683 F999.600
G1 X3.584 Y14.596 F999.600
G1 X3.863 Y14.596 F999.600
G1 X3.957 Y14.615 F999.600
G1 X4.373 Y14.839 F999.600
G1 X4.671 Y15.075 F999.600
G1 X4.988 Y15.416 F999.600
G1 X5.205 Y15.714 F999.600
G1 X5.404 Y16.025 F999.600
G1 X5.578 Y16.348 F999.600
G1 X5.857 Y17.025 F999.600
G1 X5.963 Y17.379 F999.600
G1 X6.118 Y18.099 F999.600
G1 X6.217 Y18.832 F999.600
G1 X6.255 Y19.565 F999.600
G1 X6.248 Y20.298 F999.600
G1 X6.161 Y21.398 F999.600
G1 X6.068 Y22.130 F999.600
G1 X5.938 Y22.857 F999.600
G1 X5.745 Y23.571 F999.600
G1 X5.522 Y24.280 F999.600
G1 X4.988 Y25.665 F999.600
G1 X4.373 Y27.019 F999.600
G1 X3.826 Y27.988 F999.600
G1 X3.006 Y29.224 F999.600
G1 X1.907 Y30.727 F999.600
G1 X1.677 Y31.019 F999.600
G1 X1.124 Y31.584 F999.600
G1 X1.037 Y31.634 F999.600
G1 X0.944 Y31.665 F999.600
G1 X0.050 Y31.696 F999.600
G1 X0.043 Y31.696 F999.600
G1 X-0.149 Y31.658 F999.600
G1 X-0.236 Y31.615 F999.600
G1 X-0.267 Y31.584 F999.600
G0 X-0.286 Y31.547
G0 X-0.280 Y31.366
G0 X3.360 Y15.118
G1 X3.385 Y15.019 F999.600
G1 X3.460 Y14.770 F999.600
G1 X3.559 Y14.646 F999.600
G1 X3.795 Y14.528 F999.600
G1 X3.795 Y14.528 F999.600
G1 X4.354 Y14.429 F999.600
G1 X4.540 Y14.429 F999.600
G1 X4.807 Y14.516 F999.600
G1 X5.292 Y14.814 F999.600
G1 X5.640 Y15.124 F999.600
G1 X5.870 Y15.410 F999.600
G1 X6.267 Y16.025 F999.600
G1 X6.578 Y16.689 F999.600
G1 X6.807 Y17.391 F999.600
G1 X6.963 Y18.112 F999.600
G1 X7.068 Y18.845 F999.600
G1 X7.099 Y19.211 F999.600
G1 X7.124 Y19.944 F999.600
G1 X7.050 Y21.410 F999.600
G1 X6.901 Y22.509 F999.600
G1 X6.646 Y23.590 F999.600
G1 X5.938 Y25.702 F999.600
G1 X5.503 Y26.727 F999.600
G1 X5.180 Y27.398 F999.600
G1 X4.640 Y28.373 F999.600
G1 X4.043 Y29.317 F999.600
G1 X2.950 Y30.826 F999.600
G1 X2.267 Y31.565 F999.600
G1 X2.180 Y31.615 F999.600
G1 X1.087 Y31.658 F999.600
G1 X1.087 Y31.658 F999.600
G1 X0.876 Y31.621 F999.600
G1 X0.783 Y31.578 F999.600
G1 X0.752 Y31.547 F999.600
G0 X0.727 Y31.509
G0 X0.727 Y31.329
G0 X4.075 Y14.988
G1 X4.099 Y14.888 F999.600
G1 X4.193 Y14.590 F999.600
G1 X4.329 Y14.435 F999.600
G1 X4.460 Y14.348 F999.600
G1 X4.460 Y14.348 F999.600
G1 X4.925 Y14.211 F999.600
G1 X5.112 Y14.193 F999.600
G1 X5.205 Y14.199 F999.600
G1 X5.565 Y14.323 F999.600
G1 X5.969 Y14.571 F999.600
G1 X6.317 Y14.882 F999.600
G1 X6.565 Y15.155 F999.600
G1 X6.789 Y15.447 F999.600
G1 X6.988 Y15.758 F999.600
G1 X7.323 Y16.416 F999.600
G1 X7.460 Y16.758 F999.600
G1 X7.571 Y17.112 F999.600
G1 X7.758 Y17.820 F999.600
G1 X7.882 Y18.553 F999.600
G1 X7.963 Y19.286 F999.600
G1 X8.000 Y20.019 F999.600
G1 X7.988 Y20.752 F999.600
G1 X7.932 Y21.484 F999.600
G1 X7.832 Y22.217 F999.600
G1 X7.702 Y22.950 F999.600
G1 X7.447 Y24.031 F999.600
G1 X7.130 Y25.093 F999.600
G1 X6.745 Y26.137 F999.600
G1 X6.298 Y27.155 F999.600
G1 X5.795 Y28.149 F999.600
G1 X5.236 Y29.106 F999.600
G1 X4.180 Y30.646 F999.600
G1 X3.553 Y31.398 F999.600
G1 X3.385 Y31.497 F999.600
G1 X2.590 Y31.584 F999.600
G1 X2.590 Y31.584 F999.600
G1 X2.379 Y31.559 F999.600
G1 X2.286 Y31.522 F999.600
G1 X2.248 Y31.491 F999.600
G0 X2.224 Y31.460
G0 X2.217 Y31.280
G0 X4.739 Y14.764
G1 X4.758 Y14.658 F999.600
G1 X4.820 Y14.404 F999.600
G1 X4.938 Y14.230 F999.600
G1 X5.106 Y14.112 F999.600
G1 X5.106 Y14.112 F999.600
G1 X5.658 Y13.950 F999.600
G1 X5.845 Y13.932 F999.600
G1 X5.938 Y13.938 F999.600
G1 X6.373 Y14.124 F999.600
G1 X6.770 Y14.391 F999.600
G1 X7.043 Y14.640 F999.600
G1 X7.298 Y14.907 F999.600
G1 X7.528 Y15.193 F999.600
G1 X7.739 Y15.491 F999.600
G1 X7.925 Y15.807 F999.600
G1 X8.087 Y16.137 F999.600
G1 X8.360 Y16.826 F999.600
G1 X8.559 Y17.534 F999.600
G1 X8.702 Y18.255 F999.600
G1 X8.826 Y19.354 F999.600
G1 X8.863 Y20.453 F999.600
G1 X8.832 Y21.186 F999.600
G1 X8.764 Y21.919 F999.600
G1 X8.584 Y23.019 F999.600
G1 X8.335 Y24.099 F999.600
G1 X7.919 Y25.522 F999.600
G1 X7.547 Y26.571 F999.600
G1 X7.248 Y27.255 F999.600
G1 X6.925 Y27.925 F999.600
G1 X6.385 Y28.901 F999.600
G1 X5.801 Y29.851 F999.600
G1 X5.391 Y30.472 F999.600
G1 X5.255 Y30.621 F999.600
G1 X4.770 Y31.248 F999.600
G1 X4.602 Y31.360 F999.600
G1 X3.509 Y31.484 F999.600
G1 X3.509 Y31.484 F999.600
G1 X3.298 Y31.460 F999.600
G1 X3.205 Y31.422 F999.600
G1 X3.168 Y31.391 F999.600
G0 X3.143 Y31.360
G0 X3.130 Y31.180
G0 X5.404 Y14.522
G1 X5.416 Y14.416 F999.600
G1 X5.472 Y14.161 F999.600
G1 X5.590 Y13.988 F999.600
G1 X5.758 Y13.870 F999.600
G1 X5.758 Y13.870 F999.600
G1 X6.224 Y13.720 F999.600
G1 X6.410 Y13.689 F999.600
G1 X6.503 Y13.689 F999.600
G1 X6.870 Y13.795 F999.600
G1 X7.373 Y14.062 F999.600
G1 X7.671 Y14.280 F999.600
G1 X7.932 Y14.540 F999.600
G1 X8.174 Y14.820 F999.600
G1 X8.398 Y15.112 F999.600
G1 X8.602 Y15.416 F999.600
G1 X8.776 Y15.739 F999.600
G1 X9.075 Y16.416 F999.600
G1 X9.317 Y17.112 F999.600
G1 X9.491 Y17.826 F999.600
G1 X9.559 Y18.186 F999.600
G1 X9.702 Y19.286 F999.600
G1 X9.745 Y20.019 F999.600
G1 X9.752 Y20.752 F999.600
G1 X9.720 Y21.484 F999.600
G1 X9.689 Y21.851 F999.600
G1 X9.435 Y23.317 F999.600
G1 X9.093 Y24.758 F999.600
G1 X8.776 Y25.826 F999.600
G1 X8.516 Y26.522 F999.600
G1 X8.087 Y27.547 F999.600
G1 X7.615 Y28.553 F999.600
G1 X7.447 Y28.882 F999.600
G1 X7.075 Y29.528 F999.600
G1 X6.478 Y30.472 F999.600
G1 X6.050 Y31.019 F999.600
G1 X5.969 Y31.081 F999.600
G1 X5.876 Y31.124 F999.600
G1 X4.882 Y31.311 F999.600
G1 X4.882 Y31.311 F999.600
G1 X4.671 Y31.304 F999.600
G1 X4.571 Y31.273 F999.600
G1 X4.534 Y31.242 F999.600
G0 X4.503 Y31.211
G0 X4.484 Y31.037
G0 X6.006 Y14.323
G1 X6.012 Y14.217 F999.600
G1 X6.068 Y13.907 F999.600
G1 X6.186 Y13.733 F999.600
G1 X6.304 Y13.640 F999.600
G1 X6.304 Y13.640 F999.600
G1 X6.752 Y13.435 F999.600
G1 X7.031 Y13.360 F999.600
G1 X7.124 Y13.354 F999.600
G1 X7.578 Y13.478 F999.600
G1 X7.994 Y13.696 F999.600
G1 X8.298 Y13.907 F999.600
G1 X8.578 Y14.149 F999.600
G1 X8.826 Y14.422 F999.600
G1 X9.056 Y14.708 F999.600
G1 X9.453 Y15.329 F999.600
G1 X9.789 Y15.981 F999.600
G1 X9.932 Y16.323 F999.600
G1 X10.056 Y16.671 F999.600
G1 X10.161 Y17.025 F999.600
G1 X10.416 Y18.106 F999.600
G1 X10.584 Y19.205 F999.600
G1 X10.621 Y19.571 F999.600
G1 X10.646 Y20.671 F999.600
G1 X10.571 Y21.770 F999.600
G1 X10.478 Y22.503 F999.600
G1 X10.354 Y23.236 F999.600
G1 X10.112 Y24.317 F999.600
G1 X9.733 Y25.752 F999.600
G1 X9.360 Y26.795 F999.600
G1 X8.640 Y28.503 F999.600
G1 X8.118 Y29.491 F999.600
G1 X7.286 Y30.770 F999.600
G1 X7.130 Y30.894 F999.600
G1 X6.037 Y31.093 F999.600
G1 X6.037 Y31.093 F999.600
G1 X5.826 Y31.087 F999.600
G1 X5.727 Y31.056 F999.600
G1 X5.683 Y31.025 F999.600
G0 X5.658 Y30.994
G0 X5.634 Y30.814
G0 X6.708 Y13.957
G1 X6.714 Y13.851 F999.600
G1 X6.752 Y13.590 F999.600
G1 X6.845 Y13.410 F999.600
G1 X7.000 Y13.273 F999.600
G1 X7.000 Y13.273 F999.600
G1 X7.447 Y13.081 F999.600
G1 X7.634 Y13.037 F999.600
G1 X7.820 Y13.037 F999.600
G1 X8.280 Y13.161 F999.600
G1 X8.627 Y13.329 F999.600
G1 X8.932 Y13.540 F999.600
G1 X9.211 Y13.783 F999.600
G1 X9.472 Y14.043 F999.600
G1 X9.932 Y14.615 F999.600
G1 X10.137 Y14.919 F999.600
G1 X10.497 Y15.565 F999.600
G1 X10.783 Y16.242 F999.600
G1 X11.012 Y16.938 F999.600
G1 X11.205 Y17.652 F999.600
G1 X11.354 Y18.373 F999.600
G1 X11.466 Y19.106 F999.600
G1 X11.528 Y19.839 F999.600
G1 X11.547 Y20.571 F999.600
G1 X11.497 Y21.671 F999.600
G1 X11.354 Y22.770 F999.600
G1 X11.217 Y23.503 F999.600
G1 X10.876 Y24.944 F999.600
G1 X10.460 Y26.366 F999.600
G1 X10.068 Y27.410 F999.600
G1 X9.627 Y28.435 F999.600
G1 X8.963 Y29.764 F999.600
G1 X8.547 Y30.416 F999.600
G1 X8.484 Y30.491 F999.600
G1 X8.404 Y30.553 F999.600
G1 X7.615 Y30.764 F999.600
G1 X7.615 Y30.764 F999.600
G1 X7.404 Y30.770 F999.600
G1 X7.304 Y30.745 F999.600
G1 X7.261 Y30.727 F999.600
G0 X7.236 Y30.696
G0 X7.199 Y30.516
G0 X7.329 Y13.640
G1 X7.335 Y13.534 F999.600
G1 X7.354 Y13.273 F999.600
G1 X7.453 Y13.093 F999.600
G1 X7.615 Y12.957 F999.600
G1 X7.615 Y12.957 F999.600
G1 X8.043 Y12.733 F999.600
G1 X8.230 Y12.677 F999.600
G1 X8.323 Y12.665 F999.600
G1 X8.602 Y12.702 F999.600
G1 X8.963 Y12.826 F999.600
G1 X9.224 Y12.950 F999.600
G1 X9.534 Y13.149 F999.600
G1 X9.826 Y13.373 F999.600
G1 X10.093 Y13.627 F999.600
G1 X10.348 Y13.894 F999.600
G1 X10.590 Y14.174 F999.600
G1 X10.807 Y14.472 F999.600
G1 X11.006 Y14.783 F999.600
G1 X11.186 Y15.106 F999.600
G1 X11.503 Y15.776 F999.600
G1 X11.764 Y16.472 F999.600
G1 X11.981 Y17.180 F999.600
G1 X12.230 Y18.255 F999.600
G1 X12.385 Y19.354 F999.600
G1 X12.435 Y20.087 F999.600
G1 X12.441 Y20.820 F999.600
G1 X12.404 Y21.553 F999.600
G1 X12.323 Y22.286 F999.600
G1 X12.137 Y23.385 F999.600
G1 X11.913 Y24.466 F999.600
G1 X11.646 Y25.547 F999.600
G1 X11.193 Y26.963 F999.600
G1 X10.938 Y27.658 F999.600
G1 X10.329 Y29.012 F999.600
G1 X9.770 Y30.031 F999.600
G1 X9.708 Y30.112 F999.600
G1 X9.634 Y30.180 F999.600
G1 X8.870 Y30.429 F999.600
G1 X8.870 Y30.429 F999.600
G1 X8.658 Y30.435 F999.600
G1 X8.559 Y30.410 F999.600
G1 X8.516 Y30.391 F999.600
G0 X8.491 Y30.360
G0 X8.447 Y30.180
G0 X7.901 Y13.354
G1 X7.901 Y13.248 F999.600
G1 X7.919 Y12.932 F999.600
G1 X8.012 Y12.752 F999.600
G1 X8.118 Y12.640 F999.600
G1 X8.118 Y12.640 F999.600
G1 X8.627 Y12.342 F999.600
G1 X8.814 Y12.286 F999.600
G1 X8.907 Y12.273 F999.600
G1 X9.373 Y12.360 F999.600
G1 X9.727 Y12.497 F999.600
G1 X10.050 Y12.671 F999.600
G1 X10.354 Y12.882 F999.600
G1 X10.640 Y13.118 F999.600
G1 X10.907 Y13.373 F999.600
G1 X11.161 Y13.640 F999.600
G1 X11.391 Y13.932 F999.600
G1 X11.807 Y14.540 F999.600
G1 X11.988 Y14.857 F999.600
G1 X12.447 Y15.857 F999.600
G1 X12.696 Y16.553 F999.600
G1 X13.000 Y17.615 F999.600
G1 X13.149 Y18.335 F999.600
G1 X13.261 Y19.068 F999.600
G1 X13.323 Y19.801 F999.600
G1 X13.342 Y20.534 F999.600
G1 X13.317 Y21.267 F999.600
G1 X13.248 Y22.000 F999.600
G1 X13.087 Y23.099 F999.600
G1 X12.882 Y24.193 F999.600
G1 X12.540 Y25.634 F999.600
G1 X12.124 Y27.056 F999.600
G1 X11.863 Y27.752 F999.600
G1 X11.435 Y28.776 F999.600
G1 X10.950 Y29.646 F999.600
G1 X10.814 Y29.789 F999.600
G1 X9.963 Y30.081 F999.600
G1 X9.963 Y30.081 F999.600
G1 X9.752 Y30.099 F999.600
G1 X9.646 Y30.081 F999.600
G1 X9.609 Y30.062 F999.600
G0 X9.578 Y30.031
G0 X9.528 Y29.857
G0 X8.559 Y12.907
G1 X8.553 Y12.801 F999.600
G1 X8.553 Y12.540 F999.600
G1 X8.627 Y12.348 F999.600
G1 X8.770 Y12.199 F999.600
G1 X8.770 Y12.199 F999.600
G1 X9.186 Y11.950 F999.600
G1 X9.373 Y11.888 F999.600
G1 X9.745 Y11.907 F999.600
G1 X10.298 Y12.062 F999.600
G1 X10.627 Y12.224 F999.600
G1 X10.938 Y12.422 F999.600
G1 X11.236 Y12.640 F999.600
G1 X11.516 Y12.882 F999.600
G1 X11.776 Y13.143 F999.600
G1 X12.242 Y13.714 F999.600
G1 X12.646 Y14.329 F999.600
G1 X12.994 Y14.981 F999.600
G1 X13.149 Y15.317 F999.600
G1 X13.540 Y16.354 F999.600
G1 X13.857 Y17.416 F999.600
G1 X13.944 Y17.776 F999.600
G1 X14.118 Y18.876 F999.600
G1 X14.193 Y19.609 F999.600
G1 X14.224 Y20.342 F999.600
G1 X14.193 Y21.441 F999.600
G1 X14.025 Y22.907 F999.600
G1 X13.534 Y25.453 F999.600
G1 X13.242 Y26.528 F999.600
G1 X12.888 Y27.584 F999.600
G1 X12.186 Y29.143 F999.600
G1 X12.056 Y29.292 F999.600
G1 X11.217 Y29.652 F999.600
G1 X11.217 Y29.652 F999.600
G1 X11.006 Y29.683 F999.600
G1 X10.907 Y29.665 F999.600
G1 X10.863 Y29.646 F999.600
G0 X10.832 Y29.621
G0 X10.783 Y29.453
G0 X9.087 Y12.571
G1 X9.075 Y12.466 F999.600
G1 X9.068 Y12.149 F999.600
G1 X9.143 Y11.957 F999.600
G1 X9.242 Y11.839 F999.600
G1 X9.242 Y11.839 F999.600
G1 X9.658 Y11.565 F999.600
G1 X9.832 Y11.484 F999.600
G1 X9.925 Y11.460 F999.600
G1 X10.391 Y11.478 F999.600
G1 X10.857 Y11.602 F999.600
G1 X11.199 Y11.745 F999.600
G1 X11.516 Y11.932 F999.600
G1 X11.820 Y12.143 F999.600
G1 X12.373 Y12.627 F999.600
G1 X12.627 Y12.894 F999.600
G1 X13.081 Y13.472 F999.600
G1 X13.292 Y13.776 F999.600
G1 X13.658 Y14.416 F999.600
G1 X13.975 Y15.081 F999.600
G1 X14.248 Y15.764 F999.600
G1 X14.590 Y16.820 F999.600
G1 X14.839 Y17.894 F999.600
G1 X15.012 Y18.994 F999.600
G1 X15.093 Y19.727 F999.600
G1 X15.118 Y20.093 F999.600
G1 X15.106 Y21.193 F999.600
G1 X14.957 Y22.658 F999.600
G1 X14.739 Y24.124 F999.600
G1 X14.435 Y25.571 F999.600
G1 X14.155 Y26.652 F999.600
G1 X14.050 Y27.006 F999.600
G1 X13.758 Y27.789 F999.600
G1 X13.366 Y28.658 F999.600
G1 X13.304 Y28.733 F999.600
G1 X13.224 Y28.789 F999.600
G1 X12.478 Y29.112 F999.600
G1 X12.478 Y29.112 F999.600
G1 X12.267 Y29.149 F999.600
G1 X12.168 Y29.137 F999.600
G1 X12.124 Y29.118 F999.600
G0 X12.093 Y29.093
G0 X12.031 Y28.925
G0 X9.646 Y12.143
G1 X9.627 Y12.037 F999.600
G1 X9.615 Y11.720 F999.600
G1 X9.683 Y11.528 F999.600
G1 X9.783 Y11.410 F999.600
G1 X9.783 Y11.410 F999.600
G1 X10.174 Y11.112 F999.600
G1 X10.348 Y11.019 F999.600
G1 X10.441 Y10.988 F999.600
G1 X10.720 Y10.969 F999.600
G1 X11.093 Y11.019 F999.600
G1 X11.373 Y11.093 F999.600
G1 X11.714 Y11.236 F999.600
G1 X12.037 Y11.410 F999.600
G1 X12.348 Y11.609 F999.600
G1 X12.646 Y11.826 F999.600
G1 X12.925 Y12.062 F999.600
G1 X13.186 Y12.323 F999.600
G1 X13.671 Y12.876 F999.600
G1 X14.081 Y13.484 F999.600
G1 X14.460 Y14.112 F999.600
G1 X14.789 Y14.770 F999.600
G1 X15.075 Y15.447 F999.600
G1 X15.311 Y16.149 F999.600
G1 X15.509 Y16.857 F999.600
G1 X15.752 Y17.938 F999.600
G1 X15.820 Y18.298 F999.600
G1 X15.957 Y19.398 F999.600
G1 X16.000 Y20.130 F999.600
G1 X15.988 Y21.230 F999.600
G1 X15.932 Y21.963 F999.600
G1 X15.801 Y23.062 F999.600
G1 X15.553 Y24.522 F999.600
G1 X15.186 Y26.329 F999.600
G1 X14.975 Y27.037 F999.600
G1 X14.571 Y28.037 F999.600
G1 X14.447 Y28.193 F999.600
G1 X13.646 Y28.609 F999.600
G1 X13.460 Y28.689 F999.600
G1 X13.460 Y28.689 F999.600
G1 X13.248 Y28.727 F999.600
G1 X13.149 Y28.714 F999.600
G1 X13.106 Y28.696 F999.600
G0 X13.075 Y28.671
G0 X13.012 Y28.503
G0 X10.193 Y11.696
G1 X10.174 Y11.590 F999.600
G1 X10.149 Y11.273 F999.600
G1 X10.211 Y11.081 F999.600
G1 X10.298 Y10.950 F999.600
G1 X10.298 Y10.950 F999.600
G1 X10.590 Y10.683 F999.600
G1 X10.839 Y10.534 F999.600
G1 X10.932 Y10.503 F999.600
G1 X11.304 Y10.478 F999.600
G1 X11.770 Y10.540 F999.600
G1 X12.211 Y10.677 F999.600
G1 X12.540 Y10.845 F999.600
G1 X12.857 Y11.031 F999.600
G1 X13.161 Y11.236 F999.600
G1 X13.733 Y11.708 F999.600
G1 X13.988 Y11.969 F999.600
G1 X14.230 Y12.248 F999.600
G1 X14.677 Y12.832 F999.600
G1 X15.068 Y13.453 F999.600
G1 X15.584 Y14.435 F999.600
G1 X16.012 Y15.453 F999.600
G1 X16.242 Y16.155 F999.600
G1 X16.435 Y16.870 F999.600
G1 X16.665 Y17.950 F999.600
G1 X16.783 Y18.683 F999.600
G1 X16.894 Y19.783 F999.600
G1 X16.907 Y20.516 F999.600
G1 X16.832 Y21.981 F999.600
G1 X16.708 Y23.081 F999.600
G1 X16.404 Y24.907 F999.600
G1 X16.099 Y26.348 F999.600
G1 X15.720 Y27.441 F999.600
G1 X15.658 Y27.522 F999.600
G1 X15.497 Y27.634 F999.600
G1 X14.789 Y28.012 F999.600
G1 X14.789 Y28.012 F999.600
G1 X14.584 Y28.068 F999.600
G1 X14.484 Y28.062 F999.600
G1 X14.441 Y28.050 F999.600
G0 X14.410 Y28.025
G0 X14.335 Y27.863
G0 X10.696 Y11.199
G1 X10.677 Y11.093 F999.600
G1 X10.634 Y10.783 F999.600
G1 X10.696 Y10.590 F999.600
G1 X10.783 Y10.460 F999.600
G1 X10.783 Y10.460 F999.600
G1 X11.149 Y10.130 F999.600
G1 X11.317 Y10.025 F999.600
G1 X11.410 Y9.988 F999.600
G1 X11.689 Y9.950 F999.600
G1 X12.248 Y9.988 F999.600
G1 X12.342 Y10.006 F999.600
G1 X12.689 Y10.124 F999.600
G1 X13.354 Y10.435 F999.600
G1 X13.969 Y10.845 F999.600
G1 X14.255 Y11.081 F999.600
G1 X14.528 Y11.329 F999.600
G1 X14.783 Y11.596 F999.600
G1 X15.025 Y11.876 F999.600
G1 X15.466 Y12.466 F999.600
G1 X15.863 Y13.087 F999.600
G1 X16.373 Y14.068 F999.600
G1 X16.671 Y14.739 F999.600
G1 X17.050 Y15.776 F999.600
G1 X17.348 Y16.845 F999.600
G1 X17.503 Y17.565 F999.600
G1 X17.677 Y18.665 F999.600
G1 X17.758 Y19.398 F999.600
G1 X17.801 Y20.497 F999.600
G1 X17.758 Y21.596 F999.600
G1 X17.652 Y22.696 F999.600
G1 X17.398 Y24.528 F999.600
G1 X17.205 Y25.627 F999.600
G1 X17.112 Y25.988 F999.600
G1 X16.870 Y26.733 F999.600
G1 X16.820 Y26.820 F999.600
G1 X16.752 Y26.888 F999.600
G1 X15.975 Y27.379 F999.600
G1 X15.801 Y27.472 F999.600
G1 X15.801 Y27.472 F999.600
G1 X15.596 Y27.528 F999.600
G1 X15.497 Y27.522 F999.600
G1 X15.453 Y27.509 F999.600
G0 X15.422 Y27.484
G0 X15.342 Y27.323
G0 X11.224 Y10.696
G1 X11.199 Y10.590 F999.600
G1 X11.143 Y10.280 F999.600
G1 X11.186 Y10.081 F999.600
G1 X11.255 Y9.950 F999.600
G1 X11.255 Y9.950 F999.600
G1 X11.528 Y9.665 F999.600
G1 X11.770 Y9.497 F999.600
G1 X12.143 Y9.422 F999.600
G1 X12.609 Y9.429 F999.600
G1 X12.702 Y9.441 F999.600
G1 X13.062 Y9.534 F999.600
G1 X13.752 Y9.795 F999.600
G1 X14.081 Y9.963 F999.600
G1 X14.391 Y10.155 F999.600
G1 X14.689 Y10.366 F999.600
G1 X14.969 Y10.602 F999.600
G1 X15.491 Y11.118 F999.600
G1 X15.733 Y11.391 F999.600
G1 X16.180 Y11.975 F999.600
G1 X16.584 Y12.590 F999.600
G1 X16.944 Y13.230 F999.600
G1 X17.267 Y13.894 F999.600
G1 X17.553 Y14.578 F999.600
G1 X17.938 Y15.615 F999.600
G1 X18.050 Y15.963 F999.600
G1 X18.317 Y17.037 F999.600
G1 X18.460 Y17.758 F999.600
G1 X18.609 Y18.857 F999.600
G1 X18.677 Y19.590 F999.600
G1 X18.714 Y20.689 F999.600
G1 X18.677 Y21.789 F999.600
G1 X18.571 Y22.888 F999.600
G1 X18.422 Y23.988 F999.600
G1 X18.081 Y25.646 F999.600
G1 X17.969 Y26.019 F999.600
G1 X17.919 Y26.106 F999.600
G1 X17.770 Y26.230 F999.600
G1 X17.087 Y26.671 F999.600
G1 X17.087 Y26.671 F999.600
G1 X16.882 Y26.739 F999.600
G1 X16.783 Y26.745 F999.600
G1 X16.739 Y26.739 F999.600
G0 X16.702 Y26.714
G0 X16.615 Y26.559
G0 X11.621 Y10.236
G1 X11.590 Y10.137 F999.600
G1 X11.528 Y9.826 F999.600
G1 X11.565 Y9.627 F999.600
G1 X11.634 Y9.497 F999.600
G1 X11.634 Y9.497 F999.600
G1 X11.963 Y9.130 F999.600
G1 X12.199 Y8.957 F999.600
G1 X12.472 Y8.876 F999.600
G1 X13.031 Y8.839 F999.600
G1 X13.217 Y8.851 F999.600
G1 X13.578 Y8.938 F999.600
G1 X14.273 Y9.186 F999.600
G1 X14.602 Y9.348 F999.600
G1 X14.919 Y9.534 F999.600
G1 X15.224 Y9.739 F999.600
G1 X15.789 Y10.211 F999.600
G1 X16.298 Y10.745 F999.600
G1 X16.770 Y11.317 F999.600
G1 X16.994 Y11.609 F999.600
G1 X17.398 Y12.224 F999.600
G1 X17.758 Y12.863 F999.600
G1 X18.087 Y13.522 F999.600
G1 X18.634 Y14.882 F999.600
G1 X18.969 Y15.938 F999.600
G1 X19.248 Y17.006 F999.600
G1 X19.553 Y19.205 F999.600
G1 X19.590 Y19.571 F999.600
G1 X19.621 Y20.671 F999.600
G1 X19.547 Y22.137 F999.600
G1 X19.379 Y23.602 F999.600
G1 X19.050 Y25.174 F999.600
G1 X19.019 Y25.267 F999.600
G1 X18.907 Y25.429 F999.600
G1 X18.174 Y25.969 F999.600
G1 X18.174 Y25.969 F999.600
G1 X17.969 Y26.037 F999.600
G1 X17.870 Y26.043 F999.600
G1 X17.826 Y26.037 F999.600
G0 X17.789 Y26.012
G0 X17.696 Y25.857
G0 X12.081 Y9.689
G1 X12.043 Y9.590 F999.600
G1 X11.963 Y9.286 F999.600
G1 X12.000 Y9.087 F999.600
G1 X12.068 Y8.957 F999.600
G1 X12.068 Y8.957 F999.600
G1 X12.453 Y8.497 F999.600
G1 X12.609 Y8.373 F999.600
G1 X12.975 Y8.267 F999.600
G1 X13.534 Y8.230 F999.600
G1 X13.901 Y8.292 F999.600
G1 X14.255 Y8.385 F999.600
G1 X14.602 Y8.503 F999.600
G1 X14.938 Y8.652 F999.600
G1 X15.578 Y9.019 F999.600
G1 X16.168 Y9.460 F999.600
G1 X16.441 Y9.702 F999.600
G1 X16.963 Y10.224 F999.600
G1 X17.211 Y10.497 F999.600
G1 X17.677 Y11.068 F999.600
G1 X18.099 Y11.671 F999.600
G1 X18.484 Y12.298 F999.600
G1 X18.820 Y12.950 F999.600
G1 X19.118 Y13.621 F999.600
G1 X19.509 Y14.658 F999.600
G1 X19.845 Y15.714 F999.600
G1 X19.944 Y16.068 F999.600
G1 X20.093 Y16.789 F999.600
G1 X20.342 Y18.248 F999.600
G1 X20.441 Y18.981 F999.600
G1 X20.503 Y20.081 F999.600
G1 X20.497 Y21.180 F999.600
G1 X20.404 Y22.646 F999.600
G1 X20.180 Y24.124 F999.600
G1 X20.112 Y24.404 F999.600
G1 X20.025 Y24.571 F999.600
G1 X19.217 Y25.193 F999.600
G1 X19.211 Y25.193 F999.600
G1 X19.019 Y25.280 F999.600
G1 X18.919 Y25.292 F999.600
G1 X18.876 Y25.286 F999.600
G0 X18.839 Y25.267
G0 X18.739 Y25.118
G0 X12.528 Y9.143
G1 X12.491 Y9.043 F999.600
G1 X12.398 Y8.739 F999.600
G1 X12.416 Y8.540 F999.600
G1 X12.472 Y8.398 F999.600
G1 X12.472 Y8.398 F999.600
G1 X12.758 Y7.994 F999.600
G1 X12.901 Y7.851 F999.600
G1 X13.068 Y7.752 F999.600
G1 X13.441 Y7.652 F999.600
G1 X13.907 Y7.615 F999.600
G1 X14.273 Y7.665 F999.600
G1 X14.988 Y7.839 F999.600
G1 X15.329 Y7.969 F999.600
G1 X15.658 Y8.130 F999.600
G1 X15.981 Y8.311 F999.600
G1 X16.292 Y8.509 F999.600
G1 X16.882 Y8.957 F999.600
G1 X17.422 Y9.453 F999.600
G1 X17.677 Y9.720 F999.600
G1 X18.161 Y10.280 F999.600
G1 X18.609 Y10.863 F999.600
G1 X19.025 Y11.466 F999.600
G1 X19.385 Y12.106 F999.600
G1 X19.708 Y12.764 F999.600
G1 X20.006 Y13.435 F999.600
G1 X20.404 Y14.466 F999.600
G1 X20.739 Y15.522 F999.600
G1 X21.043 Y16.963 F999.600
G1 X21.267 Y18.429 F999.600
G1 X21.354 Y19.161 F999.600
G1 X21.404 Y20.627 F999.600
G1 X21.366 Y21.727 F999.600
G1 X21.186 Y23.391 F999.600
G1 X21.161 Y23.484 F999.600
G1 X21.062 Y23.652 F999.600
G1 X20.242 Y24.404 F999.600
G1 X20.242 Y24.404 F999.600
G1 X20.000 Y24.509 F999.600
G1 X19.907 Y24.516 F999.600
G0 X19.870 Y24.497
G0 X19.764 Y24.354
G0 X12.907 Y8.547
G1 X12.870 Y8.453 F999.600
G1 X12.764 Y8.155 F999.600
G1 X12.783 Y7.957 F999.600
G1 X12.839 Y7.814 F999.600
G1 X12.839 Y7.814 F999.600
G1 X13.174 Y7.311 F999.600
G1 X13.323 Y7.180 F999.600
G1 X13.696 Y7.050 F999.600
G1 X14.161 Y6.981 F999.600
G1 X14.528 Y7.000 F999.600
G1 X14.894 Y7.056 F999.600
G1 X15.255 Y7.149 F999.600
G1 X15.602 Y7.261 F999.600
G1 X15.944 Y7.391 F999.600
G1 X16.596 Y7.733 F999.600
G1 X16.907 Y7.925 F999.600
G1 X17.491 Y8.373 F999.600
G1 X18.043 Y8.857 F999.600
G1 X18.559 Y9.385 F999.600
G1 X19.031 Y9.950 F999.600
G1 X19.466 Y10.547 F999.600
G1 X20.062 Y11.478 F999.600
G1 X20.571 Y12.460 F999.600
G1 X20.863 Y13.137 F999.600
G1 X21.248 Y14.174 F999.600
G1 X21.677 Y15.584 F999.600
G1 X21.770 Y15.938 F999.600
G1 X21.919 Y16.658 F999.600
G1 X22.093 Y17.758 F999.600
G1 X22.242 Y19.224 F999.600
G1 X22.292 Y19.957 F999.600
G1 X22.298 Y21.056 F999.600
G1 X22.174 Y22.540 F999.600
G1 X22.143 Y22.634 F999.600
G1 X22.081 Y22.714 F999.600
G1 X21.335 Y23.398 F999.600
G1 X21.335 Y23.398 F999.600
G1 X21.155 Y23.503 F999.600
G1 X21.056 Y23.522 F999.600
G1 X21.006 Y23.522 F999.600
G0 X20.969 Y23.503
G0 X20.863 Y23.360
G0 X13.292 Y7.932
G1 X13.248 Y7.839 F999.600
G1 X13.130 Y7.547 F999.600
G1 X13.124 Y7.348 F999.600
G1 X13.168 Y7.205 F999.600
G1 X13.168 Y7.205 F999.600
G1 X13.416 Y6.776 F999.600
G1 X13.547 Y6.621 F999.600
G1 X13.807 Y6.491 F999.600
G1 X14.366 Y6.348 F999.600
G1 X14.553 Y6.329 F999.600
G1 X14.919 Y6.342 F999.600
G1 X15.286 Y6.391 F999.600
G1 X15.646 Y6.472 F999.600
G1 X16.000 Y6.578 F999.600
G1 X16.348 Y6.702 F999.600
G1 X17.012 Y7.025 F999.600
G1 X17.329 Y7.211 F999.600
G1 X17.938 Y7.634 F999.600
G1 X18.503 Y8.099 F999.600
G1 X18.776 Y8.348 F999.600
G1 X19.037 Y8.609 F999.600
G1 X19.758 Y9.441 F999.600
G1 X20.193 Y10.031 F999.600
G1 X20.596 Y10.646 F999.600
G1 X20.963 Y11.286 F999.600
G1 X21.304 Y11.944 F999.600
G1 X21.758 Y12.950 F999.600
G1 X22.149 Y13.981 F999.600
G1 X22.484 Y15.037 F999.600
G1 X22.745 Y16.112 F999.600
G1 X22.950 Y17.199 F999.600
G1 X23.081 Y18.298 F999.600
G1 X23.205 Y20.130 F999.600
G1 X23.137 Y21.522 F999.600
G1 X23.075 Y21.708 F999.600
G1 X22.311 Y22.503 F999.600
G1 X22.311 Y22.503 F999.600
G1 X22.130 Y22.609 F999.600
G1 X22.031 Y22.627 F999.600
G1 X21.981 Y22.627 F999.600
G0 X21.944 Y22.609
G0 X21.826 Y22.472
G0 X13.621 Y7.385
G1 X13.571 Y7.292 F999.600
G1 X13.410 Y6.957 F999.600
G1 X13.404 Y6.665 F999.600
G1 X13.404 Y6.665 F999.600
G1 X13.503 Y6.379 F999.600
G1 X13.826 Y5.994 F999.600
G1 X13.981 Y5.876 F999.600
G1 X14.255 Y5.764 F999.600
G1 X14.814 Y5.646 F999.600
G1 X15.180 Y5.640 F999.600
G1 X15.547 Y5.677 F999.600
G1 X15.907 Y5.745 F999.600
G1 X16.267 Y5.832 F999.600
G1 X16.621 Y5.944 F999.600
G1 X17.298 Y6.236 F999.600
G1 X17.938 Y6.602 F999.600
G1 X18.248 Y6.801 F999.600
G1 X18.845 Y7.236 F999.600
G1 X19.130 Y7.472 F999.600
G1 X19.671 Y7.975 F999.600
G1 X20.168 Y8.516 F999.600
G1 X20.627 Y9.093 F999.600
G1 X21.050 Y9.696 F999.600
G1 X21.627 Y10.640 F999.600
G1 X22.143 Y11.615 F999.600
G1 X22.609 Y12.621 F999.600
G1 X22.888 Y13.304 F999.600
G1 X23.124 Y14.000 F999.600
G1 X23.422 Y15.068 F999.600
G1 X23.683 Y16.143 F999.600
G1 X23.876 Y17.236 F999.600
G1 X24.006 Y18.335 F999.600
G1 X24.081 Y20.273 F999.600
G1 X24.056 Y20.553 F999.600
G1 X24.025 Y20.646 F999.600
G1 X23.913 Y20.814 F999.600
G1 X23.230 Y21.553 F999.600
G1 X23.230 Y21.553 F999.600
G1 X23.056 Y21.671 F999.600
G1 X22.957 Y21.702 F999.600
G1 X22.913 Y21.702 F999.600
G0 X22.876 Y21.689
G0 X22.758 Y21.559
G0 X13.975 Y6.602
G1 X13.919 Y6.516 F999.600
G1 X13.783 Y6.230 F999.600
G1 X13.770 Y6.031 F999.600
G1 X13.807 Y5.882 F999.600
G1 X13.807 Y5.882 F999.600
G1 X14.056 Y5.453 F999.600
G1 X14.186 Y5.298 F999.600
G1 X14.528 Y5.118 F999.600
G1 X14.994 Y4.988 F999.600
G1 X15.453 Y4.963 F999.600
G1 X16.186 Y5.012 F999.600
G1 X16.547 Y5.093 F999.600
G1 X16.901 Y5.193 F999.600
G1 X17.590 Y5.460 F999.600
G1 X17.925 Y5.615 F999.600
G1 X18.571 Y5.975 F999.600
G1 X19.174 Y6.398 F999.600
G1 X20.025 Y7.112 F999.600
G1 X20.540 Y7.634 F999.600
G1 X21.025 Y8.186 F999.600
G1 X21.696 Y9.068 F999.600
G1 X22.298 Y9.994 F999.600
G1 X22.839 Y10.957 F999.600
G1 X23.311 Y11.957 F999.600
G1 X23.590 Y12.640 F999.600
G1 X24.168 Y14.391 F999.600
G1 X24.466 Y15.453 F999.600
G1 X24.696 Y16.534 F999.600
G1 X24.863 Y17.634 F999.600
G1 X24.950 Y18.460 F999.600
G1 X24.950 Y19.391 F999.600
G1 X24.913 Y19.578 F999.600
G1 X24.236 Y20.416 F999.600
G1 X24.236 Y20.416 F999.600
G1 X24.068 Y20.547 F999.600
G1 X23.975 Y20.578 F999.600
G1 X23.932 Y20.584 F999.600
G0 X23.888 Y20.571
G0 X23.764 Y20.441
G0 X14.273 Y6.050
G1 X14.211 Y5.963 F999.600
G1 X14.050 Y5.652 F999.600
G1 X14.031 Y5.441 F999.600
G1 X14.050 Y5.342 F999.600
G1 X14.050 Y5.342 F999.600
G1 X14.248 Y4.876 F999.600
G1 X14.366 Y4.708 F999.600
G1 X14.516 Y4.584 F999.600
G1 X15.062 Y4.360 F999.600
G1 X15.248 Y4.311 F999.600
G1 X15.615 Y4.267 F999.600
G1 X15.981 Y4.255 F999.600
G1 X16.348 Y4.280 F999.600
G1 X16.714 Y4.329 F999.600
G1 X17.075 Y4.410 F999.600
G1 X17.776 Y4.640 F999.600
G1 X18.118 Y4.776 F999.600
G1 X18.783 Y5.099 F999.600
G1 X19.410 Y5.484 F999.600
G1 X19.708 Y5.696 F999.600
G1 X20.559 Y6.410 F999.600
G1 X21.081 Y6.919 F999.600
G1 X21.820 Y7.739 F999.600
G1 X22.491 Y8.615 F999.600
G1 X22.901 Y9.230 F999.600
G1 X23.280 Y9.863 F999.600
G1 X23.789 Y10.845 F999.600
G1 X24.248 Y11.851 F999.600
G1 X24.658 Y12.876 F999.600
G1 X25.012 Y13.919 F999.600
G1 X25.311 Y14.981 F999.600
G1 X25.553 Y16.062 F999.600
G1 X25.689 Y16.783 F999.600
G1 X25.807 Y18.267 F999.600
G1 X25.752 Y18.453 F999.600
G1 X25.118 Y19.342 F999.600
G1 X25.118 Y19.342 F999.600
G1 X24.950 Y19.472 F999.600
G1 X24.857 Y19.503 F999.600
G1 X24.814 Y19.509 F999.600
G0 X24.770 Y19.497
G0 X24.640 Y19.373
G0 X14.509 Y5.385
G1 X14.447 Y5.298 F999.600
G1 X14.298 Y5.056 F999.600
G1 X14.255 Y4.888 F999.600
G1 X14.273 Y4.689 F999.600
G1 X14.273 Y4.689 F999.600
G1 X14.466 Y4.217 F999.600
G1 X14.578 Y4.050 F999.600
G1 X14.814 Y3.870 F999.600
G1 X15.168 Y3.696 F999.600
G1 X15.447 Y3.609 F999.600
G1 X15.814 Y3.553 F999.600
G1 X16.547 Y3.528 F999.600
G1 X16.913 Y3.553 F999.600
G1 X17.634 Y3.714 F999.600
G1 X17.988 Y3.820 F999.600
G1 X18.335 Y3.944 F999.600
G1 X19.000 Y4.255 F999.600
G1 X19.950 Y4.814 F999.600
G1 X20.553 Y5.242 F999.600
G1 X21.124 Y5.708 F999.600
G1 X21.665 Y6.211 F999.600
G1 X22.168 Y6.752 F999.600
G1 X22.646 Y7.311 F999.600
G1 X23.311 Y8.193 F999.600
G1 X23.919 Y9.118 F999.600
G1 X24.460 Y10.081 F999.600
G1 X24.944 Y11.075 F999.600
G1 X25.354 Y12.099 F999.600
G1 X25.720 Y13.143 F999.600
G1 X26.242 Y14.913 F999.600
G1 X26.335 Y15.267 F999.600
G1 X26.534 Y16.360 F999.600
G1 X26.596 Y17.106 F999.600
G1 X26.559 Y17.292 F999.600
G1 X26.056 Y18.025 F999.600
G1 X26.056 Y18.025 F999.600
G1 X25.901 Y18.155 F999.600
G1 X25.814 Y18.199 F999.600
G1 X25.770 Y18.205 F999.600
G0 X25.727 Y18.199
G0 X25.590 Y18.087
G0 X14.752 Y4.702
G1 X14.683 Y4.621 F999.600
G1 X14.503 Y4.366 F999.600
G1 X14.466 Y4.168 F999.600
G1 X14.478 Y4.025 F999.600
G1 X14.478 Y4.025 F999.600
G1 X14.609 Y3.634 F999.600
G1 X14.758 Y3.373 F999.600
G1 X14.994 Y3.186 F999.600
G1 X15.255 Y3.043 F999.600
G1 X15.528 Y2.938 F999.600
G1 X15.888 Y2.845 F999.600
G1 X16.255 Y2.801 F999.600
G1 X16.621 Y2.783 F999.600
G1 X16.988 Y2.789 F999.600
G1 X17.354 Y2.826 F999.600
G1 X17.714 Y2.894 F999.600
G1 X18.422 Y3.093 F999.600
G1 X19.112 Y3.354 F999.600
G1 X19.447 Y3.509 F999.600
G1 X20.404 Y4.056 F999.600
G1 X21.006 Y4.484 F999.600
G1 X21.584 Y4.944 F999.600
G1 X22.137 Y5.435 F999.600
G1 X22.665 Y5.950 F999.600
G1 X23.168 Y6.491 F999.600
G1 X23.857 Y7.348 F999.600
G1 X24.280 Y7.950 F999.600
G1 X24.671 Y8.578 F999.600
G1 X25.211 Y9.540 F999.600
G1 X25.547 Y10.199 F999.600
G1 X25.994 Y11.211 F999.600
G1 X26.385 Y12.242 F999.600
G1 X26.938 Y13.994 F999.600
G1 X27.230 Y15.056 F999.600
G1 X27.329 Y15.801 F999.600
G1 X27.317 Y15.988 F999.600
G1 X27.286 Y16.081 F999.600
G1 X26.789 Y16.919 F999.600
G1 X26.789 Y16.919 F999.600
G1 X26.646 Y17.062 F999.600
G1 X26.559 Y17.112 F999.600
G1 X26.516 Y17.124 F999.600
G0 X26.472 Y17.118
G0 X26.335 Y17.012
G0 X14.950 Y4.118
G1 X14.882 Y4.037 F999.600
G1 X14.708 Y3.814 F999.600
G1 X14.627 Y3.602 F999.600
G1 X14.627 Y3.453 F999.600
G1 X14.627 Y3.453 F999.600
G1 X14.745 Y2.963 F999.600
G1 X14.826 Y2.776 F999.600
G1 X14.950 Y2.615 F999.600
G1 X15.366 Y2.342 F999.600
G1 X15.727 Y2.180 F999.600
G1 X16.087 Y2.087 F999.600
G1 X16.453 Y2.037 F999.600
G1 X16.820 Y2.012 F999.600
G1 X17.186 Y2.019 F999.600
G1 X17.919 Y2.106 F999.600
G1 X18.640 Y2.267 F999.600
G1 X18.994 Y2.379 F999.600
G1 X19.683 Y2.652 F999.600
G1 X20.012 Y2.814 F999.600
G1 X20.658 Y3.174 F999.600
G1 X21.280 Y3.571 F999.600
G1 X21.870 Y4.006 F999.600
G1 X22.435 Y4.484 F999.600
G1 X22.981 Y4.981 F999.600
G1 X23.752 Y5.776 F999.600
G1 X24.460 Y6.615 F999.600
G1 X24.901 Y7.205 F999.600
G1 X25.298 Y7.826 F999.600
G1 X25.671 Y8.460 F999.600
G1 X26.509 Y10.106 F999.600
G1 X26.665 Y10.441 F999.600
G1 X27.068 Y11.466 F999.600
G1 X27.863 Y13.944 F999.600
G1 X28.000 Y14.596 F999.600
G1 X27.988 Y14.876 F999.600
G1 X27.348 Y15.975 F999.600
G1 X27.348 Y15.975 F999.600
G1 X27.205 Y16.118 F999.600
G1 X27.118 Y16.168 F999.600
G1 X27.075 Y16.180 F999.600
G0 X27.031 Y16.174
G0 X26.888 Y16.075
G0 X15.081 Y3.429
G1 X15.012 Y3.354 F999.600
G1 X14.832 Y3.130 F999.600
G1 X14.752 Y2.919 F999.600
G1 X14.752 Y2.770 F999.600
G1 X14.752 Y2.770 F999.600
G1 X14.870 Y2.273 F999.600
G1 X15.000 Y2.000 F999.600
G1 X15.211 Y1.795 F999.600
G1 X15.720 Y1.497 F999.600
G1 X15.807 Y1.460 F999.600
G1 X16.161 Y1.360 F999.600
G1 X16.894 Y1.248 F999.600
G1 X17.261 Y1.236 F999.600
G1 X17.627 Y1.255 F999.600
G1 X18.360 Y1.354 F999.600
G1 X18.720 Y1.429 F999.600
G1 X19.429 Y1.627 F999.600
G1 X19.776 Y1.752 F999.600
G1 X20.453 Y2.050 F999.600
G1 X21.410 Y2.596 F999.600
G1 X22.019 Y3.006 F999.600
G1 X22.894 Y3.683 F999.600
G1 X23.447 Y4.174 F999.600
G1 X23.981 Y4.683 F999.600
G1 X24.733 Y5.491 F999.600
G1 X24.975 Y5.770 F999.600
G1 X25.422 Y6.354 F999.600
G1 X25.832 Y6.969 F999.600
G1 X26.217 Y7.596 F999.600
G1 X26.925 Y8.888 F999.600
G1 X27.261 Y9.547 F999.600
G1 X27.702 Y10.559 F999.600
G1 X28.565 Y13.106 F999.600
G1 X28.627 Y13.385 F999.600
G1 X28.615 Y13.571 F999.600
G1 X28.161 Y14.528 F999.600
G1 X28.161 Y14.528 F999.600
G1 X28.031 Y14.689 F999.600
G1 X27.950 Y14.745 F999.600
G1 X27.907 Y14.758 F999.600
G0 X27.863 Y14.758
G0 X27.714 Y14.665
G0 X15.217 Y2.739
G1 X15.143 Y2.665 F999.600
G1 X14.957 Y2.453 F999.600
G1 X14.888 Y2.292 F999.600
G1 X14.876 Y2.093 F999.600
G1 X14.876 Y2.093 F999.600
G1 X14.969 Y1.596 F999.600
G1 X15.037 Y1.404 F999.600
G1 X15.093 Y1.317 F999.600
G1 X15.478 Y1.012 F999.600
G1 X15.820 Y0.832 F999.600
G1 X16.168 Y0.702 F999.600
G1 X16.528 Y0.609 F999.600
G1 X16.894 Y0.553 F999.600
G1 X17.627 Y0.503 F999.600
G1 X17.994 Y0.509 F999.600
G1 X18.360 Y0.547 F999.600
G1 X18.727 Y0.602 F999.600
G1 X19.447 Y0.770 F999.600
G1 X20.143 Y1.000 F999.600
G1 X20.484 Y1.137 F999.600
G1 X21.478 Y1.621 F999.600
G1 X22.106 Y2.000 F999.600
G1 X22.714 Y2.410 F999.600
G1 X23.596 Y3.081 F999.600
G1 X23.876 Y3.317 F999.600
G1 X24.932 Y4.348 F999.600
G1 X25.435 Y4.888 F999.600
G1 X26.124 Y5.752 F999.600
G1 X26.342 Y6.050 F999.600
G1 X27.118 Y7.311 F999.600
G1 X27.652 Y8.280 F999.600
G1 X28.149 Y9.267 F999.600
G1 X28.304 Y9.602 F999.600
G1 X28.994 Y11.416 F999.600
G1 X29.193 Y12.161 F999.600
G1 X29.193 Y12.348 F999.600
G1 X28.826 Y13.137 F999.600
G1 X28.826 Y13.137 F999.600
G1 X28.696 Y13.298 F999.600
G1 X28.615 Y13.354 F999.600
G1 X28.571 Y13.366 F999.600
G0 X28.528 Y13.366
G0 X28.373 Y13.280
G0 X15.360 Y2.025
G1 X15.280 Y1.957 F999.600
G1 X15.075 Y1.752 F999.600
G1 X14.988 Y1.602 F999.600
G1 X14.950 Y1.404 F999.600
G1 X14.950 Y1.404 F999.600
G1 X15.000 Y1.006 F999.600
G1 X15.062 Y0.814 F999.600
G1 X15.112 Y0.727 F999.600
G1 X15.404 Y0.453 F999.600
G1 X15.826 Y0.199 F999.600
G1 X16.161 Y0.037 F999.600
G1 X16.509 Y-0.087 F999.600
G1 X16.870 Y-0.168 F999.600
G1 X17.236 Y-0.217 F999.600
G1 X17.602 Y-0.248 F999.600
G1 X17.969 Y-0.261 F999.600
G1 X18.702 Y-0.205 F999.600
G1 X19.435 Y-0.075 F999.600
G1 X19.795 Y0.006 F999.600
G1 X20.149 Y0.106 F999.600
G1 X20.497 Y0.224 F999.600
G1 X21.509 Y0.665 F999.600
G1 X22.155 Y1.012 F999.600
G1 X23.093 Y1.602 F999.600
G1 X23.994 Y2.248 F999.600
G1 X24.845 Y2.957 F999.600
G1 X25.385 Y3.460 F999.600
G1 X25.882 Y4.006 F999.600
G1 X26.584 Y4.857 F999.600
G1 X27.025 Y5.447 F999.600
G1 X27.621 Y6.373 F999.600
G1 X28.180 Y7.329 F999.600
G1 X29.019 Y8.963 F999.600
G1 X29.621 Y10.441 F999.600
G1 X29.714 Y10.814 F999.600
G1 X29.720 Y10.907 F999.600
G1 X29.708 Y11.000 F999.600
G1 X29.354 Y11.932 F999.600
G1 X29.354 Y11.932 F999.600
G1 X29.242 Y12.093 F999.600
G1 X29.161 Y12.161 F999.600
G1 X29.124 Y12.174 F999.600
G0 X29.081 Y12.180
G0 X28.925 Y12.099
G0 X15.404 Y1.416
G1 X15.317 Y1.354 F999.600
G1 X15.106 Y1.161 F999.600
G1 X15.019 Y1.012 F999.600
G1 X14.981 Y0.814 F999.600
G1 X14.981 Y0.814 F999.600
G1 X15.031 Y0.416 F999.600
G1 X15.087 Y0.224 F999.600
G1 X15.186 Y0.043 F999.600
G1 X15.534 Y-0.286 F999.600
G1 X15.851 Y-0.497 F999.600
G1 X16.180 Y-0.658 F999.600
G1 X16.522 Y-0.789 F999.600
G1 X16.876 Y-0.888 F999.600
G1 X17.236 Y-0.969 F999.600
G1 X17.602 Y-1.012 F999.600
G1 X17.969 Y-1.037 F999.600
G1 X18.702 Y-1.019 F999.600
G1 X19.435 Y-0.919 F999.600
G1 X19.795 Y-0.845 F999.600
G1 X20.863 Y-0.516 F999.600
G1 X21.547 Y-0.230 F999.600
G1 X22.547 Y0.255 F999.600
G1 X23.509 Y0.795 F999.600
G1 X24.124 Y1.199 F999.600
G1 X25.000 Y1.882 F999.600
G1 X25.559 Y2.360 F999.600
G1 X26.335 Y3.149 F999.600
G1 X26.820 Y3.702 F999.600
G1 X27.497 Y4.571 F999.600
G1 X28.522 Y6.099 F999.600
G1 X29.093 Y7.037 F999.600
G1 X30.087 Y9.137 F999.600
G1 X30.180 Y9.410 F999.600
G1 X30.199 Y9.596 F999.600
G1 X29.888 Y10.528 F999.600
G1 X29.888 Y10.528 F999.600
G1 X29.776 Y10.689 F999.600
G1 X29.696 Y10.758 F999.600
G1 X29.658 Y10.776 F999.600
G0 X29.615 Y10.776
G0 X29.447 Y10.708
G0 X15.447 Y0.807
G1 X15.360 Y0.745 F999.600
G1 X15.149 Y0.571 F999.600
G1 X15.056 Y0.422 F999.600
G1 X15.019 Y0.224 F999.600
G1 X15.019 Y0.224 F999.600
G1 X15.056 Y-0.255 F999.600
G1 X15.099 Y-0.441 F999.600
G1 X15.186 Y-0.609 F999.600
G1 X15.441 Y-0.894 F999.600
G1 X15.820 Y-1.174 F999.600
G1 X16.130 Y-1.366 F999.600
G1 X16.472 Y-1.503 F999.600
G1 X17.180 Y-1.714 F999.600
G1 X17.547 Y-1.776 F999.600
G1 X18.280 Y-1.826 F999.600
G1 X18.646 Y-1.826 F999.600
G1 X19.379 Y-1.752 F999.600
G1 X20.106 Y-1.609 F999.600
G1 X20.466 Y-1.522 F999.600
G1 X21.174 Y-1.298 F999.600
G1 X21.863 Y-1.025 F999.600
G1 X22.540 Y-0.720 F999.600
G1 X23.522 Y-0.199 F999.600
G1 X24.466 Y0.385 F999.600
G1 X25.068 Y0.807 F999.600
G1 X25.925 Y1.497 F999.600
G1 X26.478 Y1.988 F999.600
G1 X27.000 Y2.503 F999.600
G1 X27.491 Y3.043 F999.600
G1 X28.180 Y3.901 F999.600
G1 X28.609 Y4.503 F999.600
G1 X29.596 Y6.062 F999.600
G1 X30.130 Y7.025 F999.600
G1 X30.578 Y8.068 F999.600
G1 X30.596 Y8.161 F999.600
G1 X30.590 Y8.255 F999.600
G1 X30.323 Y9.186 F999.600
G1 X30.323 Y9.186 F999.600
G1 X30.224 Y9.360 F999.600
G1 X30.149 Y9.435 F999.600
G1 X30.112 Y9.453 F999.600
G0 X30.068 Y9.460
G0 X29.907 Y9.398
G0 X15.491 Y0.124
G1 X15.404 Y0.068 F999.600
G1 X15.186 Y-0.075 F999.600
G1 X15.068 Y-0.255 F999.600
G1 X15.025 Y-0.460 F999.600
G1 X15.025 Y-0.460 F999.600
G1 X15.050 Y-1.019 F999.600
G1 X15.112 Y-1.199 F999.600
G1 X15.342 Y-1.503 F999.600
G1 X15.783 Y-1.870 F999.600
G1 X16.099 Y-2.062 F999.600
G1 X16.429 Y-2.230 F999.600
G1 X16.776 Y-2.360 F999.600
G1 X17.130 Y-2.460 F999.600
G1 X17.491 Y-2.534 F999.600
G1 X17.857 Y-2.590 F999.600
G1 X18.224 Y-2.621 F999.600
G1 X18.590 Y-2.627 F999.600
G1 X19.323 Y-2.584 F999.600
G1 X19.689 Y-2.540 F999.600
G1 X20.416 Y-2.391 F999.600
G1 X21.130 Y-2.199 F999.600
G1 X22.174 Y-1.820 F999.600
G1 X23.186 Y-1.354 F999.600
G1 X24.491 Y-0.640 F999.600
G1 X25.118 Y-0.248 F999.600
G1 X26.006 Y0.416 F999.600
G1 X26.571 Y0.882 F999.600
G1 X27.385 Y1.627 F999.600
G1 X28.161 Y2.410 F999.600
G1 X29.075 Y3.565 F999.600
G1 X29.702 Y4.478 F999.600
G1 X30.820 Y6.410 F999.600
G1 X30.901 Y6.584 F999.600
G1 X30.938 Y6.770 F999.600
G1 X30.727 Y7.795 F999.600
G1 X30.727 Y7.795 F999.600
G1 X30.627 Y7.969 F999.600
G1 X30.553 Y8.043 F999.600
G1 X30.516 Y8.062 F999.600
G0 X30.472 Y8.068
G0 X30.304 Y8.012
G0 X15.491 Y-0.484
G1 X15.404 Y-0.534 F999.600
G1 X15.180 Y-0.683 F999.600
G1 X15.050 Y-0.851 F999.600
G1 X14.994 Y-1.056 F999.600
G1 X14.994 Y-1.056 F999.600
G1 X14.981 Y-1.615 F999.600
G1 X15.019 Y-1.801 F999.600
G1 X15.161 Y-2.050 F999.600
G1 X15.484 Y-2.398 F999.600
G1 X15.634 Y-2.522 F999.600
G1 X15.938 Y-2.733 F999.600
G1 X16.261 Y-2.913 F999.600
G1 X16.596 Y-3.062 F999.600
G1 X16.944 Y-3.186 F999.600
G1 X17.304 Y-3.280 F999.600
G1 X18.037 Y-3.398 F999.600
G1 X18.404 Y-3.429 F999.600
G1 X18.770 Y-3.441 F999.600
G1 X19.137 Y-3.435 F999.600
G1 X19.503 Y-3.410 F999.600
G1 X19.870 Y-3.366 F999.600
G1 X20.236 Y-3.304 F999.600
G1 X20.957 Y-3.137 F999.600
G1 X21.665 Y-2.925 F999.600
G1 X22.360 Y-2.665 F999.600
G1 X23.043 Y-2.379 F999.600
G1 X24.043 Y-1.894 F999.600
G1 X25.006 Y-1.335 F999.600
G1 X25.938 Y-0.720 F999.600
G1 X27.112 Y0.180 F999.600
G1 X27.665 Y0.658 F999.600
G1 X28.460 Y1.422 F999.600
G1 X28.963 Y1.963 F999.600
G1 X29.671 Y2.820 F999.600
G1 X30.112 Y3.410 F999.600
G1 X30.957 Y4.739 F999.600
G1 X31.174 Y5.168 F999.600
G1 X31.224 Y5.348 F999.600
G1 X31.025 Y6.373 F999.600
G1 X31.025 Y6.373 F999.600
G1 X30.938 Y6.559 F999.600
G1 X30.870 Y6.634 F999.600
G1 X30.832 Y6.658 F999.600
G0 X30.795 Y6.665
G0 X30.621 Y6.615
G0 X15.441 Y-1.186
G1 X15.354 Y-1.236 F999.600
G1 X15.112 Y-1.385 F999.600
G1 X14.988 Y-1.547 F999.600
G1 X14.925 Y-1.745 F999.600
G1 X14.925 Y-1.745 F999.600
G1 X14.901 Y-2.211 F999.600
G1 X14.919 Y-2.398 F999.600
G1 X14.944 Y-2.491 F999.600
G1 X15.149 Y-2.814 F999.600
G1 X15.478 Y-3.161 F999.600
G1 X15.845 Y-3.453 F999.600
G1 X16.161 Y-3.640 F999.600
G1 X16.497 Y-3.801 F999.600
G1 X16.839 Y-3.944 F999.600
G1 X17.193 Y-4.050 F999.600
G1 X17.553 Y-4.137 F999.600
G1 X18.286 Y-4.236 F999.600
G1 X18.652 Y-4.267 F999.600
G1 X19.385 Y-4.255 F999.600
G1 X19.752 Y-4.224 F999.600
G1 X20.484 Y-4.112 F999.600
G1 X20.845 Y-4.031 F999.600
G1 X21.565 Y-3.839 F999.600
G1 X22.621 Y-3.484 F999.600
G1 X23.317 Y-3.211 F999.600
G1 X24.329 Y-2.745 F999.600
G1 X24.988 Y-2.404 F999.600
G1 X25.932 Y-1.807 F999.600
G1 X26.839 Y-1.155 F999.600
G1 X27.708 Y-0.453 F999.600
G1 X28.820 Y0.522 F999.600
G1 X29.335 Y1.050 F999.600
G1 X30.075 Y1.870 F999.600
G1 X30.534 Y2.441 F999.600
G1 X31.366 Y3.689 F999.600
G1 X31.429 Y3.870 F999.600
G1 X31.435 Y3.963 F999.600
G1 X31.292 Y5.081 F999.600
G1 X31.292 Y5.075 F999.600
G1 X31.205 Y5.261 F999.600
G1 X31.137 Y5.335 F999.600
G1 X31.099 Y5.360 F999.600
G0 X31.062 Y5.366
G0 X30.888 Y5.329
G0 X15.385 Y-1.894
G1 X15.292 Y-1.938 F999.600
G1 X15.043 Y-2.075 F999.600
G1 X14.907 Y-2.230 F999.600
G1 X14.832 Y-2.429 F999.600
G1 X14.832 Y-2.429 F999.600
G1 X14.776 Y-2.894 F999.600
G1 X14.795 Y-3.081 F999.600
G1 X14.913 Y-3.342 F999.600
G1 X15.199 Y-3.720 F999.600
G1 X15.404 Y-3.919 F999.600
G1 X15.689 Y-4.155 F999.600
G1 X16.000 Y-4.354 F999.600
G1 X16.323 Y-4.528 F999.600
G1 X16.665 Y-4.671 F999.600
G1 X17.373 Y-4.888 F999.600
G1 X17.733 Y-4.975 F999.600
G1 X18.466 Y-5.075 F999.600
G1 X18.832 Y-5.093 F999.600
G1 X19.199 Y-5.093 F999.600
G1 X19.932 Y-5.043 F999.600
G1 X21.031 Y-4.851 F999.600
G1 X22.106 Y-4.571 F999.600
G1 X22.814 Y-4.342 F999.600
G1 X23.503 Y-4.075 F999.600
G1 X24.522 Y-3.627 F999.600
G1 X25.186 Y-3.298 F999.600
G1 X26.441 Y-2.509 F999.600
G1 X27.342 Y-1.857 F999.600
G1 X28.503 Y-0.932 F999.600
G1 X29.348 Y-0.199 F999.600
G1 X30.124 Y0.584 F999.600
G1 X30.615 Y1.137 F999.600
G1 X31.484 Y2.242 F999.600
G1 X31.534 Y2.323 F999.600
G1 X31.584 Y2.503 F999.600
G1 X31.503 Y3.435 F999.600
G1 X31.503 Y3.435 F999.600
G1 X31.398 Y3.665 F999.600
G1 X31.329 Y3.727 F999.600
G0 X31.292 Y3.739
G0 X31.118 Y3.708
G0 X15.273 Y-2.509
G1 X15.180 Y-2.547 F999.600
G1 X14.925 Y-2.665 F999.600
G1 X14.789 Y-2.814 F999.600
G1 X14.708 Y-3.006 F999.600
G1 X14.708 Y-3.006 F999.600
G1 X14.646 Y-3.472 F999.600
G1 X14.658 Y-3.752 F999.600
G1 X14.764 Y-4.019 F999.600
G1 X14.919 Y-4.261 F999.600
G1 X15.168 Y-4.547 F999.600
G1 X15.441 Y-4.795 F999.600
G1 X15.745 Y-5.006 F999.600
G1 X16.062 Y-5.199 F999.600
G1 X16.391 Y-5.366 F999.600
G1 X16.733 Y-5.503 F999.600
G1 X17.441 Y-5.720 F999.600
G1 X17.801 Y-5.807 F999.600
G1 X18.534 Y-5.907 F999.600
G1 X18.901 Y-5.932 F999.600
G1 X19.634 Y-5.919 F999.600
G1 X20.366 Y-5.839 F999.600
G1 X21.099 Y-5.714 F999.600
G1 X22.180 Y-5.453 F999.600
G1 X23.242 Y-5.118 F999.600
G1 X24.280 Y-4.708 F999.600
G1 X25.280 Y-4.224 F999.600
G1 X25.932 Y-3.863 F999.600
G1 X26.876 Y-3.267 F999.600
G1 X28.379 Y-2.180 F999.600
G1 X29.522 Y-1.230 F999.600
G1 X30.348 Y-0.472 F999.600
G1 X31.106 Y0.342 F999.600
G1 X31.602 Y1.025 F999.600
G1 X31.640 Y1.112 F999.600
G1 X31.615 Y1.857 F999.600
G1 X31.615 Y1.857 F999.600
G1 X31.559 Y2.050 F999.600
G1 X31.509 Y2.130 F999.600
G1 X31.478 Y2.155 F999.600
G0 X31.441 Y2.174
G0 X31.261 Y2.149
G0 X15.174 Y-3.224
G1 X15.075 Y-3.255 F999.600
G1 X14.783 Y-3.385 F999.600
G1 X14.671 Y-3.491 F999.600
G1 X14.578 Y-3.683 F999.600
G1 X14.578 Y-3.683 F999.600
G1 X14.478 Y-4.056 F999.600
G1 X14.460 Y-4.335 F999.600
G1 X14.466 Y-4.429 F999.600
G1 X14.615 Y-4.776 F999.600
G1 X14.901 Y-5.161 F999.600
G1 X15.230 Y-5.484 F999.600
G1 X15.522 Y-5.708 F999.600
G1 X16.149 Y-6.093 F999.600
G1 X16.484 Y-6.242 F999.600
G1 X17.180 Y-6.484 F999.600
G1 X17.534 Y-6.578 F999.600
G1 X17.894 Y-6.646 F999.600
G1 X18.627 Y-6.739 F999.600
G1 X19.727 Y-6.745 F999.600
G1 X20.460 Y-6.671 F999.600
G1 X21.193 Y-6.565 F999.600
G1 X22.273 Y-6.323 F999.600
G1 X23.342 Y-6.006 F999.600
G1 X24.037 Y-5.745 F999.600
G1 X25.062 Y-5.304 F999.600
G1 X26.056 Y-4.807 F999.600
G1 X26.379 Y-4.627 F999.600
G1 X27.012 Y-4.230 F999.600
G1 X28.845 Y-2.957 F999.600
G1 X30.261 Y-1.752 F999.600
G1 X31.075 Y-0.981 F999.600
G1 X31.627 Y-0.261 F999.600
G1 X31.702 Y-0.068 F999.600
G1 X31.677 Y0.584 F999.600
G1 X31.677 Y0.584 F999.600
G1 X31.621 Y0.776 F999.600
G1 X31.571 Y0.857 F999.600
G1 X31.540 Y0.882 F999.600
G0 X31.503 Y0.901
G0 X31.323 Y0.882
G0 X15.025 Y-3.913
G1 X14.925 Y-3.944 F999.600
G1 X14.615 Y-4.062 F999.600
G1 X14.472 Y-4.205 F999.600
G1 X14.391 Y-4.348 F999.600
G1 X14.391 Y-4.348 F999.600
G1 X14.261 Y-4.814 F999.600
G1 X14.248 Y-5.000 F999.600
G1 X14.261 Y-5.093 F999.600
G1 X14.410 Y-5.447 F999.600
G1 X14.752 Y-5.913 F999.600
G1 X15.000 Y-6.186 F999.600
G1 X15.286 Y-6.416 F999.600
G1 X15.901 Y-6.814 F999.600
G1 X16.230 Y-6.981 F999.600
G1 X16.919 Y-7.248 F999.600
G1 X17.273 Y-7.354 F999.600
G1 X17.634 Y-7.435 F999.600
G1 X18.000 Y-7.497 F999.600
G1 X18.733 Y-7.578 F999.600
G1 X19.466 Y-7.596 F999.600
G1 X20.199 Y-7.559 F999.600
G1 X21.298 Y-7.422 F999.600
G1 X22.385 Y-7.186 F999.600
G1 X23.099 Y-6.994 F999.600
G1 X23.807 Y-6.764 F999.600
G1 X24.497 Y-6.497 F999.600
G1 X25.516 Y-6.050 F999.600
G1 X26.186 Y-5.727 F999.600
G1 X27.168 Y-5.199 F999.600
G1 X28.410 Y-4.379 F999.600
G1 X29.019 Y-3.944 F999.600
G1 X30.453 Y-2.752 F999.600
G1 X31.012 Y-2.255 F999.600
G1 X31.578 Y-1.565 F999.600
G1 X31.621 Y-1.472 F999.600
G1 X31.646 Y-1.373 F999.600
G1 X31.677 Y-0.677 F999.600
G1 X31.677 Y-0.671 F999.600
G1 X31.640 Y-0.460 F999.600
G1 X31.596 Y-0.366 F999.600
G1 X31.565 Y-0.335 F999.600
G0 X31.528 Y-0.317
G0 X31.348 Y-0.323
G0 X14.789 Y-4.596
G1 X14.689 Y-4.621 F999.600
G1 X14.391 Y-4.727 F999.600
G1 X14.242 Y-4.870 F999.600
G1 X14.161 Y-5.006 F999.600
G1 X14.161 Y-5.006 F999.600
G1 X14.031 Y-5.472 F999.600
G1 X14.012 Y-5.658 F999.600
G1 X14.019 Y-5.752 F999.600
G1 X14.112 Y-6.019 F999.600
G1 X14.422 Y-6.503 F999.600
G1 X14.727 Y-6.857 F999.600
G1 X15.000 Y-7.099 F999.600
G1 X15.602 Y-7.528 F999.600
G1 X15.925 Y-7.702 F999.600
G1 X16.261 Y-7.851 F999.600
G1 X16.957 Y-8.099 F999.600
G1 X17.311 Y-8.205 F999.600
G1 X18.037 Y-8.342 F999.600
G1 X18.770 Y-8.422 F999.600
G1 X19.137 Y-8.441 F999.600
G1 X20.236 Y-8.416 F999.600
G1 X21.335 Y-8.292 F999.600
G1 X22.422 Y-8.081 F999.600
G1 X23.497 Y-7.801 F999.600
G1 X24.553 Y-7.447 F999.600
G1 X25.584 Y-7.019 F999.600
G1 X26.255 Y-6.696 F999.600
G1 X27.553 Y-5.969 F999.600
G1 X28.497 Y-5.379 F999.600
G1 X29.416 Y-4.739 F999.600
G1 X30.596 Y-3.826 F999.600
G1 X30.882 Y-3.590 F999.600
G1 X31.472 Y-2.919 F999.600
G1 X31.571 Y-2.745 F999.600
G1 X31.615 Y-2.050 F999.600
G1 X31.615 Y-2.050 F999.600
G1 X31.578 Y-1.839 F999.600
G1 X31.534 Y-1.745 F999.600
G1 X31.503 Y-1.714 F999.600
G0 X31.466 Y-1.689
G0 X31.286 Y-1.696
G0 X14.565 Y-5.267
G1 X14.460 Y-5.292 F999.600
G1 X14.161 Y-5.385 F999.600
G1 X14.006 Y-5.522 F999.600
G1 X13.925 Y-5.652 F999.600
G1 X13.925 Y-5.652 F999.600
G1 X13.776 Y-6.112 F999.600
G1 X13.758 Y-6.298 F999.600
G1 X13.764 Y-6.391 F999.600
G1 X13.888 Y-6.752 F999.600
G1 X14.130 Y-7.168 F999.600
G1 X14.360 Y-7.460 F999.600
G1 X14.621 Y-7.720 F999.600
G1 X14.901 Y-7.963 F999.600
G1 X15.199 Y-8.174 F999.600
G1 X15.845 Y-8.534 F999.600
G1 X16.180 Y-8.689 F999.600
G1 X16.876 Y-8.932 F999.600
G1 X17.590 Y-9.112 F999.600
G1 X17.950 Y-9.180 F999.600
G1 X18.317 Y-9.230 F999.600
G1 X19.050 Y-9.292 F999.600
G1 X20.149 Y-9.280 F999.600
G1 X20.882 Y-9.224 F999.600
G1 X21.981 Y-9.062 F999.600
G1 X23.422 Y-8.733 F999.600
G1 X24.484 Y-8.422 F999.600
G1 X25.180 Y-8.161 F999.600
G1 X26.528 Y-7.540 F999.600
G1 X28.155 Y-6.646 F999.600
G1 X29.106 Y-6.062 F999.600
G1 X30.311 Y-5.186 F999.600
G1 X30.602 Y-4.957 F999.600
G1 X31.354 Y-4.180 F999.600
G1 X31.453 Y-4.006 F999.600
G1 X31.571 Y-3.012 F999.600
G1 X31.571 Y-3.006 F999.600
G1 X31.534 Y-2.795 F999.600
G1 X31.491 Y-2.702 F999.600
G1 X31.460 Y-2.671 F999.600
G0 X31.422 Y-2.646
G0 X31.242 Y-2.646
G0 X14.373 Y-5.839
G1 X14.280 Y-5.857 F999.600
G1 X13.950 Y-5.950 F999.600
G1 X13.783 Y-6.075 F999.600
G1 X13.689 Y-6.199 F999.600
G1 X13.689 Y-6.199 F999.600
G1 X13.503 Y-6.652 F999.600
G1 X13.460 Y-6.839 F999.600
G1 X13.460 Y-7.025 F999.600
G1 X13.615 Y-7.472 F999.600
G1 X13.801 Y-7.801 F999.600
G1 X14.012 Y-8.106 F999.600
G1 X14.261 Y-8.373 F999.600
G1 X14.826 Y-8.851 F999.600
G1 X15.453 Y-9.236 F999.600
G1 X16.472 Y-9.671 F999.600
G1 X17.180 Y-9.870 F999.600
G1 X17.901 Y-10.019 F999.600
G1 X19.000 Y-10.137 F999.600
G1 X20.099 Y-10.149 F999.600
G1 X21.199 Y-10.062 F999.600
G1 X21.932 Y-9.957 F999.600
G1 X22.665 Y-9.826 F999.600
G1 X23.745 Y-9.578 F999.600
G1 X24.106 Y-9.478 F999.600
G1 X24.814 Y-9.242 F999.600
G1 X26.186 Y-8.677 F999.600
G1 X27.516 Y-8.012 F999.600
G1 X29.137 Y-7.093 F999.600
G1 X30.068 Y-6.484 F999.600
G1 X30.373 Y-6.267 F999.600
G1 X31.087 Y-5.578 F999.600
G1 X31.199 Y-5.410 F999.600
G1 X31.242 Y-5.317 F999.600
G1 X31.404 Y-4.422 F999.600
G1 X31.404 Y-4.422 F999.600
G1 X31.360 Y-4.155 F999.600
G1 X31.311 Y-4.075 F999.600
G0 X31.280 Y-4.050
G0 X31.099 Y-4.037
G0 X14.062 Y-6.472
G1 X13.957 Y-6.491 F999.600
G1 X13.646 Y-6.565 F999.600
G1 X13.484 Y-6.689 F999.600
G1 X13.398 Y-6.820 F999.600
G1 X13.398 Y-6.820 F999.600
G1 X13.193 Y-7.267 F999.600
G1 X13.143 Y-7.453 F999.600
G1 X13.137 Y-7.547 F999.600
G1 X13.248 Y-8.012 F999.600
G1 X13.466 Y-8.441 F999.600
G1 X13.671 Y-8.745 F999.600
G1 X13.907 Y-9.031 F999.600
G1 X14.447 Y-9.528 F999.600
G1 X14.745 Y-9.745 F999.600
G1 X15.062 Y-9.932 F999.600
G1 X15.727 Y-10.255 F999.600
G1 X16.068 Y-10.398 F999.600
G1 X16.770 Y-10.621 F999.600
G1 X17.851 Y-10.870 F999.600
G1 X18.217 Y-10.932 F999.600
G1 X19.317 Y-11.012 F999.600
G1 X20.050 Y-11.025 F999.600
G1 X20.783 Y-10.994 F999.600
G1 X21.516 Y-10.925 F999.600
G1 X22.981 Y-10.677 F999.600
G1 X24.062 Y-10.416 F999.600
G1 X24.416 Y-10.317 F999.600
G1 X25.807 Y-9.795 F999.600
G1 X27.503 Y-9.043 F999.600
G1 X27.839 Y-8.882 F999.600
G1 X29.130 Y-8.149 F999.600
G1 X29.764 Y-7.764 F999.600
G1 X30.217 Y-7.429 F999.600
G1 X30.888 Y-6.851 F999.600
G1 X30.994 Y-6.683 F999.600
G1 X31.155 Y-5.789 F999.600
G1 X31.155 Y-5.789 F999.600
G1 X31.130 Y-5.522 F999.600
G1 X31.081 Y-5.441 F999.600
G0 X31.050 Y-5.410
G0 X30.876 Y-5.391
G0 X13.752 Y-7.118
G1 X13.646 Y-7.130 F999.600
G1 X13.335 Y-7.193 F999.600
G1 X13.161 Y-7.311 F999.600
G1 X13.062 Y-7.429 F999.600
G1 X13.062 Y-7.429 F999.600
G1 X12.851 Y-7.870 F999.600
G1 X12.801 Y-8.056 F999.600
G1 X12.814 Y-8.335 F999.600
G1 X12.919 Y-8.708 F999.600
G1 X13.037 Y-8.969 F999.600
G1 X13.224 Y-9.286 F999.600
G1 X13.447 Y-9.578 F999.600
G1 X13.696 Y-9.851 F999.600
G1 X13.957 Y-10.112 F999.600
G1 X14.242 Y-10.348 F999.600
G1 X14.540 Y-10.559 F999.600
G1 X14.857 Y-10.752 F999.600
G1 X15.522 Y-11.075 F999.600
G1 X16.211 Y-11.348 F999.600
G1 X16.565 Y-11.460 F999.600
G1 X17.280 Y-11.634 F999.600
G1 X18.012 Y-11.758 F999.600
G1 X19.112 Y-11.876 F999.600
G1 X20.211 Y-11.913 F999.600
G1 X20.578 Y-11.907 F999.600
G1 X21.677 Y-11.801 F999.600
G1 X23.137 Y-11.559 F999.600
G1 X24.217 Y-11.304 F999.600
G1 X25.963 Y-10.696 F999.600
G1 X27.335 Y-10.124 F999.600
G1 X28.006 Y-9.807 F999.600
G1 X29.304 Y-9.081 F999.600
G1 X30.491 Y-8.211 F999.600
G1 X30.565 Y-8.143 F999.600
G1 X30.627 Y-8.062 F999.600
G1 X30.671 Y-7.969 F999.600
G1 X30.907 Y-7.075 F999.600
G1 X30.907 Y-7.075 F999.600
G1 X30.913 Y-6.863 F999.600
G1 X30.888 Y-6.764 F999.600
G1 X30.870 Y-6.720 F999.600
G0 X30.839 Y-6.696
G0 X30.658 Y-6.671
G0 X13.466 Y-7.671
G1 X13.360 Y-7.677 F999.600
G1 X13.043 Y-7.720 F999.600
G1 X12.863 Y-7.820 F999.600
G1 X12.752 Y-7.932 F999.600
G1 X12.752 Y-7.932 F999.600
G1 X12.472 Y-8.447 F999.600
G1 X12.416 Y-8.634 F999.600
G1 X12.404 Y-8.727 F999.600
G1 X12.484 Y-9.193 F999.600
G1 X12.665 Y-9.634 F999.600
G1 X12.845 Y-9.957 F999.600
G1 X13.056 Y-10.255 F999.600
G1 X13.559 Y-10.795 F999.600
G1 X13.839 Y-11.037 F999.600
G1 X14.137 Y-11.248 F999.600
G1 X14.764 Y-11.627 F999.600
G1 X15.087 Y-11.801 F999.600
G1 X15.764 Y-12.087 F999.600
G1 X16.112 Y-12.205 F999.600
G1 X17.186 Y-12.478 F999.600
G1 X17.547 Y-12.553 F999.600
G1 X18.646 Y-12.708 F999.600
G1 X19.379 Y-12.764 F999.600
G1 X20.478 Y-12.770 F999.600
G1 X21.944 Y-12.646 F999.600
G1 X23.043 Y-12.478 F999.600
G1 X23.770 Y-12.335 F999.600
G1 X25.186 Y-11.913 F999.600
G1 X27.273 Y-11.130 F999.600
G1 X28.280 Y-10.658 F999.600
G1 X28.938 Y-10.311 F999.600
G1 X30.149 Y-9.478 F999.600
G1 X30.280 Y-9.323 F999.600
G1 X30.360 Y-9.137 F999.600
G1 X30.547 Y-8.441 F999.600
G1 X30.547 Y-8.441 F999.600
G1 X30.553 Y-8.230 F999.600
G1 X30.528 Y-8.130 F999.600
G1 X30.509 Y-8.087 F999.600
G0 X30.478 Y-8.062
G0 X30.298 Y-8.025
G0 X13.087 Y-8.267
G1 X12.981 Y-8.273 F999.600
G1 X12.665 Y-8.298 F999.600
G1 X12.484 Y-8.398 F999.600
G1 X12.373 Y-8.509 F999.600
G1 X12.373 Y-8.509 F999.600
G1 X12.050 Y-9.106 F999.600
G1 X12.019 Y-9.199 F999.600
G1 X12.012 Y-9.478 F999.600
G1 X12.087 Y-9.851 F999.600
G1 X12.180 Y-10.118 F999.600
G1 X12.335 Y-10.453 F999.600
G1 X12.540 Y-10.764 F999.600
G1 X12.764 Y-11.056 F999.600
G1 X13.006 Y-11.335 F999.600
G1 X13.559 Y-11.826 F999.600
G1 X14.161 Y-12.242 F999.600
G1 X14.807 Y-12.596 F999.600
G1 X15.143 Y-12.745 F999.600
G1 X16.180 Y-13.112 F999.600
G1 X17.255 Y-13.379 F999.600
G1 X17.981 Y-13.503 F999.600
G1 X18.714 Y-13.584 F999.600
G1 X19.447 Y-13.640 F999.600
G1 X20.180 Y-13.658 F999.600
G1 X20.913 Y-13.627 F999.600
G1 X22.012 Y-13.522 F999.600
G1 X22.745 Y-13.416 F999.600
G1 X23.832 Y-13.193 F999.600
G1 X24.553 Y-13.012 F999.600
G1 X25.969 Y-12.565 F999.600
G1 X27.360 Y-12.043 F999.600
G1 X28.385 Y-11.609 F999.600
G1 X29.683 Y-10.783 F999.600
G1 X29.814 Y-10.640 F999.600
G1 X30.155 Y-9.708 F999.600
G1 X30.155 Y-9.708 F999.600
G1 X30.180 Y-9.497 F999.600
G1 X30.161 Y-9.398 F999.600
G1 X30.143 Y-9.360 F999.600
G0 X30.112 Y-9.329
G0 X29.938 Y-9.286
G0 X12.708 Y-8.882
G1 X12.602 Y-8.882 F999.600
G1 X12.286 Y-8.901 F999.600
G1 X12.056 Y-9.012 F999.600
G1 X11.981 Y-9.081 F999.600
G1 X11.981 Y-9.081 F999.600
G1 X11.696 Y-9.472 F999.600
G1 X11.609 Y-9.646 F999.600
G1 X11.578 Y-9.739 F999.600
G1 X11.571 Y-10.112 F999.600
G1 X11.714 Y-10.665 F999.600
G1 X11.870 Y-11.000 F999.600
G1 X12.056 Y-11.317 F999.600
G1 X12.267 Y-11.621 F999.600
G1 X12.497 Y-11.907 F999.600
G1 X12.752 Y-12.174 F999.600
G1 X13.025 Y-12.416 F999.600
G1 X13.615 Y-12.857 F999.600
G1 X13.925 Y-13.062 F999.600
G1 X14.578 Y-13.410 F999.600
G1 X14.913 Y-13.559 F999.600
G1 X15.950 Y-13.938 F999.600
G1 X16.665 Y-14.130 F999.600
G1 X17.385 Y-14.280 F999.600
G1 X18.118 Y-14.398 F999.600
G1 X19.217 Y-14.509 F999.600
G1 X20.317 Y-14.547 F999.600
G1 X21.416 Y-14.509 F999.600
G1 X22.149 Y-14.416 F999.600
G1 X22.882 Y-14.298 F999.600
G1 X24.329 Y-14.000 F999.600
G1 X25.404 Y-13.696 F999.600
G1 X26.807 Y-13.205 F999.600
G1 X28.193 Y-12.658 F999.600
G1 X29.205 Y-12.056 F999.600
G1 X29.286 Y-11.994 F999.600
G1 X29.354 Y-11.919 F999.600
G1 X29.634 Y-11.174 F999.600
G1 X29.634 Y-11.174 F999.600
G1 X29.658 Y-10.963 F999.600
G1 X29.640 Y-10.863 F999.600
G1 X29.621 Y-10.826 F999.600
G0 X29.590 Y-10.795
G0 X29.416 Y-10.739
G0 X12.267 Y-9.441
G1 X12.161 Y-9.435 F999.600
G1 X11.845 Y-9.435 F999.600
G1 X11.658 Y-9.509 F999.600
G1 X11.540 Y-9.609 F999.600
G1 X11.540 Y-9.609 F999.600
G1 X11.255 Y-10.000 F999.600
G1 X11.161 Y-10.174 F999.600
G1 X11.124 Y-10.453 F999.600
G1 X11.149 Y-10.826 F999.600
G1 X11.242 Y-11.199 F999.600
G1 X11.379 Y-11.540 F999.600
G1 X11.553 Y-11.863 F999.600
G1 X11.745 Y-12.174 F999.600
G1 X11.975 Y-12.460 F999.600
G1 X12.224 Y-12.733 F999.600
G1 X12.484 Y-12.994 F999.600
G1 X12.758 Y-13.242 F999.600
G1 X13.354 Y-13.677 F999.600
G1 X13.994 Y-14.050 F999.600
