(Exported by FreeCAD)
(Post Processor: grbl_post)
(Output Time:2020-05-08 18:55:41.770843)
(Begin preamble)
G17 G90
G21
(Begin operation: Fixture)
(Path: Fixture)
G54
(Finish operation: Fixture)
(Begin operation: T4: 2FluteWoodMill_Fast)
(Path: T4: 2FluteWoodMill_Fast)
(T4: 2FluteWoodMill_Fast)
(Begin toolchange)
(M6 T4.0)
M3 S12000.0
(Finish operation: T4: 2FluteWoodMill_Fast)
(Begin operation: Pocket_Shape)
(Path: Pocket_Shape)
(Pocket_Shape)
G0 Z23.000
G0 X1.500 Y-14.914
G0 Z21.000
G1 X1.500 Y-14.914 Z10.500 F999.600
G1 X1.500 Y-28.500 Z10.500 F1999.800
G1 X-1.500 Y-28.500 Z10.500 F1999.800
G1 X-1.500 Y-14.915 Z10.500 F1999.800
G3 X1.500 Y-14.914 Z10.500 I1.494 J13.266 K0.000 F1999.800
G0 X1.500 Y-14.914 Z23.000
G0 X0.750 Y-15.722 Z23.000
G1 X0.750 Y-15.722 Z10.500 F999.600
G1 X0.750 Y-27.750 Z10.500 F1999.800
G1 X-0.750 Y-27.750 Z10.500 F1999.800
G1 X-0.750 Y-15.720 Z10.500 F1999.800
G3 X0.750 Y-15.722 Z10.500 I0.762 J10.021 K0.000 F1999.800
G1 X0.750 Y-15.722 Z10.000 F999.600
G1 X0.750 Y-27.750 Z10.000 F1999.800
G1 X-0.750 Y-27.750 Z10.000 F1999.800
G1 X-0.750 Y-15.720 Z10.000 F1999.800
G3 X0.750 Y-15.722 Z10.000 I0.762 J10.021 K0.000 F1999.800
G0 X0.750 Y-15.722 Z23.000
G0 X0.710 Y-14.980 Z23.000
G1 X0.710 Y-14.980 Z10.000 F999.600
G3 X1.500 Y-14.914 Z10.000 I-0.716 J13.331 K0.000 F1999.800
G1 X1.500 Y-28.500 Z10.000 F1999.800
G1 X-1.500 Y-28.500 Z10.000 F1999.800
G1 X-1.500 Y-14.915 Z10.000 F1999.800
G3 X0.710 Y-14.980 Z10.000 I1.494 J13.266 K0.000 F1999.800
G1 X0.710 Y-14.980 Z9.500 F999.600
G3 X1.500 Y-14.914 Z9.500 I-0.716 J13.331 K0.000 F1999.800
G1 X1.500 Y-28.500 Z9.500 F1999.800
G1 X-1.500 Y-28.500 Z9.500 F1999.800
G1 X-1.500 Y-14.915 Z9.500 F1999.800
G3 X0.710 Y-14.980 Z9.500 I1.494 J13.266 K0.000 F1999.800
G0 X0.710 Y-14.980 Z23.000
G0 X0.750 Y-15.722 Z23.000
G1 X0.750 Y-15.722 Z9.500 F999.600
G1 X0.750 Y-27.750 Z9.500 F1999.800
G1 X-0.750 Y-27.750 Z9.500 F1999.800
G1 X-0.750 Y-15.720 Z9.500 F1999.800
G3 X0.750 Y-15.722 Z9.500 I0.762 J10.021 K0.000 F1999.800
G1 X0.750 Y-15.722 Z9.000 F999.600
G1 X0.750 Y-27.750 Z9.000 F1999.800
G1 X-0.750 Y-27.750 Z9.000 F1999.800
G1 X-0.750 Y-15.720 Z9.000 F1999.800
G3 X0.750 Y-15.722 Z9.000 I0.762 J10.021 K0.000 F1999.800
G0 X0.750 Y-15.722 Z23.000
G0 X0.710 Y-14.980 Z23.000
G1 X0.710 Y-14.980 Z9.000 F999.600
G3 X1.500 Y-14.914 Z9.000 I-0.716 J13.331 K0.000 F1999.800
G1 X1.500 Y-28.500 Z9.000 F1999.800
G1 X-1.500 Y-28.500 Z9.000 F1999.800
G1 X-1.500 Y-14.915 Z9.000 F1999.800
G3 X0.710 Y-14.980 Z9.000 I1.494 J13.266 K0.000 F1999.800
G1 X0.710 Y-14.980 Z8.500 F999.600
G3 X1.500 Y-14.914 Z8.500 I-0.716 J13.331 K0.000 F1999.800
G1 X1.500 Y-28.500 Z8.500 F1999.800
G1 X-1.500 Y-28.500 Z8.500 F1999.800
G1 X-1.500 Y-14.915 Z8.500 F1999.800
G3 X0.710 Y-14.980 Z8.500 I1.494 J13.266 K0.000 F1999.800
G0 X0.710 Y-14.980 Z23.000
G0 X0.750 Y-15.722 Z23.000
G1 X0.750 Y-15.722 Z8.500 F999.600
G1 X0.750 Y-27.750 Z8.500 F1999.800
G1 X-0.750 Y-27.750 Z8.500 F1999.800
G1 X-0.750 Y-15.720 Z8.500 F1999.800
G3 X0.750 Y-15.722 Z8.500 I0.762 J10.021 K0.000 F1999.800
G1 X0.750 Y-15.722 Z8.000 F999.600
G1 X0.750 Y-27.750 Z8.000 F1999.800
G1 X-0.750 Y-27.750 Z8.000 F1999.800
G1 X-0.750 Y-15.720 Z8.000 F1999.800
G3 X0.750 Y-15.722 Z8.000 I0.762 J10.021 K0.000 F1999.800
G0 X0.750 Y-15.722 Z23.000
G0 X0.710 Y-14.980 Z23.000
G1 X0.710 Y-14.980 Z8.000 F999.600
G3 X1.500 Y-14.914 Z8.000 I-0.716 J13.331 K0.000 F1999.800
G1 X1.500 Y-28.500 Z8.000 F1999.800
G1 X-1.500 Y-28.500 Z8.000 F1999.800
G1 X-1.500 Y-14.915 Z8.000 F1999.800
G3 X0.710 Y-14.980 Z8.000 I1.494 J13.266 K0.000 F1999.800
G1 X0.710 Y-14.980 Z7.500 F999.600
G3 X1.500 Y-14.914 Z7.500 I-0.716 J13.331 K0.000 F1999.800
G1 X1.500 Y-28.500 Z7.500 F1999.800
G1 X-1.500 Y-28.500 Z7.500 F1999.800
G1 X-1.500 Y-14.915 Z7.500 F1999.800
G3 X0.710 Y-14.980 Z7.500 I1.494 J13.266 K0.000 F1999.800
G0 X0.710 Y-14.980 Z23.000
G0 X0.750 Y-15.722 Z23.000
G1 X0.750 Y-15.722 Z7.500 F999.600
G1 X0.750 Y-27.750 Z7.500 F1999.800
G1 X-0.750 Y-27.750 Z7.500 F1999.800
G1 X-0.750 Y-15.720 Z7.500 F1999.800
G3 X0.750 Y-15.722 Z7.500 I0.762 J10.021 K0.000 F1999.800
G1 X0.750 Y-15.722 Z7.000 F999.600
G1 X0.750 Y-27.750 Z7.000 F1999.800
G1 X-0.750 Y-27.750 Z7.000 F1999.800
G1 X-0.750 Y-15.720 Z7.000 F1999.800
G3 X0.750 Y-15.722 Z7.000 I0.762 J10.021 K0.000 F1999.800
G0 X0.750 Y-15.722 Z23.000
G0 X0.710 Y-14.980 Z23.000
G1 X0.710 Y-14.980 Z7.000 F999.600
G3 X1.500 Y-14.914 Z7.000 I-0.716 J13.331 K0.000 F1999.800
G1 X1.500 Y-28.500 Z7.000 F1999.800
G1 X-1.500 Y-28.500 Z7.000 F1999.800
G1 X-1.500 Y-14.915 Z7.000 F1999.800
G3 X0.710 Y-14.980 Z7.000 I1.494 J13.266 K0.000 F1999.800
G1 X0.710 Y-14.980 Z6.500 F999.600
G3 X1.500 Y-14.914 Z6.500 I-0.716 J13.331 K0.000 F1999.800
G1 X1.500 Y-28.500 Z6.500 F1999.800
G1 X-1.500 Y-28.500 Z6.500 F1999.800
G1 X-1.500 Y-14.915 Z6.500 F1999.800
G3 X0.710 Y-14.980 Z6.500 I1.494 J13.266 K0.000 F1999.800
G0 X0.710 Y-14.980 Z23.000
G0 X0.750 Y-15.722 Z23.000
G1 X0.750 Y-15.722 Z6.500 F999.600
G1 X0.750 Y-27.750 Z6.500 F1999.800
G1 X-0.750 Y-27.750 Z6.500 F1999.800
G1 X-0.750 Y-15.720 Z6.500 F1999.800
G3 X0.750 Y-15.722 Z6.500 I0.762 J10.021 K0.000 F1999.800
G1 X0.750 Y-15.722 Z6.000 F999.600
G1 X0.750 Y-27.750 Z6.000 F1999.800
G1 X-0.750 Y-27.750 Z6.000 F1999.800
G1 X-0.750 Y-15.720 Z6.000 F1999.800
G3 X0.750 Y-15.722 Z6.000 I0.762 J10.021 K0.000 F1999.800
G0 X0.750 Y-15.722 Z23.000
G0 X0.710 Y-14.980 Z23.000
G1 X0.710 Y-14.980 Z6.000 F999.600
G3 X1.500 Y-14.914 Z6.000 I-0.716 J13.331 K0.000 F1999.800
G1 X1.500 Y-28.500 Z6.000 F1999.800
G1 X-1.500 Y-28.500 Z6.000 F1999.800
G1 X-1.500 Y-14.915 Z6.000 F1999.800
G3 X0.710 Y-14.980 Z6.000 I1.494 J13.266 K0.000 F1999.800
G0 Z23.000
G0 X-15.108 Y10.455
G0 Z21.000
G1 X-15.108 Y10.455 Z10.500 F999.600
G1 X-12.167 Y8.757 Z10.500 F1999.800
G3 X-13.666 Y6.158 Z10.500 I10.742 J-7.927 K0.000 F1999.800
G1 X-25.432 Y12.951 Z10.500 F1999.800
G1 X-23.932 Y15.549 Z10.500 F1999.800
G1 X-15.108 Y10.455 Z10.500 F1999.800
G0 X-15.108 Y10.455 Z23.000
G0 X-15.483 Y9.805 Z23.000
G1 X-15.483 Y9.805 Z10.500 F999.600
G1 X-13.239 Y8.510 Z10.500 F1999.800
G3 X-13.990 Y7.211 Z10.500 I8.298 J-5.670 K0.000 F1999.800
G1 X-24.407 Y13.225 Z10.500 F1999.800
G1 X-23.657 Y14.525 Z10.500 F1999.800
G1 X-15.483 Y9.805 Z10.500 F1999.800
G1 X-15.483 Y9.805 Z10.000 F999.600
G1 X-13.239 Y8.510 Z10.000 F1999.800
G3 X-13.990 Y7.211 Z10.000 I8.298 J-5.670 K0.000 F1999.800
G1 X-24.407 Y13.225 Z10.000 F1999.800
G1 X-23.657 Y14.525 Z10.000 F1999.800
G1 X-15.483 Y9.805 Z10.000 F1999.800
G0 X-15.483 Y9.805 Z23.000
G0 X-15.108 Y10.455 Z23.000
G1 X-15.108 Y10.455 Z10.000 F999.600
G1 X-12.167 Y8.757 Z10.000 F1999.800
G3 X-13.666 Y6.158 Z10.000 I10.742 J-7.927 K0.000 F1999.800
G1 X-25.432 Y12.951 Z10.000 F1999.800
G1 X-23.932 Y15.549 Z10.000 F1999.800
G1 X-15.108 Y10.455 Z10.000 F1999.800
G1 X-15.108 Y10.455 Z9.500 F999.600
G1 X-12.167 Y8.757 Z9.500 F1999.800
G3 X-13.666 Y6.158 Z9.500 I10.742 J-7.927 K0.000 F1999.800
G1 X-25.432 Y12.951 Z9.500 F1999.800
G1 X-23.932 Y15.549 Z9.500 F1999.800
G1 X-15.108 Y10.455 Z9.500 F1999.800
G0 X-15.108 Y10.455 Z23.000
G0 X-15.483 Y9.805 Z23.000
G1 X-15.483 Y9.805 Z9.500 F999.600
G1 X-13.239 Y8.510 Z9.500 F1999.800
G3 X-13.990 Y7.211 Z9.500 I8.298 J-5.670 K0.000 F1999.800
G1 X-24.407 Y13.225 Z9.500 F1999.800
G1 X-23.657 Y14.525 Z9.500 F1999.800
G1 X-15.483 Y9.805 Z9.500 F1999.800
G1 X-15.483 Y9.805 Z9.000 F999.600
G1 X-13.239 Y8.510 Z9.000 F1999.800
G3 X-13.990 Y7.211 Z9.000 I8.298 J-5.670 K0.000 F1999.800
G1 X-24.407 Y13.225 Z9.000 F1999.800
G1 X-23.657 Y14.525 Z9.000 F1999.800
G1 X-15.483 Y9.805 Z9.000 F1999.800
G0 X-15.483 Y9.805 Z23.000
G0 X-15.108 Y10.455 Z23.000
G1 X-15.108 Y10.455 Z9.000 F999.600
G1 X-12.167 Y8.757 Z9.000 F1999.800
G3 X-13.666 Y6.158 Z9.000 I10.742 J-7.927 K0.000 F1999.800
G1 X-25.432 Y12.951 Z9.000 F1999.800
G1 X-23.932 Y15.549 Z9.000 F1999.800
G1 X-15.108 Y10.455 Z9.000 F1999.800
G1 X-15.108 Y10.455 Z8.500 F999.600
G1 X-12.167 Y8.757 Z8.500 F1999.800
G3 X-13.666 Y6.158 Z8.500 I10.742 J-7.927 K0.000 F1999.800
G1 X-25.432 Y12.951 Z8.500 F1999.800
G1 X-23.932 Y15.549 Z8.500 F1999.800
G1 X-15.108 Y10.455 Z8.500 F1999.800
G0 X-15.108 Y10.455 Z23.000
G0 X-15.483 Y9.805 Z23.000
G1 X-15.483 Y9.805 Z8.500 F999.600
G1 X-13.239 Y8.510 Z8.500 F1999.800
G3 X-13.990 Y7.211 Z8.500 I8.298 J-5.670 K0.000 F1999.800
G1 X-24.407 Y13.225 Z8.500 F1999.800
G1 X-23.657 Y14.525 Z8.500 F1999.800
G1 X-15.483 Y9.805 Z8.500 F1999.800
G1 X-15.483 Y9.805 Z8.000 F999.600
G1 X-13.239 Y8.510 Z8.000 F1999.800
G3 X-13.990 Y7.211 Z8.000 I8.298 J-5.670 K0.000 F1999.800
G1 X-24.407 Y13.225 Z8.000 F1999.800
G1 X-23.657 Y14.525 Z8.000 F1999.800
G1 X-15.483 Y9.805 Z8.000 F1999.800
G0 X-15.483 Y9.805 Z23.000
G0 X-15.108 Y10.455 Z23.000
G1 X-15.108 Y10.455 Z8.000 F999.600
G1 X-12.167 Y8.757 Z8.000 F1999.800
G3 X-13.666 Y6.158 Z8.000 I10.742 J-7.927 K0.000 F1999.800
G1 X-25.432 Y12.951 Z8.000 F1999.800
G1 X-23.932 Y15.549 Z8.000 F1999.800
G1 X-15.108 Y10.455 Z8.000 F1999.800
G1 X-15.108 Y10.455 Z7.500 F999.600
G1 X-12.167 Y8.757 Z7.500 F1999.800
G3 X-13.666 Y6.158 Z7.500 I10.742 J-7.927 K0.000 F1999.800
G1 X-25.432 Y12.951 Z7.500 F1999.800
G1 X-23.932 Y15.549 Z7.500 F1999.800
G1 X-15.108 Y10.455 Z7.500 F1999.800
G0 X-15.108 Y10.455 Z23.000
G0 X-15.483 Y9.805 Z23.000
G1 X-15.483 Y9.805 Z7.500 F999.600
G1 X-13.239 Y8.510 Z7.500 F1999.800
G3 X-13.990 Y7.211 Z7.500 I8.298 J-5.670 K0.000 F1999.800
G1 X-24.407 Y13.225 Z7.500 F1999.800
G1 X-23.657 Y14.525 Z7.500 F1999.800
G1 X-15.483 Y9.805 Z7.500 F1999.800
G1 X-15.483 Y9.805 Z7.000 F999.600
G1 X-13.239 Y8.510 Z7.000 F1999.800
G3 X-13.990 Y7.211 Z7.000 I8.298 J-5.670 K0.000 F1999.800
G1 X-24.407 Y13.225 Z7.000 F1999.800
G1 X-23.657 Y14.525 Z7.000 F1999.800
G1 X-15.483 Y9.805 Z7.000 F1999.800
G0 X-15.483 Y9.805 Z23.000
G0 X-15.108 Y10.455 Z23.000
G1 X-15.108 Y10.455 Z7.000 F999.600
G1 X-12.167 Y8.757 Z7.000 F1999.800
G3 X-13.666 Y6.158 Z7.000 I10.742 J-7.927 K0.000 F1999.800
G1 X-25.432 Y12.951 Z7.000 F1999.800
G1 X-23.932 Y15.549 Z7.000 F1999.800
G1 X-15.108 Y10.455 Z7.000 F1999.800
G1 X-15.108 Y10.455 Z6.500 F999.600
G1 X-12.167 Y8.757 Z6.500 F1999.800
G3 X-13.666 Y6.158 Z6.500 I10.742 J-7.927 K0.000 F1999.800
G1 X-25.432 Y12.951 Z6.500 F1999.800
G1 X-23.932 Y15.549 Z6.500 F1999.800
G1 X-15.108 Y10.455 Z6.500 F1999.800
G0 X-15.108 Y10.455 Z23.000
G0 X-15.483 Y9.805 Z23.000
G1 X-15.483 Y9.805 Z6.500 F999.600
G1 X-13.239 Y8.510 Z6.500 F1999.800
G3 X-13.990 Y7.211 Z6.500 I8.298 J-5.670 K0.000 F1999.800
G1 X-24.407 Y13.225 Z6.500 F1999.800
G1 X-23.657 Y14.525 Z6.500 F1999.800
G1 X-15.483 Y9.805 Z6.500 F1999.800
G1 X-15.483 Y9.805 Z6.000 F999.600
G1 X-13.239 Y8.510 Z6.000 F1999.800
G3 X-13.990 Y7.211 Z6.000 I8.298 J-5.670 K0.000 F1999.800
G1 X-24.407 Y13.225 Z6.000 F1999.800
G1 X-23.657 Y14.525 Z6.000 F1999.800
G1 X-15.483 Y9.805 Z6.000 F1999.800
G0 X-15.483 Y9.805 Z23.000
G0 X-15.108 Y10.455 Z23.000
G1 X-15.108 Y10.455 Z6.000 F999.600
G1 X-12.167 Y8.757 Z6.000 F1999.800
G3 X-13.666 Y6.158 Z6.000 I10.742 J-7.927 K0.000 F1999.800
G1 X-25.432 Y12.951 Z6.000 F1999.800
G1 X-23.932 Y15.549 Z6.000 F1999.800
G1 X-15.108 Y10.455 Z6.000 F1999.800
G0 Z23.000
G0 X24.307 Y14.900
G0 Z21.000
G1 X24.307 Y14.900 Z10.500 F999.600
G1 X25.432 Y12.951 Z10.500 F1999.800
G1 X13.667 Y6.159 Z10.500 F1999.800
G3 X12.166 Y8.756 Z10.500 I-12.236 J-5.339 K0.000 F1999.800
G1 X23.932 Y15.549 Z10.500 F1999.800
G1 X24.307 Y14.900 Z10.500 F1999.800
G0 X24.307 Y14.900 Z23.000
G0 X23.657 Y14.525 Z23.000
G1 X23.657 Y14.525 Z10.500 F999.600
G1 X24.407 Y13.225 Z10.500 F1999.800
G1 X13.989 Y7.210 Z10.500 F1999.800
G3 X13.240 Y8.510 Z10.500 I-9.059 J-4.351 K0.000 F1999.800
G1 X23.657 Y14.525 Z10.500 F1999.800
G1 X23.657 Y14.525 Z10.000 F999.600
G1 X24.407 Y13.225 Z10.000 F1999.800
G1 X13.989 Y7.210 Z10.000 F1999.800
G3 X13.240 Y8.510 Z10.000 I-9.059 J-4.351 K0.000 F1999.800
G1 X23.657 Y14.525 Z10.000 F1999.800
G0 X23.657 Y14.525 Z23.000
G0 X23.282 Y15.174 Z23.000
G1 X23.282 Y15.174 Z10.000 F999.600
G1 X23.932 Y15.549 Z10.000 F1999.800
G1 X25.432 Y12.951 Z10.000 F1999.800
G1 X13.667 Y6.159 Z10.000 F1999.800
G3 X12.166 Y8.756 Z10.000 I-12.236 J-5.339 K0.000 F1999.800
G1 X23.282 Y15.174 Z10.000 F1999.800
G1 X23.282 Y15.174 Z9.500 F999.600
G1 X23.932 Y15.549 Z9.500 F1999.800
G1 X25.432 Y12.951 Z9.500 F1999.800
G1 X13.667 Y6.159 Z9.500 F1999.800
G3 X12.166 Y8.756 Z9.500 I-12.236 J-5.339 K0.000 F1999.800
G1 X23.282 Y15.174 Z9.500 F1999.800
G0 X23.282 Y15.174 Z23.000
G0 X23.657 Y14.525 Z23.000
G1 X23.657 Y14.525 Z9.500 F999.600
G1 X24.407 Y13.225 Z9.500 F1999.800
G1 X13.989 Y7.210 Z9.500 F1999.800
G3 X13.240 Y8.510 Z9.500 I-9.059 J-4.351 K0.000 F1999.800
G1 X23.657 Y14.525 Z9.500 F1999.800
G1 X23.657 Y14.525 Z9.000 F999.600
G1 X24.407 Y13.225 Z9.000 F1999.800
G1 X13.989 Y7.210 Z9.000 F1999.800
G3 X13.240 Y8.510 Z9.000 I-9.059 J-4.351 K0.000 F1999.800
G1 X23.657 Y14.525 Z9.000 F1999.800
G0 X23.657 Y14.525 Z23.000
G0 X23.282 Y15.174 Z23.000
G1 X23.282 Y15.174 Z9.000 F999.600
G1 X23.932 Y15.549 Z9.000 F1999.800
G1 X25.432 Y12.951 Z9.000 F1999.800
G1 X13.667 Y6.159 Z9.000 F1999.800
G3 X12.166 Y8.756 Z9.000 I-12.236 J-5.339 K0.000 F1999.800
G1 X23.282 Y15.174 Z9.000 F1999.800
G1 X23.282 Y15.174 Z8.500 F999.600
G1 X23.932 Y15.549 Z8.500 F1999.800
G1 X25.432 Y12.951 Z8.500 F1999.800
G1 X13.667 Y6.159 Z8.500 F1999.800
G3 X12.166 Y8.756 Z8.500 I-12.236 J-5.339 K0.000 F1999.800
G1 X23.282 Y15.174 Z8.500 F1999.800
G0 X23.282 Y15.174 Z23.000
G0 X23.657 Y14.525 Z23.000
G1 X23.657 Y14.525 Z8.500 F999.600
G1 X24.407 Y13.225 Z8.500 F1999.800
G1 X13.989 Y7.210 Z8.500 F1999.800
G3 X13.240 Y8.510 Z8.500 I-9.059 J-4.351 K0.000 F1999.800
G1 X23.657 Y14.525 Z8.500 F1999.800
G1 X23.657 Y14.525 Z8.000 F999.600
G1 X24.407 Y13.225 Z8.000 F1999.800
G1 X13.989 Y7.210 Z8.000 F1999.800
G3 X13.240 Y8.510 Z8.000 I-9.059 J-4.351 K0.000 F1999.800
G1 X23.657 Y14.525 Z8.000 F1999.800
G0 X23.657 Y14.525 Z23.000
G0 X23.282 Y15.174 Z23.000
G1 X23.282 Y15.174 Z8.000 F999.600
G1 X23.932 Y15.549 Z8.000 F1999.800
G1 X25.432 Y12.951 Z8.000 F1999.800
G1 X13.667 Y6.159 Z8.000 F1999.800
G3 X12.166 Y8.756 Z8.000 I-12.236 J-5.339 K0.000 F1999.800
G1 X23.282 Y15.174 Z8.000 F1999.800
G1 X23.282 Y15.174 Z7.500 F999.600
G1 X23.932 Y15.549 Z7.500 F1999.800
G1 X25.432 Y12.951 Z7.500 F1999.800
G1 X13.667 Y6.159 Z7.500 F1999.800
G3 X12.166 Y8.756 Z7.500 I-12.236 J-5.339 K0.000 F1999.800
G1 X23.282 Y15.174 Z7.500 F1999.800
G0 X23.282 Y15.174 Z23.000
G0 X23.657 Y14.525 Z23.000
G1 X23.657 Y14.525 Z7.500 F999.600
G1 X24.407 Y13.225 Z7.500 F1999.800
G1 X13.989 Y7.210 Z7.500 F1999.800
G3 X13.240 Y8.510 Z7.500 I-9.059 J-4.351 K0.000 F1999.800
G1 X23.657 Y14.525 Z7.500 F1999.800
G1 X23.657 Y14.525 Z7.000 F999.600
G1 X24.407 Y13.225 Z7.000 F1999.800
G1 X13.989 Y7.210 Z7.000 F1999.800
G3 X13.240 Y8.510 Z7.000 I-9.059 J-4.351 K0.000 F1999.800
G1 X23.657 Y14.525 Z7.000 F1999.800
G0 X23.657 Y14.525 Z23.000
G0 X23.282 Y15.174 Z23.000
G1 X23.282 Y15.174 Z7.000 F999.600
G1 X23.932 Y15.549 Z7.000 F1999.800
G1 X25.432 Y12.951 Z7.000 F1999.800
G1 X13.667 Y6.159 Z7.000 F1999.800
G3 X12.166 Y8.756 Z7.000 I-12.236 J-5.339 K0.000 F1999.800
G1 X23.282 Y15.174 Z7.000 F1999.800
G1 X23.282 Y15.174 Z6.500 F999.600
G1 X23.932 Y15.549 Z6.500 F1999.800
G1 X25.432 Y12.951 Z6.500 F1999.800
G1 X13.667 Y6.159 Z6.500 F1999.800
G3 X12.166 Y8.756 Z6.500 I-12.236 J-5.339 K0.000 F1999.800
G1 X23.282 Y15.174 Z6.500 F1999.800
G0 X23.282 Y15.174 Z23.000
G0 X23.657 Y14.525 Z23.000
G1 X23.657 Y14.525 Z6.500 F999.600
G1 X24.407 Y13.225 Z6.500 F1999.800
G1 X13.989 Y7.210 Z6.500 F1999.800
G3 X13.240 Y8.510 Z6.500 I-9.059 J-4.351 K0.000 F1999.800
G1 X23.657 Y14.525 Z6.500 F1999.800
G1 X23.657 Y14.525 Z6.000 F999.600
G1 X24.407 Y13.225 Z6.000 F1999.800
G1 X13.989 Y7.210 Z6.000 F1999.800
G3 X13.240 Y8.510 Z6.000 I-9.059 J-4.351 K0.000 F1999.800
G1 X23.657 Y14.525 Z6.000 F1999.800
G0 X23.657 Y14.525 Z23.000
G0 X23.282 Y15.174 Z23.000
G1 X23.282 Y15.174 Z6.000 F999.600
G1 X23.932 Y15.549 Z6.000 F1999.800
G1 X25.432 Y12.951 Z6.000 F1999.800
G1 X13.667 Y6.159 Z6.000 F1999.800
G3 X12.166 Y8.756 Z6.000 I-12.236 J-5.339 K0.000 F1999.800
G1 X23.282 Y15.174 Z6.000 F1999.800
G0 Z23.000
(Finish operation: Pocket_Shape)
(Begin postamble)
M5
G17 G90
M2
