(Exported by FreeCAD)
(Post Processor: grbl_post)
(Output Time:2020-05-08 14:36:30.699464)
(Begin preamble)
G17 G90
G21
(Begin operation: Fixture)
(Path: Fixture)
G54
(Finish operation: Fixture)
(Begin operation: T6: 2FluteWoodMill_Slow)
(Path: T6: 2FluteWoodMill_Slow)
(T6: 2FluteWoodMill_Slow)
(Begin toolchange)
(M6 T6.0)
M3 S18000.0
(Finish operation: T6: 2FluteWoodMill_Slow)
(Begin operation: Adaptive)
(Path: Adaptive)
(Adaptive)
(Helix to depth: 15.000000)
G0 X0.733 Y-0.839 Z23.000
G0 X0.733 Y-0.839 Z21.000
G1 X0.733 Y-0.839 Z18.000 F600.000
G1 X0.733 Y-0.839 Z18.000 F600.000
G1 X0.883 Y-0.680 Z17.981 F600.000
G1 X0.999 Y-0.494 Z17.961 F600.000
G1 X1.076 Y-0.290 Z17.942 F600.000
G1 X1.112 Y-0.075 Z17.923 F600.000
G1 X1.105 Y0.144 Z17.903 F600.000
G1 X1.056 Y0.357 Z17.884 F600.000
G1 X0.966 Y0.556 Z17.865 F600.000
G1 X0.839 Y0.733 Z17.846 F600.000
G1 X0.680 Y0.883 Z17.826 F600.000
G1 X0.494 Y0.999 Z17.807 F600.000
G1 X0.290 Y1.076 Z17.788 F600.000
G1 X0.075 Y1.112 Z17.768 F600.000
G1 X-0.144 Y1.105 Z17.749 F600.000
G1 X-0.357 Y1.056 Z17.730 F600.000
G1 X-0.556 Y0.966 Z17.710 F600.000
G1 X-0.733 Y0.839 Z17.691 F600.000
G1 X-0.883 Y0.680 Z17.672 F600.000
G1 X-0.999 Y0.494 Z17.652 F600.000
G1 X-1.076 Y0.290 Z17.633 F600.000
G1 X-1.112 Y0.075 Z17.614 F600.000
G1 X-1.105 Y-0.144 Z17.594 F600.000
G1 X-1.056 Y-0.357 Z17.575 F600.000
G1 X-0.966 Y-0.556 Z17.556 F600.000
G1 X-0.839 Y-0.733 Z17.537 F600.000
G1 X-0.680 Y-0.883 Z17.517 F600.000
G1 X-0.494 Y-0.999 Z17.498 F600.000
G1 X-0.290 Y-1.076 Z17.479 F600.000
G1 X-0.075 Y-1.112 Z17.459 F600.000
G1 X0.144 Y-1.105 Z17.440 F600.000
G1 X0.357 Y-1.056 Z17.421 F600.000
G1 X0.556 Y-0.966 Z17.401 F600.000
G1 X0.733 Y-0.839 Z17.382 F600.000
G1 X0.883 Y-0.680 Z17.363 F600.000
G1 X0.999 Y-0.494 Z17.343 F600.000
G1 X1.076 Y-0.290 Z17.324 F600.000
G1 X1.112 Y-0.075 Z17.305 F600.000
G1 X1.105 Y0.144 Z17.285 F600.000
G1 X1.056 Y0.357 Z17.266 F600.000
G1 X0.966 Y0.556 Z17.247 F600.000
G1 X0.839 Y0.733 Z17.228 F600.000
G1 X0.680 Y0.883 Z17.208 F600.000
G1 X0.494 Y0.999 Z17.189 F600.000
G1 X0.290 Y1.076 Z17.170 F600.000
G1 X0.075 Y1.112 Z17.150 F600.000
G1 X-0.144 Y1.105 Z17.131 F600.000
G1 X-0.357 Y1.056 Z17.112 F600.000
G1 X-0.556 Y0.966 Z17.092 F600.000
G1 X-0.733 Y0.839 Z17.073 F600.000
G1 X-0.883 Y0.680 Z17.054 F600.000
G1 X-0.999 Y0.494 Z17.034 F600.000
G1 X-1.076 Y0.290 Z17.015 F600.000
G1 X-1.112 Y0.075 Z16.996 F600.000
G1 X-1.105 Y-0.144 Z16.976 F600.000
G1 X-1.056 Y-0.357 Z16.957 F600.000
G1 X-0.966 Y-0.556 Z16.938 F600.000
G1 X-0.839 Y-0.733 Z16.919 F600.000
G1 X-0.680 Y-0.883 Z16.899 F600.000
G1 X-0.494 Y-0.999 Z16.880 F600.000
G1 X-0.290 Y-1.076 Z16.861 F600.000
G1 X-0.075 Y-1.112 Z16.841 F600.000
G1 X0.144 Y-1.105 Z16.822 F600.000
G1 X0.357 Y-1.056 Z16.803 F600.000
G1 X0.556 Y-0.966 Z16.783 F600.000
G1 X0.733 Y-0.839 Z16.764 F600.000
G1 X0.883 Y-0.680 Z16.745 F600.000
G1 X0.999 Y-0.494 Z16.725 F600.000
G1 X1.076 Y-0.290 Z16.706 F600.000
G1 X1.112 Y-0.075 Z16.687 F600.000
G1 X1.105 Y0.144 Z16.667 F600.000
G1 X1.056 Y0.357 Z16.648 F600.000
G1 X0.966 Y0.556 Z16.629 F600.000
G1 X0.839 Y0.733 Z16.610 F600.000
G1 X0.680 Y0.883 Z16.590 F600.000
G1 X0.494 Y0.999 Z16.571 F600.000
G1 X0.290 Y1.076 Z16.552 F600.000
G1 X0.075 Y1.112 Z16.532 F600.000
G1 X-0.144 Y1.105 Z16.513 F600.000
G1 X-0.357 Y1.056 Z16.494 F600.000
G1 X-0.556 Y0.966 Z16.474 F600.000
G1 X-0.733 Y0.839 Z16.455 F600.000
G1 X-0.883 Y0.680 Z16.436 F600.000
G1 X-0.999 Y0.494 Z16.416 F600.000
G1 X-1.076 Y0.290 Z16.397 F600.000
G1 X-1.112 Y0.075 Z16.378 F600.000
G1 X-1.105 Y-0.144 Z16.358 F600.000
G1 X-1.056 Y-0.357 Z16.339 F600.000
G1 X-0.966 Y-0.556 Z16.320 F600.000
G1 X-0.839 Y-0.733 Z16.301 F600.000
G1 X-0.680 Y-0.883 Z16.281 F600.000
G1 X-0.494 Y-0.999 Z16.262 F600.000
G1 X-0.290 Y-1.076 Z16.243 F600.000
G1 X-0.075 Y-1.112 Z16.223 F600.000
G1 X0.144 Y-1.105 Z16.204 F600.000
G1 X0.357 Y-1.056 Z16.185 F600.000
G1 X0.556 Y-0.966 Z16.165 F600.000
G1 X0.733 Y-0.839 Z16.146 F600.000
G1 X0.883 Y-0.680 Z16.127 F600.000
G1 X0.999 Y-0.494 Z16.107 F600.000
G1 X1.076 Y-0.290 Z16.088 F600.000
G1 X1.112 Y-0.075 Z16.069 F600.000
G1 X1.105 Y0.144 Z16.049 F600.000
G1 X1.056 Y0.357 Z16.030 F600.000
G1 X0.966 Y0.556 Z16.011 F600.000
G1 X0.839 Y0.733 Z15.992 F600.000
G1 X0.680 Y0.883 Z15.972 F600.000
G1 X0.494 Y0.999 Z15.953 F600.000
G1 X0.290 Y1.076 Z15.934 F600.000
G1 X0.075 Y1.112 Z15.914 F600.000
G1 X-0.144 Y1.105 Z15.895 F600.000
G1 X-0.357 Y1.056 Z15.876 F600.000
G1 X-0.556 Y0.966 Z15.856 F600.000
G1 X-0.733 Y0.839 Z15.837 F600.000
G1 X-0.883 Y0.680 Z15.818 F600.000
G1 X-0.999 Y0.494 Z15.798 F600.000
G1 X-1.076 Y0.290 Z15.779 F600.000
G1 X-1.112 Y0.075 Z15.760 F600.000
G1 X-1.105 Y-0.144 Z15.740 F600.000
G1 X-1.056 Y-0.357 Z15.721 F600.000
G1 X-0.966 Y-0.556 Z15.702 F600.000
G1 X-0.839 Y-0.733 Z15.683 F600.000
G1 X-0.680 Y-0.883 Z15.663 F600.000
G1 X-0.494 Y-0.999 Z15.644 F600.000
G1 X-0.290 Y-1.076 Z15.625 F600.000
G1 X-0.075 Y-1.112 Z15.605 F600.000
G1 X0.144 Y-1.105 Z15.586 F600.000
G1 X0.357 Y-1.056 Z15.567 F600.000
G1 X0.556 Y-0.966 Z15.547 F600.000
G1 X0.733 Y-0.839 Z15.528 F600.000
G1 X0.883 Y-0.680 Z15.509 F600.000
G1 X0.999 Y-0.494 Z15.489 F600.000
G1 X1.076 Y-0.290 Z15.470 F600.000
G1 X1.112 Y-0.075 Z15.451 F600.000
G1 X1.105 Y0.144 Z15.431 F600.000
G1 X1.056 Y0.357 Z15.412 F600.000
G1 X0.966 Y0.556 Z15.393 F600.000
G1 X0.839 Y0.733 Z15.374 F600.000
G1 X0.680 Y0.883 Z15.354 F600.000
G1 X0.494 Y0.999 Z15.335 F600.000
G1 X0.290 Y1.076 Z15.316 F600.000
G1 X0.075 Y1.112 Z15.296 F600.000
G1 X-0.144 Y1.105 Z15.277 F600.000
G1 X-0.357 Y1.056 Z15.258 F600.000
G1 X-0.556 Y0.966 Z15.238 F600.000
G1 X-0.733 Y0.839 Z15.219 F600.000
G1 X-0.883 Y0.680 Z15.200 F600.000
G1 X-0.999 Y0.494 Z15.180 F600.000
G1 X-1.076 Y0.290 Z15.161 F600.000
G1 X-1.112 Y0.075 Z15.142 F600.000
G1 X-1.105 Y-0.144 Z15.122 F600.000
G1 X-1.056 Y-0.357 Z15.103 F600.000
G1 X-0.966 Y-0.556 Z15.084 F600.000
G1 X-0.839 Y-0.733 Z15.065 F600.000
G1 X-0.680 Y-0.883 Z15.045 F600.000
G1 X-0.494 Y-0.999 Z15.026 F600.000
G1 X-0.290 Y-1.076 Z15.007 F600.000
G1 X-0.075 Y-1.112 Z15.000 F999.600
G1 X0.144 Y-1.105 Z15.000 F999.600
G1 X0.357 Y-1.056 Z15.000 F999.600
G1 X0.556 Y-0.966 Z15.000 F999.600
G1 X0.733 Y-0.839 Z15.000 F999.600
G1 X0.883 Y-0.680 Z15.000 F999.600
G1 X0.999 Y-0.494 Z15.000 F999.600
G1 X1.076 Y-0.290 Z15.000 F999.600
G1 X1.112 Y-0.075 Z15.000 F999.600
G1 X1.105 Y0.144 Z15.000 F999.600
G1 X1.056 Y0.357 Z15.000 F999.600
G1 X0.966 Y0.556 Z15.000 F999.600
G1 X0.839 Y0.733 Z15.000 F999.600
G1 X0.680 Y0.883 Z15.000 F999.600
G1 X0.494 Y0.999 Z15.000 F999.600
G1 X0.290 Y1.076 Z15.000 F999.600
G1 X0.075 Y1.112 Z15.000 F999.600
G1 X-0.144 Y1.105 Z15.000 F999.600
G1 X-0.357 Y1.056 Z15.000 F999.600
G1 X-0.556 Y0.966 Z15.000 F999.600
G1 X-0.733 Y0.839 Z15.000 F999.600
G1 X-0.883 Y0.680 Z15.000 F999.600
G1 X-0.999 Y0.494 Z15.000 F999.600
G1 X-1.076 Y0.290 Z15.000 F999.600
G1 X-1.112 Y0.075 Z15.000 F999.600
G1 X-1.105 Y-0.144 Z15.000 F999.600
G1 X-1.056 Y-0.357 Z15.000 F999.600
G1 X-0.966 Y-0.556 Z15.000 F999.600
G1 X-0.839 Y-0.733 Z15.000 F999.600
G1 X-0.680 Y-0.883 Z15.000 F999.600
G1 X-0.494 Y-0.999 Z15.000 F999.600
G1 X-0.290 Y-1.076 Z15.000 F999.600
(Adaptive - depth: 15.000000)
G1 X0.000 Y-1.124 F999.600
G1 X0.068 Y-1.193 F999.600
G1 X0.149 Y-1.242 F999.600
G1 X0.329 Y-1.292 F999.600
G1 X0.609 Y-1.280 F999.600
G1 X0.795 Y-1.217 F999.600
G1 X1.118 Y-1.031 F999.600
G1 X1.354 Y-0.776 F999.600
G1 X1.460 Y-0.584 F999.600
G1 X1.528 Y-0.398 F999.600
G1 X1.590 Y-0.161 F999.600
G1 X1.615 Y0.180 F999.600
G1 X1.559 Y0.491 F999.600
G1 X1.472 Y0.708 F999.600
G1 X1.360 Y0.913 F999.600
G1 X1.174 Y1.143 F999.600
G1 X0.944 Y1.342 F999.600
G1 X0.708 Y1.484 F999.600
G1 X0.435 Y1.590 F999.600
G1 X0.155 Y1.646 F999.600
G1 X-0.124 Y1.658 F999.600
G1 X-0.404 Y1.609 F999.600
G1 X-0.640 Y1.522 F999.600
G1 X-0.882 Y1.404 F999.600
G1 X-1.149 Y1.193 F999.600
G1 X-1.342 Y0.981 F999.600
G1 X-1.497 Y0.727 F999.600
G1 X-1.590 Y0.491 F999.600
G1 X-1.646 Y0.211 F999.600
G1 X-1.658 Y-0.056 F999.600
G1 X-1.615 Y-0.354 F999.600
G1 X-1.528 Y-0.627 F999.600
G1 X-1.398 Y-0.882 F999.600
G1 X-1.224 Y-1.112 F999.600
G1 X-1.012 Y-1.311 F999.600
G1 X-0.783 Y-1.497 F999.600
G1 X-0.460 Y-1.689 F999.600
G1 X0.217 Y-1.832 F999.600
G1 X0.404 Y-1.839 F999.600
G1 X0.770 Y-1.795 F999.600
G1 X1.118 Y-1.671 F999.600
G1 X1.360 Y-1.522 F999.600
G1 X1.553 Y-1.373 F999.600
G1 X1.770 Y-1.143 F999.600
G1 X1.950 Y-0.876 F999.600
G1 X2.087 Y-0.584 F999.600
G1 X2.168 Y-0.267 F999.600
G1 X2.199 Y0.012 F999.600
G1 X2.180 Y0.317 F999.600
G1 X2.130 Y0.615 F999.600
G1 X2.012 Y0.950 F999.600
G1 X1.857 Y1.236 F999.600
G1 X1.665 Y1.503 F999.600
G1 X1.429 Y1.739 F999.600
G1 X1.161 Y1.932 F999.600
G1 X0.870 Y2.087 F999.600
G1 X0.559 Y2.199 F999.600
G1 X0.236 Y2.261 F999.600
G1 X-0.087 Y2.273 F999.600
G1 X-0.410 Y2.236 F999.600
G1 X-0.727 Y2.155 F999.600
G1 X-1.025 Y2.025 F999.600
G1 X-1.304 Y1.851 F999.600
G1 X-1.565 Y1.646 F999.600
G1 X-1.820 Y1.373 F999.600
G1 X-2.006 Y1.081 F999.600
G1 X-2.137 Y0.807 F999.600
G1 X-2.224 Y0.472 F999.600
G1 X-2.255 Y0.180 F999.600
G1 X-2.261 Y-0.124 F999.600
G1 X-2.211 Y-0.491 F999.600
G1 X-2.106 Y-0.845 F999.600
G1 X-1.950 Y-1.161 F999.600
G1 X-1.783 Y-1.416 F999.600
G1 X-1.559 Y-1.683 F999.600
G1 X-1.273 Y-1.925 F999.600
G1 X-0.988 Y-2.112 F999.600
G1 X-0.665 Y-2.267 F999.600
G1 X-0.323 Y-2.385 F999.600
G1 X0.037 Y-2.453 F999.600
G1 X0.404 Y-2.478 F999.600
G1 X0.770 Y-2.453 F999.600
G1 X1.130 Y-2.360 F999.600
G1 X1.410 Y-2.248 F999.600
G1 X1.708 Y-2.075 F999.600
G1 X1.975 Y-1.857 F999.600
G1 X2.199 Y-1.621 F999.600
G1 X2.404 Y-1.348 F999.600
G1 X2.596 Y-1.025 F999.600
G1 X2.739 Y-0.677 F999.600
G1 X2.814 Y-0.311 F999.600
G1 X2.845 Y-0.012 F999.600
G1 X2.839 Y0.342 F999.600
G1 X2.770 Y0.708 F999.600
G1 X2.683 Y1.043 F999.600
G1 X2.534 Y1.385 F999.600
G1 X2.342 Y1.702 F999.600
G1 X2.118 Y2.000 F999.600
G1 X1.845 Y2.255 F999.600
G1 X1.571 Y2.460 F999.600
G1 X1.242 Y2.640 F999.600
G1 X0.901 Y2.789 F999.600
G1 X0.540 Y2.888 F999.600
G1 X0.168 Y2.932 F999.600
G1 X-0.174 Y2.938 F999.600
G1 X-0.540 Y2.888 F999.600
G1 X-0.901 Y2.789 F999.600
G1 X-1.248 Y2.665 F999.600
G1 X-1.578 Y2.491 F999.600
G1 X-1.882 Y2.280 F999.600
G1 X-2.149 Y2.025 F999.600
G1 X-2.379 Y1.752 F999.600
G1 X-2.578 Y1.435 F999.600
G1 X-2.733 Y1.093 F999.600
G1 X-2.845 Y0.733 F999.600
G1 X-2.907 Y0.360 F999.600
G1 X-2.938 Y-0.006 F999.600
G1 X-2.913 Y-0.373 F999.600
G1 X-2.845 Y-0.739 F999.600
G1 X-2.739 Y-1.093 F999.600
G1 X-2.590 Y-1.435 F999.600
G1 X-2.398 Y-1.752 F999.600
G1 X-2.168 Y-2.043 F999.600
G1 X-1.907 Y-2.311 F999.600
G1 X-1.615 Y-2.540 F999.600
G1 X-1.298 Y-2.739 F999.600
G1 X-0.957 Y-2.894 F999.600
G1 X-0.602 Y-3.025 F999.600
G1 X-0.236 Y-3.106 F999.600
G1 X0.130 Y-3.149 F999.600
G1 X0.497 Y-3.155 F999.600
G1 X0.863 Y-3.118 F999.600
G1 X1.224 Y-3.037 F999.600
G1 X1.578 Y-2.919 F999.600
G1 X1.907 Y-2.752 F999.600
G1 X2.217 Y-2.553 F999.600
G1 X2.503 Y-2.317 F999.600
G1 X2.758 Y-2.043 F999.600
G1 X2.981 Y-1.745 F999.600
G1 X3.168 Y-1.422 F999.600
G1 X3.323 Y-1.081 F999.600
G1 X3.435 Y-0.720 F999.600
G1 X3.509 Y-0.354 F999.600
G1 X3.540 Y0.012 F999.600
G1 X3.528 Y0.379 F999.600
G1 X3.478 Y0.745 F999.600
G1 X3.385 Y1.106 F999.600
G1 X3.267 Y1.460 F999.600
G1 X3.106 Y1.795 F999.600
G1 X2.913 Y2.112 F999.600
G1 X2.689 Y2.410 F999.600
G1 X2.435 Y2.683 F999.600
G1 X2.155 Y2.925 F999.600
G1 X1.845 Y3.130 F999.600
G1 X1.516 Y3.304 F999.600
G1 X1.168 Y3.441 F999.600
G1 X0.807 Y3.553 F999.600
G1 X0.441 Y3.621 F999.600
G1 X0.068 Y3.652 F999.600
G1 X-0.298 Y3.646 F999.600
G1 X-0.665 Y3.602 F999.600
G1 X-1.025 Y3.522 F999.600
G1 X-1.379 Y3.404 F999.600
G1 X-1.720 Y3.255 F999.600
G1 X-2.043 Y3.068 F999.600
G1 X-2.335 Y2.839 F999.600
G1 X-2.609 Y2.584 F999.600
G1 X-2.851 Y2.298 F999.600
G1 X-3.068 Y1.994 F999.600
G1 X-3.248 Y1.665 F999.600
G1 X-3.398 Y1.323 F999.600
G1 X-3.516 Y0.969 F999.600
G1 X-3.590 Y0.602 F999.600
G1 X-3.627 Y0.230 F999.600
G1 X-3.640 Y-0.137 F999.600
G1 X-3.609 Y-0.503 F999.600
G1 X-3.547 Y-0.870 F999.600
G1 X-3.453 Y-1.230 F999.600
G1 X-3.323 Y-1.578 F999.600
G1 X-3.161 Y-1.913 F999.600
G1 X-2.969 Y-2.230 F999.600
G1 X-2.733 Y-2.516 F999.600
G1 X-2.478 Y-2.783 F999.600
G1 X-2.193 Y-3.025 F999.600
G1 X-1.888 Y-3.236 F999.600
G1 X-1.559 Y-3.416 F999.600
G1 X-1.217 Y-3.578 F999.600
G1 X-0.863 Y-3.702 F999.600
G1 X-0.497 Y-3.795 F999.600
G1 X-0.124 Y-3.857 F999.600
G1 X0.242 Y-3.882 F999.600
G1 X0.609 Y-3.876 F999.600
G1 X0.975 Y-3.832 F999.600
G1 X1.335 Y-3.758 F999.600
G1 X1.689 Y-3.652 F999.600
G1 X2.031 Y-3.509 F999.600
G1 X2.360 Y-3.342 F999.600
G1 X2.671 Y-3.143 F999.600
G1 X2.957 Y-2.901 F999.600
G1 X3.224 Y-2.640 F999.600
G1 X3.460 Y-2.354 F999.600
G1 X3.665 Y-2.043 F999.600
G1 X3.839 Y-1.714 F999.600
G1 X3.994 Y-1.373 F999.600
G1 X4.106 Y-1.019 F999.600
G1 X4.193 Y-0.652 F999.600
G1 X4.248 Y-0.280 F999.600
G1 X4.267 Y0.087 F999.600
G1 X4.255 Y0.453 F999.600
G1 X4.211 Y0.820 F999.600
G1 X4.137 Y1.180 F999.600
G1 X4.025 Y1.534 F999.600
G1 X3.882 Y1.876 F999.600
G1 X3.714 Y2.205 F999.600
G1 X3.516 Y2.522 F999.600
G1 X3.292 Y2.820 F999.600
G1 X3.037 Y3.093 F999.600
G1 X2.764 Y3.342 F999.600
G1 X2.478 Y3.578 F999.600
G1 X2.168 Y3.783 F999.600
G1 X1.845 Y3.969 F999.600
G1 X1.497 Y4.112 F999.600
G1 X1.143 Y4.230 F999.600
G1 X0.776 Y4.317 F999.600
G1 X0.404 Y4.366 F999.600
G1 X0.031 Y4.385 F999.600
G1 X-0.335 Y4.373 F999.600
G1 X-0.702 Y4.342 F999.600
G1 X-1.068 Y4.273 F999.600
G1 X-1.429 Y4.174 F999.600
G1 X-1.776 Y4.050 F999.600
G1 X-2.112 Y3.894 F999.600
G1 X-2.435 Y3.714 F999.600
G1 X-2.733 Y3.491 F999.600
G1 X-3.019 Y3.248 F999.600
G1 X-3.273 Y2.981 F999.600
G1 X-3.714 Y2.379 F999.600
G1 X-3.894 Y2.050 F999.600
G1 X-4.043 Y1.708 F999.600
G1 X-4.168 Y1.354 F999.600
G1 X-4.261 Y0.988 F999.600
G1 X-4.323 Y0.615 F999.600
G1 X-4.366 Y0.242 F999.600
G1 X-4.373 Y-0.124 F999.600
G1 X-4.354 Y-0.491 F999.600
G1 X-4.304 Y-0.857 F999.600
G1 X-4.224 Y-1.217 F999.600
G1 X-4.118 Y-1.571 F999.600
G1 X-3.988 Y-1.919 F999.600
G1 X-3.826 Y-2.255 F999.600
G1 X-3.640 Y-2.578 F999.600
G1 X-3.416 Y-2.876 F999.600
G1 X-3.174 Y-3.161 F999.600
G1 X-2.907 Y-3.422 F999.600
G1 X-2.615 Y-3.658 F999.600
G1 X-2.311 Y-3.870 F999.600
G1 X-1.988 Y-4.056 F999.600
G1 X-1.298 Y-4.354 F999.600
G1 X-0.938 Y-4.460 F999.600
G1 X-0.571 Y-4.540 F999.600
G1 X-0.199 Y-4.596 F999.600
G1 X0.534 Y-4.634 F999.600
G1 X0.901 Y-4.615 F999.600
G1 X1.267 Y-4.571 F999.600
G1 X1.627 Y-4.478 F999.600
G1 X1.981 Y-4.366 F999.600
G1 X2.323 Y-4.224 F999.600
G1 X2.652 Y-4.056 F999.600
G1 X2.969 Y-3.863 F999.600
G1 X3.267 Y-3.646 F999.600
G1 X3.553 Y-3.404 F999.600
G1 X3.814 Y-3.137 F999.600
G1 X4.043 Y-2.839 F999.600
G1 X4.255 Y-2.528 F999.600
G1 X4.602 Y-1.863 F999.600
G1 X4.745 Y-1.516 F999.600
G1 X4.857 Y-1.155 F999.600
G1 X4.950 Y-0.795 F999.600
G1 X5.000 Y-0.422 F999.600
G1 X5.031 Y-0.050 F999.600
G1 X5.031 Y0.317 F999.600
G1 X4.994 Y0.683 F999.600
G1 X4.857 Y1.410 F999.600
G1 X4.745 Y1.764 F999.600
G1 X4.609 Y2.112 F999.600
G1 X4.453 Y2.447 F999.600
G1 X4.273 Y2.770 F999.600
G1 X4.068 Y3.081 F999.600
G1 X3.832 Y3.366 F999.600
G1 X3.578 Y3.640 F999.600
G1 X3.304 Y3.894 F999.600
G1 X3.019 Y4.137 F999.600
G1 X2.714 Y4.354 F999.600
G1 X2.398 Y4.547 F999.600
G1 X2.068 Y4.720 F999.600
G1 X1.727 Y4.870 F999.600
G1 X1.366 Y4.975 F999.600
G1 X1.000 Y5.062 F999.600
G1 X0.627 Y5.118 F999.600
G1 X0.255 Y5.149 F999.600
G1 X-0.112 Y5.161 F999.600
G1 X-0.478 Y5.143 F999.600
G1 X-0.845 Y5.106 F999.600
G1 X-1.211 Y5.043 F999.600
G1 X-1.571 Y4.957 F999.600
G1 X-1.925 Y4.845 F999.600
G1 X-2.590 Y4.522 F999.600
G1 X-2.907 Y4.323 F999.600
G1 X-3.205 Y4.099 F999.600
G1 X-3.484 Y3.851 F999.600
G1 X-3.745 Y3.584 F999.600
G1 X-3.994 Y3.304 F999.600
G1 X-4.217 Y3.006 F999.600
G1 X-4.416 Y2.689 F999.600
G1 X-4.596 Y2.360 F999.600
G1 X-4.752 Y2.019 F999.600
G1 X-4.882 Y1.665 F999.600
G1 X-4.988 Y1.304 F999.600
G1 X-5.068 Y0.938 F999.600
G1 X-5.124 Y0.565 F999.600
G1 X-5.155 Y0.193 F999.600
G1 X-5.155 Y-0.174 F999.600
G1 X-5.130 Y-0.540 F999.600
G1 X-5.081 Y-0.907 F999.600
G1 X-4.919 Y-1.627 F999.600
G1 X-4.801 Y-1.981 F999.600
G1 X-4.665 Y-2.323 F999.600
G1 X-4.491 Y-2.652 F999.600
G1 X-4.298 Y-2.969 F999.600
G1 X-4.087 Y-3.273 F999.600
G1 X-3.851 Y-3.559 F999.600
G1 X-3.596 Y-3.832 F999.600
G1 X-3.323 Y-4.081 F999.600
G1 X-3.031 Y-4.311 F999.600
G1 X-2.720 Y-4.522 F999.600
G1 X-2.398 Y-4.708 F999.600
G1 X-1.720 Y-5.019 F999.600
G1 X-1.366 Y-5.137 F999.600
G1 X-1.006 Y-5.236 F999.600
G1 X-0.640 Y-5.317 F999.600
G1 X-0.267 Y-5.373 F999.600
G1 X0.466 Y-5.429 F999.600
G1 X0.832 Y-5.422 F999.600
G1 X1.199 Y-5.379 F999.600
G1 X1.559 Y-5.311 F999.600
G1 X1.919 Y-5.217 F999.600
G1 X2.273 Y-5.099 F999.600
G1 X2.615 Y-4.950 F999.600
G1 X2.944 Y-4.783 F999.600
G1 X3.261 Y-4.596 F999.600
G1 X3.565 Y-4.385 F999.600
G1 X3.857 Y-4.149 F999.600
G1 X4.130 Y-3.894 F999.600
G1 X4.385 Y-3.621 F999.600
G1 X4.621 Y-3.329 F999.600
G1 X4.839 Y-3.025 F999.600
G1 X5.031 Y-2.708 F999.600
G1 X5.366 Y-2.037 F999.600
G1 X5.497 Y-1.689 F999.600
G1 X5.609 Y-1.329 F999.600
G1 X5.702 Y-0.969 F999.600
G1 X5.770 Y-0.602 F999.600
G1 X5.807 Y0.137 F999.600
G1 X5.758 Y0.870 F999.600
G1 X5.696 Y1.236 F999.600
G1 X5.609 Y1.596 F999.600
G1 X5.503 Y1.950 F999.600
G1 X5.373 Y2.298 F999.600
G1 X5.224 Y2.640 F999.600
G1 X5.056 Y2.969 F999.600
G1 X4.863 Y3.286 F999.600
G1 X4.652 Y3.590 F999.600
G1 X4.422 Y3.882 F999.600
G1 X4.174 Y4.161 F999.600
G1 X3.907 Y4.422 F999.600
G1 X3.627 Y4.671 F999.600
G1 X3.329 Y4.901 F999.600
G1 X3.019 Y5.112 F999.600
G1 X2.696 Y5.298 F999.600
G1 X2.360 Y5.466 F999.600
G1 X1.658 Y5.714 F999.600
G1 X0.925 Y5.876 F999.600
G1 X0.553 Y5.919 F999.600
G1 X0.180 Y5.938 F999.600
G1 X-0.553 Y5.932 F999.600
G1 X-0.919 Y5.894 F999.600
G1 X-1.286 Y5.839 F999.600
G1 X-2.000 Y5.640 F999.600
G1 X-2.348 Y5.509 F999.600
G1 X-2.683 Y5.354 F999.600
G1 X-3.012 Y5.180 F999.600
G1 X-3.329 Y4.981 F999.600
G1 X-3.634 Y4.764 F999.600
G1 X-3.919 Y4.528 F999.600
G1 X-4.193 Y4.273 F999.600
G1 X-4.447 Y4.000 F999.600
G1 X-4.683 Y3.714 F999.600
G1 X-4.901 Y3.410 F999.600
G1 X-5.099 Y3.093 F999.600
G1 X-5.273 Y2.764 F999.600
G1 X-5.571 Y2.075 F999.600
G1 X-5.689 Y1.720 F999.600
G1 X-5.789 Y1.360 F999.600
G1 X-5.870 Y0.994 F999.600
G1 X-5.925 Y0.621 F999.600
G1 X-5.950 Y-0.118 F999.600
G1 X-5.894 Y-0.851 F999.600
G1 X-5.832 Y-1.217 F999.600
G1 X-5.752 Y-1.578 F999.600
G1 X-5.652 Y-1.938 F999.600
G1 X-5.534 Y-2.286 F999.600
G1 X-5.398 Y-2.627 F999.600
G1 X-5.242 Y-2.963 F999.600
G1 X-4.845 Y-3.590 F999.600
G1 X-4.373 Y-4.168 F999.600
G1 X-4.112 Y-4.435 F999.600
G1 X-3.540 Y-4.919 F999.600
G1 X-3.236 Y-5.137 F999.600
G1 X-2.919 Y-5.335 F999.600
G1 X-2.590 Y-5.516 F999.600
G1 X-2.248 Y-5.677 F999.600
G1 X-1.901 Y-5.814 F999.600
G1 X-1.547 Y-5.932 F999.600
G1 X-1.186 Y-6.025 F999.600
G1 X-0.453 Y-6.168 F999.600
G1 X0.286 Y-6.230 F999.600
G1 X0.652 Y-6.236 F999.600
G1 X1.019 Y-6.224 F999.600
G1 X1.385 Y-6.168 F999.600
G1 X1.745 Y-6.087 F999.600
G1 X2.453 Y-5.876 F999.600
G1 X2.795 Y-5.733 F999.600
G1 X3.130 Y-5.571 F999.600
G1 X3.770 Y-5.199 F999.600
G1 X4.366 Y-4.752 F999.600
G1 X4.646 Y-4.509 F999.600
G1 X5.143 Y-3.957 F999.600
G1 X5.366 Y-3.658 F999.600
G1 X5.770 Y-3.031 F999.600
G1 X5.944 Y-2.696 F999.600
G1 X6.099 Y-2.354 F999.600
G1 X6.236 Y-2.006 F999.600
G1 X6.348 Y-1.652 F999.600
G1 X6.441 Y-1.292 F999.600
G1 X6.516 Y-0.925 F999.600
G1 X6.571 Y-0.553 F999.600
G1 X6.602 Y-0.180 F999.600
G1 X6.615 Y0.186 F999.600
G1 X6.609 Y0.553 F999.600
G1 X6.578 Y0.919 F999.600
G1 X6.528 Y1.286 F999.600
G1 X6.342 Y2.000 F999.600
G1 X6.230 Y2.354 F999.600
G1 X6.087 Y2.696 F999.600
G1 X5.752 Y3.360 F999.600
G1 X5.342 Y3.981 F999.600
G1 X5.124 Y4.280 F999.600
G1 X4.882 Y4.565 F999.600
G1 X4.366 Y5.099 F999.600
G1 X3.783 Y5.565 F999.600
G1 X3.472 Y5.776 F999.600
G1 X2.820 Y6.137 F999.600
G1 X2.478 Y6.286 F999.600
G1 X2.130 Y6.416 F999.600
G1 X1.770 Y6.528 F999.600
G1 X1.404 Y6.621 F999.600
G1 X1.037 Y6.689 F999.600
G1 X0.665 Y6.739 F999.600
G1 X0.292 Y6.764 F999.600
G1 X-0.075 Y6.770 F999.600
G1 X-0.807 Y6.727 F999.600
G1 X-1.174 Y6.677 F999.600
G1 X-1.540 Y6.609 F999.600
G1 X-1.901 Y6.522 F999.600
G1 X-2.255 Y6.416 F999.600
G1 X-2.602 Y6.292 F999.600
G1 X-2.944 Y6.149 F999.600
G1 X-3.596 Y5.789 F999.600
G1 X-3.907 Y5.584 F999.600
G1 X-4.478 Y5.112 F999.600
G1 X-4.752 Y4.857 F999.600
G1 X-5.006 Y4.584 F999.600
G1 X-5.466 Y4.000 F999.600
G1 X-5.863 Y3.366 F999.600
G1 X-6.037 Y3.037 F999.600
G1 X-6.193 Y2.696 F999.600
G1 X-6.329 Y2.348 F999.600
G1 X-6.553 Y1.634 F999.600
G1 X-6.640 Y1.267 F999.600
G1 X-6.708 Y0.901 F999.600
G1 X-6.745 Y0.155 F999.600
G1 X-6.745 Y-0.211 F999.600
G1 X-6.727 Y-0.578 F999.600
G1 X-6.640 Y-1.311 F999.600
G1 X-6.571 Y-1.677 F999.600
G1 X-6.385 Y-2.391 F999.600
G1 X-6.087 Y-3.068 F999.600
G1 X-5.727 Y-3.720 F999.600
G1 X-5.292 Y-4.329 F999.600
G1 X-5.056 Y-4.615 F999.600
G1 X-4.801 Y-4.888 F999.600
G1 X-4.534 Y-5.149 F999.600
G1 X-4.255 Y-5.391 F999.600
G1 X-3.957 Y-5.621 F999.600
G1 X-3.335 Y-6.031 F999.600
G1 X-3.006 Y-6.211 F999.600
G1 X-2.671 Y-6.373 F999.600
G1 X-2.323 Y-6.516 F999.600
G1 X-1.969 Y-6.640 F999.600
G1 X-1.609 Y-6.745 F999.600
G1 X-0.876 Y-6.913 F999.600
G1 X-0.130 Y-7.012 F999.600
G1 X0.236 Y-7.043 F999.600
G1 X0.602 Y-7.056 F999.600
G1 X1.335 Y-7.006 F999.600
G1 X1.702 Y-6.950 F999.600
G1 X2.062 Y-6.876 F999.600
G1 X2.416 Y-6.764 F999.600
G1 X3.106 Y-6.491 F999.600
G1 X3.441 Y-6.329 F999.600
G1 X4.081 Y-5.957 F999.600
G1 X4.391 Y-5.752 F999.600
G1 X4.975 Y-5.292 F999.600
G1 X5.248 Y-5.043 F999.600
G1 X5.509 Y-4.776 F999.600
G1 X5.994 Y-4.205 F999.600
G1 X6.391 Y-3.578 F999.600
G1 X6.727 Y-2.913 F999.600
G1 X7.006 Y-2.217 F999.600
G1 X7.124 Y-1.863 F999.600
G1 X7.311 Y-1.137 F999.600
G1 X7.410 Y-0.391 F999.600
G1 X7.435 Y-0.019 F999.600
G1 X7.435 Y0.348 F999.600
G1 X7.416 Y0.714 F999.600
G1 X7.379 Y1.081 F999.600
G1 X7.317 Y1.447 F999.600
G1 X7.236 Y1.807 F999.600
G1 X7.137 Y2.161 F999.600
G1 X6.894 Y2.857 F999.600
G1 X6.584 Y3.534 F999.600
G1 X6.410 Y3.863 F999.600
G1 X6.012 Y4.491 F999.600
G1 X5.547 Y5.068 F999.600
G1 X5.292 Y5.342 F999.600
G1 X4.745 Y5.845 F999.600
G1 X4.149 Y6.292 F999.600
G1 X3.839 Y6.497 F999.600
G1 X3.186 Y6.857 F999.600
G1 X2.845 Y7.019 F999.600
G1 X2.497 Y7.161 F999.600
G1 X2.143 Y7.286 F999.600
G1 X1.410 Y7.453 F999.600
G1 X0.665 Y7.553 F999.600
G1 X-0.075 Y7.584 F999.600
G1 X-0.441 Y7.578 F999.600
G1 X-1.174 Y7.516 F999.600
G1 X-1.907 Y7.391 F999.600
G1 X-2.615 Y7.174 F999.600
G1 X-2.963 Y7.037 F999.600
G1 X-3.298 Y6.882 F999.600
G1 X-3.627 Y6.708 F999.600
G1 X-4.261 Y6.317 F999.600
G1 X-4.857 Y5.870 F999.600
G1 X-5.391 Y5.354 F999.600
G1 X-5.882 Y4.789 F999.600
G1 X-6.317 Y4.180 F999.600
G1 X-6.516 Y3.863 F999.600
G1 X-6.863 Y3.199 F999.600
G1 X-7.149 Y2.509 F999.600
G1 X-7.267 Y2.155 F999.600
G1 X-7.453 Y1.429 F999.600
G1 X-7.547 Y0.683 F999.600
G1 X-7.571 Y-0.422 F999.600
G1 X-7.509 Y-1.155 F999.600
G1 X-7.460 Y-1.522 F999.600
G1 X-7.292 Y-2.242 F999.600
G1 X-7.180 Y-2.596 F999.600
G1 X-6.907 Y-3.286 F999.600
G1 X-6.745 Y-3.621 F999.600
G1 X-6.565 Y-3.944 F999.600
G1 X-6.155 Y-4.565 F999.600
G1 X-5.683 Y-5.137 F999.600
G1 X-5.168 Y-5.671 F999.600
G1 X-4.602 Y-6.155 F999.600
G1 X-4.304 Y-6.385 F999.600
G1 X-4.000 Y-6.596 F999.600
G1 X-3.348 Y-6.963 F999.600
G1 X-3.006 Y-7.124 F999.600
G1 X-1.950 Y-7.503 F999.600
G1 X-1.224 Y-7.677 F999.600
G1 X-0.491 Y-7.814 F999.600
G1 X-0.118 Y-7.863 F999.600
G1 X0.248 Y-7.882 F999.600
G1 X0.615 Y-7.882 F999.600
G1 X1.348 Y-7.839 F999.600
G1 X1.714 Y-7.789 F999.600
G1 X2.435 Y-7.609 F999.600
G1 X3.137 Y-7.366 F999.600
G1 X3.814 Y-7.056 F999.600
G1 X4.143 Y-6.882 F999.600
G1 X4.770 Y-6.484 F999.600
G1 X5.366 Y-6.037 F999.600
G1 X5.652 Y-5.795 F999.600
G1 X5.925 Y-5.540 F999.600
G1 X6.416 Y-4.975 F999.600
G1 X6.646 Y-4.677 F999.600
G1 X7.236 Y-3.727 F999.600
G1 X7.559 Y-3.050 F999.600
G1 X7.702 Y-2.702 F999.600
G1 X7.938 Y-1.988 F999.600
G1 X8.112 Y-1.261 F999.600
G1 X8.224 Y-0.516 F999.600
G1 X8.273 Y0.224 F999.600
G1 X8.224 Y0.957 F999.600
G1 X8.112 Y1.689 F999.600
G1 X8.031 Y2.050 F999.600
G1 X7.932 Y2.404 F999.600
G1 X7.683 Y3.106 F999.600
G1 X7.205 Y4.118 F999.600
G1 X6.826 Y4.758 F999.600
G1 X6.621 Y5.068 F999.600
G1 X6.143 Y5.640 F999.600
G1 X5.888 Y5.913 F999.600
G1 X5.615 Y6.168 F999.600
G1 X5.043 Y6.652 F999.600
G1 X4.441 Y7.087 F999.600
G1 X4.130 Y7.292 F999.600
G1 X3.807 Y7.478 F999.600
G1 X3.130 Y7.795 F999.600
G1 X2.783 Y7.932 F999.600
G1 X2.429 Y8.050 F999.600
G1 X2.068 Y8.149 F999.600
G1 X1.702 Y8.230 F999.600
G1 X0.957 Y8.348 F999.600
G1 X0.584 Y8.385 F999.600
G1 X-0.155 Y8.410 F999.600
G1 X-0.888 Y8.373 F999.600
G1 X-1.255 Y8.335 F999.600
G1 X-1.988 Y8.211 F999.600
G1 X-2.702 Y8.025 F999.600
G1 X-3.391 Y7.758 F999.600
G1 X-3.727 Y7.596 F999.600
G1 X-4.683 Y7.025 F999.600
G1 X-5.273 Y6.578 F999.600
G1 X-5.559 Y6.335 F999.600
G1 X-5.832 Y6.081 F999.600
G1 X-6.348 Y5.540 F999.600
G1 X-6.590 Y5.255 F999.600
G1 X-7.205 Y4.323 F999.600
G1 X-7.565 Y3.671 F999.600
G1 X-7.876 Y2.994 F999.600
G1 X-8.106 Y2.280 F999.600
G1 X-8.199 Y1.919 F999.600
G1 X-8.323 Y1.180 F999.600
G1 X-8.391 Y0.435 F999.600
G1 X-8.404 Y0.062 F999.600
G1 X-8.379 Y-0.671 F999.600
G1 X-8.304 Y-1.404 F999.600
G1 X-8.180 Y-2.137 F999.600
G1 X-7.975 Y-2.851 F999.600
G1 X-7.851 Y-3.199 F999.600
G1 X-7.553 Y-3.876 F999.600
G1 X-7.193 Y-4.528 F999.600
G1 X-6.770 Y-5.143 F999.600
G1 X-6.298 Y-5.714 F999.600
G1 X-5.776 Y-6.248 F999.600
G1 X-5.211 Y-6.739 F999.600
G1 X-4.615 Y-7.186 F999.600
G1 X-4.304 Y-7.391 F999.600
G1 X-3.640 Y-7.745 F999.600
G1 X-3.298 Y-7.901 F999.600
G1 X-2.602 Y-8.168 F999.600
G1 X-1.882 Y-8.391 F999.600
G1 X-0.789 Y-8.640 F999.600
G1 X-0.043 Y-8.720 F999.600
G1 X0.323 Y-8.739 F999.600
G1 X1.056 Y-8.727 F999.600
G1 X1.789 Y-8.621 F999.600
G1 X2.509 Y-8.460 F999.600
G1 X2.863 Y-8.354 F999.600
G1 X3.559 Y-8.099 F999.600
G1 X3.901 Y-7.950 F999.600
G1 X4.559 Y-7.602 F999.600
G1 X5.186 Y-7.205 F999.600
G1 X5.776 Y-6.758 F999.600
G1 X6.335 Y-6.273 F999.600
G1 X6.602 Y-6.012 F999.600
G1 X7.093 Y-5.453 F999.600
G1 X7.323 Y-5.155 F999.600
G1 X7.739 Y-4.528 F999.600
G1 X8.099 Y-3.876 F999.600
G1 X8.398 Y-3.186 F999.600
G1 X8.652 Y-2.478 F999.600
G1 X8.851 Y-1.758 F999.600
G1 X9.000 Y-1.025 F999.600
G1 X9.056 Y-0.652 F999.600
G1 X9.087 Y0.087 F999.600
G1 X9.062 Y0.820 F999.600
G1 X8.975 Y1.553 F999.600
G1 X8.913 Y1.919 F999.600
G1 X8.739 Y2.640 F999.600
G1 X8.634 Y2.994 F999.600
G1 X8.373 Y3.689 F999.600
G1 X8.062 Y4.366 F999.600
G1 X7.888 Y4.696 F999.600
G1 X7.491 Y5.323 F999.600
G1 X7.043 Y5.919 F999.600
G1 X6.528 Y6.460 F999.600
G1 X5.988 Y6.969 F999.600
G1 X5.112 Y7.658 F999.600
G1 X4.484 Y8.068 F999.600
G1 X3.820 Y8.410 F999.600
G1 X3.478 Y8.559 F999.600
G1 X2.770 Y8.807 F999.600
G1 X2.050 Y9.000 F999.600
G1 X1.311 Y9.137 F999.600
G1 X0.565 Y9.224 F999.600
G1 X-0.174 Y9.248 F999.600
G1 X-0.907 Y9.224 F999.600
G1 X-1.640 Y9.137 F999.600
G1 X-2.366 Y9.000 F999.600
G1 X-3.075 Y8.783 F999.600
G1 X-3.422 Y8.652 F999.600
G1 X-3.764 Y8.503 F999.600
G1 X-4.429 Y8.161 F999.600
G1 X-5.056 Y7.770 F999.600
G1 X-5.360 Y7.559 F999.600
G1 X-5.938 Y7.093 F999.600
G1 X-6.491 Y6.590 F999.600
G1 X-7.006 Y6.050 F999.600
G1 X-7.460 Y5.460 F999.600
G1 X-7.876 Y4.839 F999.600
G1 X-8.248 Y4.186 F999.600
G1 X-8.571 Y3.509 F999.600
G1 X-8.714 Y3.161 F999.600
G1 X-8.919 Y2.441 F999.600
G1 X-9.075 Y1.708 F999.600
G1 X-9.174 Y0.963 F999.600
G1 X-9.205 Y0.590 F999.600
G1 X-9.217 Y-0.516 F999.600
G1 X-9.130 Y-1.615 F999.600
G1 X-8.994 Y-2.342 F999.600
G1 X-8.907 Y-2.702 F999.600
G1 X-8.683 Y-3.410 F999.600
G1 X-8.553 Y-3.758 F999.600
G1 X-8.224 Y-4.422 F999.600
G1 X-8.037 Y-4.745 F999.600
G1 X-7.627 Y-5.366 F999.600
G1 X-7.180 Y-5.963 F999.600
G1 X-6.677 Y-6.516 F999.600
G1 X-6.416 Y-6.783 F999.600
G1 X-5.863 Y-7.280 F999.600
G1 X-5.273 Y-7.739 F999.600
G1 X-4.646 Y-8.149 F999.600
G1 X-3.994 Y-8.509 F999.600
G1 X-3.317 Y-8.820 F999.600
G1 X-2.615 Y-9.081 F999.600
G1 X-2.255 Y-9.193 F999.600
G1 X-1.528 Y-9.366 F999.600
G1 X-0.789 Y-9.491 F999.600
G1 X-0.043 Y-9.553 F999.600
G1 X0.689 Y-9.565 F999.600
G1 X1.422 Y-9.516 F999.600
G1 X2.155 Y-9.416 F999.600
G1 X2.516 Y-9.342 F999.600
G1 X3.224 Y-9.124 F999.600
G1 X3.913 Y-8.857 F999.600
G1 X4.578 Y-8.534 F999.600
G1 X5.217 Y-8.161 F999.600
G1 X6.137 Y-7.522 F999.600
G1 X6.994 Y-6.814 F999.600
G1 X7.503 Y-6.273 F999.600
G1 X7.745 Y-5.994 F999.600
G1 X8.193 Y-5.391 F999.600
G1 X8.590 Y-4.758 F999.600
G1 X8.770 Y-4.429 F999.600
G1 X9.081 Y-3.752 F999.600
G1 X9.354 Y-3.056 F999.600
G1 X9.677 Y-1.981 F999.600
G1 X9.826 Y-1.248 F999.600
G1 X9.913 Y-0.503 F999.600
G1 X9.938 Y-0.130 F999.600
G1 X9.938 Y0.602 F999.600
G1 X9.876 Y1.335 F999.600
G1 X9.826 Y1.702 F999.600
G1 X9.677 Y2.429 F999.600
G1 X9.466 Y3.143 F999.600
G1 X9.224 Y3.839 F999.600
G1 X8.932 Y4.522 F999.600
G1 X8.584 Y5.180 F999.600
G1 X8.186 Y5.807 F999.600
G1 X7.969 Y6.112 F999.600
G1 X7.478 Y6.677 F999.600
G1 X6.957 Y7.211 F999.600
G1 X6.112 Y7.950 F999.600
G1 X5.522 Y8.404 F999.600
G1 X4.888 Y8.801 F999.600
G1 X4.565 Y8.988 F999.600
G1 X4.230 Y9.155 F999.600
G1 X3.534 Y9.435 F999.600
G1 X2.826 Y9.671 F999.600
G1 X2.099 Y9.851 F999.600
G1 X1.360 Y9.988 F999.600
G1 X0.615 Y10.075 F999.600
G1 X-0.124 Y10.112 F999.600
G1 X-0.857 Y10.099 F999.600
G1 X-1.590 Y10.037 F999.600
G1 X-2.671 Y9.795 F999.600
G1 X-3.379 Y9.565 F999.600
G1 X-3.727 Y9.435 F999.600
G1 X-4.404 Y9.124 F999.600
G1 X-5.056 Y8.764 F999.600
G1 X-5.677 Y8.354 F999.600
G1 X-6.559 Y7.658 F999.600
G1 X-7.373 Y6.894 F999.600
G1 X-7.627 Y6.621 F999.600
G1 X-8.087 Y6.037 F999.600
G1 X-8.696 Y5.099 F999.600
G1 X-9.056 Y4.441 F999.600
G1 X-9.224 Y4.106 F999.600
G1 X-9.497 Y3.410 F999.600
G1 X-9.615 Y3.056 F999.600
G1 X-9.807 Y2.329 F999.600
G1 X-9.882 Y1.963 F999.600
G1 X-9.981 Y1.217 F999.600
G1 X-10.043 Y0.472 F999.600
G1 X-10.050 Y-0.634 F999.600
G1 X-9.963 Y-1.733 F999.600
G1 X-9.851 Y-2.466 F999.600
G1 X-9.776 Y-2.826 F999.600
G1 X-9.553 Y-3.534 F999.600
G1 X-9.416 Y-3.882 F999.600
G1 X-8.919 Y-4.876 F999.600
G1 X-8.534 Y-5.516 F999.600
G1 X-8.112 Y-6.130 F999.600
G1 X-7.652 Y-6.720 F999.600
G1 X-7.155 Y-7.273 F999.600
G1 X-6.602 Y-7.776 F999.600
G1 X-6.019 Y-8.248 F999.600
G1 X-5.087 Y-8.882 F999.600
G1 X-4.435 Y-9.255 F999.600
G1 X-4.099 Y-9.422 F999.600
G1 X-3.404 Y-9.702 F999.600
G1 X-2.696 Y-9.938 F999.600
G1 X-1.975 Y-10.137 F999.600
G1 X-0.870 Y-10.342 F999.600
G1 X-0.497 Y-10.385 F999.600
G1 X0.609 Y-10.422 F999.600
G1 X1.708 Y-10.335 F999.600
G1 X2.441 Y-10.211 F999.600
G1 X3.161 Y-10.037 F999.600
G1 X3.516 Y-9.932 F999.600
G1 X4.199 Y-9.652 F999.600
G1 X4.870 Y-9.329 F999.600
G1 X5.516 Y-8.969 F999.600
G1 X6.143 Y-8.571 F999.600
G1 X6.739 Y-8.124 F999.600
G1 X7.311 Y-7.646 F999.600
G1 X8.112 Y-6.876 F999.600
G1 X8.584 Y-6.304 F999.600
G1 X8.807 Y-6.006 F999.600
G1 X9.211 Y-5.379 F999.600
G1 X9.727 Y-4.385 F999.600
G1 X10.012 Y-3.696 F999.600
G1 X10.261 Y-2.988 F999.600
G1 X10.460 Y-2.267 F999.600
G1 X10.609 Y-1.534 F999.600
G1 X10.708 Y-0.789 F999.600
G1 X10.758 Y-0.043 F999.600
G1 X10.758 Y0.689 F999.600
G1 X10.671 Y1.789 F999.600
G1 X10.528 Y2.516 F999.600
G1 X10.335 Y3.230 F999.600
G1 X10.099 Y3.938 F999.600
G1 X9.826 Y4.627 F999.600
G1 X9.497 Y5.292 F999.600
G1 X9.112 Y5.932 F999.600
G1 X8.677 Y6.540 F999.600
G1 X8.205 Y7.112 F999.600
G1 X7.696 Y7.658 F999.600
G1 X7.155 Y8.174 F999.600
G1 X6.590 Y8.658 F999.600
G1 X6.000 Y9.112 F999.600
G1 X5.689 Y9.323 F999.600
G1 X5.037 Y9.689 F999.600
G1 X4.360 Y10.012 F999.600
G1 X3.658 Y10.286 F999.600
G1 X2.944 Y10.509 F999.600
G1 X2.211 Y10.683 F999.600
G1 X1.478 Y10.814 F999.600
G1 X0.360 Y10.932 F999.600
G1 X-0.739 Y10.957 F999.600
G1 X-1.106 Y10.944 F999.600
G1 X-1.839 Y10.857 F999.600
G1 X-2.205 Y10.795 F999.600
G1 X-2.925 Y10.621 F999.600
G1 X-3.280 Y10.516 F999.600
G1 X-3.975 Y10.255 F999.600
G1 X-4.652 Y9.944 F999.600
G1 X-5.311 Y9.596 F999.600
G1 X-6.248 Y8.988 F999.600
G1 X-7.124 Y8.298 F999.600
G1 X-7.677 Y7.795 F999.600
G1 X-7.944 Y7.534 F999.600
G1 X-8.199 Y7.261 F999.600
G1 X-8.665 Y6.677 F999.600
G1 X-9.292 Y5.745 F999.600
G1 X-9.652 Y5.093 F999.600
G1 X-10.124 Y4.075 F999.600
G1 X-10.385 Y3.373 F999.600
G1 X-10.596 Y2.652 F999.600
G1 X-10.739 Y1.919 F999.600
G1 X-10.839 Y1.174 F999.600
G1 X-10.913 Y-0.311 F999.600
G1 X-10.894 Y-1.043 F999.600
G1 X-10.783 Y-2.143 F999.600
G1 X-10.720 Y-2.509 F999.600
G1 X-10.540 Y-3.230 F999.600
G1 X-10.429 Y-3.584 F999.600
G1 X-10.006 Y-4.615 F999.600
G1 X-9.658 Y-5.273 F999.600
G1 X-9.286 Y-5.919 F999.600
G1 X-8.652 Y-6.839 F999.600
G1 X-8.429 Y-7.137 F999.600
G1 X-7.932 Y-7.683 F999.600
G1 X-7.398 Y-8.205 F999.600
G1 X-6.832 Y-8.689 F999.600
G1 X-6.236 Y-9.137 F999.600
G1 X-5.609 Y-9.547 F999.600
G1 X-4.957 Y-9.919 F999.600
G1 X-4.286 Y-10.255 F999.600
G1 X-3.596 Y-10.540 F999.600
G1 X-3.242 Y-10.671 F999.600
G1 X-1.398 Y-11.112 F999.600
G1 X0.925 Y-11.248 F999.600
G1 X1.857 Y-11.161 F999.600
G1 X3.255 Y-10.870 F999.600
G1 X4.720 Y-10.311 F999.600
G1 X6.081 Y-9.559 F999.600
G1 X7.273 Y-8.689 F999.600
G1 X8.093 Y-7.969 F999.600
G1 X9.335 Y-6.516 F999.600
G1 X10.087 Y-5.323 F999.600
G1 X10.826 Y-3.665 F999.600
G1 X11.391 Y-1.416 F999.600
G1 X11.509 Y-0.224 F999.600
G1 X11.472 Y1.652 F999.600
G1 X11.130 Y3.329 F999.600
G1 X10.441 Y5.155 F999.600
G1 X10.062 Y5.851 F999.600
G1 X9.366 Y6.901 F999.600
G1 X8.118 Y8.298 F999.600
G1 X7.335 Y9.031 F999.600
G1 X6.130 Y9.919 F999.600
G1 X4.441 Y10.820 F999.600
G1 X3.497 Y11.168 F999.600
G1 X1.528 Y11.640 F999.600
G1 X-0.801 Y11.783 F999.600
G1 X-2.106 Y11.658 F999.600
G1 X-3.596 Y11.261 F999.600
G1 X-5.193 Y10.553 F999.600
G1 X-6.932 Y9.453 F999.600
G1 X-8.130 Y8.404 F999.600
G1 X-9.366 Y6.957 F999.600
G1 X-10.311 Y5.429 F999.600
G1 X-11.012 Y3.863 F999.600
G1 X-11.547 Y1.689 F999.600
G1 X-11.671 Y-1.491 F999.600
G1 X-11.509 Y-2.702 F999.600
G1 X-10.807 Y-4.727 F999.600
G1 X-9.870 Y-6.435 F999.600
G1 X-8.522 Y-8.155 F999.600
G1 X-6.783 Y-9.665 F999.600
G1 X-4.981 Y-10.758 F999.600
G1 X-3.590 Y-11.342 F999.600
G1 X-2.602 Y-11.646 F999.600
G1 X-1.211 Y-11.894 F999.600
G1 X0.168 Y-11.950 F999.600
G1 X1.752 Y-11.820 F999.600
G1 X3.056 Y-11.547 F999.600
G1 X3.894 Y-11.292 F999.600
G1 X5.168 Y-10.770 F999.600
G1 X6.720 Y-9.876 F999.600
G1 X7.994 Y-8.894 F999.600
G1 X8.814 Y-8.075 F999.600
G1 X9.739 Y-6.919 F999.600
G1 X10.640 Y-5.447 F999.600
G1 X11.180 Y-4.242 F999.600
G1 X11.627 Y-2.776 F999.600
G1 X11.863 Y-1.484 F999.600
G1 X11.950 Y0.186 F999.600
G1 X11.870 Y1.398 F999.600
G1 X11.565 Y2.981 F999.600
G1 X11.112 Y4.379 F999.600
G1 X10.323 Y6.031 F999.600
G1 X9.242 Y7.578 F999.600
G1 X8.081 Y8.807 F999.600
G1 X7.106 Y9.609 F999.600
G1 X6.099 Y10.267 F999.600
G1 X4.776 Y10.957 F999.600
G1 X3.460 Y11.447 F999.600
G1 X1.870 Y11.807 F999.600
G1 X0.677 Y11.925 F999.600
G1 X-1.037 Y11.901 F999.600
G1 X-2.342 Y11.714 F999.600
G1 X-3.832 Y11.317 F999.600
G1 X-5.447 Y10.627 F999.600
G1 X-7.217 Y9.528 F999.600
G1 X-8.118 Y8.776 F999.600
G1 X-9.137 Y7.702 F999.600
G1 X-10.143 Y6.329 F999.600
G1 X-10.857 Y5.000 F999.600
G1 X-11.174 Y4.255 F999.600
G1 X-11.609 Y2.870 F999.600
G1 X-11.888 Y1.280 F999.600
G1 X-11.950 Y-0.193 F999.600
G1 X-11.857 Y-1.497 F999.600
G1 X-11.590 Y-2.894 F999.600
G1 X-11.112 Y-4.385 F999.600
G1 X-10.360 Y-5.950 F999.600
G1 X-9.379 Y-7.404 F999.600
G1 X-8.373 Y-8.522 F999.600
G1 X-7.180 Y-9.547 F999.600
G1 X-5.571 Y-10.571 F999.600
G1 X-4.000 Y-11.267 F999.600
G1 X-3.609 Y-11.385 F999.600
G1 X-3.609 Y-11.379 F999.600
G1 X-3.478 Y-11.385 F999.600
G0 X-3.472 Y-11.385
G0 X-3.789 Y-11.292
G1 X-3.839 Y-11.280 F999.600
G1 X-4.006 Y-11.242 F999.600
G1 X-4.019 Y-11.248 F999.600
G1 X-3.925 Y-11.342 F999.600
G1 X-3.925 Y-11.342 F999.600
G1 X-2.857 Y-11.658 F999.600
G1 X-1.137 Y-11.944 F999.600
G1 X0.062 Y-12.000 F999.600
G1 X1.590 Y-11.882 F999.600
G1 X2.894 Y-11.634 F999.600
G1 X3.789 Y-11.379 F999.600
G1 X5.292 Y-10.752 F999.600
G1 X6.839 Y-9.851 F999.600
G1 X8.000 Y-8.950 F999.600
G1 X8.876 Y-8.068 F999.600
G1 X9.739 Y-7.000 F999.600
G1 X10.634 Y-5.540 F999.600
G1 X11.261 Y-4.143 F999.600
G1 X11.683 Y-2.739 F999.600
G1 X11.894 Y-1.571 F999.600
G1 X11.994 Y-0.106 F999.600
G1 X11.988 Y0.329 F999.600
G1 X11.907 Y1.447 F999.600
G1 X11.634 Y2.925 F999.600
G1 X11.130 Y4.447 F999.600
G1 X10.398 Y5.981 F999.600
G1 X9.957 Y6.696 F999.600
G1 X9.211 Y7.677 F999.600
G1 X8.050 Y8.901 F999.600
G1 X7.273 Y9.547 F999.600
G1 X6.155 Y10.292 F999.600
G1 X4.938 Y10.932 F999.600
G1 X3.360 Y11.516 F999.600
G1 X1.826 Y11.857 F999.600
G1 X0.783 Y11.969 F999.600
G1 X-1.031 Y11.950 F999.600
G1 X-2.267 Y11.776 F999.600
G1 X-3.925 Y11.329 F999.600
G1 X-5.267 Y10.770 F999.600
G1 X-5.416 Y10.696 F999.600
G1 X-6.578 Y10.025 F999.600
G1 X-7.304 Y9.516 F999.600
G1 X-8.180 Y8.776 F999.600
G1 X-9.161 Y7.745 F999.600
G1 X-10.236 Y6.267 F999.600
G1 X-10.820 Y5.186 F999.600
G1 X-11.242 Y4.193 F999.600
G1 X-11.634 Y2.944 F999.600
G1 X-11.932 Y1.267 F999.600
G1 X-12.000 Y-0.124 F999.600
G1 X-11.894 Y-1.534 F999.600
G1 X-11.652 Y-2.826 F999.600
G1 X-11.155 Y-4.391 F999.600
G1 X-10.416 Y-5.944 F999.600
G1 X-9.342 Y-7.522 F999.600
G1 X-8.453 Y-8.509 F999.600
G1 X-7.106 Y-9.658 F999.600
G1 X-5.540 Y-10.640 F999.600
G1 X-3.925 Y-11.342 F999.600
G1 X-3.925 Y-11.342 F999.600
G0 Z23.000
(Helix to depth: 12.000000)
G0 X0.733 Y-0.839 Z23.000
G0 X0.733 Y-0.839 Z21.000
G1 X0.733 Y-0.839 Z15.000 F600.000
G1 X0.733 Y-0.839 Z15.000 F600.000
G1 X0.883 Y-0.680 Z14.981 F600.000
G1 X0.999 Y-0.494 Z14.961 F600.000
G1 X1.076 Y-0.290 Z14.942 F600.000
G1 X1.112 Y-0.075 Z14.923 F600.000
G1 X1.105 Y0.144 Z14.903 F600.000
G1 X1.056 Y0.357 Z14.884 F600.000
G1 X0.966 Y0.556 Z14.865 F600.000
G1 X0.839 Y0.733 Z14.846 F600.000
G1 X0.680 Y0.883 Z14.826 F600.000
G1 X0.494 Y0.999 Z14.807 F600.000
G1 X0.290 Y1.076 Z14.788 F600.000
G1 X0.075 Y1.112 Z14.768 F600.000
G1 X-0.144 Y1.105 Z14.749 F600.000
G1 X-0.357 Y1.056 Z14.730 F600.000
G1 X-0.556 Y0.966 Z14.710 F600.000
G1 X-0.733 Y0.839 Z14.691 F600.000
G1 X-0.883 Y0.680 Z14.672 F600.000
G1 X-0.999 Y0.494 Z14.652 F600.000
G1 X-1.076 Y0.290 Z14.633 F600.000
G1 X-1.112 Y0.075 Z14.614 F600.000
G1 X-1.105 Y-0.144 Z14.594 F600.000
G1 X-1.056 Y-0.357 Z14.575 F600.000
G1 X-0.966 Y-0.556 Z14.556 F600.000
G1 X-0.839 Y-0.733 Z14.537 F600.000
G1 X-0.680 Y-0.883 Z14.517 F600.000
G1 X-0.494 Y-0.999 Z14.498 F600.000
G1 X-0.290 Y-1.076 Z14.479 F600.000
G1 X-0.075 Y-1.112 Z14.459 F600.000
G1 X0.144 Y-1.105 Z14.440 F600.000
G1 X0.357 Y-1.056 Z14.421 F600.000
G1 X0.556 Y-0.966 Z14.401 F600.000
G1 X0.733 Y-0.839 Z14.382 F600.000
G1 X0.883 Y-0.680 Z14.363 F600.000
G1 X0.999 Y-0.494 Z14.343 F600.000
G1 X1.076 Y-0.290 Z14.324 F600.000
G1 X1.112 Y-0.075 Z14.305 F600.000
G1 X1.105 Y0.144 Z14.285 F600.000
G1 X1.056 Y0.357 Z14.266 F600.000
G1 X0.966 Y0.556 Z14.247 F600.000
G1 X0.839 Y0.733 Z14.228 F600.000
G1 X0.680 Y0.883 Z14.208 F600.000
G1 X0.494 Y0.999 Z14.189 F600.000
G1 X0.290 Y1.076 Z14.170 F600.000
G1 X0.075 Y1.112 Z14.150 F600.000
G1 X-0.144 Y1.105 Z14.131 F600.000
G1 X-0.357 Y1.056 Z14.112 F600.000
G1 X-0.556 Y0.966 Z14.092 F600.000
G1 X-0.733 Y0.839 Z14.073 F600.000
G1 X-0.883 Y0.680 Z14.054 F600.000
G1 X-0.999 Y0.494 Z14.034 F600.000
G1 X-1.076 Y0.290 Z14.015 F600.000
G1 X-1.112 Y0.075 Z13.996 F600.000
G1 X-1.105 Y-0.144 Z13.976 F600.000
G1 X-1.056 Y-0.357 Z13.957 F600.000
G1 X-0.966 Y-0.556 Z13.938 F600.000
G1 X-0.839 Y-0.733 Z13.919 F600.000
G1 X-0.680 Y-0.883 Z13.899 F600.000
G1 X-0.494 Y-0.999 Z13.880 F600.000
G1 X-0.290 Y-1.076 Z13.861 F600.000
G1 X-0.075 Y-1.112 Z13.841 F600.000
G1 X0.144 Y-1.105 Z13.822 F600.000
G1 X0.357 Y-1.056 Z13.803 F600.000
G1 X0.556 Y-0.966 Z13.783 F600.000
G1 X0.733 Y-0.839 Z13.764 F600.000
G1 X0.883 Y-0.680 Z13.745 F600.000
G1 X0.999 Y-0.494 Z13.725 F600.000
G1 X1.076 Y-0.290 Z13.706 F600.000
G1 X1.112 Y-0.075 Z13.687 F600.000
G1 X1.105 Y0.144 Z13.667 F600.000
G1 X1.056 Y0.357 Z13.648 F600.000
G1 X0.966 Y0.556 Z13.629 F600.000
G1 X0.839 Y0.733 Z13.610 F600.000
G1 X0.680 Y0.883 Z13.590 F600.000
G1 X0.494 Y0.999 Z13.571 F600.000
G1 X0.290 Y1.076 Z13.552 F600.000
G1 X0.075 Y1.112 Z13.532 F600.000
G1 X-0.144 Y1.105 Z13.513 F600.000
G1 X-0.357 Y1.056 Z13.494 F600.000
G1 X-0.556 Y0.966 Z13.474 F600.000
G1 X-0.733 Y0.839 Z13.455 F600.000
G1 X-0.883 Y0.680 Z13.436 F600.000
G1 X-0.999 Y0.494 Z13.416 F600.000
G1 X-1.076 Y0.290 Z13.397 F600.000
G1 X-1.112 Y0.075 Z13.378 F600.000
G1 X-1.105 Y-0.144 Z13.358 F600.000
G1 X-1.056 Y-0.357 Z13.339 F600.000
G1 X-0.966 Y-0.556 Z13.320 F600.000
G1 X-0.839 Y-0.733 Z13.301 F600.000
G1 X-0.680 Y-0.883 Z13.281 F600.000
G1 X-0.494 Y-0.999 Z13.262 F600.000
G1 X-0.290 Y-1.076 Z13.243 F600.000
G1 X-0.075 Y-1.112 Z13.223 F600.000
G1 X0.144 Y-1.105 Z13.204 F600.000
G1 X0.357 Y-1.056 Z13.185 F600.000
G1 X0.556 Y-0.966 Z13.165 F600.000
G1 X0.733 Y-0.839 Z13.146 F600.000
G1 X0.883 Y-0.680 Z13.127 F600.000
G1 X0.999 Y-0.494 Z13.107 F600.000
G1 X1.076 Y-0.290 Z13.088 F600.000
G1 X1.112 Y-0.075 Z13.069 F600.000
G1 X1.105 Y0.144 Z13.049 F600.000
G1 X1.056 Y0.357 Z13.030 F600.000
G1 X0.966 Y0.556 Z13.011 F600.000
G1 X0.839 Y0.733 Z12.992 F600.000
G1 X0.680 Y0.883 Z12.972 F600.000
G1 X0.494 Y0.999 Z12.953 F600.000
G1 X0.290 Y1.076 Z12.934 F600.000
G1 X0.075 Y1.112 Z12.914 F600.000
G1 X-0.144 Y1.105 Z12.895 F600.000
G1 X-0.357 Y1.056 Z12.876 F600.000
G1 X-0.556 Y0.966 Z12.856 F600.000
G1 X-0.733 Y0.839 Z12.837 F600.000
G1 X-0.883 Y0.680 Z12.818 F600.000
G1 X-0.999 Y0.494 Z12.798 F600.000
G1 X-1.076 Y0.290 Z12.779 F600.000
G1 X-1.112 Y0.075 Z12.760 F600.000
G1 X-1.105 Y-0.144 Z12.740 F600.000
G1 X-1.056 Y-0.357 Z12.721 F600.000
G1 X-0.966 Y-0.556 Z12.702 F600.000
G1 X-0.839 Y-0.733 Z12.683 F600.000
G1 X-0.680 Y-0.883 Z12.663 F600.000
G1 X-0.494 Y-0.999 Z12.644 F600.000
G1 X-0.290 Y-1.076 Z12.625 F600.000
G1 X-0.075 Y-1.112 Z12.605 F600.000
G1 X0.144 Y-1.105 Z12.586 F600.000
G1 X0.357 Y-1.056 Z12.567 F600.000
G1 X0.556 Y-0.966 Z12.547 F600.000
G1 X0.733 Y-0.839 Z12.528 F600.000
G1 X0.883 Y-0.680 Z12.509 F600.000
G1 X0.999 Y-0.494 Z12.489 F600.000
G1 X1.076 Y-0.290 Z12.470 F600.000
G1 X1.112 Y-0.075 Z12.451 F600.000
G1 X1.105 Y0.144 Z12.431 F600.000
G1 X1.056 Y0.357 Z12.412 F600.000
G1 X0.966 Y0.556 Z12.393 F600.000
G1 X0.839 Y0.733 Z12.374 F600.000
G1 X0.680 Y0.883 Z12.354 F600.000
G1 X0.494 Y0.999 Z12.335 F600.000
G1 X0.290 Y1.076 Z12.316 F600.000
G1 X0.075 Y1.112 Z12.296 F600.000
G1 X-0.144 Y1.105 Z12.277 F600.000
G1 X-0.357 Y1.056 Z12.258 F600.000
G1 X-0.556 Y0.966 Z12.238 F600.000
G1 X-0.733 Y0.839 Z12.219 F600.000
G1 X-0.883 Y0.680 Z12.200 F600.000
G1 X-0.999 Y0.494 Z12.180 F600.000
G1 X-1.076 Y0.290 Z12.161 F600.000
G1 X-1.112 Y0.075 Z12.142 F600.000
G1 X-1.105 Y-0.144 Z12.122 F600.000
G1 X-1.056 Y-0.357 Z12.103 F600.000
G1 X-0.966 Y-0.556 Z12.084 F600.000
G1 X-0.839 Y-0.733 Z12.065 F600.000
G1 X-0.680 Y-0.883 Z12.045 F600.000
G1 X-0.494 Y-0.999 Z12.026 F600.000
G1 X-0.290 Y-1.076 Z12.007 F600.000
G1 X-0.075 Y-1.112 Z12.000 F999.600
G1 X0.144 Y-1.105 Z12.000 F999.600
G1 X0.357 Y-1.056 Z12.000 F999.600
G1 X0.556 Y-0.966 Z12.000 F999.600
G1 X0.733 Y-0.839 Z12.000 F999.600
G1 X0.883 Y-0.680 Z12.000 F999.600
G1 X0.999 Y-0.494 Z12.000 F999.600
G1 X1.076 Y-0.290 Z12.000 F999.600
G1 X1.112 Y-0.075 Z12.000 F999.600
G1 X1.105 Y0.144 Z12.000 F999.600
G1 X1.056 Y0.357 Z12.000 F999.600
G1 X0.966 Y0.556 Z12.000 F999.600
G1 X0.839 Y0.733 Z12.000 F999.600
G1 X0.680 Y0.883 Z12.000 F999.600
G1 X0.494 Y0.999 Z12.000 F999.600
G1 X0.290 Y1.076 Z12.000 F999.600
G1 X0.075 Y1.112 Z12.000 F999.600
G1 X-0.144 Y1.105 Z12.000 F999.600
G1 X-0.357 Y1.056 Z12.000 F999.600
G1 X-0.556 Y0.966 Z12.000 F999.600
G1 X-0.733 Y0.839 Z12.000 F999.600
G1 X-0.883 Y0.680 Z12.000 F999.600
G1 X-0.999 Y0.494 Z12.000 F999.600
G1 X-1.076 Y0.290 Z12.000 F999.600
G1 X-1.112 Y0.075 Z12.000 F999.600
G1 X-1.105 Y-0.144 Z12.000 F999.600
G1 X-1.056 Y-0.357 Z12.000 F999.600
G1 X-0.966 Y-0.556 Z12.000 F999.600
G1 X-0.839 Y-0.733 Z12.000 F999.600
G1 X-0.680 Y-0.883 Z12.000 F999.600
G1 X-0.494 Y-0.999 Z12.000 F999.600
G1 X-0.290 Y-1.076 Z12.000 F999.600
(Adaptive - depth: 12.000000)
G1 X0.000 Y-1.124 F999.600
G1 X0.068 Y-1.193 F999.600
G1 X0.149 Y-1.242 F999.600
G1 X0.329 Y-1.292 F999.600
G1 X0.609 Y-1.280 F999.600
G1 X0.795 Y-1.217 F999.600
G1 X1.118 Y-1.031 F999.600
G1 X1.354 Y-0.776 F999.600
G1 X1.460 Y-0.584 F999.600
G1 X1.528 Y-0.398 F999.600
G1 X1.590 Y-0.161 F999.600
G1 X1.615 Y0.180 F999.600
G1 X1.559 Y0.491 F999.600
G1 X1.472 Y0.708 F999.600
G1 X1.360 Y0.913 F999.600
G1 X1.174 Y1.143 F999.600
G1 X0.944 Y1.342 F999.600
G1 X0.708 Y1.484 F999.600
G1 X0.435 Y1.590 F999.600
G1 X0.155 Y1.646 F999.600
G1 X-0.124 Y1.658 F999.600
G1 X-0.404 Y1.609 F999.600
G1 X-0.640 Y1.522 F999.600
G1 X-0.882 Y1.404 F999.600
G1 X-1.149 Y1.193 F999.600
G1 X-1.342 Y0.981 F999.600
G1 X-1.497 Y0.727 F999.600
G1 X-1.590 Y0.491 F999.600
G1 X-1.646 Y0.211 F999.600
G1 X-1.658 Y-0.056 F999.600
G1 X-1.615 Y-0.354 F999.600
G1 X-1.528 Y-0.627 F999.600
G1 X-1.398 Y-0.882 F999.600
G1 X-1.224 Y-1.112 F999.600
G1 X-1.012 Y-1.311 F999.600
G1 X-0.783 Y-1.497 F999.600
G1 X-0.460 Y-1.689 F999.600
G1 X0.217 Y-1.832 F999.600
G1 X0.404 Y-1.839 F999.600
G1 X0.770 Y-1.795 F999.600
G1 X1.118 Y-1.671 F999.600
G1 X1.360 Y-1.522 F999.600
G1 X1.553 Y-1.373 F999.600
G1 X1.770 Y-1.143 F999.600
G1 X1.950 Y-0.876 F999.600
G1 X2.087 Y-0.584 F999.600
G1 X2.168 Y-0.267 F999.600
G1 X2.199 Y0.012 F999.600
G1 X2.180 Y0.317 F999.600
G1 X2.130 Y0.615 F999.600
G1 X2.012 Y0.950 F999.600
G1 X1.857 Y1.236 F999.600
G1 X1.665 Y1.503 F999.600
G1 X1.429 Y1.739 F999.600
G1 X1.161 Y1.932 F999.600
G1 X0.870 Y2.087 F999.600
G1 X0.559 Y2.199 F999.600
G1 X0.236 Y2.261 F999.600
G1 X-0.087 Y2.273 F999.600
G1 X-0.410 Y2.236 F999.600
G1 X-0.727 Y2.155 F999.600
G1 X-1.025 Y2.025 F999.600
G1 X-1.304 Y1.851 F999.600
G1 X-1.565 Y1.646 F999.600
G1 X-1.820 Y1.373 F999.600
G1 X-2.006 Y1.081 F999.600
G1 X-2.137 Y0.807 F999.600
G1 X-2.224 Y0.472 F999.600
G1 X-2.255 Y0.180 F999.600
G1 X-2.261 Y-0.124 F999.600
G1 X-2.211 Y-0.491 F999.600
G1 X-2.106 Y-0.845 F999.600
G1 X-1.950 Y-1.161 F999.600
G1 X-1.783 Y-1.416 F999.600
G1 X-1.559 Y-1.683 F999.600
G1 X-1.273 Y-1.925 F999.600
G1 X-0.988 Y-2.112 F999.600
G1 X-0.665 Y-2.267 F999.600
G1 X-0.323 Y-2.385 F999.600
G1 X0.037 Y-2.453 F999.600
G1 X0.404 Y-2.478 F999.600
G1 X0.770 Y-2.453 F999.600
G1 X1.130 Y-2.360 F999.600
G1 X1.410 Y-2.248 F999.600
G1 X1.708 Y-2.075 F999.600
G1 X1.975 Y-1.857 F999.600
G1 X2.199 Y-1.621 F999.600
G1 X2.404 Y-1.348 F999.600
G1 X2.596 Y-1.025 F999.600
G1 X2.739 Y-0.677 F999.600
G1 X2.814 Y-0.311 F999.600
G1 X2.845 Y-0.012 F999.600
G1 X2.839 Y0.342 F999.600
G1 X2.770 Y0.708 F999.600
G1 X2.683 Y1.043 F999.600
G1 X2.534 Y1.385 F999.600
G1 X2.342 Y1.702 F999.600
G1 X2.118 Y2.000 F999.600
G1 X1.845 Y2.255 F999.600
G1 X1.571 Y2.460 F999.600
G1 X1.242 Y2.640 F999.600
G1 X0.901 Y2.789 F999.600
G1 X0.540 Y2.888 F999.600
G1 X0.168 Y2.932 F999.600
G1 X-0.174 Y2.938 F999.600
G1 X-0.540 Y2.888 F999.600
G1 X-0.901 Y2.789 F999.600
G1 X-1.248 Y2.665 F999.600
G1 X-1.578 Y2.491 F999.600
G1 X-1.882 Y2.280 F999.600
G1 X-2.149 Y2.025 F999.600
G1 X-2.379 Y1.752 F999.600
G1 X-2.578 Y1.435 F999.600
G1 X-2.733 Y1.093 F999.600
G1 X-2.845 Y0.733 F999.600
G1 X-2.907 Y0.360 F999.600
G1 X-2.938 Y-0.006 F999.600
G1 X-2.913 Y-0.373 F999.600
G1 X-2.845 Y-0.739 F999.600
G1 X-2.739 Y-1.093 F999.600
G1 X-2.590 Y-1.435 F999.600
G1 X-2.398 Y-1.752 F999.600
G1 X-2.168 Y-2.043 F999.600
G1 X-1.907 Y-2.311 F999.600
G1 X-1.615 Y-2.540 F999.600
G1 X-1.298 Y-2.739 F999.600
G1 X-0.957 Y-2.894 F999.600
G1 X-0.602 Y-3.025 F999.600
G1 X-0.236 Y-3.106 F999.600
G1 X0.130 Y-3.149 F999.600
G1 X0.497 Y-3.155 F999.600
G1 X0.863 Y-3.118 F999.600
G1 X1.224 Y-3.037 F999.600
G1 X1.578 Y-2.919 F999.600
G1 X1.907 Y-2.752 F999.600
G1 X2.217 Y-2.553 F999.600
G1 X2.503 Y-2.317 F999.600
G1 X2.758 Y-2.043 F999.600
G1 X2.981 Y-1.745 F999.600
G1 X3.168 Y-1.422 F999.600
G1 X3.323 Y-1.081 F999.600
G1 X3.435 Y-0.720 F999.600
G1 X3.509 Y-0.354 F999.600
G1 X3.540 Y0.012 F999.600
G1 X3.528 Y0.379 F999.600
G1 X3.478 Y0.745 F999.600
G1 X3.385 Y1.106 F999.600
G1 X3.267 Y1.460 F999.600
G1 X3.106 Y1.795 F999.600
G1 X2.913 Y2.112 F999.600
G1 X2.689 Y2.410 F999.600
G1 X2.435 Y2.683 F999.600
G1 X2.155 Y2.925 F999.600
G1 X1.845 Y3.130 F999.600
G1 X1.516 Y3.304 F999.600
G1 X1.168 Y3.441 F999.600
G1 X0.807 Y3.553 F999.600
G1 X0.441 Y3.621 F999.600
G1 X0.068 Y3.652 F999.600
G1 X-0.298 Y3.646 F999.600
G1 X-0.665 Y3.602 F999.600
G1 X-1.025 Y3.522 F999.600
G1 X-1.379 Y3.404 F999.600
G1 X-1.720 Y3.255 F999.600
G1 X-2.043 Y3.068 F999.600
G1 X-2.335 Y2.839 F999.600
G1 X-2.609 Y2.584 F999.600
G1 X-2.851 Y2.298 F999.600
G1 X-3.068 Y1.994 F999.600
G1 X-3.248 Y1.665 F999.600
G1 X-3.398 Y1.323 F999.600
G1 X-3.516 Y0.969 F999.600
G1 X-3.590 Y0.602 F999.600
G1 X-3.627 Y0.230 F999.600
G1 X-3.640 Y-0.137 F999.600
G1 X-3.609 Y-0.503 F999.600
G1 X-3.547 Y-0.870 F999.600
G1 X-3.453 Y-1.230 F999.600
G1 X-3.323 Y-1.578 F999.600
G1 X-3.161 Y-1.913 F999.600
G1 X-2.969 Y-2.230 F999.600
G1 X-2.733 Y-2.516 F999.600
G1 X-2.478 Y-2.783 F999.600
G1 X-2.193 Y-3.025 F999.600
G1 X-1.888 Y-3.236 F999.600
G1 X-1.559 Y-3.416 F999.600
G1 X-1.217 Y-3.578 F999.600
G1 X-0.863 Y-3.702 F999.600
G1 X-0.497 Y-3.795 F999.600
G1 X-0.124 Y-3.857 F999.600
G1 X0.242 Y-3.882 F999.600
G1 X0.609 Y-3.876 F999.600
G1 X0.975 Y-3.832 F999.600
G1 X1.335 Y-3.758 F999.600
G1 X1.689 Y-3.652 F999.600
G1 X2.031 Y-3.509 F999.600
G1 X2.360 Y-3.342 F999.600
G1 X2.671 Y-3.143 F999.600
G1 X2.957 Y-2.901 F999.600
G1 X3.224 Y-2.640 F999.600
G1 X3.460 Y-2.354 F999.600
G1 X3.665 Y-2.043 F999.600
G1 X3.839 Y-1.714 F999.600
G1 X3.994 Y-1.373 F999.600
G1 X4.106 Y-1.019 F999.600
G1 X4.193 Y-0.652 F999.600
G1 X4.248 Y-0.280 F999.600
G1 X4.267 Y0.087 F999.600
G1 X4.255 Y0.453 F999.600
G1 X4.211 Y0.820 F999.600
G1 X4.137 Y1.180 F999.600
G1 X4.025 Y1.534 F999.600
G1 X3.882 Y1.876 F999.600
G1 X3.714 Y2.205 F999.600
G1 X3.516 Y2.522 F999.600
G1 X3.292 Y2.820 F999.600
G1 X3.037 Y3.093 F999.600
G1 X2.764 Y3.342 F999.600
G1 X2.478 Y3.578 F999.600
G1 X2.168 Y3.783 F999.600
G1 X1.845 Y3.969 F999.600
G1 X1.497 Y4.112 F999.600
G1 X1.143 Y4.230 F999.600
G1 X0.776 Y4.317 F999.600
G1 X0.404 Y4.366 F999.600
G1 X0.031 Y4.385 F999.600
G1 X-0.335 Y4.373 F999.600
G1 X-0.702 Y4.342 F999.600
G1 X-1.068 Y4.273 F999.600
G1 X-1.429 Y4.174 F999.600
G1 X-1.776 Y4.050 F999.600
G1 X-2.112 Y3.894 F999.600
G1 X-2.435 Y3.714 F999.600
G1 X-2.733 Y3.491 F999.600
G1 X-3.019 Y3.248 F999.600
G1 X-3.273 Y2.981 F999.600
G1 X-3.714 Y2.379 F999.600
G1 X-3.894 Y2.050 F999.600
G1 X-4.043 Y1.708 F999.600
G1 X-4.168 Y1.354 F999.600
G1 X-4.261 Y0.988 F999.600
G1 X-4.323 Y0.615 F999.600
G1 X-4.366 Y0.242 F999.600
G1 X-4.373 Y-0.124 F999.600
G1 X-4.354 Y-0.491 F999.600
G1 X-4.304 Y-0.857 F999.600
G1 X-4.224 Y-1.217 F999.600
G1 X-4.118 Y-1.571 F999.600
G1 X-3.988 Y-1.919 F999.600
G1 X-3.826 Y-2.255 F999.600
G1 X-3.640 Y-2.578 F999.600
G1 X-3.416 Y-2.876 F999.600
G1 X-3.174 Y-3.161 F999.600
G1 X-2.907 Y-3.422 F999.600
G1 X-2.615 Y-3.658 F999.600
G1 X-2.311 Y-3.870 F999.600
G1 X-1.988 Y-4.056 F999.600
G1 X-1.298 Y-4.354 F999.600
G1 X-0.938 Y-4.460 F999.600
G1 X-0.571 Y-4.540 F999.600
G1 X-0.199 Y-4.596 F999.600
G1 X0.534 Y-4.634 F999.600
G1 X0.901 Y-4.615 F999.600
G1 X1.267 Y-4.571 F999.600
G1 X1.627 Y-4.478 F999.600
G1 X1.981 Y-4.366 F999.600
G1 X2.323 Y-4.224 F999.600
G1 X2.652 Y-4.056 F999.600
G1 X2.969 Y-3.863 F999.600
G1 X3.267 Y-3.646 F999.600
G1 X3.553 Y-3.404 F999.600
G1 X3.814 Y-3.137 F999.600
G1 X4.043 Y-2.839 F999.600
G1 X4.255 Y-2.528 F999.600
G1 X4.602 Y-1.863 F999.600
G1 X4.745 Y-1.516 F999.600
G1 X4.857 Y-1.155 F999.600
G1 X4.950 Y-0.795 F999.600
G1 X5.000 Y-0.422 F999.600
G1 X5.031 Y-0.050 F999.600
G1 X5.031 Y0.317 F999.600
G1 X4.994 Y0.683 F999.600
G1 X4.857 Y1.410 F999.600
G1 X4.745 Y1.764 F999.600
G1 X4.609 Y2.112 F999.600
G1 X4.453 Y2.447 F999.600
G1 X4.273 Y2.770 F999.600
G1 X4.068 Y3.081 F999.600
G1 X3.832 Y3.366 F999.600
G1 X3.578 Y3.640 F999.600
G1 X3.304 Y3.894 F999.600
G1 X3.019 Y4.137 F999.600
G1 X2.714 Y4.354 F999.600
G1 X2.398 Y4.547 F999.600
G1 X2.068 Y4.720 F999.600
G1 X1.727 Y4.870 F999.600
G1 X1.366 Y4.975 F999.600
G1 X1.000 Y5.062 F999.600
G1 X0.627 Y5.118 F999.600
G1 X0.255 Y5.149 F999.600
G1 X-0.112 Y5.161 F999.600
G1 X-0.478 Y5.143 F999.600
G1 X-0.845 Y5.106 F999.600
G1 X-1.211 Y5.043 F999.600
G1 X-1.571 Y4.957 F999.600
G1 X-1.925 Y4.845 F999.600
G1 X-2.590 Y4.522 F999.600
G1 X-2.907 Y4.323 F999.600
G1 X-3.205 Y4.099 F999.600
G1 X-3.484 Y3.851 F999.600
G1 X-3.745 Y3.584 F999.600
G1 X-3.994 Y3.304 F999.600
G1 X-4.217 Y3.006 F999.600
G1 X-4.416 Y2.689 F999.600
G1 X-4.596 Y2.360 F999.600
G1 X-4.752 Y2.019 F999.600
G1 X-4.882 Y1.665 F999.600
G1 X-4.988 Y1.304 F999.600
G1 X-5.068 Y0.938 F999.600
G1 X-5.124 Y0.565 F999.600
G1 X-5.155 Y0.193 F999.600
G1 X-5.155 Y-0.174 F999.600
G1 X-5.130 Y-0.540 F999.600
G1 X-5.081 Y-0.907 F999.600
G1 X-4.919 Y-1.627 F999.600
G1 X-4.801 Y-1.981 F999.600
G1 X-4.665 Y-2.323 F999.600
G1 X-4.491 Y-2.652 F999.600
G1 X-4.298 Y-2.969 F999.600
G1 X-4.087 Y-3.273 F999.600
G1 X-3.851 Y-3.559 F999.600
G1 X-3.596 Y-3.832 F999.600
G1 X-3.323 Y-4.081 F999.600
G1 X-3.031 Y-4.311 F999.600
G1 X-2.720 Y-4.522 F999.600
G1 X-2.398 Y-4.708 F999.600
G1 X-1.720 Y-5.019 F999.600
G1 X-1.366 Y-5.137 F999.600
G1 X-1.006 Y-5.236 F999.600
G1 X-0.640 Y-5.317 F999.600
G1 X-0.267 Y-5.373 F999.600
G1 X0.466 Y-5.429 F999.600
G1 X0.832 Y-5.422 F999.600
G1 X1.199 Y-5.379 F999.600
G1 X1.559 Y-5.311 F999.600
G1 X1.919 Y-5.217 F999.600
G1 X2.273 Y-5.099 F999.600
G1 X2.615 Y-4.950 F999.600
G1 X2.944 Y-4.783 F999.600
G1 X3.261 Y-4.596 F999.600
G1 X3.565 Y-4.385 F999.600
G1 X3.857 Y-4.149 F999.600
G1 X4.130 Y-3.894 F999.600
G1 X4.385 Y-3.621 F999.600
G1 X4.621 Y-3.329 F999.600
G1 X4.839 Y-3.025 F999.600
G1 X5.031 Y-2.708 F999.600
G1 X5.366 Y-2.037 F999.600
G1 X5.497 Y-1.689 F999.600
G1 X5.609 Y-1.329 F999.600
G1 X5.702 Y-0.969 F999.600
G1 X5.770 Y-0.602 F999.600
G1 X5.807 Y0.137 F999.600
G1 X5.758 Y0.870 F999.600
G1 X5.696 Y1.236 F999.600
G1 X5.609 Y1.596 F999.600
G1 X5.503 Y1.950 F999.600
G1 X5.373 Y2.298 F999.600
G1 X5.224 Y2.640 F999.600
G1 X5.056 Y2.969 F999.600
G1 X4.863 Y3.286 F999.600
G1 X4.652 Y3.590 F999.600
G1 X4.422 Y3.882 F999.600
G1 X4.174 Y4.161 F999.600
G1 X3.907 Y4.422 F999.600
G1 X3.627 Y4.671 F999.600
G1 X3.329 Y4.901 F999.600
G1 X3.019 Y5.112 F999.600
G1 X2.696 Y5.298 F999.600
G1 X2.360 Y5.466 F999.600
G1 X1.658 Y5.714 F999.600
G1 X0.925 Y5.876 F999.600
G1 X0.553 Y5.919 F999.600
G1 X0.180 Y5.938 F999.600
G1 X-0.553 Y5.932 F999.600
G1 X-0.919 Y5.894 F999.600
G1 X-1.286 Y5.839 F999.600
G1 X-2.000 Y5.640 F999.600
G1 X-2.348 Y5.509 F999.600
G1 X-2.683 Y5.354 F999.600
G1 X-3.012 Y5.180 F999.600
G1 X-3.329 Y4.981 F999.600
G1 X-3.634 Y4.764 F999.600
G1 X-3.919 Y4.528 F999.600
G1 X-4.193 Y4.273 F999.600
G1 X-4.447 Y4.000 F999.600
G1 X-4.683 Y3.714 F999.600
G1 X-4.901 Y3.410 F999.600
G1 X-5.099 Y3.093 F999.600
G1 X-5.273 Y2.764 F999.600
G1 X-5.571 Y2.075 F999.600
G1 X-5.689 Y1.720 F999.600
G1 X-5.789 Y1.360 F999.600
G1 X-5.870 Y0.994 F999.600
G1 X-5.925 Y0.621 F999.600
G1 X-5.950 Y-0.118 F999.600
G1 X-5.894 Y-0.851 F999.600
G1 X-5.832 Y-1.217 F999.600
G1 X-5.752 Y-1.578 F999.600
G1 X-5.652 Y-1.938 F999.600
G1 X-5.534 Y-2.286 F999.600
G1 X-5.398 Y-2.627 F999.600
G1 X-5.242 Y-2.963 F999.600
G1 X-4.845 Y-3.590 F999.600
G1 X-4.373 Y-4.168 F999.600
G1 X-4.112 Y-4.435 F999.600
G1 X-3.540 Y-4.919 F999.600
G1 X-3.236 Y-5.137 F999.600
G1 X-2.919 Y-5.335 F999.600
G1 X-2.590 Y-5.516 F999.600
G1 X-2.248 Y-5.677 F999.600
G1 X-1.901 Y-5.814 F999.600
G1 X-1.547 Y-5.932 F999.600
G1 X-1.186 Y-6.025 F999.600
G1 X-0.453 Y-6.168 F999.600
G1 X0.286 Y-6.230 F999.600
G1 X0.652 Y-6.236 F999.600
G1 X1.019 Y-6.224 F999.600
G1 X1.385 Y-6.168 F999.600
G1 X1.745 Y-6.087 F999.600
G1 X2.453 Y-5.876 F999.600
G1 X2.795 Y-5.733 F999.600
G1 X3.130 Y-5.571 F999.600
G1 X3.770 Y-5.199 F999.600
G1 X4.366 Y-4.752 F999.600
G1 X4.646 Y-4.509 F999.600
G1 X5.143 Y-3.957 F999.600
G1 X5.366 Y-3.658 F999.600
G1 X5.770 Y-3.031 F999.600
G1 X5.944 Y-2.696 F999.600
G1 X6.099 Y-2.354 F999.600
G1 X6.236 Y-2.006 F999.600
G1 X6.348 Y-1.652 F999.600
G1 X6.441 Y-1.292 F999.600
G1 X6.516 Y-0.925 F999.600
G1 X6.571 Y-0.553 F999.600
G1 X6.602 Y-0.180 F999.600
G1 X6.615 Y0.186 F999.600
G1 X6.609 Y0.553 F999.600
G1 X6.578 Y0.919 F999.600
G1 X6.528 Y1.286 F999.600
G1 X6.342 Y2.000 F999.600
G1 X6.230 Y2.354 F999.600
G1 X6.087 Y2.696 F999.600
G1 X5.752 Y3.360 F999.600
G1 X5.342 Y3.981 F999.600
G1 X5.124 Y4.280 F999.600
G1 X4.882 Y4.565 F999.600
G1 X4.366 Y5.099 F999.600
G1 X3.783 Y5.565 F999.600
G1 X3.472 Y5.776 F999.600
G1 X2.820 Y6.137 F999.600
G1 X2.478 Y6.286 F999.600
G1 X2.130 Y6.416 F999.600
G1 X1.770 Y6.528 F999.600
G1 X1.404 Y6.621 F999.600
G1 X1.037 Y6.689 F999.600
G1 X0.665 Y6.739 F999.600
G1 X0.292 Y6.764 F999.600
G1 X-0.075 Y6.770 F999.600
G1 X-0.807 Y6.727 F999.600
G1 X-1.174 Y6.677 F999.600
G1 X-1.540 Y6.609 F999.600
G1 X-1.901 Y6.522 F999.600
G1 X-2.255 Y6.416 F999.600
G1 X-2.602 Y6.292 F999.600
G1 X-2.944 Y6.149 F999.600
G1 X-3.596 Y5.789 F999.600
G1 X-3.907 Y5.584 F999.600
G1 X-4.478 Y5.112 F999.600
G1 X-4.752 Y4.857 F999.600
G1 X-5.006 Y4.584 F999.600
G1 X-5.466 Y4.000 F999.600
G1 X-5.863 Y3.366 F999.600
G1 X-6.037 Y3.037 F999.600
G1 X-6.193 Y2.696 F999.600
G1 X-6.329 Y2.348 F999.600
G1 X-6.553 Y1.634 F999.600
G1 X-6.640 Y1.267 F999.600
G1 X-6.708 Y0.901 F999.600
G1 X-6.745 Y0.155 F999.600
G1 X-6.745 Y-0.211 F999.600
G1 X-6.727 Y-0.578 F999.600
G1 X-6.640 Y-1.311 F999.600
G1 X-6.571 Y-1.677 F999.600
G1 X-6.385 Y-2.391 F999.600
G1 X-6.087 Y-3.068 F999.600
G1 X-5.727 Y-3.720 F999.600
G1 X-5.292 Y-4.329 F999.600
G1 X-5.056 Y-4.615 F999.600
G1 X-4.801 Y-4.888 F999.600
G1 X-4.534 Y-5.149 F999.600
G1 X-4.255 Y-5.391 F999.600
G1 X-3.957 Y-5.621 F999.600
G1 X-3.335 Y-6.031 F999.600
G1 X-3.006 Y-6.211 F999.600
G1 X-2.671 Y-6.373 F999.600
G1 X-2.323 Y-6.516 F999.600
G1 X-1.969 Y-6.640 F999.600
G1 X-1.609 Y-6.745 F999.600
G1 X-0.876 Y-6.913 F999.600
G1 X-0.130 Y-7.012 F999.600
G1 X0.236 Y-7.043 F999.600
G1 X0.602 Y-7.056 F999.600
G1 X1.335 Y-7.006 F999.600
G1 X1.702 Y-6.950 F999.600
G1 X2.062 Y-6.876 F999.600
G1 X2.416 Y-6.764 F999.600
G1 X3.106 Y-6.491 F999.600
G1 X3.441 Y-6.329 F999.600
G1 X4.081 Y-5.957 F999.600
G1 X4.391 Y-5.752 F999.600
G1 X4.975 Y-5.292 F999.600
G1 X5.248 Y-5.043 F999.600
G1 X5.509 Y-4.776 F999.600
G1 X5.994 Y-4.205 F999.600
G1 X6.391 Y-3.578 F999.600
G1 X6.727 Y-2.913 F999.600
G1 X7.006 Y-2.217 F999.600
G1 X7.124 Y-1.863 F999.600
G1 X7.311 Y-1.137 F999.600
G1 X7.410 Y-0.391 F999.600
G1 X7.435 Y-0.019 F999.600
G1 X7.435 Y0.348 F999.600
G1 X7.416 Y0.714 F999.600
G1 X7.379 Y1.081 F999.600
G1 X7.317 Y1.447 F999.600
G1 X7.236 Y1.807 F999.600
G1 X7.137 Y2.161 F999.600
G1 X6.894 Y2.857 F999.600
G1 X6.584 Y3.534 F999.600
G1 X6.410 Y3.863 F999.600
G1 X6.012 Y4.491 F999.600
G1 X5.547 Y5.068 F999.600
G1 X5.292 Y5.342 F999.600
G1 X4.745 Y5.845 F999.600
G1 X4.149 Y6.292 F999.600
G1 X3.839 Y6.497 F999.600
G1 X3.186 Y6.857 F999.600
G1 X2.845 Y7.019 F999.600
G1 X2.497 Y7.161 F999.600
G1 X2.143 Y7.286 F999.600
G1 X1.410 Y7.453 F999.600
G1 X0.665 Y7.553 F999.600
G1 X-0.075 Y7.584 F999.600
G1 X-0.441 Y7.578 F999.600
G1 X-1.174 Y7.516 F999.600
G1 X-1.907 Y7.391 F999.600
G1 X-2.615 Y7.174 F999.600
G1 X-2.963 Y7.037 F999.600
G1 X-3.298 Y6.882 F999.600
G1 X-3.627 Y6.708 F999.600
G1 X-4.261 Y6.317 F999.600
G1 X-4.857 Y5.870 F999.600
G1 X-5.391 Y5.354 F999.600
G1 X-5.882 Y4.789 F999.600
G1 X-6.317 Y4.180 F999.600
G1 X-6.516 Y3.863 F999.600
G1 X-6.863 Y3.199 F999.600
G1 X-7.149 Y2.509 F999.600
G1 X-7.267 Y2.155 F999.600
G1 X-7.453 Y1.429 F999.600
G1 X-7.547 Y0.683 F999.600
G1 X-7.571 Y-0.422 F999.600
G1 X-7.509 Y-1.155 F999.600
G1 X-7.460 Y-1.522 F999.600
G1 X-7.292 Y-2.242 F999.600
G1 X-7.180 Y-2.596 F999.600
G1 X-6.907 Y-3.286 F999.600
G1 X-6.745 Y-3.621 F999.600
G1 X-6.565 Y-3.944 F999.600
G1 X-6.155 Y-4.565 F999.600
G1 X-5.683 Y-5.137 F999.600
G1 X-5.168 Y-5.671 F999.600
G1 X-4.602 Y-6.155 F999.600
G1 X-4.304 Y-6.385 F999.600
G1 X-4.000 Y-6.596 F999.600
G1 X-3.348 Y-6.963 F999.600
G1 X-3.006 Y-7.124 F999.600
G1 X-1.950 Y-7.503 F999.600
G1 X-1.224 Y-7.677 F999.600
G1 X-0.491 Y-7.814 F999.600
G1 X-0.118 Y-7.863 F999.600
G1 X0.248 Y-7.882 F999.600
G1 X0.615 Y-7.882 F999.600
G1 X1.348 Y-7.839 F999.600
G1 X1.714 Y-7.789 F999.600
G1 X2.435 Y-7.609 F999.600
G1 X3.137 Y-7.366 F999.600
G1 X3.814 Y-7.056 F999.600
G1 X4.143 Y-6.882 F999.600
G1 X4.770 Y-6.484 F999.600
G1 X5.366 Y-6.037 F999.600
G1 X5.652 Y-5.795 F999.600
G1 X5.925 Y-5.540 F999.600
G1 X6.416 Y-4.975 F999.600
G1 X6.646 Y-4.677 F999.600
G1 X7.236 Y-3.727 F999.600
G1 X7.559 Y-3.050 F999.600
G1 X7.702 Y-2.702 F999.600
G1 X7.938 Y-1.988 F999.600
G1 X8.112 Y-1.261 F999.600
G1 X8.224 Y-0.516 F999.600
G1 X8.273 Y0.224 F999.600
G1 X8.224 Y0.957 F999.600
G1 X8.112 Y1.689 F999.600
G1 X8.031 Y2.050 F999.600
G1 X7.932 Y2.404 F999.600
G1 X7.683 Y3.106 F999.600
G1 X7.205 Y4.118 F999.600
G1 X6.826 Y4.758 F999.600
G1 X6.621 Y5.068 F999.600
G1 X6.143 Y5.640 F999.600
G1 X5.888 Y5.913 F999.600
G1 X5.615 Y6.168 F999.600
G1 X5.043 Y6.652 F999.600
G1 X4.441 Y7.087 F999.600
G1 X4.130 Y7.292 F999.600
G1 X3.807 Y7.478 F999.600
G1 X3.130 Y7.795 F999.600
G1 X2.783 Y7.932 F999.600
G1 X2.429 Y8.050 F999.600
G1 X2.068 Y8.149 F999.600
G1 X1.702 Y8.230 F999.600
G1 X0.957 Y8.348 F999.600
G1 X0.584 Y8.385 F999.600
G1 X-0.155 Y8.410 F999.600
G1 X-0.888 Y8.373 F999.600
G1 X-1.255 Y8.335 F999.600
G1 X-1.988 Y8.211 F999.600
G1 X-2.702 Y8.025 F999.600
G1 X-3.391 Y7.758 F999.600
G1 X-3.727 Y7.596 F999.600
G1 X-4.683 Y7.025 F999.600
G1 X-5.273 Y6.578 F999.600
G1 X-5.559 Y6.335 F999.600
G1 X-5.832 Y6.081 F999.600
G1 X-6.348 Y5.540 F999.600
G1 X-6.590 Y5.255 F999.600
G1 X-7.205 Y4.323 F999.600
G1 X-7.565 Y3.671 F999.600
G1 X-7.876 Y2.994 F999.600
G1 X-8.106 Y2.280 F999.600
G1 X-8.199 Y1.919 F999.600
G1 X-8.323 Y1.180 F999.600
G1 X-8.391 Y0.435 F999.600
G1 X-8.404 Y0.062 F999.600
G1 X-8.379 Y-0.671 F999.600
G1 X-8.304 Y-1.404 F999.600
G1 X-8.180 Y-2.137 F999.600
G1 X-7.975 Y-2.851 F999.600
G1 X-7.851 Y-3.199 F999.600
G1 X-7.553 Y-3.876 F999.600
G1 X-7.193 Y-4.528 F999.600
G1 X-6.770 Y-5.143 F999.600
G1 X-6.298 Y-5.714 F999.600
G1 X-5.776 Y-6.248 F999.600
G1 X-5.211 Y-6.739 F999.600
G1 X-4.615 Y-7.186 F999.600
G1 X-4.304 Y-7.391 F999.600
G1 X-3.640 Y-7.745 F999.600
G1 X-3.298 Y-7.901 F999.600
G1 X-2.602 Y-8.168 F999.600
G1 X-1.882 Y-8.391 F999.600
G1 X-0.789 Y-8.640 F999.600
G1 X-0.043 Y-8.720 F999.600
G1 X0.323 Y-8.739 F999.600
G1 X1.056 Y-8.727 F999.600
G1 X1.789 Y-8.621 F999.600
G1 X2.509 Y-8.460 F999.600
G1 X2.863 Y-8.354 F999.600
G1 X3.559 Y-8.099 F999.600
G1 X3.901 Y-7.950 F999.600
G1 X4.559 Y-7.602 F999.600
G1 X5.186 Y-7.205 F999.600
G1 X5.776 Y-6.758 F999.600
G1 X6.335 Y-6.273 F999.600
G1 X6.602 Y-6.012 F999.600
G1 X7.093 Y-5.453 F999.600
G1 X7.323 Y-5.155 F999.600
G1 X7.739 Y-4.528 F999.600
G1 X8.099 Y-3.876 F999.600
G1 X8.398 Y-3.186 F999.600
G1 X8.652 Y-2.478 F999.600
G1 X8.851 Y-1.758 F999.600
G1 X9.000 Y-1.025 F999.600
G1 X9.056 Y-0.652 F999.600
G1 X9.087 Y0.087 F999.600
G1 X9.062 Y0.820 F999.600
G1 X8.975 Y1.553 F999.600
G1 X8.913 Y1.919 F999.600
G1 X8.739 Y2.640 F999.600
G1 X8.634 Y2.994 F999.600
G1 X8.373 Y3.689 F999.600
G1 X8.062 Y4.366 F999.600
G1 X7.888 Y4.696 F999.600
G1 X7.491 Y5.323 F999.600
G1 X7.043 Y5.919 F999.600
G1 X6.528 Y6.460 F999.600
G1 X5.988 Y6.969 F999.600
G1 X5.112 Y7.658 F999.600
G1 X4.484 Y8.068 F999.600
G1 X3.820 Y8.410 F999.600
G1 X3.478 Y8.559 F999.600
G1 X2.770 Y8.807 F999.600
G1 X2.050 Y9.000 F999.600
G1 X1.311 Y9.137 F999.600
G1 X0.565 Y9.224 F999.600
G1 X-0.174 Y9.248 F999.600
G1 X-0.907 Y9.224 F999.600
G1 X-1.640 Y9.137 F999.600
G1 X-2.366 Y9.000 F999.600
G1 X-3.075 Y8.783 F999.600
G1 X-3.422 Y8.652 F999.600
G1 X-3.764 Y8.503 F999.600
G1 X-4.429 Y8.161 F999.600
G1 X-5.056 Y7.770 F999.600
G1 X-5.360 Y7.559 F999.600
G1 X-5.938 Y7.093 F999.600
G1 X-6.491 Y6.590 F999.600
G1 X-7.006 Y6.050 F999.600
G1 X-7.460 Y5.460 F999.600
G1 X-7.876 Y4.839 F999.600
G1 X-8.248 Y4.186 F999.600
G1 X-8.571 Y3.509 F999.600
G1 X-8.714 Y3.161 F999.600
G1 X-8.919 Y2.441 F999.600
G1 X-9.075 Y1.708 F999.600
G1 X-9.174 Y0.963 F999.600
G1 X-9.205 Y0.590 F999.600
G1 X-9.217 Y-0.516 F999.600
G1 X-9.130 Y-1.615 F999.600
G1 X-8.994 Y-2.342 F999.600
G1 X-8.907 Y-2.702 F999.600
G1 X-8.683 Y-3.410 F999.600
G1 X-8.553 Y-3.758 F999.600
G1 X-8.224 Y-4.422 F999.600
G1 X-8.037 Y-4.745 F999.600
G1 X-7.627 Y-5.366 F999.600
G1 X-7.180 Y-5.963 F999.600
G1 X-6.677 Y-6.516 F999.600
G1 X-6.416 Y-6.783 F999.600
G1 X-5.863 Y-7.280 F999.600
G1 X-5.273 Y-7.739 F999.600
G1 X-4.646 Y-8.149 F999.600
G1 X-3.994 Y-8.509 F999.600
G1 X-3.317 Y-8.820 F999.600
G1 X-2.615 Y-9.081 F999.600
G1 X-2.255 Y-9.193 F999.600
G1 X-1.528 Y-9.366 F999.600
G1 X-0.789 Y-9.491 F999.600
G1 X-0.043 Y-9.553 F999.600
G1 X0.689 Y-9.565 F999.600
G1 X1.422 Y-9.516 F999.600
G1 X2.155 Y-9.416 F999.600
G1 X2.516 Y-9.342 F999.600
G1 X3.224 Y-9.124 F999.600
G1 X3.913 Y-8.857 F999.600
G1 X4.578 Y-8.534 F999.600
G1 X5.217 Y-8.161 F999.600
G1 X6.137 Y-7.522 F999.600
G1 X6.994 Y-6.814 F999.600
G1 X7.503 Y-6.273 F999.600
G1 X7.745 Y-5.994 F999.600
G1 X8.193 Y-5.391 F999.600
G1 X8.590 Y-4.758 F999.600
G1 X8.770 Y-4.429 F999.600
G1 X9.081 Y-3.752 F999.600
G1 X9.354 Y-3.056 F999.600
G1 X9.677 Y-1.981 F999.600
G1 X9.826 Y-1.248 F999.600
G1 X9.913 Y-0.503 F999.600
G1 X9.938 Y-0.130 F999.600
G1 X9.938 Y0.602 F999.600
G1 X9.876 Y1.335 F999.600
G1 X9.826 Y1.702 F999.600
G1 X9.677 Y2.429 F999.600
G1 X9.466 Y3.143 F999.600
G1 X9.224 Y3.839 F999.600
G1 X8.932 Y4.522 F999.600
G1 X8.584 Y5.180 F999.600
G1 X8.186 Y5.807 F999.600
G1 X7.969 Y6.112 F999.600
G1 X7.478 Y6.677 F999.600
G1 X6.957 Y7.211 F999.600
G1 X6.112 Y7.950 F999.600
G1 X5.522 Y8.404 F999.600
G1 X4.888 Y8.801 F999.600
G1 X4.565 Y8.988 F999.600
G1 X4.230 Y9.155 F999.600
G1 X3.534 Y9.435 F999.600
G1 X2.826 Y9.671 F999.600
G1 X2.099 Y9.851 F999.600
G1 X1.360 Y9.988 F999.600
G1 X0.615 Y10.075 F999.600
G1 X-0.124 Y10.112 F999.600
G1 X-0.857 Y10.099 F999.600
G1 X-1.590 Y10.037 F999.600
G1 X-2.671 Y9.795 F999.600
G1 X-3.379 Y9.565 F999.600
G1 X-3.727 Y9.435 F999.600
G1 X-4.404 Y9.124 F999.600
G1 X-5.056 Y8.764 F999.600
G1 X-5.677 Y8.354 F999.600
G1 X-6.559 Y7.658 F999.600
G1 X-7.373 Y6.894 F999.600
G1 X-7.627 Y6.621 F999.600
G1 X-8.087 Y6.037 F999.600
G1 X-8.696 Y5.099 F999.600
G1 X-9.056 Y4.441 F999.600
G1 X-9.224 Y4.106 F999.600
G1 X-9.497 Y3.410 F999.600
G1 X-9.615 Y3.056 F999.600
G1 X-9.807 Y2.329 F999.600
G1 X-9.882 Y1.963 F999.600
G1 X-9.981 Y1.217 F999.600
G1 X-10.043 Y0.472 F999.600
G1 X-10.050 Y-0.634 F999.600
G1 X-9.963 Y-1.733 F999.600
G1 X-9.851 Y-2.466 F999.600
G1 X-9.776 Y-2.826 F999.600
G1 X-9.553 Y-3.534 F999.600
G1 X-9.416 Y-3.882 F999.600
G1 X-8.919 Y-4.876 F999.600
G1 X-8.534 Y-5.516 F999.600
G1 X-8.112 Y-6.130 F999.600
G1 X-7.652 Y-6.720 F999.600
G1 X-7.155 Y-7.273 F999.600
G1 X-6.602 Y-7.776 F999.600
G1 X-6.019 Y-8.248 F999.600
G1 X-5.087 Y-8.882 F999.600
G1 X-4.435 Y-9.255 F999.600
G1 X-4.099 Y-9.422 F999.600
G1 X-3.404 Y-9.702 F999.600
G1 X-2.696 Y-9.938 F999.600
G1 X-1.975 Y-10.137 F999.600
G1 X-0.870 Y-10.342 F999.600
G1 X-0.497 Y-10.385 F999.600
G1 X0.609 Y-10.422 F999.600
G1 X1.708 Y-10.335 F999.600
G1 X2.441 Y-10.211 F999.600
G1 X3.161 Y-10.037 F999.600
G1 X3.516 Y-9.932 F999.600
G1 X4.199 Y-9.652 F999.600
G1 X4.870 Y-9.329 F999.600
G1 X5.516 Y-8.969 F999.600
G1 X6.143 Y-8.571 F999.600
G1 X6.739 Y-8.124 F999.600
G1 X7.311 Y-7.646 F999.600
G1 X8.112 Y-6.876 F999.600
G1 X8.584 Y-6.304 F999.600
G1 X8.807 Y-6.006 F999.600
G1 X9.211 Y-5.379 F999.600
G1 X9.727 Y-4.385 F999.600
G1 X10.012 Y-3.696 F999.600
G1 X10.261 Y-2.988 F999.600
G1 X10.460 Y-2.267 F999.600
G1 X10.609 Y-1.534 F999.600
G1 X10.708 Y-0.789 F999.600
G1 X10.758 Y-0.043 F999.600
G1 X10.758 Y0.689 F999.600
G1 X10.671 Y1.789 F999.600
G1 X10.528 Y2.516 F999.600
G1 X10.335 Y3.230 F999.600
G1 X10.099 Y3.938 F999.600
G1 X9.826 Y4.627 F999.600
G1 X9.497 Y5.292 F999.600
G1 X9.112 Y5.932 F999.600
G1 X8.677 Y6.540 F999.600
G1 X8.205 Y7.112 F999.600
G1 X7.696 Y7.658 F999.600
G1 X7.155 Y8.174 F999.600
G1 X6.590 Y8.658 F999.600
G1 X6.000 Y9.112 F999.600
G1 X5.689 Y9.323 F999.600
G1 X5.037 Y9.689 F999.600
G1 X4.360 Y10.012 F999.600
G1 X3.658 Y10.286 F999.600
G1 X2.944 Y10.509 F999.600
G1 X2.211 Y10.683 F999.600
G1 X1.478 Y10.814 F999.600
G1 X0.360 Y10.932 F999.600
G1 X-0.739 Y10.957 F999.600
G1 X-1.106 Y10.944 F999.600
G1 X-1.839 Y10.857 F999.600
G1 X-2.205 Y10.795 F999.600
G1 X-2.925 Y10.621 F999.600
G1 X-3.280 Y10.516 F999.600
G1 X-3.975 Y10.255 F999.600
G1 X-4.652 Y9.944 F999.600
G1 X-5.311 Y9.596 F999.600
G1 X-6.248 Y8.988 F999.600
G1 X-7.124 Y8.298 F999.600
G1 X-7.677 Y7.795 F999.600
G1 X-7.944 Y7.534 F999.600
G1 X-8.199 Y7.261 F999.600
G1 X-8.665 Y6.677 F999.600
G1 X-9.292 Y5.745 F999.600
G1 X-9.652 Y5.093 F999.600
G1 X-10.124 Y4.075 F999.600
G1 X-10.385 Y3.373 F999.600
G1 X-10.596 Y2.652 F999.600
G1 X-10.739 Y1.919 F999.600
G1 X-10.839 Y1.174 F999.600
G1 X-10.913 Y-0.311 F999.600
G1 X-10.894 Y-1.043 F999.600
G1 X-10.783 Y-2.143 F999.600
G1 X-10.720 Y-2.509 F999.600
G1 X-10.540 Y-3.230 F999.600
G1 X-10.429 Y-3.584 F999.600
G1 X-10.006 Y-4.615 F999.600
G1 X-9.658 Y-5.273 F999.600
G1 X-9.286 Y-5.919 F999.600
G1 X-8.652 Y-6.839 F999.600
G1 X-8.429 Y-7.137 F999.600
G1 X-7.932 Y-7.683 F999.600
G1 X-7.398 Y-8.205 F999.600
G1 X-6.832 Y-8.689 F999.600
G1 X-6.236 Y-9.137 F999.600
G1 X-5.609 Y-9.547 F999.600
G1 X-4.957 Y-9.919 F999.600
G1 X-4.286 Y-10.255 F999.600
G1 X-3.596 Y-10.540 F999.600
G1 X-3.242 Y-10.671 F999.600
G1 X-1.398 Y-11.112 F999.600
G1 X0.925 Y-11.248 F999.600
G1 X1.857 Y-11.161 F999.600
G1 X3.255 Y-10.870 F999.600
G1 X4.720 Y-10.311 F999.600
G1 X6.081 Y-9.559 F999.600
G1 X7.273 Y-8.689 F999.600
G1 X8.093 Y-7.969 F999.600
G1 X9.335 Y-6.516 F999.600
G1 X10.087 Y-5.323 F999.600
G1 X10.826 Y-3.665 F999.600
G1 X11.391 Y-1.416 F999.600
G1 X11.509 Y-0.224 F999.600
G1 X11.472 Y1.652 F999.600
G1 X11.130 Y3.329 F999.600
G1 X10.441 Y5.155 F999.600
G1 X10.062 Y5.851 F999.600
G1 X9.366 Y6.901 F999.600
G1 X8.118 Y8.298 F999.600
G1 X7.335 Y9.031 F999.600
G1 X6.130 Y9.919 F999.600
G1 X4.441 Y10.820 F999.600
G1 X3.497 Y11.168 F999.600
G1 X1.528 Y11.640 F999.600
G1 X-0.801 Y11.783 F999.600
G1 X-2.106 Y11.658 F999.600
G1 X-3.596 Y11.261 F999.600
G1 X-5.193 Y10.553 F999.600
G1 X-6.932 Y9.453 F999.600
G1 X-8.130 Y8.404 F999.600
G1 X-9.366 Y6.957 F999.600
G1 X-10.311 Y5.429 F999.600
G1 X-11.012 Y3.863 F999.600
G1 X-11.547 Y1.689 F999.600
G1 X-11.671 Y-1.491 F999.600
G1 X-11.509 Y-2.702 F999.600
G1 X-10.807 Y-4.727 F999.600
G1 X-9.870 Y-6.435 F999.600
G1 X-8.522 Y-8.155 F999.600
G1 X-6.783 Y-9.665 F999.600
G1 X-4.981 Y-10.758 F999.600
G1 X-3.590 Y-11.342 F999.600
G1 X-2.602 Y-11.646 F999.600
G1 X-1.211 Y-11.894 F999.600
G1 X0.168 Y-11.950 F999.600
G1 X1.752 Y-11.820 F999.600
G1 X3.056 Y-11.547 F999.600
G1 X3.894 Y-11.292 F999.600
G1 X5.168 Y-10.770 F999.600
G1 X6.720 Y-9.876 F999.600
G1 X7.994 Y-8.894 F999.600
G1 X8.814 Y-8.075 F999.600
G1 X9.739 Y-6.919 F999.600
G1 X10.640 Y-5.447 F999.600
G1 X11.180 Y-4.242 F999.600
G1 X11.627 Y-2.776 F999.600
G1 X11.863 Y-1.484 F999.600
G1 X11.950 Y0.186 F999.600
G1 X11.870 Y1.398 F999.600
G1 X11.565 Y2.981 F999.600
G1 X11.112 Y4.379 F999.600
G1 X10.323 Y6.031 F999.600
G1 X9.242 Y7.578 F999.600
G1 X8.081 Y8.807 F999.600
G1 X7.106 Y9.609 F999.600
G1 X6.099 Y10.267 F999.600
G1 X4.776 Y10.957 F999.600
G1 X3.460 Y11.447 F999.600
G1 X1.870 Y11.807 F999.600
G1 X0.677 Y11.925 F999.600
G1 X-1.037 Y11.901 F999.600
G1 X-2.342 Y11.714 F999.600
G1 X-3.832 Y11.317 F999.600
G1 X-5.447 Y10.627 F999.600
G1 X-7.217 Y9.528 F999.600
G1 X-8.118 Y8.776 F999.600
G1 X-9.137 Y7.702 F999.600
G1 X-10.143 Y6.329 F999.600
G1 X-10.857 Y5.000 F999.600
G1 X-11.174 Y4.255 F999.600
G1 X-11.609 Y2.870 F999.600
G1 X-11.888 Y1.280 F999.600
G1 X-11.950 Y-0.193 F999.600
G1 X-11.857 Y-1.497 F999.600
G1 X-11.590 Y-2.894 F999.600
G1 X-11.112 Y-4.385 F999.600
G1 X-10.360 Y-5.950 F999.600
G1 X-9.379 Y-7.404 F999.600
G1 X-8.373 Y-8.522 F999.600
G1 X-7.180 Y-9.547 F999.600
G1 X-5.571 Y-10.571 F999.600
G1 X-4.000 Y-11.267 F999.600
G1 X-3.609 Y-11.385 F999.600
G1 X-3.609 Y-11.379 F999.600
G1 X-3.478 Y-11.385 F999.600
G0 X-3.472 Y-11.385
G0 X-3.789 Y-11.292
G1 X-3.839 Y-11.280 F999.600
G1 X-4.006 Y-11.242 F999.600
G1 X-4.019 Y-11.248 F999.600
G1 X-3.925 Y-11.342 F999.600
G1 X-3.925 Y-11.342 F999.600
G1 X-2.857 Y-11.658 F999.600
G1 X-1.137 Y-11.944 F999.600
G1 X0.062 Y-12.000 F999.600
G1 X1.590 Y-11.882 F999.600
G1 X2.894 Y-11.634 F999.600
G1 X3.789 Y-11.379 F999.600
G1 X5.292 Y-10.752 F999.600
G1 X6.839 Y-9.851 F999.600
G1 X8.000 Y-8.950 F999.600
G1 X8.876 Y-8.068 F999.600
G1 X9.739 Y-7.000 F999.600
G1 X10.634 Y-5.540 F999.600
G1 X11.261 Y-4.143 F999.600
G1 X11.683 Y-2.739 F999.600
G1 X11.894 Y-1.571 F999.600
G1 X11.994 Y-0.106 F999.600
G1 X11.988 Y0.329 F999.600
G1 X11.907 Y1.447 F999.600
G1 X11.634 Y2.925 F999.600
G1 X11.130 Y4.447 F999.600
G1 X10.398 Y5.981 F999.600
G1 X9.957 Y6.696 F999.600
G1 X9.211 Y7.677 F999.600
G1 X8.050 Y8.901 F999.600
G1 X7.273 Y9.547 F999.600
G1 X6.155 Y10.292 F999.600
G1 X4.938 Y10.932 F999.600
G1 X3.360 Y11.516 F999.600
G1 X1.826 Y11.857 F999.600
G1 X0.783 Y11.969 F999.600
G1 X-1.031 Y11.950 F999.600
G1 X-2.267 Y11.776 F999.600
G1 X-3.925 Y11.329 F999.600
G1 X-5.267 Y10.770 F999.600
G1 X-5.416 Y10.696 F999.600
G1 X-6.578 Y10.025 F999.600
G1 X-7.304 Y9.516 F999.600
G1 X-8.180 Y8.776 F999.600
G1 X-9.161 Y7.745 F999.600
G1 X-10.236 Y6.267 F999.600
G1 X-10.820 Y5.186 F999.600
G1 X-11.242 Y4.193 F999.600
G1 X-11.634 Y2.944 F999.600
G1 X-11.932 Y1.267 F999.600
G1 X-12.000 Y-0.124 F999.600
G1 X-11.894 Y-1.534 F999.600
G1 X-11.652 Y-2.826 F999.600
G1 X-11.155 Y-4.391 F999.600
G1 X-10.416 Y-5.944 F999.600
G1 X-9.342 Y-7.522 F999.600
G1 X-8.453 Y-8.509 F999.600
G1 X-7.106 Y-9.658 F999.600
G1 X-5.540 Y-10.640 F999.600
G1 X-3.925 Y-11.342 F999.600
G1 X-3.925 Y-11.342 F999.600
G0 Z23.000
(Helix to depth: 9.000000)
G0 X0.733 Y-0.839 Z23.000
G0 X0.733 Y-0.839 Z21.000
G1 X0.733 Y-0.839 Z12.000 F600.000
G1 X0.733 Y-0.839 Z12.000 F600.000
G1 X0.883 Y-0.680 Z11.981 F600.000
G1 X0.999 Y-0.494 Z11.961 F600.000
G1 X1.076 Y-0.290 Z11.942 F600.000
G1 X1.112 Y-0.075 Z11.923 F600.000
G1 X1.105 Y0.144 Z11.903 F600.000
G1 X1.056 Y0.357 Z11.884 F600.000
G1 X0.966 Y0.556 Z11.865 F600.000
G1 X0.839 Y0.733 Z11.846 F600.000
G1 X0.680 Y0.883 Z11.826 F600.000
G1 X0.494 Y0.999 Z11.807 F600.000
G1 X0.290 Y1.076 Z11.788 F600.000
G1 X0.075 Y1.112 Z11.768 F600.000
G1 X-0.144 Y1.105 Z11.749 F600.000
G1 X-0.357 Y1.056 Z11.730 F600.000
G1 X-0.556 Y0.966 Z11.710 F600.000
G1 X-0.733 Y0.839 Z11.691 F600.000
G1 X-0.883 Y0.680 Z11.672 F600.000
G1 X-0.999 Y0.494 Z11.652 F600.000
G1 X-1.076 Y0.290 Z11.633 F600.000
G1 X-1.112 Y0.075 Z11.614 F600.000
G1 X-1.105 Y-0.144 Z11.594 F600.000
G1 X-1.056 Y-0.357 Z11.575 F600.000
G1 X-0.966 Y-0.556 Z11.556 F600.000
G1 X-0.839 Y-0.733 Z11.537 F600.000
G1 X-0.680 Y-0.883 Z11.517 F600.000
G1 X-0.494 Y-0.999 Z11.498 F600.000
G1 X-0.290 Y-1.076 Z11.479 F600.000
G1 X-0.075 Y-1.112 Z11.459 F600.000
G1 X0.144 Y-1.105 Z11.440 F600.000
G1 X0.357 Y-1.056 Z11.421 F600.000
G1 X0.556 Y-0.966 Z11.401 F600.000
G1 X0.733 Y-0.839 Z11.382 F600.000
G1 X0.883 Y-0.680 Z11.363 F600.000
G1 X0.999 Y-0.494 Z11.343 F600.000
G1 X1.076 Y-0.290 Z11.324 F600.000
G1 X1.112 Y-0.075 Z11.305 F600.000
G1 X1.105 Y0.144 Z11.285 F600.000
G1 X1.056 Y0.357 Z11.266 F600.000
G1 X0.966 Y0.556 Z11.247 F600.000
G1 X0.839 Y0.733 Z11.228 F600.000
G1 X0.680 Y0.883 Z11.208 F600.000
G1 X0.494 Y0.999 Z11.189 F600.000
G1 X0.290 Y1.076 Z11.170 F600.000
G1 X0.075 Y1.112 Z11.150 F600.000
G1 X-0.144 Y1.105 Z11.131 F600.000
G1 X-0.357 Y1.056 Z11.112 F600.000
G1 X-0.556 Y0.966 Z11.092 F600.000
G1 X-0.733 Y0.839 Z11.073 F600.000
G1 X-0.883 Y0.680 Z11.054 F600.000
G1 X-0.999 Y0.494 Z11.034 F600.000
G1 X-1.076 Y0.290 Z11.015 F600.000
G1 X-1.112 Y0.075 Z10.996 F600.000
G1 X-1.105 Y-0.144 Z10.976 F600.000
G1 X-1.056 Y-0.357 Z10.957 F600.000
G1 X-0.966 Y-0.556 Z10.938 F600.000
G1 X-0.839 Y-0.733 Z10.919 F600.000
G1 X-0.680 Y-0.883 Z10.899 F600.000
G1 X-0.494 Y-0.999 Z10.880 F600.000
G1 X-0.290 Y-1.076 Z10.861 F600.000
G1 X-0.075 Y-1.112 Z10.841 F600.000
G1 X0.144 Y-1.105 Z10.822 F600.000
G1 X0.357 Y-1.056 Z10.803 F600.000
G1 X0.556 Y-0.966 Z10.783 F600.000
G1 X0.733 Y-0.839 Z10.764 F600.000
G1 X0.883 Y-0.680 Z10.745 F600.000
G1 X0.999 Y-0.494 Z10.725 F600.000
G1 X1.076 Y-0.290 Z10.706 F600.000
G1 X1.112 Y-0.075 Z10.687 F600.000
G1 X1.105 Y0.144 Z10.667 F600.000
G1 X1.056 Y0.357 Z10.648 F600.000
G1 X0.966 Y0.556 Z10.629 F600.000
G1 X0.839 Y0.733 Z10.610 F600.000
G1 X0.680 Y0.883 Z10.590 F600.000
G1 X0.494 Y0.999 Z10.571 F600.000
G1 X0.290 Y1.076 Z10.552 F600.000
G1 X0.075 Y1.112 Z10.532 F600.000
G1 X-0.144 Y1.105 Z10.513 F600.000
G1 X-0.357 Y1.056 Z10.494 F600.000
G1 X-0.556 Y0.966 Z10.474 F600.000
G1 X-0.733 Y0.839 Z10.455 F600.000
G1 X-0.883 Y0.680 Z10.436 F600.000
G1 X-0.999 Y0.494 Z10.416 F600.000
G1 X-1.076 Y0.290 Z10.397 F600.000
G1 X-1.112 Y0.075 Z10.378 F600.000
G1 X-1.105 Y-0.144 Z10.358 F600.000
G1 X-1.056 Y-0.357 Z10.339 F600.000
G1 X-0.966 Y-0.556 Z10.320 F600.000
G1 X-0.839 Y-0.733 Z10.301 F600.000
G1 X-0.680 Y-0.883 Z10.281 F600.000
G1 X-0.494 Y-0.999 Z10.262 F600.000
G1 X-0.290 Y-1.076 Z10.243 F600.000
G1 X-0.075 Y-1.112 Z10.223 F600.000
G1 X0.144 Y-1.105 Z10.204 F600.000
G1 X0.357 Y-1.056 Z10.185 F600.000
G1 X0.556 Y-0.966 Z10.165 F600.000
G1 X0.733 Y-0.839 Z10.146 F600.000
G1 X0.883 Y-0.680 Z10.127 F600.000
G1 X0.999 Y-0.494 Z10.107 F600.000
G1 X1.076 Y-0.290 Z10.088 F600.000
G1 X1.112 Y-0.075 Z10.069 F600.000
G1 X1.105 Y0.144 Z10.049 F600.000
G1 X1.056 Y0.357 Z10.030 F600.000
G1 X0.966 Y0.556 Z10.011 F600.000
G1 X0.839 Y0.733 Z9.992 F600.000
G1 X0.680 Y0.883 Z9.972 F600.000
G1 X0.494 Y0.999 Z9.953 F600.000
G1 X0.290 Y1.076 Z9.934 F600.000
G1 X0.075 Y1.112 Z9.914 F600.000
G1 X-0.144 Y1.105 Z9.895 F600.000
G1 X-0.357 Y1.056 Z9.876 F600.000
G1 X-0.556 Y0.966 Z9.856 F600.000
G1 X-0.733 Y0.839 Z9.837 F600.000
G1 X-0.883 Y0.680 Z9.818 F600.000
G1 X-0.999 Y0.494 Z9.798 F600.000
G1 X-1.076 Y0.290 Z9.779 F600.000
G1 X-1.112 Y0.075 Z9.760 F600.000
G1 X-1.105 Y-0.144 Z9.740 F600.000
G1 X-1.056 Y-0.357 Z9.721 F600.000
G1 X-0.966 Y-0.556 Z9.702 F600.000
G1 X-0.839 Y-0.733 Z9.683 F600.000
G1 X-0.680 Y-0.883 Z9.663 F600.000
G1 X-0.494 Y-0.999 Z9.644 F600.000
G1 X-0.290 Y-1.076 Z9.625 F600.000
G1 X-0.075 Y-1.112 Z9.605 F600.000
G1 X0.144 Y-1.105 Z9.586 F600.000
G1 X0.357 Y-1.056 Z9.567 F600.000
G1 X0.556 Y-0.966 Z9.547 F600.000
G1 X0.733 Y-0.839 Z9.528 F600.000
G1 X0.883 Y-0.680 Z9.509 F600.000
G1 X0.999 Y-0.494 Z9.489 F600.000
G1 X1.076 Y-0.290 Z9.470 F600.000
G1 X1.112 Y-0.075 Z9.451 F600.000
G1 X1.105 Y0.144 Z9.431 F600.000
G1 X1.056 Y0.357 Z9.412 F600.000
G1 X0.966 Y0.556 Z9.393 F600.000
G1 X0.839 Y0.733 Z9.374 F600.000
G1 X0.680 Y0.883 Z9.354 F600.000
G1 X0.494 Y0.999 Z9.335 F600.000
G1 X0.290 Y1.076 Z9.316 F600.000
G1 X0.075 Y1.112 Z9.296 F600.000
G1 X-0.144 Y1.105 Z9.277 F600.000
G1 X-0.357 Y1.056 Z9.258 F600.000
G1 X-0.556 Y0.966 Z9.238 F600.000
G1 X-0.733 Y0.839 Z9.219 F600.000
G1 X-0.883 Y0.680 Z9.200 F600.000
G1 X-0.999 Y0.494 Z9.180 F600.000
G1 X-1.076 Y0.290 Z9.161 F600.000
G1 X-1.112 Y0.075 Z9.142 F600.000
G1 X-1.105 Y-0.144 Z9.122 F600.000
G1 X-1.056 Y-0.357 Z9.103 F600.000
G1 X-0.966 Y-0.556 Z9.084 F600.000
G1 X-0.839 Y-0.733 Z9.065 F600.000
G1 X-0.680 Y-0.883 Z9.045 F600.000
G1 X-0.494 Y-0.999 Z9.026 F600.000
G1 X-0.290 Y-1.076 Z9.007 F600.000
G1 X-0.075 Y-1.112 Z9.000 F999.600
G1 X0.144 Y-1.105 Z9.000 F999.600
G1 X0.357 Y-1.056 Z9.000 F999.600
G1 X0.556 Y-0.966 Z9.000 F999.600
G1 X0.733 Y-0.839 Z9.000 F999.600
G1 X0.883 Y-0.680 Z9.000 F999.600
G1 X0.999 Y-0.494 Z9.000 F999.600
G1 X1.076 Y-0.290 Z9.000 F999.600
G1 X1.112 Y-0.075 Z9.000 F999.600
G1 X1.105 Y0.144 Z9.000 F999.600
G1 X1.056 Y0.357 Z9.000 F999.600
G1 X0.966 Y0.556 Z9.000 F999.600
G1 X0.839 Y0.733 Z9.000 F999.600
G1 X0.680 Y0.883 Z9.000 F999.600
G1 X0.494 Y0.999 Z9.000 F999.600
G1 X0.290 Y1.076 Z9.000 F999.600
G1 X0.075 Y1.112 Z9.000 F999.600
G1 X-0.144 Y1.105 Z9.000 F999.600
G1 X-0.357 Y1.056 Z9.000 F999.600
G1 X-0.556 Y0.966 Z9.000 F999.600
G1 X-0.733 Y0.839 Z9.000 F999.600
G1 X-0.883 Y0.680 Z9.000 F999.600
G1 X-0.999 Y0.494 Z9.000 F999.600
G1 X-1.076 Y0.290 Z9.000 F999.600
G1 X-1.112 Y0.075 Z9.000 F999.600
G1 X-1.105 Y-0.144 Z9.000 F999.600
G1 X-1.056 Y-0.357 Z9.000 F999.600
G1 X-0.966 Y-0.556 Z9.000 F999.600
G1 X-0.839 Y-0.733 Z9.000 F999.600
G1 X-0.680 Y-0.883 Z9.000 F999.600
G1 X-0.494 Y-0.999 Z9.000 F999.600
G1 X-0.290 Y-1.076 Z9.000 F999.600
(Adaptive - depth: 9.000000)
G1 X0.000 Y-1.124 F999.600
G1 X0.068 Y-1.193 F999.600
G1 X0.149 Y-1.242 F999.600
G1 X0.329 Y-1.292 F999.600
G1 X0.609 Y-1.280 F999.600
G1 X0.795 Y-1.217 F999.600
G1 X1.118 Y-1.031 F999.600
G1 X1.354 Y-0.776 F999.600
G1 X1.460 Y-0.584 F999.600
G1 X1.528 Y-0.398 F999.600
G1 X1.590 Y-0.161 F999.600
G1 X1.615 Y0.180 F999.600
G1 X1.559 Y0.491 F999.600
G1 X1.472 Y0.708 F999.600
G1 X1.360 Y0.913 F999.600
G1 X1.174 Y1.143 F999.600
G1 X0.944 Y1.342 F999.600
G1 X0.708 Y1.484 F999.600
G1 X0.435 Y1.590 F999.600
G1 X0.155 Y1.646 F999.600
G1 X-0.124 Y1.658 F999.600
G1 X-0.404 Y1.609 F999.600
G1 X-0.640 Y1.522 F999.600
G1 X-0.882 Y1.404 F999.600
G1 X-1.149 Y1.193 F999.600
G1 X-1.342 Y0.981 F999.600
G1 X-1.497 Y0.727 F999.600
G1 X-1.590 Y0.491 F999.600
G1 X-1.646 Y0.211 F999.600
G1 X-1.658 Y-0.056 F999.600
G1 X-1.615 Y-0.354 F999.600
G1 X-1.528 Y-0.627 F999.600
G1 X-1.398 Y-0.882 F999.600
G1 X-1.224 Y-1.112 F999.600
G1 X-1.012 Y-1.311 F999.600
G1 X-0.783 Y-1.497 F999.600
G1 X-0.460 Y-1.689 F999.600
G1 X0.217 Y-1.832 F999.600
G1 X0.404 Y-1.839 F999.600
G1 X0.770 Y-1.795 F999.600
G1 X1.118 Y-1.671 F999.600
G1 X1.360 Y-1.522 F999.600
G1 X1.553 Y-1.373 F999.600
G1 X1.770 Y-1.143 F999.600
G1 X1.950 Y-0.876 F999.600
G1 X2.087 Y-0.584 F999.600
G1 X2.168 Y-0.267 F999.600
G1 X2.199 Y0.012 F999.600
G1 X2.180 Y0.317 F999.600
G1 X2.130 Y0.615 F999.600
G1 X2.012 Y0.950 F999.600
G1 X1.857 Y1.236 F999.600
G1 X1.665 Y1.503 F999.600
G1 X1.429 Y1.739 F999.600
G1 X1.161 Y1.932 F999.600
G1 X0.870 Y2.087 F999.600
G1 X0.559 Y2.199 F999.600
G1 X0.236 Y2.261 F999.600
G1 X-0.087 Y2.273 F999.600
G1 X-0.410 Y2.236 F999.600
G1 X-0.727 Y2.155 F999.600
G1 X-1.025 Y2.025 F999.600
G1 X-1.304 Y1.851 F999.600
G1 X-1.565 Y1.646 F999.600
G1 X-1.820 Y1.373 F999.600
G1 X-2.006 Y1.081 F999.600
G1 X-2.137 Y0.807 F999.600
G1 X-2.224 Y0.472 F999.600
G1 X-2.255 Y0.180 F999.600
G1 X-2.261 Y-0.124 F999.600
G1 X-2.211 Y-0.491 F999.600
G1 X-2.106 Y-0.845 F999.600
G1 X-1.950 Y-1.161 F999.600
G1 X-1.783 Y-1.416 F999.600
G1 X-1.559 Y-1.683 F999.600
G1 X-1.273 Y-1.925 F999.600
G1 X-0.988 Y-2.112 F999.600
G1 X-0.665 Y-2.267 F999.600
G1 X-0.323 Y-2.385 F999.600
G1 X0.037 Y-2.453 F999.600
G1 X0.404 Y-2.478 F999.600
G1 X0.770 Y-2.453 F999.600
G1 X1.130 Y-2.360 F999.600
G1 X1.410 Y-2.248 F999.600
G1 X1.708 Y-2.075 F999.600
G1 X1.975 Y-1.857 F999.600
G1 X2.199 Y-1.621 F999.600
G1 X2.404 Y-1.348 F999.600
G1 X2.596 Y-1.025 F999.600
G1 X2.739 Y-0.677 F999.600
G1 X2.814 Y-0.311 F999.600
G1 X2.845 Y-0.012 F999.600
G1 X2.839 Y0.342 F999.600
G1 X2.770 Y0.708 F999.600
G1 X2.683 Y1.043 F999.600
G1 X2.534 Y1.385 F999.600
G1 X2.342 Y1.702 F999.600
G1 X2.118 Y2.000 F999.600
G1 X1.845 Y2.255 F999.600
G1 X1.571 Y2.460 F999.600
G1 X1.242 Y2.640 F999.600
G1 X0.901 Y2.789 F999.600
G1 X0.540 Y2.888 F999.600
G1 X0.168 Y2.932 F999.600
G1 X-0.174 Y2.938 F999.600
G1 X-0.540 Y2.888 F999.600
G1 X-0.901 Y2.789 F999.600
G1 X-1.248 Y2.665 F999.600
G1 X-1.578 Y2.491 F999.600
G1 X-1.882 Y2.280 F999.600
G1 X-2.149 Y2.025 F999.600
G1 X-2.379 Y1.752 F999.600
G1 X-2.578 Y1.435 F999.600
G1 X-2.733 Y1.093 F999.600
G1 X-2.845 Y0.733 F999.600
G1 X-2.907 Y0.360 F999.600
G1 X-2.938 Y-0.006 F999.600
G1 X-2.913 Y-0.373 F999.600
G1 X-2.845 Y-0.739 F999.600
G1 X-2.739 Y-1.093 F999.600
G1 X-2.590 Y-1.435 F999.600
G1 X-2.398 Y-1.752 F999.600
G1 X-2.168 Y-2.043 F999.600
G1 X-1.907 Y-2.311 F999.600
G1 X-1.615 Y-2.540 F999.600
G1 X-1.298 Y-2.739 F999.600
G1 X-0.957 Y-2.894 F999.600
G1 X-0.602 Y-3.025 F999.600
G1 X-0.236 Y-3.106 F999.600
G1 X0.130 Y-3.149 F999.600
G1 X0.497 Y-3.155 F999.600
G1 X0.863 Y-3.118 F999.600
G1 X1.224 Y-3.037 F999.600
G1 X1.578 Y-2.919 F999.600
G1 X1.907 Y-2.752 F999.600
G1 X2.217 Y-2.553 F999.600
G1 X2.503 Y-2.317 F999.600
G1 X2.758 Y-2.043 F999.600
G1 X2.981 Y-1.745 F999.600
G1 X3.168 Y-1.422 F999.600
G1 X3.323 Y-1.081 F999.600
G1 X3.435 Y-0.720 F999.600
G1 X3.509 Y-0.354 F999.600
G1 X3.540 Y0.012 F999.600
G1 X3.528 Y0.379 F999.600
G1 X3.478 Y0.745 F999.600
G1 X3.385 Y1.106 F999.600
G1 X3.267 Y1.460 F999.600
G1 X3.106 Y1.795 F999.600
G1 X2.913 Y2.112 F999.600
G1 X2.689 Y2.410 F999.600
G1 X2.435 Y2.683 F999.600
G1 X2.155 Y2.925 F999.600
G1 X1.845 Y3.130 F999.600
G1 X1.516 Y3.304 F999.600
G1 X1.168 Y3.441 F999.600
G1 X0.807 Y3.553 F999.600
G1 X0.441 Y3.621 F999.600
G1 X0.068 Y3.652 F999.600
G1 X-0.298 Y3.646 F999.600
G1 X-0.665 Y3.602 F999.600
G1 X-1.025 Y3.522 F999.600
G1 X-1.379 Y3.404 F999.600
G1 X-1.720 Y3.255 F999.600
G1 X-2.043 Y3.068 F999.600
G1 X-2.335 Y2.839 F999.600
G1 X-2.609 Y2.584 F999.600
G1 X-2.851 Y2.298 F999.600
G1 X-3.068 Y1.994 F999.600
G1 X-3.248 Y1.665 F999.600
G1 X-3.398 Y1.323 F999.600
G1 X-3.516 Y0.969 F999.600
G1 X-3.590 Y0.602 F999.600
G1 X-3.627 Y0.230 F999.600
G1 X-3.640 Y-0.137 F999.600
G1 X-3.609 Y-0.503 F999.600
G1 X-3.547 Y-0.870 F999.600
G1 X-3.453 Y-1.230 F999.600
G1 X-3.323 Y-1.578 F999.600
G1 X-3.161 Y-1.913 F999.600
G1 X-2.969 Y-2.230 F999.600
G1 X-2.733 Y-2.516 F999.600
G1 X-2.478 Y-2.783 F999.600
G1 X-2.193 Y-3.025 F999.600
G1 X-1.888 Y-3.236 F999.600
G1 X-1.559 Y-3.416 F999.600
G1 X-1.217 Y-3.578 F999.600
G1 X-0.863 Y-3.702 F999.600
G1 X-0.497 Y-3.795 F999.600
G1 X-0.124 Y-3.857 F999.600
G1 X0.242 Y-3.882 F999.600
G1 X0.609 Y-3.876 F999.600
G1 X0.975 Y-3.832 F999.600
G1 X1.335 Y-3.758 F999.600
G1 X1.689 Y-3.652 F999.600
G1 X2.031 Y-3.509 F999.600
G1 X2.360 Y-3.342 F999.600
G1 X2.671 Y-3.143 F999.600
G1 X2.957 Y-2.901 F999.600
G1 X3.224 Y-2.640 F999.600
G1 X3.460 Y-2.354 F999.600
G1 X3.665 Y-2.043 F999.600
G1 X3.839 Y-1.714 F999.600
G1 X3.994 Y-1.373 F999.600
G1 X4.106 Y-1.019 F999.600
G1 X4.193 Y-0.652 F999.600
G1 X4.248 Y-0.280 F999.600
G1 X4.267 Y0.087 F999.600
G1 X4.255 Y0.453 F999.600
G1 X4.211 Y0.820 F999.600
G1 X4.137 Y1.180 F999.600
G1 X4.025 Y1.534 F999.600
G1 X3.882 Y1.876 F999.600
G1 X3.714 Y2.205 F999.600
G1 X3.516 Y2.522 F999.600
G1 X3.292 Y2.820 F999.600
G1 X3.037 Y3.093 F999.600
G1 X2.764 Y3.342 F999.600
G1 X2.478 Y3.578 F999.600
G1 X2.168 Y3.783 F999.600
G1 X1.845 Y3.969 F999.600
G1 X1.497 Y4.112 F999.600
G1 X1.143 Y4.230 F999.600
G1 X0.776 Y4.317 F999.600
G1 X0.404 Y4.366 F999.600
G1 X0.031 Y4.385 F999.600
G1 X-0.335 Y4.373 F999.600
G1 X-0.702 Y4.342 F999.600
G1 X-1.068 Y4.273 F999.600
G1 X-1.429 Y4.174 F999.600
G1 X-1.776 Y4.050 F999.600
G1 X-2.112 Y3.894 F999.600
G1 X-2.435 Y3.714 F999.600
G1 X-2.733 Y3.491 F999.600
G1 X-3.019 Y3.248 F999.600
G1 X-3.273 Y2.981 F999.600
G1 X-3.714 Y2.379 F999.600
G1 X-3.894 Y2.050 F999.600
G1 X-4.043 Y1.708 F999.600
G1 X-4.168 Y1.354 F999.600
G1 X-4.261 Y0.988 F999.600
G1 X-4.323 Y0.615 F999.600
G1 X-4.366 Y0.242 F999.600
G1 X-4.373 Y-0.124 F999.600
G1 X-4.354 Y-0.491 F999.600
G1 X-4.304 Y-0.857 F999.600
G1 X-4.224 Y-1.217 F999.600
G1 X-4.118 Y-1.571 F999.600
G1 X-3.988 Y-1.919 F999.600
G1 X-3.826 Y-2.255 F999.600
G1 X-3.640 Y-2.578 F999.600
G1 X-3.416 Y-2.876 F999.600
G1 X-3.174 Y-3.161 F999.600
G1 X-2.907 Y-3.422 F999.600
G1 X-2.615 Y-3.658 F999.600
G1 X-2.311 Y-3.870 F999.600
G1 X-1.988 Y-4.056 F999.600
G1 X-1.298 Y-4.354 F999.600
G1 X-0.938 Y-4.460 F999.600
G1 X-0.571 Y-4.540 F999.600
G1 X-0.199 Y-4.596 F999.600
G1 X0.534 Y-4.634 F999.600
G1 X0.901 Y-4.615 F999.600
G1 X1.267 Y-4.571 F999.600
G1 X1.627 Y-4.478 F999.600
G1 X1.981 Y-4.366 F999.600
G1 X2.323 Y-4.224 F999.600
G1 X2.652 Y-4.056 F999.600
G1 X2.969 Y-3.863 F999.600
G1 X3.267 Y-3.646 F999.600
G1 X3.553 Y-3.404 F999.600
G1 X3.814 Y-3.137 F999.600
G1 X4.043 Y-2.839 F999.600
G1 X4.255 Y-2.528 F999.600
G1 X4.602 Y-1.863 F999.600
G1 X4.745 Y-1.516 F999.600
G1 X4.857 Y-1.155 F999.600
G1 X4.950 Y-0.795 F999.600
G1 X5.000 Y-0.422 F999.600
G1 X5.031 Y-0.050 F999.600
G1 X5.031 Y0.317 F999.600
G1 X4.994 Y0.683 F999.600
G1 X4.857 Y1.410 F999.600
G1 X4.745 Y1.764 F999.600
G1 X4.609 Y2.112 F999.600
G1 X4.453 Y2.447 F999.600
G1 X4.273 Y2.770 F999.600
G1 X4.068 Y3.081 F999.600
G1 X3.832 Y3.366 F999.600
G1 X3.578 Y3.640 F999.600
G1 X3.304 Y3.894 F999.600
G1 X3.019 Y4.137 F999.600
G1 X2.714 Y4.354 F999.600
G1 X2.398 Y4.547 F999.600
G1 X2.068 Y4.720 F999.600
G1 X1.727 Y4.870 F999.600
G1 X1.366 Y4.975 F999.600
G1 X1.000 Y5.062 F999.600
G1 X0.627 Y5.118 F999.600
G1 X0.255 Y5.149 F999.600
G1 X-0.112 Y5.161 F999.600
G1 X-0.478 Y5.143 F999.600
G1 X-0.845 Y5.106 F999.600
G1 X-1.211 Y5.043 F999.600
G1 X-1.571 Y4.957 F999.600
G1 X-1.925 Y4.845 F999.600
G1 X-2.590 Y4.522 F999.600
G1 X-2.907 Y4.323 F999.600
G1 X-3.205 Y4.099 F999.600
G1 X-3.484 Y3.851 F999.600
G1 X-3.745 Y3.584 F999.600
G1 X-3.994 Y3.304 F999.600
G1 X-4.217 Y3.006 F999.600
G1 X-4.416 Y2.689 F999.600
G1 X-4.596 Y2.360 F999.600
G1 X-4.752 Y2.019 F999.600
G1 X-4.882 Y1.665 F999.600
G1 X-4.988 Y1.304 F999.600
G1 X-5.068 Y0.938 F999.600
G1 X-5.124 Y0.565 F999.600
G1 X-5.155 Y0.193 F999.600
G1 X-5.155 Y-0.174 F999.600
G1 X-5.130 Y-0.540 F999.600
G1 X-5.081 Y-0.907 F999.600
G1 X-4.919 Y-1.627 F999.600
G1 X-4.801 Y-1.981 F999.600
G1 X-4.665 Y-2.323 F999.600
G1 X-4.491 Y-2.652 F999.600
G1 X-4.298 Y-2.969 F999.600
G1 X-4.087 Y-3.273 F999.600
G1 X-3.851 Y-3.559 F999.600
G1 X-3.596 Y-3.832 F999.600
G1 X-3.323 Y-4.081 F999.600
G1 X-3.031 Y-4.311 F999.600
G1 X-2.720 Y-4.522 F999.600
G1 X-2.398 Y-4.708 F999.600
G1 X-1.720 Y-5.019 F999.600
G1 X-1.366 Y-5.137 F999.600
G1 X-1.006 Y-5.236 F999.600
G1 X-0.640 Y-5.317 F999.600
G1 X-0.267 Y-5.373 F999.600
G1 X0.466 Y-5.429 F999.600
G1 X0.832 Y-5.422 F999.600
G1 X1.199 Y-5.379 F999.600
G1 X1.559 Y-5.311 F999.600
G1 X1.919 Y-5.217 F999.600
G1 X2.273 Y-5.099 F999.600
G1 X2.615 Y-4.950 F999.600
G1 X2.944 Y-4.783 F999.600
G1 X3.261 Y-4.596 F999.600
G1 X3.565 Y-4.385 F999.600
G1 X3.857 Y-4.149 F999.600
G1 X4.130 Y-3.894 F999.600
G1 X4.385 Y-3.621 F999.600
G1 X4.621 Y-3.329 F999.600
G1 X4.839 Y-3.025 F999.600
G1 X5.031 Y-2.708 F999.600
G1 X5.366 Y-2.037 F999.600
G1 X5.497 Y-1.689 F999.600
G1 X5.609 Y-1.329 F999.600
G1 X5.702 Y-0.969 F999.600
G1 X5.770 Y-0.602 F999.600
G1 X5.807 Y0.137 F999.600
G1 X5.758 Y0.870 F999.600
G1 X5.696 Y1.236 F999.600
G1 X5.609 Y1.596 F999.600
G1 X5.503 Y1.950 F999.600
G1 X5.373 Y2.298 F999.600
G1 X5.224 Y2.640 F999.600
G1 X5.056 Y2.969 F999.600
G1 X4.863 Y3.286 F999.600
G1 X4.652 Y3.590 F999.600
G1 X4.422 Y3.882 F999.600
G1 X4.174 Y4.161 F999.600
G1 X3.907 Y4.422 F999.600
G1 X3.627 Y4.671 F999.600
G1 X3.329 Y4.901 F999.600
G1 X3.019 Y5.112 F999.600
G1 X2.696 Y5.298 F999.600
G1 X2.360 Y5.466 F999.600
G1 X1.658 Y5.714 F999.600
G1 X0.925 Y5.876 F999.600
G1 X0.553 Y5.919 F999.600
G1 X0.180 Y5.938 F999.600
G1 X-0.553 Y5.932 F999.600
G1 X-0.919 Y5.894 F999.600
G1 X-1.286 Y5.839 F999.600
G1 X-2.000 Y5.640 F999.600
G1 X-2.348 Y5.509 F999.600
G1 X-2.683 Y5.354 F999.600
G1 X-3.012 Y5.180 F999.600
G1 X-3.329 Y4.981 F999.600
G1 X-3.634 Y4.764 F999.600
G1 X-3.919 Y4.528 F999.600
G1 X-4.193 Y4.273 F999.600
G1 X-4.447 Y4.000 F999.600
G1 X-4.683 Y3.714 F999.600
G1 X-4.901 Y3.410 F999.600
G1 X-5.099 Y3.093 F999.600
G1 X-5.273 Y2.764 F999.600
G1 X-5.571 Y2.075 F999.600
G1 X-5.689 Y1.720 F999.600
G1 X-5.789 Y1.360 F999.600
G1 X-5.870 Y0.994 F999.600
G1 X-5.925 Y0.621 F999.600
G1 X-5.950 Y-0.118 F999.600
G1 X-5.894 Y-0.851 F999.600
G1 X-5.832 Y-1.217 F999.600
G1 X-5.752 Y-1.578 F999.600
G1 X-5.652 Y-1.938 F999.600
G1 X-5.534 Y-2.286 F999.600
G1 X-5.398 Y-2.627 F999.600
G1 X-5.242 Y-2.963 F999.600
G1 X-4.845 Y-3.590 F999.600
G1 X-4.373 Y-4.168 F999.600
G1 X-4.112 Y-4.435 F999.600
G1 X-3.540 Y-4.919 F999.600
G1 X-3.236 Y-5.137 F999.600
G1 X-2.919 Y-5.335 F999.600
G1 X-2.590 Y-5.516 F999.600
G1 X-2.248 Y-5.677 F999.600
G1 X-1.901 Y-5.814 F999.600
G1 X-1.547 Y-5.932 F999.600
G1 X-1.186 Y-6.025 F999.600
G1 X-0.453 Y-6.168 F999.600
G1 X0.286 Y-6.230 F999.600
G1 X0.652 Y-6.236 F999.600
G1 X1.019 Y-6.224 F999.600
G1 X1.385 Y-6.168 F999.600
G1 X1.745 Y-6.087 F999.600
G1 X2.453 Y-5.876 F999.600
G1 X2.795 Y-5.733 F999.600
G1 X3.130 Y-5.571 F999.600
G1 X3.770 Y-5.199 F999.600
G1 X4.366 Y-4.752 F999.600
G1 X4.646 Y-4.509 F999.600
G1 X5.143 Y-3.957 F999.600
G1 X5.366 Y-3.658 F999.600
G1 X5.770 Y-3.031 F999.600
G1 X5.944 Y-2.696 F999.600
G1 X6.099 Y-2.354 F999.600
G1 X6.236 Y-2.006 F999.600
G1 X6.348 Y-1.652 F999.600
G1 X6.441 Y-1.292 F999.600
G1 X6.516 Y-0.925 F999.600
G1 X6.571 Y-0.553 F999.600
G1 X6.602 Y-0.180 F999.600
G1 X6.615 Y0.186 F999.600
G1 X6.609 Y0.553 F999.600
G1 X6.578 Y0.919 F999.600
G1 X6.528 Y1.286 F999.600
G1 X6.342 Y2.000 F999.600
G1 X6.230 Y2.354 F999.600
G1 X6.087 Y2.696 F999.600
G1 X5.752 Y3.360 F999.600
G1 X5.342 Y3.981 F999.600
G1 X5.124 Y4.280 F999.600
G1 X4.882 Y4.565 F999.600
G1 X4.366 Y5.099 F999.600
G1 X3.783 Y5.565 F999.600
G1 X3.472 Y5.776 F999.600
G1 X2.820 Y6.137 F999.600
G1 X2.478 Y6.286 F999.600
G1 X2.130 Y6.416 F999.600
G1 X1.770 Y6.528 F999.600
G1 X1.404 Y6.621 F999.600
G1 X1.037 Y6.689 F999.600
G1 X0.665 Y6.739 F999.600
G1 X0.292 Y6.764 F999.600
G1 X-0.075 Y6.770 F999.600
G1 X-0.807 Y6.727 F999.600
G1 X-1.174 Y6.677 F999.600
G1 X-1.540 Y6.609 F999.600
G1 X-1.901 Y6.522 F999.600
G1 X-2.255 Y6.416 F999.600
G1 X-2.602 Y6.292 F999.600
G1 X-2.944 Y6.149 F999.600
G1 X-3.596 Y5.789 F999.600
G1 X-3.907 Y5.584 F999.600
G1 X-4.478 Y5.112 F999.600
G1 X-4.752 Y4.857 F999.600
G1 X-5.006 Y4.584 F999.600
G1 X-5.466 Y4.000 F999.600
G1 X-5.863 Y3.366 F999.600
G1 X-6.037 Y3.037 F999.600
G1 X-6.193 Y2.696 F999.600
G1 X-6.329 Y2.348 F999.600
G1 X-6.553 Y1.634 F999.600
G1 X-6.640 Y1.267 F999.600
G1 X-6.708 Y0.901 F999.600
G1 X-6.745 Y0.155 F999.600
G1 X-6.745 Y-0.211 F999.600
G1 X-6.727 Y-0.578 F999.600
G1 X-6.640 Y-1.311 F999.600
G1 X-6.571 Y-1.677 F999.600
G1 X-6.385 Y-2.391 F999.600
G1 X-6.087 Y-3.068 F999.600
G1 X-5.727 Y-3.720 F999.600
G1 X-5.292 Y-4.329 F999.600
G1 X-5.056 Y-4.615 F999.600
G1 X-4.801 Y-4.888 F999.600
G1 X-4.534 Y-5.149 F999.600
G1 X-4.255 Y-5.391 F999.600
G1 X-3.957 Y-5.621 F999.600
G1 X-3.335 Y-6.031 F999.600
G1 X-3.006 Y-6.211 F999.600
G1 X-2.671 Y-6.373 F999.600
G1 X-2.323 Y-6.516 F999.600
G1 X-1.969 Y-6.640 F999.600
G1 X-1.609 Y-6.745 F999.600
G1 X-0.876 Y-6.913 F999.600
G1 X-0.130 Y-7.012 F999.600
G1 X0.236 Y-7.043 F999.600
G1 X0.602 Y-7.056 F999.600
G1 X1.335 Y-7.006 F999.600
G1 X1.702 Y-6.950 F999.600
G1 X2.062 Y-6.876 F999.600
G1 X2.416 Y-6.764 F999.600
G1 X3.106 Y-6.491 F999.600
G1 X3.441 Y-6.329 F999.600
G1 X4.081 Y-5.957 F999.600
G1 X4.391 Y-5.752 F999.600
G1 X4.975 Y-5.292 F999.600
G1 X5.248 Y-5.043 F999.600
G1 X5.509 Y-4.776 F999.600
G1 X5.994 Y-4.205 F999.600
G1 X6.391 Y-3.578 F999.600
G1 X6.727 Y-2.913 F999.600
G1 X7.006 Y-2.217 F999.600
G1 X7.124 Y-1.863 F999.600
G1 X7.311 Y-1.137 F999.600
G1 X7.410 Y-0.391 F999.600
G1 X7.435 Y-0.019 F999.600
G1 X7.435 Y0.348 F999.600
G1 X7.416 Y0.714 F999.600
G1 X7.379 Y1.081 F999.600
G1 X7.317 Y1.447 F999.600
G1 X7.236 Y1.807 F999.600
G1 X7.137 Y2.161 F999.600
G1 X6.894 Y2.857 F999.600
G1 X6.584 Y3.534 F999.600
G1 X6.410 Y3.863 F999.600
G1 X6.012 Y4.491 F999.600
G1 X5.547 Y5.068 F999.600
G1 X5.292 Y5.342 F999.600
G1 X4.745 Y5.845 F999.600
G1 X4.149 Y6.292 F999.600
G1 X3.839 Y6.497 F999.600
G1 X3.186 Y6.857 F999.600
G1 X2.845 Y7.019 F999.600
G1 X2.497 Y7.161 F999.600
G1 X2.143 Y7.286 F999.600
G1 X1.410 Y7.453 F999.600
G1 X0.665 Y7.553 F999.600
G1 X-0.075 Y7.584 F999.600
G1 X-0.441 Y7.578 F999.600
G1 X-1.174 Y7.516 F999.600
G1 X-1.907 Y7.391 F999.600
G1 X-2.615 Y7.174 F999.600
G1 X-2.963 Y7.037 F999.600
G1 X-3.298 Y6.882 F999.600
G1 X-3.627 Y6.708 F999.600
G1 X-4.261 Y6.317 F999.600
G1 X-4.857 Y5.870 F999.600
G1 X-5.391 Y5.354 F999.600
G1 X-5.882 Y4.789 F999.600
G1 X-6.317 Y4.180 F999.600
G1 X-6.516 Y3.863 F999.600
G1 X-6.863 Y3.199 F999.600
G1 X-7.149 Y2.509 F999.600
G1 X-7.267 Y2.155 F999.600
G1 X-7.453 Y1.429 F999.600
G1 X-7.547 Y0.683 F999.600
G1 X-7.571 Y-0.422 F999.600
G1 X-7.509 Y-1.155 F999.600
G1 X-7.460 Y-1.522 F999.600
G1 X-7.292 Y-2.242 F999.600
G1 X-7.180 Y-2.596 F999.600
G1 X-6.907 Y-3.286 F999.600
G1 X-6.745 Y-3.621 F999.600
G1 X-6.565 Y-3.944 F999.600
G1 X-6.155 Y-4.565 F999.600
G1 X-5.683 Y-5.137 F999.600
G1 X-5.168 Y-5.671 F999.600
G1 X-4.602 Y-6.155 F999.600
G1 X-4.304 Y-6.385 F999.600
G1 X-4.000 Y-6.596 F999.600
G1 X-3.348 Y-6.963 F999.600
G1 X-3.006 Y-7.124 F999.600
G1 X-1.950 Y-7.503 F999.600
G1 X-1.224 Y-7.677 F999.600
G1 X-0.491 Y-7.814 F999.600
G1 X-0.118 Y-7.863 F999.600
G1 X0.248 Y-7.882 F999.600
G1 X0.615 Y-7.882 F999.600
G1 X1.348 Y-7.839 F999.600
G1 X1.714 Y-7.789 F999.600
G1 X2.435 Y-7.609 F999.600
G1 X3.137 Y-7.366 F999.600
G1 X3.814 Y-7.056 F999.600
G1 X4.143 Y-6.882 F999.600
G1 X4.770 Y-6.484 F999.600
G1 X5.366 Y-6.037 F999.600
G1 X5.652 Y-5.795 F999.600
G1 X5.925 Y-5.540 F999.600
G1 X6.416 Y-4.975 F999.600
G1 X6.646 Y-4.677 F999.600
G1 X7.236 Y-3.727 F999.600
G1 X7.559 Y-3.050 F999.600
G1 X7.702 Y-2.702 F999.600
G1 X7.938 Y-1.988 F999.600
G1 X8.112 Y-1.261 F999.600
G1 X8.224 Y-0.516 F999.600
G1 X8.273 Y0.224 F999.600
G1 X8.224 Y0.957 F999.600
G1 X8.112 Y1.689 F999.600
G1 X8.031 Y2.050 F999.600
G1 X7.932 Y2.404 F999.600
G1 X7.683 Y3.106 F999.600
G1 X7.205 Y4.118 F999.600
G1 X6.826 Y4.758 F999.600
G1 X6.621 Y5.068 F999.600
G1 X6.143 Y5.640 F999.600
G1 X5.888 Y5.913 F999.600
G1 X5.615 Y6.168 F999.600
G1 X5.043 Y6.652 F999.600
G1 X4.441 Y7.087 F999.600
G1 X4.130 Y7.292 F999.600
G1 X3.807 Y7.478 F999.600
G1 X3.130 Y7.795 F999.600
G1 X2.783 Y7.932 F999.600
G1 X2.429 Y8.050 F999.600
G1 X2.068 Y8.149 F999.600
G1 X1.702 Y8.230 F999.600
G1 X0.957 Y8.348 F999.600
G1 X0.584 Y8.385 F999.600
G1 X-0.155 Y8.410 F999.600
G1 X-0.888 Y8.373 F999.600
G1 X-1.255 Y8.335 F999.600
G1 X-1.988 Y8.211 F999.600
G1 X-2.702 Y8.025 F999.600
G1 X-3.391 Y7.758 F999.600
G1 X-3.727 Y7.596 F999.600
G1 X-4.683 Y7.025 F999.600
G1 X-5.273 Y6.578 F999.600
G1 X-5.559 Y6.335 F999.600
G1 X-5.832 Y6.081 F999.600
G1 X-6.348 Y5.540 F999.600
G1 X-6.590 Y5.255 F999.600
G1 X-7.205 Y4.323 F999.600
G1 X-7.565 Y3.671 F999.600
G1 X-7.876 Y2.994 F999.600
G1 X-8.106 Y2.280 F999.600
G1 X-8.199 Y1.919 F999.600
G1 X-8.323 Y1.180 F999.600
G1 X-8.391 Y0.435 F999.600
G1 X-8.404 Y0.062 F999.600
G1 X-8.379 Y-0.671 F999.600
G1 X-8.304 Y-1.404 F999.600
G1 X-8.180 Y-2.137 F999.600
G1 X-7.975 Y-2.851 F999.600
G1 X-7.851 Y-3.199 F999.600
G1 X-7.553 Y-3.876 F999.600
G1 X-7.193 Y-4.528 F999.600
G1 X-6.770 Y-5.143 F999.600
G1 X-6.298 Y-5.714 F999.600
G1 X-5.776 Y-6.248 F999.600
G1 X-5.211 Y-6.739 F999.600
G1 X-4.615 Y-7.186 F999.600
G1 X-4.304 Y-7.391 F999.600
G1 X-3.640 Y-7.745 F999.600
G1 X-3.298 Y-7.901 F999.600
G1 X-2.602 Y-8.168 F999.600
G1 X-1.882 Y-8.391 F999.600
G1 X-0.789 Y-8.640 F999.600
G1 X-0.043 Y-8.720 F999.600
G1 X0.323 Y-8.739 F999.600
G1 X1.056 Y-8.727 F999.600
G1 X1.789 Y-8.621 F999.600
G1 X2.509 Y-8.460 F999.600
G1 X2.863 Y-8.354 F999.600
G1 X3.559 Y-8.099 F999.600
G1 X3.901 Y-7.950 F999.600
G1 X4.559 Y-7.602 F999.600
G1 X5.186 Y-7.205 F999.600
G1 X5.776 Y-6.758 F999.600
G1 X6.335 Y-6.273 F999.600
G1 X6.602 Y-6.012 F999.600
G1 X7.093 Y-5.453 F999.600
G1 X7.323 Y-5.155 F999.600
G1 X7.739 Y-4.528 F999.600
G1 X8.099 Y-3.876 F999.600
G1 X8.398 Y-3.186 F999.600
G1 X8.652 Y-2.478 F999.600
G1 X8.851 Y-1.758 F999.600
G1 X9.000 Y-1.025 F999.600
G1 X9.056 Y-0.652 F999.600
G1 X9.087 Y0.087 F999.600
G1 X9.062 Y0.820 F999.600
G1 X8.975 Y1.553 F999.600
G1 X8.913 Y1.919 F999.600
G1 X8.739 Y2.640 F999.600
G1 X8.634 Y2.994 F999.600
G1 X8.373 Y3.689 F999.600
G1 X8.062 Y4.366 F999.600
G1 X7.888 Y4.696 F999.600
G1 X7.491 Y5.323 F999.600
G1 X7.043 Y5.919 F999.600
G1 X6.528 Y6.460 F999.600
G1 X5.988 Y6.969 F999.600
G1 X5.112 Y7.658 F999.600
G1 X4.484 Y8.068 F999.600
G1 X3.820 Y8.410 F999.600
G1 X3.478 Y8.559 F999.600
G1 X2.770 Y8.807 F999.600
G1 X2.050 Y9.000 F999.600
G1 X1.311 Y9.137 F999.600
G1 X0.565 Y9.224 F999.600
G1 X-0.174 Y9.248 F999.600
G1 X-0.907 Y9.224 F999.600
G1 X-1.640 Y9.137 F999.600
G1 X-2.366 Y9.000 F999.600
G1 X-3.075 Y8.783 F999.600
G1 X-3.422 Y8.652 F999.600
G1 X-3.764 Y8.503 F999.600
G1 X-4.429 Y8.161 F999.600
G1 X-5.056 Y7.770 F999.600
G1 X-5.360 Y7.559 F999.600
G1 X-5.938 Y7.093 F999.600
G1 X-6.491 Y6.590 F999.600
G1 X-7.006 Y6.050 F999.600
G1 X-7.460 Y5.460 F999.600
G1 X-7.876 Y4.839 F999.600
G1 X-8.248 Y4.186 F999.600
G1 X-8.571 Y3.509 F999.600
G1 X-8.714 Y3.161 F999.600
G1 X-8.919 Y2.441 F999.600
G1 X-9.075 Y1.708 F999.600
G1 X-9.174 Y0.963 F999.600
G1 X-9.205 Y0.590 F999.600
G1 X-9.217 Y-0.516 F999.600
G1 X-9.130 Y-1.615 F999.600
G1 X-8.994 Y-2.342 F999.600
G1 X-8.907 Y-2.702 F999.600
G1 X-8.683 Y-3.410 F999.600
G1 X-8.553 Y-3.758 F999.600
G1 X-8.224 Y-4.422 F999.600
G1 X-8.037 Y-4.745 F999.600
G1 X-7.627 Y-5.366 F999.600
G1 X-7.180 Y-5.963 F999.600
