(Exported by FreeCAD)
(Post Processor: grbl_post)
(Output Time:2020-05-08 14:06:15.902944)
(Begin preamble)
G17 G90
G21
(Begin operation: Fixture)
(Path: Fixture)
G54
(Finish operation: Fixture)
(Begin operation: T4: 2FluteWoodMill_Fast)
(Path: T4: 2FluteWoodMill_Fast)
(T4: 2FluteWoodMill_Fast)
(Begin toolchange)
(M6 T4.0)
M3 S12000.0
(Finish operation: T4: 2FluteWoodMill_Fast)
(Begin operation: DressupTag)
(Path: DressupTag)
G0 Z23.000
G0 X31.643 Y31.643 Z23.000
G0 X31.643 Y31.643 Z21.000
G1 X31.643 Y31.643 Z17.500 F999.600
G3 X-44.586 Y-3.827 Z17.500 I-31.643 J-31.643 K0.000 F1999.800
G3 X3.827 Y-44.586 Z17.500 I44.586 J3.827 K0.000 F1999.800
G3 X44.586 Y3.827 Z17.500 I-3.827 J44.586 K0.000 F1999.800
G3 X31.643 Y31.643 Z17.500 I-44.586 J-3.827 K0.000 F1999.800
G1 X31.643 Y31.643 Z17.000 F999.600
G3 X-44.586 Y-3.827 Z17.000 I-31.643 J-31.643 K0.000 F1999.800
G3 X3.827 Y-44.586 Z17.000 I44.586 J3.827 K0.000 F1999.800
G3 X44.586 Y3.827 Z17.000 I-3.827 J44.586 K0.000 F1999.800
G3 X31.643 Y31.643 Z17.000 I-44.586 J-3.827 K0.000 F1999.800
G1 X31.643 Y31.643 Z16.500 F999.600
G3 X-44.586 Y-3.827 Z16.500 I-31.643 J-31.643 K0.000 F1999.800
G3 X3.827 Y-44.586 Z16.500 I44.586 J3.827 K0.000 F1999.800
G3 X44.586 Y3.827 Z16.500 I-3.827 J44.586 K0.000 F1999.800
G3 X31.643 Y31.643 Z16.500 I-44.586 J-3.827 K0.000 F1999.800
G1 X31.643 Y31.643 Z16.000 F999.600
G3 X-44.586 Y-3.827 Z16.000 I-31.643 J-31.643 K0.000 F1999.800
G3 X3.827 Y-44.586 Z16.000 I44.586 J3.827 K0.000 F1999.800
G3 X44.586 Y3.827 Z16.000 I-3.827 J44.586 K0.000 F1999.800
G3 X31.643 Y31.643 Z16.000 I-44.586 J-3.827 K0.000 F1999.800
G1 X31.643 Y31.643 Z15.500 F999.600
G3 X-44.586 Y-3.827 Z15.500 I-31.643 J-31.643 K0.000 F1999.800
G3 X3.827 Y-44.586 Z15.500 I44.586 J3.827 K0.000 F1999.800
G3 X44.586 Y3.827 Z15.500 I-3.827 J44.586 K0.000 F1999.800
G3 X31.643 Y31.643 Z15.500 I-44.586 J-3.827 K0.000 F1999.800
G1 X31.643 Y31.643 Z15.000 F999.600
G3 X-44.586 Y-3.827 Z15.000 I-31.643 J-31.643 K0.000 F1999.800
G3 X3.827 Y-44.586 Z15.000 I44.586 J3.827 K0.000 F1999.800
G3 X44.586 Y3.827 Z15.000 I-3.827 J44.586 K0.000 F1999.800
G3 X31.643 Y31.643 Z15.000 I-44.586 J-3.827 K0.000 F1999.800
G1 X31.643 Y31.643 Z14.500 F999.600
G3 X-44.586 Y-3.827 Z14.500 I-31.643 J-31.643 K0.000 F1999.800
G3 X3.827 Y-44.586 Z14.500 I44.586 J3.827 K0.000 F1999.800
G3 X44.586 Y3.827 Z14.500 I-3.827 J44.586 K0.000 F1999.800
G3 X31.643 Y31.643 Z14.500 I-44.586 J-3.827 K0.000 F1999.800
G1 X31.643 Y31.643 Z14.000 F999.600
G3 X-44.586 Y-3.827 Z14.000 I-31.643 J-31.643 K0.000 F1999.800
G3 X3.827 Y-44.586 Z14.000 I44.586 J3.827 K0.000 F1999.800
G3 X44.586 Y3.827 Z14.000 I-3.827 J44.586 K0.000 F1999.800
G3 X31.643 Y31.643 Z14.000 I-44.586 J-3.827 K0.000 F1999.800
G1 X31.643 Y31.643 Z13.500 F999.600
G3 X-44.586 Y-3.827 Z13.500 I-31.643 J-31.643 K0.000 F1999.800
G3 X3.827 Y-44.586 Z13.500 I44.586 J3.827 K0.000 F1999.800
G3 X44.586 Y3.827 Z13.500 I-3.827 J44.586 K0.000 F1999.800
G3 X31.643 Y31.643 Z13.500 I-44.586 J-3.827 K0.000 F1999.800
G1 X31.643 Y31.643 Z13.000 F999.600
G3 X-44.586 Y-3.827 Z13.000 I-31.643 J-31.643 K0.000 F1999.800
G3 X3.827 Y-44.586 Z13.000 I44.586 J3.827 K0.000 F1999.800
G3 X44.586 Y3.827 Z13.000 I-3.827 J44.586 K0.000 F1999.800
G3 X31.643 Y31.643 Z13.000 I-44.586 J-3.827 K0.000 F1999.800
G1 X31.643 Y31.643 Z12.500 F999.600
G3 X-44.586 Y-3.827 Z12.500 I-31.643 J-31.643 K0.000 F1999.800
G3 X3.827 Y-44.586 Z12.500 I44.586 J3.827 K0.000 F1999.800
G3 X44.586 Y3.827 Z12.500 I-3.827 J44.586 K0.000 F1999.800
G3 X31.643 Y31.643 Z12.500 I-44.586 J-3.827 K0.000 F1999.800
G1 X31.643 Y31.643 Z12.000 F999.600
G3 X-44.586 Y-3.827 Z12.000 I-31.643 J-31.643 K0.000 F1999.800
G3 X3.827 Y-44.586 Z12.000 I44.586 J3.827 K0.000 F1999.800
G3 X44.586 Y3.827 Z12.000 I-3.827 J44.586 K0.000 F1999.800
G3 X31.643 Y31.643 Z12.000 I-44.586 J-3.827 K0.000 F1999.800
G1 X31.643 Y31.643 Z11.500 F999.600
G3 X-44.586 Y-3.827 Z11.500 I-31.643 J-31.643 K0.000 F1999.800
G3 X3.827 Y-44.586 Z11.500 I44.586 J3.827 K0.000 F1999.800
G3 X44.586 Y3.827 Z11.500 I-3.827 J44.586 K0.000 F1999.800
G3 X31.643 Y31.643 Z11.500 I-44.586 J-3.827 K0.000 F1999.800
G1 X31.643 Y31.643 Z11.000 F999.600
G3 X-44.586 Y-3.827 Z11.000 I-31.643 J-31.643 K0.000 F1999.800
G3 X3.827 Y-44.586 Z11.000 I44.586 J3.827 K0.000 F1999.800
G3 X44.586 Y3.827 Z11.000 I-3.827 J44.586 K0.000 F1999.800
G3 X31.643 Y31.643 Z11.000 I-44.586 J-3.827 K0.000 F1999.800
G1 X31.643 Y31.643 Z10.500 F999.600
G3 X-44.586 Y-3.827 Z10.500 I-31.643 J-31.643 K0.000 F1999.800
G3 X3.827 Y-44.586 Z10.500 I44.586 J3.827 K0.000 F1999.800
G3 X44.586 Y3.827 Z10.500 I-3.827 J44.586 K0.000 F1999.800
G3 X31.643 Y31.643 Z10.500 I-44.586 J-3.827 K0.000 F1999.800
G1 X31.643 Y31.643 Z10.000 F999.600
G3 X-44.586 Y-3.827 Z10.000 I-31.643 J-31.643 K0.000 F1999.800
G3 X3.827 Y-44.586 Z10.000 I44.586 J3.827 K0.000 F1999.800
G3 X44.586 Y3.827 Z10.000 I-3.827 J44.586 K0.000 F1999.800
G3 X31.643 Y31.643 Z10.000 I-44.586 J-3.827 K0.000 F1999.800
G1 X31.643 Y31.643 Z9.500 F999.600
G3 X-44.586 Y-3.827 Z9.500 I-31.643 J-31.643 K0.000 F1999.800
G3 X3.827 Y-44.586 Z9.500 I44.586 J3.827 K0.000 F1999.800
G3 X44.586 Y3.827 Z9.500 I-3.827 J44.586 K0.000 F1999.800
G3 X31.643 Y31.643 Z9.500 I-44.586 J-3.827 K0.000 F1999.800
G1 X31.643 Y31.643 Z9.000 F999.600
G3 X-44.586 Y-3.827 Z9.000 I-31.643 J-31.643 K0.000 F1999.800
G3 X3.827 Y-44.586 Z9.000 I44.586 J3.827 K0.000 F1999.800
G3 X44.586 Y3.827 Z9.000 I-3.827 J44.586 K0.000 F1999.800
G3 X31.643 Y31.643 Z9.000 I-44.586 J-3.827 K0.000 F1999.800
G1 X31.643 Y31.643 Z8.500 F999.600
G3 X-44.586 Y-3.827 Z8.500 I-31.643 J-31.643 K0.000 F1999.800
G3 X3.827 Y-44.586 Z8.500 I44.586 J3.827 K0.000 F1999.800
G3 X44.586 Y3.827 Z8.500 I-3.827 J44.586 K0.000 F1999.800
G3 X31.643 Y31.643 Z8.500 I-44.586 J-3.827 K0.000 F1999.800
G1 X31.643 Y31.643 Z8.000 F999.600
G3 X-44.586 Y-3.827 Z8.000 I-31.643 J-31.643 K0.000 F1999.800
G3 X3.827 Y-44.586 Z8.000 I44.586 J3.827 K0.000 F1999.800
G3 X44.586 Y3.827 Z8.000 I-3.827 J44.586 K0.000 F1999.800
G3 X31.643 Y31.643 Z8.000 I-44.586 J-3.827 K0.000 F1999.800
G1 X31.643 Y31.643 Z7.500 F999.600
G3 X-44.586 Y-3.827 Z7.500 I-31.643 J-31.643 K0.000 F1999.800
G3 X3.827 Y-44.586 Z7.500 I44.586 J3.827 K0.000 F1999.800
G3 X44.586 Y3.827 Z7.500 I-3.827 J44.586 K0.000 F1999.800
G3 X31.643 Y31.643 Z7.500 I-44.586 J-3.827 K0.000 F1999.800
G1 X31.643 Y31.643 Z7.000 F999.600
G3 X-44.586 Y-3.827 Z7.000 I-31.643 J-31.643 K0.000 F1999.800
G3 X3.827 Y-44.586 Z7.000 I44.586 J3.827 K0.000 F1999.800
G3 X44.586 Y3.827 Z7.000 I-3.827 J44.586 K0.000 F1999.800
G3 X31.643 Y31.643 Z7.000 I-44.586 J-3.827 K0.000 F1999.800
G1 X31.643 Y31.643 Z6.500 F999.600
G3 X-44.586 Y-3.827 Z6.500 I-31.643 J-31.643 K0.000 F1999.800
G3 X3.827 Y-44.586 Z6.500 I44.586 J3.827 K0.000 F1999.800
G3 X44.586 Y3.827 Z6.500 I-3.827 J44.586 K0.000 F1999.800
G3 X31.643 Y31.643 Z6.500 I-44.586 J-3.827 K0.000 F1999.800
G1 X31.643 Y31.643 Z6.000 F999.600
G3 X-44.586 Y-3.827 Z6.000 I-31.643 J-31.643 K0.000 F1999.800
G3 X3.827 Y-44.586 Z6.000 I44.586 J3.827 K0.000 F1999.800
G3 X44.586 Y3.827 Z6.000 I-3.827 J44.586 K0.000 F1999.800
G3 X31.643 Y31.643 Z6.000 I-44.586 J-3.827 K0.000 F1999.800
G1 X31.643 Y31.643 Z5.500 F999.600
G3 X-44.586 Y-3.827 Z5.500 I-31.643 J-31.643 K0.000 F1999.800
G3 X3.827 Y-44.586 Z5.500 I44.586 J3.827 K0.000 F1999.800
G3 X44.586 Y3.827 Z5.500 I-3.827 J44.586 K0.000 F1999.800
G3 X31.643 Y31.643 Z5.500 I-44.586 J-3.827 K0.000 F1999.800
G1 X31.643 Y31.643 Z5.000 F999.600
G3 X-44.586 Y-3.827 Z5.000 I-31.643 J-31.643 K0.000 F1999.800
G3 X3.827 Y-44.586 Z5.000 I44.586 J3.827 K0.000 F1999.800
G3 X44.586 Y3.827 Z5.000 I-3.827 J44.586 K0.000 F1999.800
G3 X31.643 Y31.643 Z5.000 I-44.586 J-3.827 K0.000 F1999.800
G1 X31.643 Y31.643 Z4.500 F999.600
G3 X-44.586 Y-3.827 Z4.500 I-31.643 J-31.643 K0.000 F1999.800
G3 X3.827 Y-44.586 Z4.500 I44.586 J3.827 K0.000 F1999.800
G3 X44.586 Y3.827 Z4.500 I-3.827 J44.586 K0.000 F1999.800
G3 X31.643 Y31.643 Z4.500 I-44.586 J-3.827 K0.000 F1999.800
G1 X31.643 Y31.643 Z4.000 F999.600
G3 X-44.586 Y-3.827 Z4.000 I-31.643 J-31.643 K0.000 F1999.800
G3 X3.827 Y-44.586 Z4.000 I44.586 J3.827 K0.000 F1999.800
G3 X44.586 Y3.827 Z4.000 I-3.827 J44.586 K0.000 F1999.800
G3 X31.643 Y31.643 Z4.000 I-44.586 J-3.827 K0.000 F1999.800
G1 X31.643 Y31.643 Z3.500 F999.600
G3 X-44.586 Y-3.827 Z3.500 I-31.643 J-31.643 K0.000 F1999.800
G3 X3.827 Y-44.586 Z3.500 I44.586 J3.827 K0.000 F1999.800
G3 X44.586 Y3.827 Z3.500 I-3.827 J44.586 K0.000 F1999.800
G3 X31.643 Y31.643 Z3.500 I-44.586 J-3.827 K0.000 F1999.800
G1 X31.643 Y31.643 Z3.000 F999.600
G3 X-44.586 Y-3.827 Z3.000 I-31.643 J-31.643 K0.000 F1999.800
G3 X3.827 Y-44.586 Z3.000 I44.586 J3.827 K0.000 F1999.800
G3 X44.586 Y3.827 Z3.000 I-3.827 J44.586 K0.000 F1999.800
G3 X31.643 Y31.643 Z3.000 I-44.586 J-3.827 K0.000 F1999.800
G1 X31.643 Y31.643 Z2.500 F999.600
G3 X-44.586 Y-3.827 Z2.500 I-31.643 J-31.643 K0.000 F1999.800
G3 X3.827 Y-44.586 Z2.500 I44.586 J3.827 K0.000 F1999.800
G3 X44.586 Y3.827 Z2.500 I-3.827 J44.586 K0.000 F1999.800
G3 X31.643 Y31.643 Z2.500 I-44.586 J-3.827 K0.000 F1999.800
G1 X31.643 Y31.643 Z2.000 F999.600
G3 X-44.586 Y-3.827 Z2.000 I-31.643 J-31.643 K0.000 F1999.800
G3 X3.827 Y-44.586 Z2.000 I44.586 J3.827 K0.000 F1999.800
G3 X44.586 Y3.827 Z2.000 I-3.827 J44.586 K0.000 F1999.800
G3 X31.643 Y31.643 Z2.000 I-44.586 J-3.827 K0.000 F1999.800
G1 X31.643 Y31.643 Z1.500 F999.600
G3 X21.285 Y39.363 Z1.500 I-31.643 J-31.643 K0.000 F1999.800
G1 X21.020 Y39.505 Z1.800
G3 X11.844 Y43.154 Z1.800 I-21.020 J-39.505 K0.000 F1999.800
G1 X11.554 Y43.232 Z1.500
G3 X-14.002 Y42.503 Z1.500 I-11.554 J-43.232 K0.000 F1999.800
G1 X-14.287 Y42.408 Z1.800
G3 X-23.240 Y38.242 Z1.800 I14.287 J-42.408 K0.000 F1999.800
G1 X-23.496 Y38.085 Z1.500
G3 X-40.514 Y19.005 Z1.500 I23.496 J-38.085 K0.000 F1999.800
G1 X-40.640 Y18.732 Z1.800
G3 X-43.759 Y9.363 Z1.800 I40.640 J-18.732 K0.000 F1999.800
G1 X-43.821 Y9.069 Z1.500
G3 X-44.586 Y-3.827 Z1.500 I43.821 J-9.069 K0.000 F1999.800
G3 X3.827 Y-44.586 Z1.500 I44.586 J3.827 K0.000 F1999.800
G3 X15.808 Y-41.865 Z1.500 I-3.827 J44.586 K0.000 F1999.800
G1 X16.089 Y-41.758 Z1.800
G3 X24.855 Y-37.212 Z1.800 I-16.089 J41.758 K0.000 F1999.800
G1 X25.105 Y-37.044 Z1.500
G3 X40.781 Y-18.425 Z1.500 I-25.105 J37.044 K0.000 F1999.800
G1 X40.903 Y-18.151 Z1.800
G3 X43.888 Y-8.738 Z1.800 I-40.903 J18.151 K0.000 F1999.800
G1 X43.946 Y-8.443 Z1.500
G3 X44.586 Y3.827 Z1.500 I-43.946 J8.443 K0.000 F1999.800
G3 X31.643 Y31.643 Z1.500 I-44.586 J-3.827 K0.000 F1999.800
G1 X31.643 Y31.643 Z1.000 F999.600
G3 X21.725 Y39.123 Z1.000 I-31.643 J-31.643 K0.000 F1999.800
G1 X21.020 Y39.505 Z1.800
G3 X11.844 Y43.154 Z1.800 I-21.020 J-39.505 K0.000 F1999.800
G1 X11.070 Y43.359 Z1.000
G3 X-13.525 Y42.657 Z1.000 I-11.070 J-43.359 K0.000 F1999.800
G1 X-14.287 Y42.408 Z1.800
G3 X-23.240 Y38.242 Z1.800 I14.287 J-42.408 K0.000 F1999.800
G1 X-23.921 Y37.820 Z1.000
G3 X-40.298 Y19.457 Z1.000 I23.921 J-37.820 K0.000 F1999.800
G1 X-40.640 Y18.732 Z1.800
G3 X-43.759 Y9.363 Z1.800 I40.640 J-18.732 K0.000 F1999.800
G1 X-43.920 Y8.578 Z1.000
G3 X-44.586 Y-3.827 Z1.000 I43.920 J-8.578 K0.000 F1999.800
G3 X3.827 Y-44.586 Z1.000 I44.586 J3.827 K0.000 F1999.800
G3 X15.338 Y-42.039 Z1.000 I-3.827 J44.586 K0.000 F1999.800
G1 X16.089 Y-41.758 Z1.800
G3 X24.855 Y-37.212 Z1.800 I-16.089 J41.758 K0.000 F1999.800
G1 X25.518 Y-36.761 Z1.000
G3 X40.572 Y-18.880 Z1.000 I-25.518 J36.761 K0.000 F1999.800
G1 X40.903 Y-18.151 Z1.800
G3 X43.888 Y-8.738 Z1.800 I-40.903 J18.151 K0.000 F1999.800
G1 X44.038 Y-7.950 Z1.000
G3 X44.586 Y3.827 Z1.000 I-44.038 J7.950 K0.000 F1999.800
G3 X31.643 Y31.643 Z1.000 I-44.586 J-3.827 K0.000 F1999.800
G1 X31.643 Y31.643 Z0.500 F999.600
G3 X22.161 Y38.877 Z0.500 I-31.643 J-31.643 K0.000 F1999.800
G1 X21.020 Y39.505 Z1.800
G3 X11.844 Y43.154 Z1.800 I-21.020 J-39.505 K0.000 F1999.800
G1 X10.583 Y43.480 Z0.500
G3 X-13.047 Y42.806 Z0.500 I-10.583 J-43.480 K0.000 F1999.800
G1 X-14.287 Y42.408 Z1.800
G3 X-23.240 Y38.242 Z1.800 I14.287 J-42.408 K0.000 F1999.800
G1 X-24.343 Y37.549 Z0.500
G3 X-40.078 Y19.907 Z0.500 I24.343 J-37.549 K0.000 F1999.800
G1 X-40.640 Y18.732 Z1.800
G3 X-43.759 Y9.363 Z1.800 I40.640 J-18.732 K0.000 F1999.800
G1 X-44.013 Y8.086 Z0.500
G3 X-44.586 Y-3.827 Z0.500 I44.013 J-8.086 K0.000 F1999.800
G3 X3.827 Y-44.586 Z0.500 I44.586 J3.827 K0.000 F1999.800
G3 X14.867 Y-42.208 Z0.500 I-3.827 J44.586 K0.000 F1999.800
G1 X16.089 Y-41.758 Z1.800
G3 X24.855 Y-37.212 Z1.800 I-16.089 J41.758 K0.000 F1999.800
G1 X25.928 Y-36.473 Z0.500
G3 X40.358 Y-19.333 Z0.500 I-25.928 J36.473 K0.000 F1999.800
G1 X40.903 Y-18.151 Z1.800
G3 X43.888 Y-8.738 Z1.800 I-40.903 J18.151 K0.000 F1999.800
G1 X44.124 Y-7.457 Z0.500
G3 X44.586 Y3.827 Z0.500 I-44.124 J7.457 K0.000 F1999.800
G3 X31.643 Y31.643 Z0.500 I-44.586 J-3.827 K0.000 F1999.800
G1 X31.643 Y31.643 Z0.000 F999.600
G3 X22.595 Y38.626 Z-0.000 I-31.643 J-31.643 K-0.000 F1999.800
G1 X21.020 Y39.505 Z1.800
G3 X11.844 Y43.154 Z1.800 I-21.020 J-39.505 K0.000 F1999.800
G1 X10.096 Y43.596 Z0.000
G3 X-12.566 Y42.949 Z-0.000 I-10.096 J-43.596 K0.000 F1999.800
G1 X-14.287 Y42.408 Z1.800
G3 X-23.240 Y38.242 Z1.800 I14.287 J-42.408 K0.000 F1999.800
G1 X-24.762 Y37.274 Z0.000
G3 X-39.852 Y20.355 Z0.000 I24.762 J-37.274 K0.000 F1999.800
G1 X-40.640 Y18.732 Z1.800
G3 X-43.759 Y9.363 Z1.800 I40.640 J-18.732 K0.000 F1999.800
G1 X-44.101 Y7.592 Z-0.000
G3 X-44.586 Y-3.827 Z0.000 I44.101 J-7.592 K0.000 F1999.800
G3 X3.827 Y-44.586 Z-0.000 I44.586 J3.827 K-0.000 F1999.800
G3 X14.393 Y-42.372 Z-0.000 I-3.827 J44.586 K0.000 F1999.800
G1 X16.089 Y-41.758 Z1.800
G3 X24.855 Y-37.212 Z1.800 I-16.089 J41.758 K0.000 F1999.800
G1 X26.335 Y-36.180 Z-0.000
G3 X40.139 Y-19.784 Z-0.000 I-26.335 J36.180 K0.000 F1999.800
G1 X40.903 Y-18.151 Z1.800
G3 X43.888 Y-8.738 Z1.800 I-40.903 J18.151 K0.000 F1999.800
G1 X44.205 Y-6.962 Z-0.000
G3 X44.586 Y3.827 Z-0.000 I-44.205 J6.962 K-0.000 F1999.800
G3 X31.643 Y31.643 Z0.000 I-44.586 J-3.827 K0.000 F1999.800
G1 X31.643 Y31.643 Z-0.200 F999.600
G3 X22.768 Y38.524 Z-0.200 I-31.643 J-31.643 K0.000 F1999.800
G1 X21.020 Y39.505 Z1.800
G3 X11.844 Y43.154 Z1.800 I-21.020 J-39.505 K0.000 F1999.800
G1 X9.900 Y43.641 Z-0.200
G3 X-12.374 Y43.005 Z-0.200 I-9.900 J-43.641 K0.000 F1999.800
G1 X-14.287 Y42.408 Z1.800
G3 X-23.240 Y38.242 Z1.800 I14.287 J-42.408 K0.000 F1999.800
G1 X-24.929 Y37.163 Z-0.200
G3 X-39.761 Y20.533 Z-0.200 I24.929 J-37.163 K0.000 F1999.800
G1 X-40.640 Y18.732 Z1.800
G3 X-43.759 Y9.363 Z1.800 I40.640 J-18.732 K0.000 F1999.800
G1 X-44.135 Y7.394 Z-0.200
G3 X-44.586 Y-3.827 Z-0.200 I44.135 J-7.394 K0.000 F1999.800
G3 X3.827 Y-44.586 Z-0.200 I44.586 J3.827 K0.000 F1999.800
G3 X14.203 Y-42.436 Z-0.200 I-3.827 J44.586 K0.000 F1999.800
G1 X16.089 Y-41.758 Z1.800
G3 X24.855 Y-37.212 Z1.800 I-16.089 J41.758 K0.000 F1999.800
G1 X26.497 Y-36.062 Z-0.200
G3 X40.050 Y-19.964 Z-0.200 I-26.497 J36.062 K0.000 F1999.800
G1 X40.903 Y-18.151 Z1.800
G3 X43.888 Y-8.738 Z1.800 I-40.903 J18.151 K0.000 F1999.800
G1 X44.236 Y-6.764 Z-0.200
G3 X44.586 Y3.827 Z-0.200 I-44.236 J6.764 K0.000 F1999.800
G3 X31.643 Y31.643 Z-0.200 I-44.586 J-3.827 K0.000 F1999.800
G0 X31.643 Y31.643 Z23.000
(Finish operation: DressupTag)
(Begin postamble)
M5
G17 G90
M2
