(Exported by FreeCAD)
(Post Processor: grbl_post)
(Output Time:2020-05-10 13:53:24.246541)
(Begin preamble)
G17 G90
G21
(Begin operation: Fixture)
(Path: Fixture)
G54
(Finish operation: Fixture)
(Begin operation: T6: 2FluteWoodMill001)
(Path: T6: 2FluteWoodMill001)
(T6: 2FluteWoodMill001)
(Begin toolchange)
(M6 T6.0)
M3 S12000.0
(Finish operation: T6: 2FluteWoodMill001)
(Begin operation: Helix)
(Path: Helix)
(Helix)
(helix cut operation)
G0 Z23.000
G0 X1.000 Y0.000
G0 Z21.000
G1 Z18.000 F999.600
G2 X-1.000 Y0.000 Z17.750 I-1.000 J0.000 F1999.800
G2 X1.000 Y0.000 Z17.500 I1.000 J0.000 F1999.800
G2 X-1.000 Y0.000 Z17.250 I-1.000 J0.000 F1999.800
G2 X1.000 Y0.000 Z17.000 I1.000 J0.000 F1999.800
G2 X-1.000 Y0.000 Z16.750 I-1.000 J0.000 F1999.800
G2 X1.000 Y0.000 Z16.500 I1.000 J0.000 F1999.800
G2 X-1.000 Y0.000 Z16.250 I-1.000 J0.000 F1999.800
G2 X1.000 Y0.000 Z16.000 I1.000 J0.000 F1999.800
G2 X-1.000 Y0.000 Z15.750 I-1.000 J0.000 F1999.800
G2 X1.000 Y0.000 Z15.500 I1.000 J0.000 F1999.800
G2 X-1.000 Y0.000 Z15.250 I-1.000 J0.000 F1999.800
G2 X1.000 Y0.000 Z15.000 I1.000 J0.000 F1999.800
G2 X-1.000 Y0.000 Z14.750 I-1.000 J0.000 F1999.800
G2 X1.000 Y0.000 Z14.500 I1.000 J0.000 F1999.800
G2 X-1.000 Y0.000 Z14.250 I-1.000 J0.000 F1999.800
G2 X1.000 Y0.000 Z14.000 I1.000 J0.000 F1999.800
G2 X-1.000 Y0.000 Z13.750 I-1.000 J0.000 F1999.800
G2 X1.000 Y0.000 Z13.500 I1.000 J0.000 F1999.800
G2 X-1.000 Y0.000 Z13.250 I-1.000 J0.000 F1999.800
G2 X1.000 Y0.000 Z13.000 I1.000 J0.000 F1999.800
G2 X-1.000 Y0.000 Z12.750 I-1.000 J0.000 F1999.800
G2 X1.000 Y0.000 Z12.500 I1.000 J0.000 F1999.800
G2 X-1.000 Y0.000 Z12.250 I-1.000 J0.000 F1999.800
G2 X1.000 Y0.000 Z12.000 I1.000 J0.000 F1999.800
G2 X-1.000 Y0.000 Z11.750 I-1.000 J0.000 F1999.800
G2 X1.000 Y0.000 Z11.500 I1.000 J0.000 F1999.800
G2 X-1.000 Y0.000 Z11.250 I-1.000 J0.000 F1999.800
G2 X1.000 Y0.000 Z11.000 I1.000 J0.000 F1999.800
G2 X-1.000 Y0.000 Z10.750 I-1.000 J0.000 F1999.800
G2 X1.000 Y0.000 Z10.500 I1.000 J0.000 F1999.800
G2 X-1.000 Y0.000 Z10.250 I-1.000 J0.000 F1999.800
G2 X1.000 Y0.000 Z10.000 I1.000 J0.000 F1999.800
G2 X-1.000 Y0.000 Z9.750 I-1.000 J0.000 F1999.800
G2 X1.000 Y0.000 Z9.500 I1.000 J0.000 F1999.800
G2 X-1.000 Y0.000 Z9.250 I-1.000 J0.000 F1999.800
G2 X1.000 Y0.000 Z9.000 I1.000 J0.000 F1999.800
G2 X-1.000 Y0.000 Z8.750 I-1.000 J0.000 F1999.800
G2 X1.000 Y0.000 Z8.500 I1.000 J0.000 F1999.800
G2 X-1.000 Y0.000 Z8.250 I-1.000 J0.000 F1999.800
G2 X1.000 Y0.000 Z8.000 I1.000 J0.000 F1999.800
G2 X-1.000 Y0.000 Z7.750 I-1.000 J0.000 F1999.800
G2 X1.000 Y0.000 Z7.500 I1.000 J0.000 F1999.800
G2 X-1.000 Y0.000 Z7.250 I-1.000 J0.000 F1999.800
G2 X1.000 Y0.000 Z7.000 I1.000 J0.000 F1999.800
G2 X-1.000 Y0.000 Z6.750 I-1.000 J0.000 F1999.800
G2 X1.000 Y0.000 Z6.500 I1.000 J0.000 F1999.800
G2 X-1.000 Y0.000 Z6.250 I-1.000 J0.000 F1999.800
G2 X1.000 Y0.000 Z6.000 I1.000 J0.000 F1999.800
G2 X-1.000 Y0.000 Z5.750 I-1.000 J0.000 F1999.800
G2 X1.000 Y0.000 Z5.500 I1.000 J0.000 F1999.800
G2 X-1.000 Y0.000 Z5.250 I-1.000 J0.000 F1999.800
G2 X1.000 Y0.000 Z5.000 I1.000 J0.000 F1999.800
G2 X-1.000 Y0.000 Z4.750 I-1.000 J0.000 F1999.800
G2 X1.000 Y0.000 Z4.500 I1.000 J0.000 F1999.800
G2 X-1.000 Y0.000 Z4.250 I-1.000 J0.000 F1999.800
G2 X1.000 Y0.000 Z4.000 I1.000 J0.000 F1999.800
G2 X-1.000 Y0.000 Z3.750 I-1.000 J0.000 F1999.800
G2 X1.000 Y0.000 Z3.500 I1.000 J0.000 F1999.800
G2 X-1.000 Y0.000 Z3.250 I-1.000 J0.000 F1999.800
G2 X1.000 Y0.000 Z3.000 I1.000 J0.000 F1999.800
G2 X-1.000 Y0.000 Z2.750 I-1.000 J0.000 F1999.800
G2 X1.000 Y0.000 Z2.500 I1.000 J0.000 F1999.800
G2 X-1.000 Y0.000 Z2.250 I-1.000 J0.000 F1999.800
G2 X1.000 Y0.000 Z2.000 I1.000 J0.000 F1999.800
G2 X-1.000 Y0.000 Z1.750 I-1.000 J0.000 F1999.800
G2 X1.000 Y0.000 Z1.500 I1.000 J0.000 F1999.800
G2 X-1.000 Y0.000 Z1.250 I-1.000 J0.000 F1999.800
G2 X1.000 Y0.000 Z1.000 I1.000 J0.000 F1999.800
G2 X-1.000 Y0.000 Z0.750 I-1.000 J0.000 F1999.800
G2 X1.000 Y0.000 Z0.500 I1.000 J0.000 F1999.800
G2 X-1.000 Y0.000 Z0.250 I-1.000 J0.000 F1999.800
G2 X1.000 Y0.000 Z0.000 I1.000 J0.000 F1999.800
G2 X-1.000 Y0.000 Z0.000 I-1.000 J0.000 F1999.800
G2 X1.000 Y0.000 Z0.000 I1.000 J0.000 F1999.800
G0 Z21.000
G0 Z23.000
(Finish operation: Helix)
(Begin operation: Fixture)
(Path: Fixture)
G54
G0 Z23.000
(Finish operation: Fixture)
(Begin operation: Helix001)
(Path: Helix001)
(Helix001)
(helix cut operation)
G0 Z23.000
G0 X4.000 Y0.000
G0 Z21.000
G1 Z18.000 F999.600
G2 X-4.000 Y0.000 Z17.750 I-4.000 J0.000 F1999.800
G2 X4.000 Y0.000 Z17.500 I4.000 J0.000 F1999.800
G2 X-4.000 Y0.000 Z17.250 I-4.000 J0.000 F1999.800
G2 X4.000 Y0.000 Z17.000 I4.000 J0.000 F1999.800
G2 X-4.000 Y0.000 Z16.750 I-4.000 J0.000 F1999.800
G2 X4.000 Y0.000 Z16.500 I4.000 J0.000 F1999.800
G2 X-4.000 Y0.000 Z16.250 I-4.000 J0.000 F1999.800
G2 X4.000 Y0.000 Z16.000 I4.000 J0.000 F1999.800
G2 X-4.000 Y0.000 Z15.750 I-4.000 J0.000 F1999.800
G2 X4.000 Y0.000 Z15.500 I4.000 J0.000 F1999.800
G2 X-4.000 Y0.000 Z15.250 I-4.000 J0.000 F1999.800
G2 X4.000 Y0.000 Z15.000 I4.000 J0.000 F1999.800
G2 X-4.000 Y0.000 Z14.750 I-4.000 J0.000 F1999.800
G2 X4.000 Y0.000 Z14.500 I4.000 J0.000 F1999.800
G2 X-4.000 Y0.000 Z14.250 I-4.000 J0.000 F1999.800
G2 X4.000 Y0.000 Z14.000 I4.000 J0.000 F1999.800
G2 X-4.000 Y0.000 Z13.750 I-4.000 J0.000 F1999.800
G2 X4.000 Y0.000 Z13.500 I4.000 J0.000 F1999.800
G2 X-4.000 Y0.000 Z13.250 I-4.000 J0.000 F1999.800
G2 X4.000 Y0.000 Z13.000 I4.000 J0.000 F1999.800
G2 X-4.000 Y0.000 Z12.750 I-4.000 J0.000 F1999.800
G2 X4.000 Y0.000 Z12.500 I4.000 J0.000 F1999.800
G2 X-4.000 Y0.000 Z12.250 I-4.000 J0.000 F1999.800
G2 X4.000 Y0.000 Z12.000 I4.000 J0.000 F1999.800
G2 X-4.000 Y0.000 Z11.750 I-4.000 J0.000 F1999.800
G2 X4.000 Y0.000 Z11.500 I4.000 J0.000 F1999.800
G2 X-4.000 Y0.000 Z11.250 I-4.000 J0.000 F1999.800
G2 X4.000 Y0.000 Z11.000 I4.000 J0.000 F1999.800
G2 X-4.000 Y0.000 Z10.750 I-4.000 J0.000 F1999.800
G2 X4.000 Y0.000 Z10.500 I4.000 J0.000 F1999.800
G2 X-4.000 Y0.000 Z10.250 I-4.000 J0.000 F1999.800
G2 X4.000 Y0.000 Z10.000 I4.000 J0.000 F1999.800
G2 X-4.000 Y0.000 Z9.750 I-4.000 J0.000 F1999.800
G2 X4.000 Y0.000 Z9.500 I4.000 J0.000 F1999.800
G2 X-4.000 Y0.000 Z9.250 I-4.000 J0.000 F1999.800
G2 X4.000 Y0.000 Z9.000 I4.000 J0.000 F1999.800
G2 X-4.000 Y0.000 Z8.750 I-4.000 J0.000 F1999.800
G2 X4.000 Y0.000 Z8.500 I4.000 J0.000 F1999.800
G2 X-4.000 Y0.000 Z8.250 I-4.000 J0.000 F1999.800
G2 X4.000 Y0.000 Z8.000 I4.000 J0.000 F1999.800
G2 X-4.000 Y0.000 Z8.000 I-4.000 J0.000 F1999.800
G2 X4.000 Y0.000 Z8.000 I4.000 J0.000 F1999.800
G0 Z21.000
G0 Z23.000
(Finish operation: Helix001)
(Begin operation: Fixture)
(Path: Fixture)
G54
G0 Z23.000
(Finish operation: Fixture)
(Begin operation: Pocket_Shape001)
(Path: Pocket_Shape001)
(Pocket_Shape001)
G0 Z23.000
G0 X22.450 Y22.450
G0 Z21.000
G1 X22.450 Y22.450 Z17.500 F999.600
G3 X-3.827 Y31.518 Z17.500 I-22.450 J-22.450 K0.000 F1999.800
G3 X3.827 Y-31.518 Z17.500 I3.827 J-31.518 K0.000 F1999.800
G3 X22.450 Y22.450 Z17.500 I-3.827 J31.518 K0.000 F1999.800
G0 X22.450 Y22.450 Z23.000
G0 X21.920 Y21.920 Z23.000
G1 X21.920 Y21.920 Z17.500 F999.600
G3 X-3.737 Y30.773 Z17.500 I-21.920 J-21.920 K0.000 F1999.800
G3 X3.737 Y-30.773 Z17.500 I3.737 J-30.773 K0.000 F1999.800
G3 X21.920 Y21.920 Z17.500 I-3.737 J30.773 K0.000 F1999.800
G0 X21.920 Y21.920 Z23.000
G0 X21.566 Y21.566 Z23.000
G1 X21.566 Y21.566 Z17.500 F999.600
G3 X3.247 Y30.326 Z17.500 I-21.566 J-21.566 K0.000 F1999.800
G3 X-3.247 Y-30.326 Z17.500 I-3.247 J-30.326 K0.000 F1999.800
G3 X21.566 Y21.566 Z17.500 I3.247 J30.326 K0.000 F1999.800
G0 X21.566 Y21.566 Z23.000
G0 X21.036 Y21.036 Z23.000
G1 X21.036 Y21.036 Z17.500 F999.600
G3 X3.149 Y29.582 Z17.500 I-21.036 J-21.036 K0.000 F1999.800
G3 X-3.149 Y-29.582 Z17.500 I-3.149 J-29.582 K0.000 F1999.800
G3 X21.036 Y21.036 Z17.500 I3.149 J29.582 K0.000 F1999.800
G1 X21.036 Y21.036 Z17.000 F999.600
G3 X3.149 Y29.582 Z17.000 I-21.036 J-21.036 K0.000 F1999.800
G3 X-3.149 Y-29.582 Z17.000 I-3.149 J-29.582 K0.000 F1999.800
G3 X21.036 Y21.036 Z17.000 I3.149 J29.582 K0.000 F1999.800
G0 X21.036 Y21.036 Z23.000
G0 X21.566 Y21.566 Z23.000
G1 X21.566 Y21.566 Z17.000 F999.600
G3 X3.247 Y30.326 Z17.000 I-21.566 J-21.566 K0.000 F1999.800
G3 X-3.247 Y-30.326 Z17.000 I-3.247 J-30.326 K0.000 F1999.800
G3 X21.566 Y21.566 Z17.000 I3.247 J30.326 K0.000 F1999.800
G0 X21.566 Y21.566 Z23.000
G0 X21.920 Y21.920 Z23.000
G1 X21.920 Y21.920 Z17.000 F999.600
G3 X-3.737 Y30.773 Z17.000 I-21.920 J-21.920 K0.000 F1999.800
G3 X3.737 Y-30.773 Z17.000 I3.737 J-30.773 K0.000 F1999.800
G3 X21.920 Y21.920 Z17.000 I-3.737 J30.773 K0.000 F1999.800
G0 X21.920 Y21.920 Z23.000
G0 X22.450 Y22.450 Z23.000
G1 X22.450 Y22.450 Z17.000 F999.600
G3 X-3.827 Y31.518 Z17.000 I-22.450 J-22.450 K0.000 F1999.800
G3 X3.827 Y-31.518 Z17.000 I3.827 J-31.518 K0.000 F1999.800
G3 X22.450 Y22.450 Z17.000 I-3.827 J31.518 K0.000 F1999.800
G1 X22.450 Y22.450 Z16.500 F999.600
G3 X-3.827 Y31.518 Z16.500 I-22.450 J-22.450 K0.000 F1999.800
G3 X3.827 Y-31.518 Z16.500 I3.827 J-31.518 K0.000 F1999.800
G3 X22.450 Y22.450 Z16.500 I-3.827 J31.518 K0.000 F1999.800
G0 X22.450 Y22.450 Z23.000
G0 X21.920 Y21.920 Z23.000
G1 X21.920 Y21.920 Z16.500 F999.600
G3 X-3.737 Y30.773 Z16.500 I-21.920 J-21.920 K0.000 F1999.800
G3 X3.737 Y-30.773 Z16.500 I3.737 J-30.773 K0.000 F1999.800
G3 X21.920 Y21.920 Z16.500 I-3.737 J30.773 K0.000 F1999.800
G0 X21.920 Y21.920 Z23.000
G0 X21.566 Y21.566 Z23.000
G1 X21.566 Y21.566 Z16.500 F999.600
G3 X3.247 Y30.326 Z16.500 I-21.566 J-21.566 K0.000 F1999.800
G3 X-3.247 Y-30.326 Z16.500 I-3.247 J-30.326 K0.000 F1999.800
G3 X21.566 Y21.566 Z16.500 I3.247 J30.326 K0.000 F1999.800
G0 X21.566 Y21.566 Z23.000
G0 X21.036 Y21.036 Z23.000
G1 X21.036 Y21.036 Z16.500 F999.600
G3 X3.149 Y29.582 Z16.500 I-21.036 J-21.036 K0.000 F1999.800
G3 X-3.149 Y-29.582 Z16.500 I-3.149 J-29.582 K0.000 F1999.800
G3 X21.036 Y21.036 Z16.500 I3.149 J29.582 K0.000 F1999.800
G1 X21.036 Y21.036 Z16.000 F999.600
G3 X3.149 Y29.582 Z16.000 I-21.036 J-21.036 K0.000 F1999.800
G3 X-3.149 Y-29.582 Z16.000 I-3.149 J-29.582 K0.000 F1999.800
G3 X21.036 Y21.036 Z16.000 I3.149 J29.582 K0.000 F1999.800
G0 X21.036 Y21.036 Z23.000
G0 X21.566 Y21.566 Z23.000
G1 X21.566 Y21.566 Z16.000 F999.600
G3 X3.247 Y30.326 Z16.000 I-21.566 J-21.566 K0.000 F1999.800
G3 X-3.247 Y-30.326 Z16.000 I-3.247 J-30.326 K0.000 F1999.800
G3 X21.566 Y21.566 Z16.000 I3.247 J30.326 K0.000 F1999.800
G0 X21.566 Y21.566 Z23.000
G0 X21.920 Y21.920 Z23.000
G1 X21.920 Y21.920 Z16.000 F999.600
G3 X-3.737 Y30.773 Z16.000 I-21.920 J-21.920 K0.000 F1999.800
G3 X3.737 Y-30.773 Z16.000 I3.737 J-30.773 K0.000 F1999.800
G3 X21.920 Y21.920 Z16.000 I-3.737 J30.773 K0.000 F1999.800
G0 X21.920 Y21.920 Z23.000
G0 X22.450 Y22.450 Z23.000
G1 X22.450 Y22.450 Z16.000 F999.600
G3 X-3.827 Y31.518 Z16.000 I-22.450 J-22.450 K0.000 F1999.800
G3 X3.827 Y-31.518 Z16.000 I3.827 J-31.518 K0.000 F1999.800
G3 X22.450 Y22.450 Z16.000 I-3.827 J31.518 K0.000 F1999.800
G1 X22.450 Y22.450 Z15.500 F999.600
G3 X-3.827 Y31.518 Z15.500 I-22.450 J-22.450 K0.000 F1999.800
G3 X3.827 Y-31.518 Z15.500 I3.827 J-31.518 K0.000 F1999.800
G3 X22.450 Y22.450 Z15.500 I-3.827 J31.518 K0.000 F1999.800
G0 X22.450 Y22.450 Z23.000
G0 X21.920 Y21.920 Z23.000
G1 X21.920 Y21.920 Z15.500 F999.600
G3 X-3.737 Y30.773 Z15.500 I-21.920 J-21.920 K0.000 F1999.800
G3 X3.737 Y-30.773 Z15.500 I3.737 J-30.773 K0.000 F1999.800
G3 X21.920 Y21.920 Z15.500 I-3.737 J30.773 K0.000 F1999.800
G0 X21.920 Y21.920 Z23.000
G0 X21.566 Y21.566 Z23.000
G1 X21.566 Y21.566 Z15.500 F999.600
G3 X3.247 Y30.326 Z15.500 I-21.566 J-21.566 K0.000 F1999.800
G3 X-3.247 Y-30.326 Z15.500 I-3.247 J-30.326 K0.000 F1999.800
G3 X21.566 Y21.566 Z15.500 I3.247 J30.326 K0.000 F1999.800
G0 X21.566 Y21.566 Z23.000
G0 X21.036 Y21.036 Z23.000
G1 X21.036 Y21.036 Z15.500 F999.600
G3 X3.149 Y29.582 Z15.500 I-21.036 J-21.036 K0.000 F1999.800
G3 X-3.149 Y-29.582 Z15.500 I-3.149 J-29.582 K0.000 F1999.800
G3 X21.036 Y21.036 Z15.500 I3.149 J29.582 K0.000 F1999.800
G1 X21.036 Y21.036 Z15.000 F999.600
G3 X3.149 Y29.582 Z15.000 I-21.036 J-21.036 K0.000 F1999.800
G3 X-3.149 Y-29.582 Z15.000 I-3.149 J-29.582 K0.000 F1999.800
G3 X21.036 Y21.036 Z15.000 I3.149 J29.582 K0.000 F1999.800
G0 X21.036 Y21.036 Z23.000
G0 X21.566 Y21.566 Z23.000
G1 X21.566 Y21.566 Z15.000 F999.600
G3 X3.247 Y30.326 Z15.000 I-21.566 J-21.566 K0.000 F1999.800
G3 X-3.247 Y-30.326 Z15.000 I-3.247 J-30.326 K0.000 F1999.800
G3 X21.566 Y21.566 Z15.000 I3.247 J30.326 K0.000 F1999.800
G0 X21.566 Y21.566 Z23.000
G0 X21.920 Y21.920 Z23.000
G1 X21.920 Y21.920 Z15.000 F999.600
G3 X-3.737 Y30.773 Z15.000 I-21.920 J-21.920 K0.000 F1999.800
G3 X3.737 Y-30.773 Z15.000 I3.737 J-30.773 K0.000 F1999.800
G3 X21.920 Y21.920 Z15.000 I-3.737 J30.773 K0.000 F1999.800
G0 X21.920 Y21.920 Z23.000
G0 X22.450 Y22.450 Z23.000
G1 X22.450 Y22.450 Z15.000 F999.600
G3 X-3.827 Y31.518 Z15.000 I-22.450 J-22.450 K0.000 F1999.800
G3 X3.827 Y-31.518 Z15.000 I3.827 J-31.518 K0.000 F1999.800
G3 X22.450 Y22.450 Z15.000 I-3.827 J31.518 K0.000 F1999.800
G1 X22.450 Y22.450 Z14.500 F999.600
G3 X-3.827 Y31.518 Z14.500 I-22.450 J-22.450 K0.000 F1999.800
G3 X3.827 Y-31.518 Z14.500 I3.827 J-31.518 K0.000 F1999.800
G3 X22.450 Y22.450 Z14.500 I-3.827 J31.518 K0.000 F1999.800
G0 X22.450 Y22.450 Z23.000
G0 X21.920 Y21.920 Z23.000
G1 X21.920 Y21.920 Z14.500 F999.600
G3 X-3.737 Y30.773 Z14.500 I-21.920 J-21.920 K0.000 F1999.800
G3 X3.737 Y-30.773 Z14.500 I3.737 J-30.773 K0.000 F1999.800
G3 X21.920 Y21.920 Z14.500 I-3.737 J30.773 K0.000 F1999.800
G0 X21.920 Y21.920 Z23.000
G0 X21.566 Y21.566 Z23.000
G1 X21.566 Y21.566 Z14.500 F999.600
G3 X3.247 Y30.326 Z14.500 I-21.566 J-21.566 K0.000 F1999.800
G3 X-3.247 Y-30.326 Z14.500 I-3.247 J-30.326 K0.000 F1999.800
G3 X21.566 Y21.566 Z14.500 I3.247 J30.326 K0.000 F1999.800
G0 X21.566 Y21.566 Z23.000
G0 X21.036 Y21.036 Z23.000
G1 X21.036 Y21.036 Z14.500 F999.600
G3 X3.149 Y29.582 Z14.500 I-21.036 J-21.036 K0.000 F1999.800
G3 X-3.149 Y-29.582 Z14.500 I-3.149 J-29.582 K0.000 F1999.800
G3 X21.036 Y21.036 Z14.500 I3.149 J29.582 K0.000 F1999.800
G1 X21.036 Y21.036 Z14.000 F999.600
G3 X3.149 Y29.582 Z14.000 I-21.036 J-21.036 K0.000 F1999.800
G3 X-3.149 Y-29.582 Z14.000 I-3.149 J-29.582 K0.000 F1999.800
G3 X21.036 Y21.036 Z14.000 I3.149 J29.582 K0.000 F1999.800
G0 X21.036 Y21.036 Z23.000
G0 X21.566 Y21.566 Z23.000
G1 X21.566 Y21.566 Z14.000 F999.600
G3 X3.247 Y30.326 Z14.000 I-21.566 J-21.566 K0.000 F1999.800
G3 X-3.247 Y-30.326 Z14.000 I-3.247 J-30.326 K0.000 F1999.800
G3 X21.566 Y21.566 Z14.000 I3.247 J30.326 K0.000 F1999.800
G0 X21.566 Y21.566 Z23.000
G0 X21.920 Y21.920 Z23.000
G1 X21.920 Y21.920 Z14.000 F999.600
G3 X-3.737 Y30.773 Z14.000 I-21.920 J-21.920 K0.000 F1999.800
G3 X3.737 Y-30.773 Z14.000 I3.737 J-30.773 K0.000 F1999.800
G3 X21.920 Y21.920 Z14.000 I-3.737 J30.773 K0.000 F1999.800
G0 X21.920 Y21.920 Z23.000
G0 X22.450 Y22.450 Z23.000
G1 X22.450 Y22.450 Z14.000 F999.600
G3 X-3.827 Y31.518 Z14.000 I-22.450 J-22.450 K0.000 F1999.800
G3 X3.827 Y-31.518 Z14.000 I3.827 J-31.518 K0.000 F1999.800
G3 X22.450 Y22.450 Z14.000 I-3.827 J31.518 K0.000 F1999.800
G1 X22.450 Y22.450 Z13.500 F999.600
G3 X-3.827 Y31.518 Z13.500 I-22.450 J-22.450 K0.000 F1999.800
G3 X3.827 Y-31.518 Z13.500 I3.827 J-31.518 K0.000 F1999.800
G3 X22.450 Y22.450 Z13.500 I-3.827 J31.518 K0.000 F1999.800
G0 X22.450 Y22.450 Z23.000
G0 X21.920 Y21.920 Z23.000
G1 X21.920 Y21.920 Z13.500 F999.600
G3 X-3.737 Y30.773 Z13.500 I-21.920 J-21.920 K0.000 F1999.800
G3 X3.737 Y-30.773 Z13.500 I3.737 J-30.773 K0.000 F1999.800
G3 X21.920 Y21.920 Z13.500 I-3.737 J30.773 K0.000 F1999.800
G0 X21.920 Y21.920 Z23.000
G0 X21.566 Y21.566 Z23.000
G1 X21.566 Y21.566 Z13.500 F999.600
G3 X3.247 Y30.326 Z13.500 I-21.566 J-21.566 K0.000 F1999.800
G3 X-3.247 Y-30.326 Z13.500 I-3.247 J-30.326 K0.000 F1999.800
G3 X21.566 Y21.566 Z13.500 I3.247 J30.326 K0.000 F1999.800
G0 X21.566 Y21.566 Z23.000
G0 X21.036 Y21.036 Z23.000
G1 X21.036 Y21.036 Z13.500 F999.600
G3 X3.149 Y29.582 Z13.500 I-21.036 J-21.036 K0.000 F1999.800
G3 X-3.149 Y-29.582 Z13.500 I-3.149 J-29.582 K0.000 F1999.800
G3 X21.036 Y21.036 Z13.500 I3.149 J29.582 K0.000 F1999.800
G1 X21.036 Y21.036 Z13.000 F999.600
G3 X3.149 Y29.582 Z13.000 I-21.036 J-21.036 K0.000 F1999.800
G3 X-3.149 Y-29.582 Z13.000 I-3.149 J-29.582 K0.000 F1999.800
G3 X21.036 Y21.036 Z13.000 I3.149 J29.582 K0.000 F1999.800
G0 X21.036 Y21.036 Z23.000
G0 X21.566 Y21.566 Z23.000
G1 X21.566 Y21.566 Z13.000 F999.600
G3 X3.247 Y30.326 Z13.000 I-21.566 J-21.566 K0.000 F1999.800
G3 X-3.247 Y-30.326 Z13.000 I-3.247 J-30.326 K0.000 F1999.800
G3 X21.566 Y21.566 Z13.000 I3.247 J30.326 K0.000 F1999.800
G0 X21.566 Y21.566 Z23.000
G0 X21.920 Y21.920 Z23.000
G1 X21.920 Y21.920 Z13.000 F999.600
G3 X-3.737 Y30.773 Z13.000 I-21.920 J-21.920 K0.000 F1999.800
G3 X3.737 Y-30.773 Z13.000 I3.737 J-30.773 K0.000 F1999.800
G3 X21.920 Y21.920 Z13.000 I-3.737 J30.773 K0.000 F1999.800
G0 X21.920 Y21.920 Z23.000
G0 X22.450 Y22.450 Z23.000
G1 X22.450 Y22.450 Z13.000 F999.600
G3 X-3.827 Y31.518 Z13.000 I-22.450 J-22.450 K0.000 F1999.800
G3 X3.827 Y-31.518 Z13.000 I3.827 J-31.518 K0.000 F1999.800
G3 X22.450 Y22.450 Z13.000 I-3.827 J31.518 K0.000 F1999.800
G1 X22.450 Y22.450 Z12.500 F999.600
G3 X-3.827 Y31.518 Z12.500 I-22.450 J-22.450 K0.000 F1999.800
G3 X3.827 Y-31.518 Z12.500 I3.827 J-31.518 K0.000 F1999.800
G3 X22.450 Y22.450 Z12.500 I-3.827 J31.518 K0.000 F1999.800
G0 X22.450 Y22.450 Z23.000
G0 X21.920 Y21.920 Z23.000
G1 X21.920 Y21.920 Z12.500 F999.600
G3 X-3.737 Y30.773 Z12.500 I-21.920 J-21.920 K0.000 F1999.800
G3 X3.737 Y-30.773 Z12.500 I3.737 J-30.773 K0.000 F1999.800
G3 X21.920 Y21.920 Z12.500 I-3.737 J30.773 K0.000 F1999.800
G0 X21.920 Y21.920 Z23.000
G0 X21.566 Y21.566 Z23.000
G1 X21.566 Y21.566 Z12.500 F999.600
G3 X3.247 Y30.326 Z12.500 I-21.566 J-21.566 K0.000 F1999.800
G3 X-3.247 Y-30.326 Z12.500 I-3.247 J-30.326 K0.000 F1999.800
G3 X21.566 Y21.566 Z12.500 I3.247 J30.326 K0.000 F1999.800
G0 X21.566 Y21.566 Z23.000
G0 X21.036 Y21.036 Z23.000
G1 X21.036 Y21.036 Z12.500 F999.600
G3 X3.149 Y29.582 Z12.500 I-21.036 J-21.036 K0.000 F1999.800
G3 X-3.149 Y-29.582 Z12.500 I-3.149 J-29.582 K0.000 F1999.800
G3 X21.036 Y21.036 Z12.500 I3.149 J29.582 K0.000 F1999.800
G1 X21.036 Y21.036 Z12.000 F999.600
G3 X3.149 Y29.582 Z12.000 I-21.036 J-21.036 K0.000 F1999.800
G3 X-3.149 Y-29.582 Z12.000 I-3.149 J-29.582 K0.000 F1999.800
G3 X21.036 Y21.036 Z12.000 I3.149 J29.582 K0.000 F1999.800
G0 X21.036 Y21.036 Z23.000
G0 X21.566 Y21.566 Z23.000
G1 X21.566 Y21.566 Z12.000 F999.600
G3 X3.247 Y30.326 Z12.000 I-21.566 J-21.566 K0.000 F1999.800
G3 X-3.247 Y-30.326 Z12.000 I-3.247 J-30.326 K0.000 F1999.800
G3 X21.566 Y21.566 Z12.000 I3.247 J30.326 K0.000 F1999.800
G0 X21.566 Y21.566 Z23.000
G0 X21.920 Y21.920 Z23.000
G1 X21.920 Y21.920 Z12.000 F999.600
G3 X-3.737 Y30.773 Z12.000 I-21.920 J-21.920 K0.000 F1999.800
G3 X3.737 Y-30.773 Z12.000 I3.737 J-30.773 K0.000 F1999.800
G3 X21.920 Y21.920 Z12.000 I-3.737 J30.773 K0.000 F1999.800
G0 X21.920 Y21.920 Z23.000
G0 X22.450 Y22.450 Z23.000
G1 X22.450 Y22.450 Z12.000 F999.600
G3 X-3.827 Y31.518 Z12.000 I-22.450 J-22.450 K0.000 F1999.800
G3 X3.827 Y-31.518 Z12.000 I3.827 J-31.518 K0.000 F1999.800
G3 X22.450 Y22.450 Z12.000 I-3.827 J31.518 K0.000 F1999.800
G1 X22.450 Y22.450 Z11.500 F999.600
G3 X-3.827 Y31.518 Z11.500 I-22.450 J-22.450 K0.000 F1999.800
G3 X3.827 Y-31.518 Z11.500 I3.827 J-31.518 K0.000 F1999.800
G3 X22.450 Y22.450 Z11.500 I-3.827 J31.518 K0.000 F1999.800
G0 X22.450 Y22.450 Z23.000
G0 X21.920 Y21.920 Z23.000
G1 X21.920 Y21.920 Z11.500 F999.600
G3 X-3.737 Y30.773 Z11.500 I-21.920 J-21.920 K0.000 F1999.800
G3 X3.737 Y-30.773 Z11.500 I3.737 J-30.773 K0.000 F1999.800
G3 X21.920 Y21.920 Z11.500 I-3.737 J30.773 K0.000 F1999.800
G0 X21.920 Y21.920 Z23.000
G0 X21.566 Y21.566 Z23.000
G1 X21.566 Y21.566 Z11.500 F999.600
G3 X3.247 Y30.326 Z11.500 I-21.566 J-21.566 K0.000 F1999.800
G3 X-3.247 Y-30.326 Z11.500 I-3.247 J-30.326 K0.000 F1999.800
G3 X21.566 Y21.566 Z11.500 I3.247 J30.326 K0.000 F1999.800
G0 X21.566 Y21.566 Z23.000
G0 X21.036 Y21.036 Z23.000
G1 X21.036 Y21.036 Z11.500 F999.600
G3 X3.149 Y29.582 Z11.500 I-21.036 J-21.036 K0.000 F1999.800
G3 X-3.149 Y-29.582 Z11.500 I-3.149 J-29.582 K0.000 F1999.800
G3 X21.036 Y21.036 Z11.500 I3.149 J29.582 K0.000 F1999.800
G1 X21.036 Y21.036 Z11.000 F999.600
G3 X3.149 Y29.582 Z11.000 I-21.036 J-21.036 K0.000 F1999.800
G3 X-3.149 Y-29.582 Z11.000 I-3.149 J-29.582 K0.000 F1999.800
G3 X21.036 Y21.036 Z11.000 I3.149 J29.582 K0.000 F1999.800
G0 X21.036 Y21.036 Z23.000
G0 X21.566 Y21.566 Z23.000
G1 X21.566 Y21.566 Z11.000 F999.600
G3 X3.247 Y30.326 Z11.000 I-21.566 J-21.566 K0.000 F1999.800
G3 X-3.247 Y-30.326 Z11.000 I-3.247 J-30.326 K0.000 F1999.800
G3 X21.566 Y21.566 Z11.000 I3.247 J30.326 K0.000 F1999.800
G0 X21.566 Y21.566 Z23.000
G0 X21.920 Y21.920 Z23.000
G1 X21.920 Y21.920 Z11.000 F999.600
G3 X-3.737 Y30.773 Z11.000 I-21.920 J-21.920 K0.000 F1999.800
G3 X3.737 Y-30.773 Z11.000 I3.737 J-30.773 K0.000 F1999.800
G3 X21.920 Y21.920 Z11.000 I-3.737 J30.773 K0.000 F1999.800
G0 X21.920 Y21.920 Z23.000
G0 X22.450 Y22.450 Z23.000
G1 X22.450 Y22.450 Z11.000 F999.600
G3 X-3.827 Y31.518 Z11.000 I-22.450 J-22.450 K0.000 F1999.800
G3 X3.827 Y-31.518 Z11.000 I3.827 J-31.518 K0.000 F1999.800
G3 X22.450 Y22.450 Z11.000 I-3.827 J31.518 K0.000 F1999.800
G1 X22.450 Y22.450 Z10.500 F999.600
G3 X-3.827 Y31.518 Z10.500 I-22.450 J-22.450 K0.000 F1999.800
G3 X3.827 Y-31.518 Z10.500 I3.827 J-31.518 K0.000 F1999.800
G3 X22.450 Y22.450 Z10.500 I-3.827 J31.518 K0.000 F1999.800
G0 X22.450 Y22.450 Z23.000
G0 X21.920 Y21.920 Z23.000
G1 X21.920 Y21.920 Z10.500 F999.600
G3 X-3.737 Y30.773 Z10.500 I-21.920 J-21.920 K0.000 F1999.800
G3 X3.737 Y-30.773 Z10.500 I3.737 J-30.773 K0.000 F1999.800
G3 X21.920 Y21.920 Z10.500 I-3.737 J30.773 K0.000 F1999.800
G0 X21.920 Y21.920 Z23.000
G0 X21.566 Y21.566 Z23.000
G1 X21.566 Y21.566 Z10.500 F999.600
G3 X3.247 Y30.326 Z10.500 I-21.566 J-21.566 K0.000 F1999.800
G3 X-3.247 Y-30.326 Z10.500 I-3.247 J-30.326 K0.000 F1999.800
G3 X21.566 Y21.566 Z10.500 I3.247 J30.326 K0.000 F1999.800
G0 X21.566 Y21.566 Z23.000
G0 X21.036 Y21.036 Z23.000
G1 X21.036 Y21.036 Z10.500 F999.600
G3 X3.149 Y29.582 Z10.500 I-21.036 J-21.036 K0.000 F1999.800
G3 X-3.149 Y-29.582 Z10.500 I-3.149 J-29.582 K0.000 F1999.800
G3 X21.036 Y21.036 Z10.500 I3.149 J29.582 K0.000 F1999.800
G1 X21.036 Y21.036 Z10.000 F999.600
G3 X3.149 Y29.582 Z10.000 I-21.036 J-21.036 K0.000 F1999.800
G3 X-3.149 Y-29.582 Z10.000 I-3.149 J-29.582 K0.000 F1999.800
G3 X21.036 Y21.036 Z10.000 I3.149 J29.582 K0.000 F1999.800
G0 X21.036 Y21.036 Z23.000
G0 X21.566 Y21.566 Z23.000
G1 X21.566 Y21.566 Z10.000 F999.600
G3 X3.247 Y30.326 Z10.000 I-21.566 J-21.566 K0.000 F1999.800
G3 X-3.247 Y-30.326 Z10.000 I-3.247 J-30.326 K0.000 F1999.800
G3 X21.566 Y21.566 Z10.000 I3.247 J30.326 K0.000 F1999.800
G0 X21.566 Y21.566 Z23.000
G0 X21.920 Y21.920 Z23.000
G1 X21.920 Y21.920 Z10.000 F999.600
G3 X-3.737 Y30.773 Z10.000 I-21.920 J-21.920 K0.000 F1999.800
G3 X3.737 Y-30.773 Z10.000 I3.737 J-30.773 K0.000 F1999.800
G3 X21.920 Y21.920 Z10.000 I-3.737 J30.773 K0.000 F1999.800
G0 X21.920 Y21.920 Z23.000
G0 X22.450 Y22.450 Z23.000
G1 X22.450 Y22.450 Z10.000 F999.600
G3 X-3.827 Y31.518 Z10.000 I-22.450 J-22.450 K0.000 F1999.800
G3 X3.827 Y-31.518 Z10.000 I3.827 J-31.518 K0.000 F1999.800
G3 X22.450 Y22.450 Z10.000 I-3.827 J31.518 K0.000 F1999.800
G1 X22.450 Y22.450 Z9.500 F999.600
G3 X-3.827 Y31.518 Z9.500 I-22.450 J-22.450 K0.000 F1999.800
G3 X3.827 Y-31.518 Z9.500 I3.827 J-31.518 K0.000 F1999.800
G3 X22.450 Y22.450 Z9.500 I-3.827 J31.518 K0.000 F1999.800
G0 X22.450 Y22.450 Z23.000
G0 X21.920 Y21.920 Z23.000
G1 X21.920 Y21.920 Z9.500 F999.600
G3 X-3.737 Y30.773 Z9.500 I-21.920 J-21.920 K0.000 F1999.800
G3 X3.737 Y-30.773 Z9.500 I3.737 J-30.773 K0.000 F1999.800
G3 X21.920 Y21.920 Z9.500 I-3.737 J30.773 K0.000 F1999.800
G0 X21.920 Y21.920 Z23.000
G0 X21.566 Y21.566 Z23.000
G1 X21.566 Y21.566 Z9.500 F999.600
G3 X3.247 Y30.326 Z9.500 I-21.566 J-21.566 K0.000 F1999.800
G3 X-3.247 Y-30.326 Z9.500 I-3.247 J-30.326 K0.000 F1999.800
G3 X21.566 Y21.566 Z9.500 I3.247 J30.326 K0.000 F1999.800
G0 X21.566 Y21.566 Z23.000
G0 X21.036 Y21.036 Z23.000
G1 X21.036 Y21.036 Z9.500 F999.600
G3 X3.149 Y29.582 Z9.500 I-21.036 J-21.036 K0.000 F1999.800
G3 X-3.149 Y-29.582 Z9.500 I-3.149 J-29.582 K0.000 F1999.800
G3 X21.036 Y21.036 Z9.500 I3.149 J29.582 K0.000 F1999.800
G1 X21.036 Y21.036 Z9.000 F999.600
G3 X3.149 Y29.582 Z9.000 I-21.036 J-21.036 K0.000 F1999.800
G3 X-3.149 Y-29.582 Z9.000 I-3.149 J-29.582 K0.000 F1999.800
G3 X21.036 Y21.036 Z9.000 I3.149 J29.582 K0.000 F1999.800
G0 X21.036 Y21.036 Z23.000
G0 X21.566 Y21.566 Z23.000
G1 X21.566 Y21.566 Z9.000 F999.600
G3 X3.247 Y30.326 Z9.000 I-21.566 J-21.566 K0.000 F1999.800
G3 X-3.247 Y-30.326 Z9.000 I-3.247 J-30.326 K0.000 F1999.800
G3 X21.566 Y21.566 Z9.000 I3.247 J30.326 K0.000 F1999.800
G0 X21.566 Y21.566 Z23.000
G0 X21.920 Y21.920 Z23.000
G1 X21.920 Y21.920 Z9.000 F999.600
G3 X-3.737 Y30.773 Z9.000 I-21.920 J-21.920 K0.000 F1999.800
G3 X3.737 Y-30.773 Z9.000 I3.737 J-30.773 K0.000 F1999.800
G3 X21.920 Y21.920 Z9.000 I-3.737 J30.773 K0.000 F1999.800
G0 X21.920 Y21.920 Z23.000
G0 X22.450 Y22.450 Z23.000
G1 X22.450 Y22.450 Z9.000 F999.600
G3 X-3.827 Y31.518 Z9.000 I-22.450 J-22.450 K0.000 F1999.800
G3 X3.827 Y-31.518 Z9.000 I3.827 J-31.518 K0.000 F1999.800
G3 X22.450 Y22.450 Z9.000 I-3.827 J31.518 K0.000 F1999.800
G1 X22.450 Y22.450 Z8.500 F999.600
G3 X-3.827 Y31.518 Z8.500 I-22.450 J-22.450 K0.000 F1999.800
G3 X3.827 Y-31.518 Z8.500 I3.827 J-31.518 K0.000 F1999.800
G3 X22.450 Y22.450 Z8.500 I-3.827 J31.518 K0.000 F1999.800
G0 X22.450 Y22.450 Z23.000
G0 X21.920 Y21.920 Z23.000
G1 X21.920 Y21.920 Z8.500 F999.600
G3 X-3.737 Y30.773 Z8.500 I-21.920 J-21.920 K0.000 F1999.800
G3 X3.737 Y-30.773 Z8.500 I3.737 J-30.773 K0.000 F1999.800
G3 X21.920 Y21.920 Z8.500 I-3.737 J30.773 K0.000 F1999.800
G0 X21.920 Y21.920 Z23.000
G0 X21.566 Y21.566 Z23.000
G1 X21.566 Y21.566 Z8.500 F999.600
G3 X3.247 Y30.326 Z8.500 I-21.566 J-21.566 K0.000 F1999.800
G3 X-3.247 Y-30.326 Z8.500 I-3.247 J-30.326 K0.000 F1999.800
G3 X21.566 Y21.566 Z8.500 I3.247 J30.326 K0.000 F1999.800
G0 X21.566 Y21.566 Z23.000
G0 X21.036 Y21.036 Z23.000
G1 X21.036 Y21.036 Z8.500 F999.600
G3 X3.149 Y29.582 Z8.500 I-21.036 J-21.036 K0.000 F1999.800
G3 X-3.149 Y-29.582 Z8.500 I-3.149 J-29.582 K0.000 F1999.800
G3 X21.036 Y21.036 Z8.500 I3.149 J29.582 K0.000 F1999.800
G1 X21.036 Y21.036 Z8.000 F999.600
G3 X3.149 Y29.582 Z8.000 I-21.036 J-21.036 K0.000 F1999.800
G3 X-3.149 Y-29.582 Z8.000 I-3.149 J-29.582 K0.000 F1999.800
G3 X21.036 Y21.036 Z8.000 I3.149 J29.582 K0.000 F1999.800
G0 X21.036 Y21.036 Z23.000
G0 X21.566 Y21.566 Z23.000
G1 X21.566 Y21.566 Z8.000 F999.600
G3 X3.247 Y30.326 Z8.000 I-21.566 J-21.566 K0.000 F1999.800
G3 X-3.247 Y-30.326 Z8.000 I-3.247 J-30.326 K0.000 F1999.800
G3 X21.566 Y21.566 Z8.000 I3.247 J30.326 K0.000 F1999.800
G0 X21.566 Y21.566 Z23.000
G0 X21.920 Y21.920 Z23.000
G1 X21.920 Y21.920 Z8.000 F999.600
G3 X-3.737 Y30.773 Z8.000 I-21.920 J-21.920 K0.000 F1999.800
G3 X3.737 Y-30.773 Z8.000 I3.737 J-30.773 K0.000 F1999.800
G3 X21.920 Y21.920 Z8.000 I-3.737 J30.773 K0.000 F1999.800
G0 X21.920 Y21.920 Z23.000
G0 X22.450 Y22.450 Z23.000
G1 X22.450 Y22.450 Z8.000 F999.600
G3 X-3.827 Y31.518 Z8.000 I-22.450 J-22.450 K0.000 F1999.800
G3 X3.827 Y-31.518 Z8.000 I3.827 J-31.518 K0.000 F1999.800
G3 X22.450 Y22.450 Z8.000 I-3.827 J31.518 K0.000 F1999.800
G0 Z23.000
(Finish operation: Pocket_Shape001)
(Begin postamble)
M5
G17 G90
M2
