(Exported by FreeCAD)
(Post Processor: grbl_post)
(Output Time:2020-05-10 15:15:21.829919)
(Begin preamble)
G17 G90
G21
(Begin operation: Fixture)
(Path: Fixture)
G54
(Finish operation: Fixture)
(Begin operation: T6: 2FluteWoodMill002)
(Path: T6: 2FluteWoodMill002)
(T6: 2FluteWoodMill002)
(Begin toolchange)
(M6 T6.0)
M3 S12000.0
(Finish operation: T6: 2FluteWoodMill002)
(Begin operation: Adaptive004)
(Path: Adaptive004)
(Adaptive004)
(Helix to depth: 17.000000)
G0 X-11.510 Y13.070 Z23.000
G0 X-11.510 Y13.070 Z21.000
G1 X-11.510 Y13.070 Z18.000 F999.600
G1 X-11.510 Y13.070 Z18.000 F999.600
G1 X-11.655 Y13.233 Z17.981 F999.600
G1 X-11.830 Y13.365 Z17.961 F999.600
G1 X-12.027 Y13.460 Z17.942 F999.600
G1 X-12.238 Y13.514 Z17.923 F999.600
G1 X-12.456 Y13.527 Z17.903 F999.600
G1 X-12.672 Y13.496 Z17.884 F999.600
G1 X-12.879 Y13.424 Z17.865 F999.600
G1 X-13.067 Y13.313 Z17.846 F999.600
G1 X-13.230 Y13.168 Z17.826 F999.600
G1 X-13.361 Y12.993 Z17.807 F999.600
G1 X-13.456 Y12.797 Z17.788 F999.600
G1 X-13.511 Y12.585 Z17.768 F999.600
G1 X-13.523 Y12.367 Z17.749 F999.600
G1 X-13.492 Y12.151 Z17.730 F999.600
G1 X-13.420 Y11.945 Z17.710 F999.600
G1 X-13.310 Y11.757 Z17.691 F999.600
G1 X-13.164 Y11.594 Z17.672 F999.600
G1 X-12.990 Y11.462 Z17.652 F999.600
G1 X-12.793 Y11.367 Z17.633 F999.600
G1 X-12.581 Y11.313 Z17.614 F999.600
G1 X-12.363 Y11.300 Z17.595 F999.600
G1 X-12.147 Y11.331 Z17.575 F999.600
G1 X-11.941 Y11.403 Z17.556 F999.600
G1 X-11.753 Y11.514 Z17.537 F999.600
G1 X-11.590 Y11.659 Z17.517 F999.600
G1 X-11.459 Y11.834 Z17.498 F999.600
G1 X-11.364 Y12.030 Z17.479 F999.600
G1 X-11.309 Y12.242 Z17.459 F999.600
G1 X-11.297 Y12.460 Z17.440 F999.600
G1 X-11.327 Y12.676 Z17.421 F999.600
G1 X-11.399 Y12.882 Z17.401 F999.600
G1 X-11.510 Y13.070 Z17.382 F999.600
G1 X-11.655 Y13.233 Z17.363 F999.600
G1 X-11.830 Y13.365 Z17.343 F999.600
G1 X-12.027 Y13.460 Z17.324 F999.600
G1 X-12.238 Y13.514 Z17.305 F999.600
G1 X-12.456 Y13.527 Z17.286 F999.600
G1 X-12.672 Y13.496 Z17.266 F999.600
G1 X-12.879 Y13.424 Z17.247 F999.600
G1 X-13.067 Y13.313 Z17.228 F999.600
G1 X-13.230 Y13.168 Z17.208 F999.600
G1 X-13.361 Y12.993 Z17.189 F999.600
G1 X-13.456 Y12.797 Z17.170 F999.600
G1 X-13.511 Y12.585 Z17.150 F999.600
G1 X-13.523 Y12.367 Z17.131 F999.600
G1 X-13.492 Y12.151 Z17.112 F999.600
G1 X-13.420 Y11.945 Z17.092 F999.600
G1 X-13.310 Y11.757 Z17.073 F999.600
G1 X-13.164 Y11.594 Z17.054 F999.600
G1 X-12.990 Y11.462 Z17.035 F999.600
G1 X-12.793 Y11.367 Z17.015 F999.600
G1 X-12.581 Y11.313 Z17.000 F1999.800
G1 X-12.363 Y11.300 Z17.000 F1999.800
G1 X-12.147 Y11.331 Z17.000 F1999.800
G1 X-11.941 Y11.403 Z17.000 F1999.800
G1 X-11.753 Y11.514 Z17.000 F1999.800
G1 X-11.590 Y11.659 Z17.000 F1999.800
G1 X-11.459 Y11.834 Z17.000 F1999.800
G1 X-11.364 Y12.030 Z17.000 F1999.800
G1 X-11.309 Y12.242 Z17.000 F1999.800
G1 X-11.297 Y12.460 Z17.000 F1999.800
G1 X-11.327 Y12.676 Z17.000 F1999.800
G1 X-11.399 Y12.882 Z17.000 F1999.800
G1 X-11.510 Y13.070 Z17.000 F1999.800
G1 X-11.655 Y13.233 Z17.000 F1999.800
G1 X-11.830 Y13.365 Z17.000 F1999.800
G1 X-12.027 Y13.460 Z17.000 F1999.800
G1 X-12.238 Y13.514 Z17.000 F1999.800
G1 X-12.456 Y13.527 Z17.000 F1999.800
G1 X-12.672 Y13.496 Z17.000 F1999.800
G1 X-12.879 Y13.424 Z17.000 F1999.800
G1 X-13.067 Y13.313 Z17.000 F1999.800
G1 X-13.230 Y13.168 Z17.000 F1999.800
G1 X-13.361 Y12.993 Z17.000 F1999.800
G1 X-13.456 Y12.797 Z17.000 F1999.800
G1 X-13.511 Y12.585 Z17.000 F1999.800
G1 X-13.523 Y12.367 Z17.000 F1999.800
G1 X-13.492 Y12.151 Z17.000 F1999.800
G1 X-13.420 Y11.945 Z17.000 F1999.800
G1 X-13.310 Y11.757 Z17.000 F1999.800
G1 X-13.164 Y11.594 Z17.000 F1999.800
G1 X-12.990 Y11.462 Z17.000 F1999.800
G1 X-12.793 Y11.367 Z17.000 F1999.800
(Adaptive - depth: 17.000000)
G1 X-12.410 Y11.289 F1999.800
G1 X-12.365 Y11.244 F1999.800
G1 X-12.188 Y11.184 F1999.800
G1 X-12.008 Y11.173 F1999.800
G1 X-11.887 Y11.192 F1999.800
G1 X-11.579 Y11.320 F1999.800
G1 X-11.398 Y11.455 F1999.800
G1 X-11.297 Y11.556 F1999.800
G1 X-11.199 Y11.684 F1999.800
G1 X-11.109 Y11.842 F1999.800
G1 X-11.030 Y12.056 F1999.800
G1 X-10.989 Y12.252 F1999.800
G1 X-10.974 Y12.451 F1999.800
G1 X-10.989 Y12.658 F1999.800
G1 X-11.034 Y12.857 F1999.800
G1 X-11.117 Y13.045 F1999.800
G1 X-11.207 Y13.195 F1999.800
G1 X-11.323 Y13.350 F1999.800
G1 X-11.489 Y13.511 F1999.800
G1 X-11.669 Y13.643 F1999.800
G1 X-11.861 Y13.741 F1999.800
G1 X-12.045 Y13.797 F1999.800
G1 X-12.229 Y13.827 F1999.800
G1 X-12.425 Y13.835 F1999.800
G1 X-12.647 Y13.812 F1999.800
G1 X-12.865 Y13.759 F1999.800
G1 X-13.060 Y13.673 F1999.800
G1 X-13.226 Y13.575 F1999.800
G1 X-13.387 Y13.440 F1999.800
G1 X-13.526 Y13.286 F1999.800
G1 X-13.639 Y13.117 F1999.800
G1 X-13.729 Y12.929 F1999.800
G1 X-13.789 Y12.733 F1999.800
G1 X-13.820 Y12.530 F1999.800
G1 X-13.820 Y12.327 F1999.800
G1 X-13.789 Y12.124 F1999.800
G1 X-13.733 Y11.929 F1999.800
G1 X-13.647 Y11.741 F1999.800
G1 X-13.534 Y11.568 F1999.800
G1 X-13.402 Y11.410 F1999.800
G1 X-13.237 Y11.263 F1999.800
G1 X-13.064 Y11.139 F1999.800
G1 X-12.853 Y11.019 F1999.800
G1 X-12.556 Y10.898 F1999.800
G1 X-12.316 Y10.850 F1999.800
G1 X-12.195 Y10.842 F1999.800
G1 X-11.823 Y10.880 F1999.800
G1 X-11.515 Y10.992 F1999.800
G1 X-11.372 Y11.071 F1999.800
G1 X-11.244 Y11.162 F1999.800
G1 X-11.102 Y11.289 F1999.800
G1 X-10.936 Y11.489 F1999.800
G1 X-10.812 Y11.684 F1999.800
G1 X-10.726 Y11.891 F1999.800
G1 X-10.673 Y12.075 F1999.800
G1 X-10.639 Y12.286 F1999.800
G1 X-10.635 Y12.526 F1999.800
G1 X-10.662 Y12.756 F1999.800
G1 X-10.714 Y12.977 F1999.800
G1 X-10.805 Y13.192 F1999.800
G1 X-10.902 Y13.365 F1999.800
G1 X-11.030 Y13.541 F1999.800
G1 X-11.199 Y13.718 F1999.800
G1 X-11.387 Y13.868 F1999.800
G1 X-11.590 Y13.985 F1999.800
G1 X-11.778 Y14.064 F1999.800
G1 X-11.996 Y14.124 F1999.800
G1 X-12.218 Y14.158 F1999.800
G1 X-12.466 Y14.162 F1999.800
G1 X-12.695 Y14.139 F1999.800
G1 X-12.925 Y14.086 F1999.800
G1 X-13.147 Y13.996 F1999.800
G1 X-13.327 Y13.898 F1999.800
G1 X-13.511 Y13.763 F1999.800
G1 X-13.673 Y13.605 F1999.800
G1 X-13.816 Y13.436 F1999.800
G1 X-13.947 Y13.222 F1999.800
G1 X-14.041 Y13.008 F1999.800
G1 X-14.102 Y12.782 F1999.800
G1 X-14.128 Y12.583 F1999.800
G1 X-14.135 Y12.361 F1999.800
G1 X-14.109 Y12.109 F1999.800
G1 X-14.049 Y11.872 F1999.800
G1 X-13.974 Y11.673 F1999.800
G1 X-13.861 Y11.466 F1999.800
G1 X-13.726 Y11.278 F1999.800
G1 X-13.575 Y11.109 F1999.800
G1 X-13.387 Y10.932 F1999.800
G1 X-13.154 Y10.771 F1999.800
G1 X-12.929 Y10.654 F1999.800
G1 X-12.711 Y10.575 F1999.800
G1 X-12.485 Y10.523 F1999.800
G1 X-12.248 Y10.500 F1999.800
G1 X-12.015 Y10.500 F1999.800
G1 X-11.752 Y10.534 F1999.800
G1 X-11.515 Y10.602 F1999.800
G1 X-11.316 Y10.692 F1999.800
G1 X-11.135 Y10.797 F1999.800
G1 X-10.944 Y10.944 F1999.800
G1 X-10.771 Y11.120 F1999.800
G1 X-10.628 Y11.301 F1999.800
G1 X-10.504 Y11.508 F1999.800
G1 X-10.402 Y11.726 F1999.800
G1 X-10.320 Y11.981 F1999.800
G1 X-10.274 Y12.222 F1999.800
G1 X-10.256 Y12.470 F1999.800
G1 X-10.274 Y12.722 F1999.800
G1 X-10.316 Y12.936 F1999.800
G1 X-10.391 Y13.165 F1999.800
G1 X-10.485 Y13.383 F1999.800
G1 X-10.628 Y13.620 F1999.800
G1 X-10.778 Y13.820 F1999.800
G1 X-10.959 Y13.996 F1999.800
G1 X-11.135 Y14.132 F1999.800
G1 X-11.342 Y14.259 F1999.800
G1 X-11.586 Y14.372 F1999.800
G1 X-11.846 Y14.459 F1999.800
G1 X-12.102 Y14.504 F1999.800
G1 X-12.327 Y14.523 F1999.800
G1 X-12.579 Y14.511 F1999.800
G1 X-12.823 Y14.474 F1999.800
G1 X-13.094 Y14.398 F1999.800
G1 X-13.335 Y14.301 F1999.800
G1 X-13.560 Y14.165 F1999.800
G1 X-13.726 Y14.038 F1999.800
G1 X-13.902 Y13.876 F1999.800
G1 X-14.079 Y13.665 F1999.800
G1 X-14.226 Y13.447 F1999.800
G1 X-14.335 Y13.211 F1999.800
G1 X-14.410 Y12.996 F1999.800
G1 X-14.462 Y12.752 F1999.800
G1 X-14.485 Y12.508 F1999.800
G1 X-14.477 Y12.248 F1999.800
G1 X-14.444 Y11.996 F1999.800
G1 X-14.380 Y11.752 F1999.800
G1 X-14.286 Y11.511 F1999.800
G1 X-14.165 Y11.286 F1999.800
G1 X-14.026 Y11.071 F1999.800
G1 X-13.842 Y10.853 F1999.800
G1 X-13.647 Y10.673 F1999.800
G1 X-13.432 Y10.511 F1999.800
G1 X-13.195 Y10.372 F1999.800
G1 X-12.951 Y10.263 F1999.800
G1 X-12.695 Y10.180 F1999.800
G1 X-12.432 Y10.128 F1999.800
G1 X-12.165 Y10.113 F1999.800
G1 X-11.940 Y10.124 F1999.800
G1 X-11.688 Y10.158 F1999.800
G1 X-11.406 Y10.241 F1999.800
G1 X-11.169 Y10.335 F1999.800
G1 X-10.940 Y10.466 F1999.800
G1 X-10.756 Y10.602 F1999.800
G1 X-10.571 Y10.767 F1999.800
G1 X-10.387 Y10.974 F1999.800
G1 X-10.226 Y11.203 F1999.800
G1 X-10.094 Y11.440 F1999.800
G1 X-9.985 Y11.695 F1999.800
G1 X-9.917 Y11.959 F1999.800
G1 X-9.880 Y12.188 F1999.800
G1 X-9.868 Y12.444 F1999.800
G1 X-9.880 Y12.695 F1999.800
G1 X-9.929 Y12.985 F1999.800
G1 X-10.004 Y13.244 F1999.800
G1 X-10.105 Y13.496 F1999.800
G1 X-10.237 Y13.737 F1999.800
G1 X-10.391 Y13.959 F1999.800
G1 X-10.568 Y14.165 F1999.800
G1 X-10.771 Y14.353 F1999.800
G1 X-10.989 Y14.515 F1999.800
G1 X-11.222 Y14.650 F1999.800
G1 X-11.470 Y14.759 F1999.800
G1 X-11.729 Y14.842 F1999.800
G1 X-11.996 Y14.895 F1999.800
G1 X-12.267 Y14.921 F1999.800
G1 X-12.538 Y14.917 F1999.800
G1 X-12.808 Y14.883 F1999.800
G1 X-13.075 Y14.820 F1999.800
G1 X-13.331 Y14.729 F1999.800
G1 X-13.575 Y14.609 F1999.800
G1 X-13.808 Y14.462 F1999.800
G1 X-14.023 Y14.293 F1999.800
G1 X-14.218 Y14.102 F1999.800
G1 X-14.391 Y13.887 F1999.800
G1 X-14.541 Y13.658 F1999.800
G1 X-14.665 Y13.414 F1999.800
G1 X-14.763 Y13.154 F1999.800
G1 X-14.820 Y12.883 F1999.800
G1 X-14.846 Y12.662 F1999.800
G1 X-14.857 Y12.406 F1999.800
G1 X-14.835 Y12.079 F1999.800
G1 X-14.782 Y11.763 F1999.800
G1 X-14.692 Y11.477 F1999.800
G1 X-14.590 Y11.252 F1999.800
G1 X-14.466 Y11.038 F1999.800
G1 X-14.320 Y10.820 F1999.800
G1 X-14.105 Y10.564 F1999.800
G1 X-13.872 Y10.342 F1999.800
G1 X-13.624 Y10.165 F1999.800
G1 X-13.417 Y10.041 F1999.800
G1 X-13.162 Y9.917 F1999.800
G1 X-12.868 Y9.816 F1999.800
G1 X-12.575 Y9.744 F1999.800
G1 X-12.278 Y9.711 F1999.800
G1 X-12.026 Y9.707 F1999.800
G1 X-11.744 Y9.733 F1999.800
G1 X-11.474 Y9.789 F1999.800
G1 X-11.218 Y9.872 F1999.800
G1 X-10.966 Y9.985 F1999.800
G1 X-10.729 Y10.117 F1999.800
G1 X-10.481 Y10.297 F1999.800
G1 X-10.271 Y10.485 F1999.800
G1 X-10.079 Y10.695 F1999.800
G1 X-9.910 Y10.929 F1999.800
G1 X-9.767 Y11.173 F1999.800
G1 X-9.650 Y11.432 F1999.800
G1 X-9.560 Y11.707 F1999.800
G1 X-9.500 Y11.985 F1999.800
G1 X-9.462 Y12.267 F1999.800
G1 X-9.455 Y12.583 F1999.800
G1 X-9.477 Y12.876 F1999.800
G1 X-9.541 Y13.165 F1999.800
G1 X-9.613 Y13.395 F1999.800
G1 X-9.718 Y13.650 F1999.800
G1 X-9.868 Y13.929 F1999.800
G1 X-10.053 Y14.199 F1999.800
G1 X-10.252 Y14.432 F1999.800
G1 X-10.447 Y14.624 F1999.800
G1 X-10.680 Y14.808 F1999.800
G1 X-10.929 Y14.962 F1999.800
G1 X-11.184 Y15.090 F1999.800
G1 X-11.459 Y15.192 F1999.800
G1 X-11.741 Y15.263 F1999.800
G1 X-12.030 Y15.308 F1999.800
G1 X-12.320 Y15.323 F1999.800
G1 X-12.609 Y15.308 F1999.800
G1 X-12.898 Y15.271 F1999.800
G1 X-13.222 Y15.192 F1999.800
G1 X-13.508 Y15.090 F1999.800
G1 X-13.786 Y14.947 F1999.800
G1 X-14.000 Y14.812 F1999.800
G1 X-14.226 Y14.635 F1999.800
G1 X-14.432 Y14.444 F1999.800
G1 X-14.643 Y14.199 F1999.800
G1 X-14.812 Y13.955 F1999.800
G1 X-14.962 Y13.692 F1999.800
G1 X-15.086 Y13.414 F1999.800
G1 X-15.169 Y13.124 F1999.800
G1 X-15.218 Y12.880 F1999.800
G1 X-15.248 Y12.598 F1999.800
G1 X-15.256 Y12.278 F1999.800
G1 X-15.226 Y11.932 F1999.800
G1 X-15.154 Y11.624 F1999.800
G1 X-15.083 Y11.387 F1999.800
G1 X-14.966 Y11.109 F1999.800
G1 X-14.820 Y10.831 F1999.800
G1 X-14.643 Y10.564 F1999.800
G1 X-14.447 Y10.323 F1999.800
G1 X-14.229 Y10.098 F1999.800
G1 X-13.977 Y9.902 F1999.800
G1 X-13.756 Y9.756 F1999.800
G1 X-13.496 Y9.613 F1999.800
G1 X-13.188 Y9.481 F1999.800
G1 X-12.876 Y9.380 F1999.800
G1 X-12.560 Y9.316 F1999.800
G1 X-12.282 Y9.286 F1999.800
G1 X-11.974 Y9.282 F1999.800
G1 X-11.673 Y9.312 F1999.800
G1 X-11.383 Y9.368 F1999.800
G1 X-11.094 Y9.455 F1999.800
G1 X-10.820 Y9.568 F1999.800
G1 X-10.556 Y9.707 F1999.800
G1 X-10.308 Y9.872 F1999.800
G1 X-10.079 Y10.064 F1999.800
G1 X-9.872 Y10.274 F1999.800
G1 X-9.680 Y10.500 F1999.800
G1 X-9.485 Y10.789 F1999.800
G1 X-9.335 Y11.060 F1999.800
G1 X-9.214 Y11.357 F1999.800
G1 X-9.135 Y11.617 F1999.800
G1 X-9.068 Y11.910 F1999.800
G1 X-9.023 Y12.263 F1999.800
G1 X-9.011 Y12.602 F1999.800
G1 X-9.049 Y12.929 F1999.800
G1 X-9.094 Y13.165 F1999.800
G1 X-9.173 Y13.447 F1999.800
G1 X-9.289 Y13.756 F1999.800
G1 X-9.447 Y14.071 F1999.800
G1 X-9.617 Y14.350 F1999.800
G1 X-9.823 Y14.609 F1999.800
G1 X-10.008 Y14.805 F1999.800
G1 X-10.233 Y15.008 F1999.800
G1 X-10.504 Y15.207 F1999.800
G1 X-10.797 Y15.383 F1999.800
G1 X-11.098 Y15.519 F1999.800
G1 X-11.361 Y15.613 F1999.800
G1 X-11.665 Y15.688 F1999.800
G1 X-11.970 Y15.729 F1999.800
G1 X-12.267 Y15.744 F1999.800
G1 X-12.571 Y15.737 F1999.800
G1 X-12.925 Y15.692 F1999.800
G1 X-13.237 Y15.624 F1999.800
G1 X-13.549 Y15.526 F1999.800
G1 X-13.850 Y15.383 F1999.800
G1 X-14.083 Y15.248 F1999.800
G1 X-14.335 Y15.071 F1999.800
G1 X-14.571 Y14.880 F1999.800
G1 X-14.835 Y14.617 F1999.800
G1 X-15.045 Y14.365 F1999.800
G1 X-15.226 Y14.086 F1999.800
G1 X-15.361 Y13.835 F1999.800
G1 X-15.481 Y13.545 F1999.800
G1 X-15.571 Y13.248 F1999.800
G1 X-15.632 Y12.951 F1999.800
G1 X-15.669 Y12.643 F1999.800
G1 X-15.673 Y12.301 F1999.800
G1 X-15.650 Y11.985 F1999.800
G1 X-15.598 Y11.669 F1999.800
G1 X-15.515 Y11.350 F1999.800
G1 X-15.406 Y11.049 F1999.800
G1 X-15.267 Y10.756 F1999.800
G1 X-15.102 Y10.474 F1999.800
G1 X-14.910 Y10.211 F1999.800
G1 X-14.695 Y9.966 F1999.800
G1 X-14.459 Y9.741 F1999.800
G1 X-14.203 Y9.538 F1999.800
G1 X-13.929 Y9.361 F1999.800
G1 X-13.643 Y9.203 F1999.800
G1 X-13.301 Y9.056 F1999.800
G1 X-12.981 Y8.951 F1999.800
G1 X-12.643 Y8.887 F1999.800
G1 X-12.380 Y8.857 F1999.800
G1 X-12.071 Y8.846 F1999.800
G1 X-11.714 Y8.865 F1999.800
G1 X-11.365 Y8.914 F1999.800
G1 X-11.038 Y9.008 F1999.800
G1 X-10.789 Y9.098 F1999.800
G1 X-10.508 Y9.233 F1999.800
G1 X-10.248 Y9.383 F1999.800
G1 X-9.962 Y9.590 F1999.800
G1 X-9.718 Y9.805 F1999.800
G1 X-9.492 Y10.038 F1999.800
G1 X-9.278 Y10.293 F1999.800
G1 X-9.071 Y10.602 F1999.800
G1 X-8.917 Y10.906 F1999.800
G1 X-8.808 Y11.162 F1999.800
G1 X-8.703 Y11.470 F1999.800
G1 X-8.617 Y11.827 F1999.800
G1 X-8.575 Y12.195 F1999.800
G1 X-8.560 Y12.481 F1999.800
G1 X-8.575 Y12.820 F1999.800
G1 X-8.624 Y13.143 F1999.800
G1 X-8.695 Y13.451 F1999.800
G1 X-8.801 Y13.763 F1999.800
G1 X-8.932 Y14.060 F1999.800
G1 X-9.083 Y14.346 F1999.800
G1 X-9.289 Y14.654 F1999.800
G1 X-9.500 Y14.917 F1999.800
G1 X-9.737 Y15.169 F1999.800
G1 X-9.996 Y15.398 F1999.800
G1 X-10.271 Y15.602 F1999.800
G1 X-10.571 Y15.767 F1999.800
G1 X-10.812 Y15.876 F1999.800
G1 X-11.105 Y15.985 F1999.800
G1 X-11.459 Y16.083 F1999.800
G1 X-11.823 Y16.150 F1999.800
G1 X-12.173 Y16.188 F1999.800
G1 X-12.538 Y16.180 F1999.800
G1 X-12.827 Y16.154 F1999.800
G1 X-13.154 Y16.094 F1999.800
G1 X-13.470 Y16.011 F1999.800
G1 X-13.816 Y15.883 F1999.800
G1 X-14.124 Y15.737 F1999.800
G1 X-14.417 Y15.553 F1999.800
G1 X-14.639 Y15.387 F1999.800
G1 X-14.883 Y15.180 F1999.800
G1 X-15.147 Y14.917 F1999.800
G1 X-15.387 Y14.632 F1999.800
G1 X-15.583 Y14.323 F1999.800
G1 X-15.714 Y14.086 F1999.800
G1 X-15.846 Y13.778 F1999.800
G1 X-15.947 Y13.474 F1999.800
G1 X-16.030 Y13.120 F1999.800
G1 X-16.079 Y12.782 F1999.800
G1 X-16.098 Y12.444 F1999.800
G1 X-16.086 Y12.098 F1999.800
G1 X-16.045 Y11.759 F1999.800
G1 X-15.974 Y11.421 F1999.800
G1 X-15.876 Y11.090 F1999.800
G1 X-15.748 Y10.771 F1999.800
G1 X-15.594 Y10.462 F1999.800
G1 X-15.414 Y10.169 F1999.800
G1 X-15.207 Y9.891 F1999.800
G1 X-14.977 Y9.635 F1999.800
G1 X-14.726 Y9.398 F1999.800
G1 X-14.455 Y9.184 F1999.800
G1 X-14.173 Y8.989 F1999.800
G1 X-13.846 Y8.805 F1999.800
G1 X-13.519 Y8.654 F1999.800
G1 X-13.169 Y8.541 F1999.800
G1 X-12.891 Y8.474 F1999.800
G1 X-12.560 Y8.425 F1999.800
G1 X-12.237 Y8.395 F1999.800
G1 X-11.865 Y8.398 F1999.800
G1 X-11.504 Y8.429 F1999.800
G1 X-11.143 Y8.508 F1999.800
G1 X-10.883 Y8.583 F1999.800
G1 X-10.575 Y8.699 F1999.800
G1 X-10.256 Y8.853 F1999.800
G1 X-9.940 Y9.041 F1999.800
G1 X-9.654 Y9.244 F1999.800
G1 X-9.380 Y9.474 F1999.800
G1 X-9.128 Y9.726 F1999.800
G1 X-8.910 Y10.004 F1999.800
G1 X-8.752 Y10.241 F1999.800
G1 X-8.583 Y10.526 F1999.800
G1 X-8.425 Y10.861 F1999.800
G1 X-8.293 Y11.207 F1999.800
G1 X-8.195 Y11.564 F1999.800
G1 X-8.128 Y11.895 F1999.800
G1 X-8.086 Y12.263 F1999.800
G1 X-8.079 Y12.620 F1999.800
G1 X-8.120 Y12.974 F1999.800
G1 X-8.165 Y13.233 F1999.800
G1 X-8.241 Y13.545 F1999.800
G1 X-8.357 Y13.895 F1999.800
G1 X-8.504 Y14.233 F1999.800
G1 X-8.673 Y14.564 F1999.800
G1 X-8.876 Y14.872 F1999.800
G1 X-9.068 Y15.124 F1999.800
G1 X-9.312 Y15.391 F1999.800
G1 X-9.571 Y15.639 F1999.800
G1 X-9.861 Y15.868 F1999.800
G1 X-10.173 Y16.064 F1999.800
G1 X-10.440 Y16.207 F1999.800
G1 X-10.767 Y16.346 F1999.800
G1 X-11.086 Y16.459 F1999.800
G1 X-11.444 Y16.549 F1999.800
G1 X-11.801 Y16.605 F1999.800
G1 X-12.162 Y16.635 F1999.800
G1 X-12.530 Y16.635 F1999.800
G1 X-12.895 Y16.605 F1999.800
G1 X-13.256 Y16.545 F1999.800
G1 X-13.609 Y16.444 F1999.800
G1 X-13.887 Y16.342 F1999.800
G1 X-14.195 Y16.195 F1999.800
G1 X-14.485 Y16.034 F1999.800
G1 X-14.797 Y15.831 F1999.800
G1 X-15.086 Y15.598 F1999.800
G1 X-15.361 Y15.346 F1999.800
G1 X-15.609 Y15.068 F1999.800
G1 X-15.812 Y14.801 F1999.800
G1 X-15.996 Y14.485 F1999.800
G1 X-16.128 Y14.229 F1999.800
G1 X-16.274 Y13.887 F1999.800
G1 X-16.383 Y13.530 F1999.800
G1 X-16.462 Y13.192 F1999.800
G1 X-16.519 Y12.823 F1999.800
G1 X-16.541 Y12.451 F1999.800
G1 X-16.538 Y12.090 F1999.800
G1 X-16.504 Y11.722 F1999.800
G1 X-16.436 Y11.357 F1999.800
G1 X-16.331 Y11.008 F1999.800
G1 X-16.222 Y10.726 F1999.800
G1 X-16.079 Y10.414 F1999.800
G1 X-15.895 Y10.086 F1999.800
G1 X-15.684 Y9.774 F1999.800
G1 X-15.455 Y9.477 F1999.800
G1 X-15.192 Y9.211 F1999.800
G1 X-14.955 Y9.000 F1999.800
G1 X-14.673 Y8.774 F1999.800
G1 X-14.357 Y8.571 F1999.800
G1 X-14.034 Y8.395 F1999.800
G1 X-13.692 Y8.237 F1999.800
G1 X-13.338 Y8.109 F1999.800
G1 X-12.974 Y8.023 F1999.800
G1 X-12.669 Y7.970 F1999.800
G1 X-12.312 Y7.932 F1999.800
G1 X-11.940 Y7.932 F1999.800
G1 X-11.586 Y7.955 F1999.800
G1 X-11.218 Y8.008 F1999.800
G1 X-10.853 Y8.094 F1999.800
G1 X-10.508 Y8.218 F1999.800
G1 X-10.229 Y8.338 F1999.800
G1 X-9.921 Y8.496 F1999.800
G1 X-9.605 Y8.692 F1999.800
G1 X-9.305 Y8.914 F1999.800
G1 X-9.019 Y9.154 F1999.800
G1 X-8.763 Y9.425 F1999.800
G1 X-8.560 Y9.673 F1999.800
G1 X-8.350 Y9.977 F1999.800
G1 X-8.165 Y10.289 F1999.800
G1 X-8.004 Y10.624 F1999.800
G1 X-7.868 Y10.970 F1999.800
G1 X-7.763 Y11.323 F1999.800
G1 X-7.684 Y11.684 F1999.800
G1 X-7.635 Y12.053 F1999.800
G1 X-7.617 Y12.421 F1999.800
G1 X-7.628 Y12.789 F1999.800
G1 X-7.665 Y13.158 F1999.800
G1 X-7.733 Y13.523 F1999.800
G1 X-7.842 Y13.876 F1999.800
G1 X-7.947 Y14.165 F1999.800
G1 X-8.102 Y14.504 F1999.800
G1 X-8.278 Y14.827 F1999.800
G1 X-8.477 Y15.139 F1999.800
G1 X-8.699 Y15.436 F1999.800
G1 X-8.951 Y15.707 F1999.800
G1 X-9.188 Y15.932 F1999.800
G1 X-9.477 Y16.162 F1999.800
G1 X-9.782 Y16.372 F1999.800
G1 X-10.102 Y16.556 F1999.800
G1 X-10.436 Y16.718 F1999.800
G1 X-10.782 Y16.853 F1999.800
G1 X-11.135 Y16.962 F1999.800
G1 X-11.496 Y17.045 F1999.800
G1 X-11.861 Y17.098 F1999.800
G1 X-12.229 Y17.124 F1999.800
G1 X-12.598 Y17.120 F1999.800
G1 X-12.966 Y17.071 F1999.800
G1 X-13.252 Y17.015 F1999.800
G1 X-13.594 Y16.929 F1999.800
G1 X-13.944 Y16.808 F1999.800
G1 X-14.286 Y16.662 F1999.800
G1 X-14.617 Y16.496 F1999.800
G1 X-14.929 Y16.297 F1999.800
G1 X-15.207 Y16.094 F1999.800
G1 X-15.489 Y15.850 F1999.800
G1 X-15.756 Y15.590 F1999.800
G1 X-16.000 Y15.308 F1999.800
G1 X-16.222 Y15.011 F1999.800
G1 X-16.406 Y14.688 F1999.800
G1 X-16.534 Y14.425 F1999.800
G1 X-16.677 Y14.094 F1999.800
G1 X-16.793 Y13.741 F1999.800
G1 X-16.887 Y13.380 F1999.800
G1 X-16.955 Y13.011 F1999.800
G1 X-16.996 Y12.639 F1999.800
G1 X-17.011 Y12.267 F1999.800
G1 X-16.985 Y11.895 F1999.800
G1 X-16.944 Y11.571 F1999.800
G1 X-16.865 Y11.207 F1999.800
G1 X-16.759 Y10.846 F1999.800
G1 X-16.628 Y10.496 F1999.800
G1 X-16.470 Y10.158 F1999.800
G1 X-16.286 Y9.831 F1999.800
G1 X-16.079 Y9.519 F1999.800
G1 X-15.850 Y9.222 F1999.800
G1 X-15.598 Y8.944 F1999.800
G1 X-15.327 Y8.684 F1999.800
G1 X-15.038 Y8.447 F1999.800
G1 X-14.729 Y8.233 F1999.800
G1 X-14.406 Y8.041 F1999.800
G1 X-14.071 Y7.876 F1999.800
G1 X-13.722 Y7.737 F1999.800
G1 X-13.365 Y7.624 F1999.800
G1 X-13.000 Y7.538 F1999.800
G1 X-12.632 Y7.481 F1999.800
G1 X-12.259 Y7.451 F1999.800
G1 X-11.887 Y7.451 F1999.800
G1 X-11.515 Y7.477 F1999.800
G1 X-11.147 Y7.534 F1999.800
G1 X-10.782 Y7.617 F1999.800
G1 X-10.425 Y7.726 F1999.800
G1 X-10.079 Y7.861 F1999.800
G1 X-9.744 Y8.023 F1999.800
G1 X-9.421 Y8.211 F1999.800
G1 X-9.113 Y8.421 F1999.800
G1 X-8.823 Y8.654 F1999.800
G1 X-8.553 Y8.910 F1999.800
G1 X-8.312 Y9.192 F1999.800
G1 X-8.120 Y9.447 F1999.800
G1 X-7.917 Y9.748 F1999.800
G1 X-7.729 Y10.068 F1999.800
G1 X-7.568 Y10.402 F1999.800
G1 X-7.425 Y10.744 F1999.800
G1 X-7.305 Y11.094 F1999.800
G1 X-7.222 Y11.455 F1999.800
G1 X-7.162 Y11.797 F1999.800
G1 X-7.128 Y12.165 F1999.800
G1 X-7.124 Y12.534 F1999.800
G1 X-7.147 Y12.902 F1999.800
G1 X-7.195 Y13.271 F1999.800
G1 X-7.274 Y13.632 F1999.800
G1 X-7.368 Y13.989 F1999.800
G1 X-7.492 Y14.338 F1999.800
G1 X-7.643 Y14.677 F1999.800
G1 X-7.812 Y15.004 F1999.800
G1 X-8.008 Y15.320 F1999.800
G1 X-8.222 Y15.620 F1999.800
G1 X-8.466 Y15.898 F1999.800
G1 X-8.711 Y16.143 F1999.800
G1 X-8.992 Y16.383 F1999.800
G1 X-9.286 Y16.609 F1999.800
G1 X-9.594 Y16.812 F1999.800
G1 X-9.917 Y16.992 F1999.800
G1 X-10.252 Y17.154 F1999.800
G1 X-10.598 Y17.289 F1999.800
G1 X-10.951 Y17.402 F1999.800
G1 X-11.312 Y17.489 F1999.800
G1 X-11.677 Y17.549 F1999.800
G1 X-12.045 Y17.586 F1999.800
G1 X-12.414 Y17.598 F1999.800
G1 X-12.782 Y17.564 F1999.800
G1 X-13.098 Y17.519 F1999.800
G1 X-13.462 Y17.447 F1999.800
G1 X-13.820 Y17.350 F1999.800
G1 X-14.169 Y17.229 F1999.800
G1 X-14.511 Y17.086 F1999.800
G1 X-14.835 Y16.906 F1999.800
G1 X-15.109 Y16.733 F1999.800
G1 X-15.414 Y16.519 F1999.800
G1 X-15.703 Y16.282 F1999.800
G1 X-15.974 Y16.026 F1999.800
G1 X-16.229 Y15.756 F1999.800
G1 X-16.459 Y15.462 F1999.800
G1 X-16.669 Y15.158 F1999.800
G1 X-16.857 Y14.838 F1999.800
G1 X-17.019 Y14.504 F1999.800
G1 X-17.158 Y14.158 F1999.800
G1 X-17.271 Y13.801 F1999.800
G1 X-17.357 Y13.436 F1999.800
G1 X-17.421 Y13.068 F1999.800
G1 X-17.455 Y12.695 F1999.800
G1 X-17.462 Y12.323 F1999.800
G1 X-17.451 Y11.951 F1999.800
G1 X-17.410 Y11.579 F1999.800
G1 X-17.342 Y11.211 F1999.800
G1 X-17.252 Y10.846 F1999.800
G1 X-17.135 Y10.489 F1999.800
G1 X-16.985 Y10.147 F1999.800
G1 X-16.827 Y9.831 F1999.800
G1 X-16.639 Y9.508 F1999.800
G1 X-16.432 Y9.195 F1999.800
G1 X-16.203 Y8.898 F1999.800
G1 X-15.955 Y8.617 F1999.800
G1 X-15.680 Y8.361 F1999.800
G1 X-15.406 Y8.132 F1999.800
G1 X-15.102 Y7.914 F1999.800
G1 X-14.786 Y7.711 F1999.800
G1 X-14.455 Y7.534 F1999.800
G1 X-14.113 Y7.380 F1999.800
G1 X-13.763 Y7.244 F1999.800
G1 X-13.406 Y7.135 F1999.800
G1 X-13.041 Y7.049 F1999.800
G1 X-12.673 Y6.985 F1999.800
G1 X-12.301 Y6.962 F1999.800
G1 X-11.959 Y6.959 F1999.800
G1 X-11.586 Y6.977 F1999.800
G1 X-11.214 Y7.023 F1999.800
G1 X-10.846 Y7.094 F1999.800
G1 X-10.485 Y7.188 F1999.800
G1 X-10.132 Y7.305 F1999.800
G1 X-9.786 Y7.444 F1999.800
G1 X-9.451 Y7.605 F1999.800
G1 X-9.132 Y7.801 F1999.800
G1 X-8.320 Y8.410 F1999.800
G1 X-7.748 Y9.023 F1999.800
G1 X-7.496 Y9.365 F1999.800
G1 X-7.323 Y9.695 F1999.800
G1 X-7.162 Y10.030 F1999.800
G1 X-7.015 Y10.372 F1999.800
G1 X-6.895 Y10.722 F1999.800
G1 X-6.786 Y11.075 F1999.800
G1 X-6.714 Y11.440 F1999.800
G1 X-6.658 Y11.805 F1999.800
G1 X-6.624 Y12.173 F1999.800
G1 X-6.620 Y12.541 F1999.800
G1 X-6.635 Y12.910 F1999.800
G1 X-6.677 Y13.278 F1999.800
G1 X-6.744 Y13.643 F1999.800
G1 X-6.838 Y14.000 F1999.800
G1 X-6.955 Y14.350 F1999.800
G1 X-7.098 Y14.692 F1999.800
G1 X-7.263 Y15.023 F1999.800
G1 X-7.444 Y15.346 F1999.800
G1 X-7.650 Y15.654 F1999.800
G1 X-7.876 Y15.947 F1999.800
G1 X-8.117 Y16.229 F1999.800
G1 X-8.376 Y16.492 F1999.800
G1 X-8.650 Y16.737 F1999.800
G1 X-8.940 Y16.966 F1999.800
G1 X-9.244 Y17.177 F1999.800
G1 X-9.560 Y17.365 F1999.800
G1 X-9.891 Y17.534 F1999.800
G1 X-10.229 Y17.680 F1999.800
G1 X-10.579 Y17.805 F1999.800
G1 X-10.936 Y17.906 F1999.800
G1 X-11.297 Y17.985 F1999.800
G1 X-11.944 Y18.060 F1999.800
G1 X-12.677 Y18.041 F1999.800
G1 X-13.071 Y17.989 F1999.800
G1 X-13.436 Y17.929 F1999.800
G1 X-13.797 Y17.842 F1999.800
G1 X-14.150 Y17.733 F1999.800
G1 X-14.496 Y17.594 F1999.800
G1 X-14.831 Y17.436 F1999.800
G1 X-15.154 Y17.256 F1999.800
G1 X-15.470 Y17.060 F1999.800
G1 X-15.771 Y16.842 F1999.800
G1 X-16.056 Y16.605 F1999.800
G1 X-16.327 Y16.350 F1999.800
G1 X-16.583 Y16.079 F1999.800
G1 X-16.820 Y15.793 F1999.800
G1 X-17.026 Y15.485 F1999.800
G1 X-17.214 Y15.173 F1999.800
G1 X-17.383 Y14.838 F1999.800
G1 X-17.534 Y14.496 F1999.800
G1 X-17.658 Y14.143 F1999.800
G1 X-17.759 Y13.782 F1999.800
G1 X-17.838 Y13.417 F1999.800
G1 X-17.891 Y13.049 F1999.800
G1 X-17.921 Y12.677 F1999.800
G1 X-17.936 Y12.305 F1999.800
G1 X-17.921 Y11.932 F1999.800
G1 X-17.887 Y11.560 F1999.800
G1 X-17.823 Y11.192 F1999.800
G1 X-17.741 Y10.827 F1999.800
G1 X-17.635 Y10.466 F1999.800
G1 X-17.504 Y10.117 F1999.800
G1 X-17.353 Y9.774 F1999.800
G1 X-17.180 Y9.444 F1999.800
G1 X-16.985 Y9.124 F1999.800
G1 X-16.771 Y8.816 F1999.800
G1 X-16.538 Y8.523 F1999.800
G1 X-16.286 Y8.244 F1999.800
G1 X-16.015 Y7.985 F1999.800
G1 X-15.729 Y7.744 F1999.800
G1 X-15.429 Y7.523 F1999.800
G1 X-15.113 Y7.320 F1999.800
G1 X-14.786 Y7.135 F1999.800
G1 X-14.447 Y6.974 F1999.800
G1 X-14.102 Y6.835 F1999.800
G1 X-13.744 Y6.718 F1999.800
G1 X-13.383 Y6.624 F1999.800
G1 X-13.015 Y6.553 F1999.800
G1 X-12.647 Y6.496 F1999.800
G1 X-12.274 Y6.466 F1999.800
G1 X-11.902 Y6.459 F1999.800
G1 X-11.530 Y6.485 F1999.800
G1 X-11.158 Y6.530 F1999.800
G1 X-10.789 Y6.602 F1999.800
G1 X-10.425 Y6.688 F1999.800
G1 X-10.068 Y6.801 F1999.800
G1 X-9.102 Y7.214 F1999.800
G1 X-8.895 Y7.335 F1999.800
G1 X-8.805 Y7.414 F1999.800
G1 X-8.297 Y7.989 F1999.800
G1 X-7.071 Y9.154 F1999.800
G1 X-6.718 Y9.711 F1999.800
G1 X-6.534 Y10.079 F1999.800
G1 X-6.417 Y10.432 F1999.800
G1 X-6.316 Y10.789 F1999.800
G1 X-6.233 Y11.150 F1999.800
G1 X-6.165 Y11.515 F1999.800
G1 X-6.124 Y11.883 F1999.800
G1 X-6.098 Y12.252 F1999.800
G1 X-6.094 Y12.620 F1999.800
G1 X-6.120 Y12.989 F1999.800
G1 X-6.162 Y13.357 F1999.800
G1 X-6.241 Y13.718 F1999.800
G1 X-6.338 Y14.075 F1999.800
G1 X-6.455 Y14.425 F1999.800
G1 X-6.586 Y14.771 F1999.800
G1 X-6.744 Y15.105 F1999.800
G1 X-6.917 Y15.432 F1999.800
G1 X-7.109 Y15.748 F1999.800
G1 X-7.320 Y16.053 F1999.800
G1 X-7.545 Y16.346 F1999.800
G1 X-7.797 Y16.617 F1999.800
G1 X-8.060 Y16.876 F1999.800
G1 X-8.335 Y17.120 F1999.800
G1 X-8.624 Y17.350 F1999.800
G1 X-8.929 Y17.560 F1999.800
G1 X-9.241 Y17.756 F1999.800
G1 X-9.564 Y17.932 F1999.800
G1 X-9.898 Y18.090 F1999.800
G1 X-10.782 Y18.365 F1999.800
G1 X-11.684 Y18.470 F1999.800
G1 X-13.207 Y18.432 F1999.800
G1 X-13.883 Y18.293 F1999.800
G1 X-14.718 Y17.977 F1999.800
G1 X-15.060 Y17.835 F1999.800
G1 X-15.391 Y17.665 F1999.800
G1 X-15.707 Y17.470 F1999.800
G1 X-16.011 Y17.256 F1999.800
G1 X-16.305 Y17.026 F1999.800
G1 X-16.579 Y16.774 F1999.800
G1 X-16.838 Y16.508 F1999.800
G1 X-17.083 Y16.226 F1999.800
G1 X-17.305 Y15.929 F1999.800
G1 X-17.508 Y15.617 F1999.800
G1 X-17.692 Y15.293 F1999.800
G1 X-17.853 Y14.959 F1999.800
G1 X-17.996 Y14.613 F1999.800
G1 X-18.244 Y13.530 F1999.800
G1 X-18.350 Y12.568 F1999.800
G1 X-18.331 Y11.726 F1999.800
G1 X-18.113 Y10.583 F1999.800
G1 X-17.846 Y9.808 F1999.800
G1 X-17.699 Y9.462 F1999.800
G1 X-17.530 Y9.128 F1999.800
G1 X-17.338 Y8.805 F1999.800
G1 X-17.128 Y8.496 F1999.800
G1 X-16.898 Y8.199 F1999.800
G1 X-16.650 Y7.917 F1999.800
G1 X-16.383 Y7.654 F1999.800
G1 X-16.102 Y7.406 F1999.800
G1 X-15.805 Y7.177 F1999.800
G1 X-15.492 Y6.970 F1999.800
G1 X-15.169 Y6.782 F1999.800
G1 X-14.838 Y6.609 F1999.800
G1 X-14.496 Y6.459 F1999.800
G1 X-14.147 Y6.327 F1999.800
G1 X-13.789 Y6.214 F1999.800
G1 X-13.429 Y6.120 F1999.800
G1 X-13.060 Y6.049 F1999.800
G1 X-12.688 Y5.996 F1999.800
G1 X-12.316 Y5.962 F1999.800
G1 X-11.944 Y5.962 F1999.800
G1 X-11.571 Y5.977 F1999.800
G1 X-11.199 Y6.019 F1999.800
G1 X-10.831 Y6.079 F1999.800
G1 X-10.466 Y6.162 F1999.800
G1 X-9.628 Y6.406 F1999.800
G1 X-9.530 Y6.474 F1999.800
G1 X-9.429 Y6.620 F1999.800
G1 X-9.429 Y6.620 F1999.800
G1 X-9.365 Y6.763 F1999.800
G1 X-9.361 Y6.823 F1999.800
G0 X-9.361 Y6.853
G0 X-9.395 Y7.244
G0 X-9.331 Y7.429
G0 X-9.293 Y7.474
G0 X-9.094 Y7.575
G0 X-8.617 Y8.207
G0 X-7.789 Y8.970
G0 X-7.707 Y8.992
G0 X-7.523 Y8.989
G1 X-7.489 Y8.985 F1999.800
G1 X-7.259 Y8.985 F1999.800
G1 X-7.117 Y9.041 F1999.800
G1 X-7.117 Y9.041 F1999.800
G1 X-6.357 Y9.647 F1999.800
G1 X-6.244 Y9.782 F1999.800
G1 X-5.966 Y10.308 F1999.800
G1 X-5.898 Y10.474 F1999.800
G1 X-5.793 Y10.831 F1999.800
G1 X-5.711 Y11.192 F1999.800
G1 X-5.647 Y11.556 F1999.800
G1 X-5.598 Y11.925 F1999.800
G1 X-5.571 Y12.293 F1999.800
G1 X-5.579 Y12.662 F1999.800
G1 X-5.602 Y13.030 F1999.800
G1 X-5.647 Y13.398 F1999.800
G1 X-5.718 Y13.763 F1999.800
G1 X-5.808 Y14.120 F1999.800
G1 X-5.921 Y14.474 F1999.800
G1 X-6.049 Y14.820 F1999.800
G1 X-6.199 Y15.158 F1999.800
G1 X-6.368 Y15.485 F1999.800
G1 X-6.549 Y15.808 F1999.800
G1 X-6.752 Y16.117 F1999.800
G1 X-6.970 Y16.417 F1999.800
G1 X-7.199 Y16.707 F1999.800
G1 X-7.447 Y16.981 F1999.800
G1 X-7.707 Y17.244 F1999.800
G1 X-7.981 Y17.492 F1999.800
G1 X-8.267 Y17.726 F1999.800
G1 X-8.564 Y17.944 F1999.800
G1 X-9.297 Y18.350 F1999.800
G1 X-9.511 Y18.436 F1999.800
G1 X-9.680 Y18.470 F1999.800
G1 X-11.203 Y18.470 F1999.800
G1 X-11.203 Y18.470 F1999.800
G1 X-11.320 Y18.444 F1999.800
G1 X-11.372 Y18.414 F1999.800
G1 X-11.387 Y18.395 F1999.800
G0 X-11.395 Y18.372
G0 X-11.365 Y18.274
G0 X-6.639 Y9.793
G1 X-6.609 Y9.737 F1999.800
G1 X-6.541 Y9.639 F1999.800
G1 X-6.492 Y9.605 F1999.800
G1 X-6.406 Y9.602 F1999.800
G1 X-6.297 Y9.643 F1999.800
G1 X-6.297 Y9.643 F1999.800
G1 X-5.887 Y9.910 F1999.800
G1 X-5.711 Y10.075 F1999.800
G1 X-5.579 Y10.274 F1999.800
G1 X-5.350 Y10.748 F1999.800
G1 X-5.244 Y11.105 F1999.800
G1 X-5.165 Y11.466 F1999.800
G1 X-5.109 Y11.831 F1999.800
G1 X-5.075 Y12.199 F1999.800
G1 X-5.068 Y12.568 F1999.800
G1 X-5.083 Y12.936 F1999.800
G1 X-5.120 Y13.305 F1999.800
G1 X-5.184 Y13.669 F1999.800
G1 X-5.259 Y14.030 F1999.800
G1 X-5.361 Y14.383 F1999.800
G1 X-5.474 Y14.737 F1999.800
G1 X-5.609 Y15.083 F1999.800
G1 X-5.763 Y15.417 F1999.800
G1 X-5.932 Y15.748 F1999.800
G1 X-6.316 Y16.380 F1999.800
G1 X-6.530 Y16.680 F1999.800
G1 X-6.756 Y16.974 F1999.800
G1 X-6.992 Y17.256 F1999.800
G1 X-7.244 Y17.526 F1999.800
G1 X-7.515 Y17.778 F1999.800
G1 X-8.075 Y18.222 F1999.800
G1 X-8.421 Y18.432 F1999.800
G1 X-8.530 Y18.466 F1999.800
G1 X-9.376 Y18.470 F1999.800
G1 X-9.376 Y18.470 F1999.800
G1 X-9.492 Y18.444 F1999.800
G1 X-9.545 Y18.414 F1999.800
G1 X-9.560 Y18.395 F1999.800
G0 X-9.571 Y18.372
G0 X-9.553 Y18.267
G0 X-6.098 Y10.109
G1 X-6.075 Y10.053 F1999.800
G1 X-6.023 Y9.947 F1999.800
G1 X-5.977 Y9.914 F1999.800
G1 X-5.891 Y9.910 F1999.800
G1 X-5.782 Y9.951 F1999.800
G1 X-5.782 Y9.951 F1999.800
G1 X-5.267 Y10.282 F1999.800
G1 X-5.180 Y10.361 F1999.800
G1 X-4.985 Y10.658 F1999.800
G1 X-4.835 Y10.977 F1999.800
G1 X-4.726 Y11.331 F1999.800
G1 X-4.650 Y11.695 F1999.800
G1 X-4.598 Y12.064 F1999.800
G1 X-4.579 Y12.432 F1999.800
G1 X-4.583 Y12.797 F1999.800
G1 X-4.605 Y13.165 F1999.800
G1 X-4.647 Y13.534 F1999.800
G1 X-4.714 Y13.898 F1999.800
G1 X-4.801 Y14.259 F1999.800
G1 X-4.898 Y14.617 F1999.800
G1 X-5.023 Y14.966 F1999.800
G1 X-5.158 Y15.312 F1999.800
G1 X-5.312 Y15.650 F1999.800
G1 X-5.658 Y16.301 F1999.800
G1 X-5.853 Y16.613 F1999.800
G1 X-6.064 Y16.917 F1999.800
G1 X-6.286 Y17.214 F1999.800
G1 X-6.519 Y17.500 F1999.800
G1 X-6.774 Y17.767 F1999.800
G1 X-7.523 Y18.429 F1999.800
G1 X-7.632 Y18.470 F1999.800
G1 X-8.195 Y18.470 F1999.800
G1 X-8.195 Y18.470 F1999.800
G1 X-8.312 Y18.444 F1999.800
G1 X-8.365 Y18.414 F1999.800
G1 X-8.383 Y18.395 F1999.800
G0 X-8.391 Y18.372
G0 X-8.376 Y18.263
G0 X-5.568 Y10.429
G1 X-5.549 Y10.376 F1999.800
G1 X-5.500 Y10.267 F1999.800
G1 X-5.459 Y10.233 F1999.800
G1 X-5.372 Y10.218 F1999.800
G1 X-5.259 Y10.244 F1999.800
G1 X-5.259 Y10.244 F1999.800
G1 X-4.880 Y10.440 F1999.800
G1 X-4.733 Y10.545 F1999.800
G1 X-4.647 Y10.632 F1999.800
G1 X-4.451 Y10.932 F1999.800
G1 X-4.327 Y11.199 F1999.800
G1 X-4.226 Y11.556 F1999.800
G1 X-4.154 Y11.921 F1999.800
G1 X-4.109 Y12.289 F1999.800
G1 X-4.083 Y12.658 F1999.800
G1 X-4.086 Y13.026 F1999.800
G1 X-4.117 Y13.395 F1999.800
G1 X-4.165 Y13.763 F1999.800
G1 X-4.233 Y14.128 F1999.800
G1 X-4.327 Y14.485 F1999.800
G1 X-4.432 Y14.838 F1999.800
G1 X-4.553 Y15.188 F1999.800
G1 X-4.842 Y15.868 F1999.800
G1 X-5.008 Y16.199 F1999.800
G1 X-5.188 Y16.523 F1999.800
G1 X-5.380 Y16.838 F1999.800
G1 X-5.586 Y17.147 F1999.800
G1 X-5.805 Y17.444 F1999.800
G1 X-6.034 Y17.733 F1999.800
G1 X-6.609 Y18.335 F1999.800
G1 X-6.699 Y18.410 F1999.800
G1 X-6.801 Y18.462 F1999.800
G1 X-7.195 Y18.470 F1999.800
G1 X-7.195 Y18.470 F1999.800
G1 X-7.312 Y18.444 F1999.800
G1 X-7.365 Y18.414 F1999.800
G1 X-7.383 Y18.391 F1999.800
G0 X-7.391 Y18.368
G0 X-7.380 Y18.263
G0 X-5.011 Y10.688
G1 X-4.996 Y10.635 F1999.800
G1 X-4.955 Y10.526 F1999.800
G1 X-4.910 Y10.489 F1999.800
G1 X-4.827 Y10.474 F1999.800
G1 X-4.714 Y10.500 F1999.800
G1 X-4.714 Y10.500 F1999.800
G1 X-4.335 Y10.692 F1999.800
G1 X-4.192 Y10.805 F1999.800
G1 X-4.019 Y11.049 F1999.800
G1 X-3.861 Y11.368 F1999.800
G1 X-3.752 Y11.722 F1999.800
G1 X-3.673 Y12.083 F1999.800
G1 X-3.624 Y12.451 F1999.800
G1 X-3.602 Y12.820 F1999.800
G1 X-3.605 Y13.188 F1999.800
G1 X-3.639 Y13.556 F1999.800
G1 X-3.688 Y13.925 F1999.800
G1 X-3.756 Y14.289 F1999.800
G1 X-3.842 Y14.650 F1999.800
G1 X-3.947 Y15.004 F1999.800
G1 X-4.068 Y15.353 F1999.800
G1 X-4.199 Y15.699 F1999.800
G1 X-4.350 Y16.038 F1999.800
G1 X-4.688 Y16.695 F1999.800
G1 X-4.872 Y17.015 F1999.800
G1 X-5.068 Y17.327 F1999.800
G1 X-5.511 Y17.921 F1999.800
G1 X-5.868 Y18.327 F1999.800
G1 X-6.000 Y18.436 F1999.800
G1 X-6.053 Y18.459 F1999.800
G1 X-6.109 Y18.470 F1999.800
G1 X-6.504 Y18.470 F1999.800
G1 X-6.504 Y18.470 F1999.800
G1 X-6.620 Y18.444 F1999.800
G1 X-6.673 Y18.414 F1999.800
G1 X-6.692 Y18.391 F1999.800
G0 X-6.703 Y18.368
G0 X-6.692 Y18.263
G0 X-4.571 Y10.902
G1 X-4.556 Y10.846 F1999.800
G1 X-4.519 Y10.737 F1999.800
G1 X-4.474 Y10.695 F1999.800
G1 X-4.391 Y10.673 F1999.800
G1 X-4.274 Y10.688 F1999.800
G1 X-4.274 Y10.688 F1999.800
G1 X-3.936 Y10.831 F1999.800
G1 X-3.782 Y10.929 F1999.800
G1 X-3.737 Y10.966 F1999.800
G1 X-3.470 Y11.361 F1999.800
G1 X-3.391 Y11.519 F1999.800
G1 X-3.274 Y11.872 F1999.800
G1 X-3.192 Y12.233 F1999.800
G1 X-3.143 Y12.590 F1999.800
G1 X-3.120 Y12.910 F1999.800
G1 X-3.120 Y13.278 F1999.800
G1 X-3.143 Y13.647 F1999.800
G1 X-3.188 Y14.015 F1999.800
G1 X-3.338 Y14.741 F1999.800
G1 X-3.432 Y15.098 F1999.800
G1 X-3.549 Y15.447 F1999.800
G1 X-3.677 Y15.793 F1999.800
G1 X-3.816 Y16.135 F1999.800
G1 X-4.139 Y16.801 F1999.800
G1 X-4.320 Y17.124 F1999.800
G1 X-4.511 Y17.440 F1999.800
G1 X-4.714 Y17.748 F1999.800
G1 X-5.162 Y18.301 F1999.800
G1 X-5.289 Y18.421 F1999.800
G1 X-5.338 Y18.451 F1999.800
G1 X-5.391 Y18.470 F1999.800
G1 X-5.786 Y18.470 F1999.800
G1 X-5.786 Y18.470 F1999.800
G1 X-5.902 Y18.444 F1999.800
G1 X-5.955 Y18.414 F1999.800
G1 X-5.974 Y18.391 F1999.800
G0 X-5.985 Y18.368
G0 X-5.977 Y18.259
G0 X-4.117 Y11.064
G1 X-4.102 Y11.011 F1999.800
G1 X-4.068 Y10.902 F1999.800
G1 X-4.026 Y10.861 F1999.800
G1 X-3.944 Y10.838 F1999.800
G1 X-3.827 Y10.857 F1999.800
G1 X-3.827 Y10.857 F1999.800
G1 X-3.432 Y11.023 F1999.800
G1 X-3.331 Y11.086 F1999.800
G1 X-3.173 Y11.263 F1999.800
G1 X-2.929 Y11.673 F1999.800
G1 X-2.805 Y12.023 F1999.800
G1 X-2.722 Y12.383 F1999.800
G1 X-2.669 Y12.752 F1999.800
G1 X-2.639 Y13.086 F1999.800
G1 X-2.639 Y13.455 F1999.800
G1 X-2.669 Y13.823 F1999.800
G1 X-2.711 Y14.192 F1999.800
G1 X-2.771 Y14.556 F1999.800
G1 X-2.850 Y14.917 F1999.800
G1 X-2.947 Y15.274 F1999.800
G1 X-3.060 Y15.628 F1999.800
G1 X-3.184 Y15.977 F1999.800
G1 X-3.477 Y16.658 F1999.800
G1 X-3.643 Y16.989 F1999.800
G1 X-4.011 Y17.632 F1999.800
G1 X-4.214 Y17.940 F1999.800
G1 X-4.560 Y18.357 F1999.800
G1 X-4.643 Y18.432 F1999.800
G1 X-4.695 Y18.459 F1999.800
G1 X-4.752 Y18.470 F1999.800
G1 X-5.034 Y18.470 F1999.800
G1 X-5.034 Y18.470 F1999.800
G1 X-5.150 Y18.444 F1999.800
G1 X-5.203 Y18.414 F1999.800
G1 X-5.222 Y18.391 F1999.800
G0 X-5.233 Y18.368
G0 X-5.229 Y18.259
G0 X-3.650 Y11.241
G1 X-3.639 Y11.188 F1999.800
G1 X-3.609 Y11.079 F1999.800
G1 X-3.571 Y11.038 F1999.800
G1 X-3.489 Y11.008 F1999.800
G1 X-3.372 Y11.015 F1999.800
G1 X-3.372 Y11.015 F1999.800
G1 X-3.079 Y11.109 F1999.800
G1 X-2.917 Y11.192 F1999.800
G1 X-2.823 Y11.267 F1999.800
G1 X-2.575 Y11.598 F1999.800
G1 X-2.489 Y11.756 F1999.800
G1 X-2.357 Y12.102 F1999.800
G1 X-2.263 Y12.459 F1999.800
G1 X-2.203 Y12.812 F1999.800
G1 X-2.165 Y13.139 F1999.800
G1 X-2.162 Y13.508 F1999.800
G1 X-2.177 Y13.865 F1999.800
G1 X-2.211 Y14.233 F1999.800
G1 X-2.263 Y14.598 F1999.800
G1 X-2.331 Y14.962 F1999.800
G1 X-2.421 Y15.320 F1999.800
G1 X-2.643 Y16.026 F1999.800
G1 X-2.771 Y16.372 F1999.800
G1 X-3.071 Y17.045 F1999.800
G1 X-3.241 Y17.376 F1999.800
G1 X-3.421 Y17.699 F1999.800
G1 X-3.842 Y18.278 F1999.800
G1 X-3.962 Y18.402 F1999.800
G1 X-4.008 Y18.436 F1999.800
G1 X-4.060 Y18.459 F1999.800
G1 X-4.117 Y18.470 F1999.800
G1 X-4.398 Y18.470 F1999.800
G1 X-4.398 Y18.470 F1999.800
G1 X-4.515 Y18.444 F1999.800
G1 X-4.568 Y18.414 F1999.800
G1 X-4.586 Y18.391 F1999.800
G0 X-4.598 Y18.368
G0 X-4.598 Y18.259
G0 X-3.241 Y11.353
G1 X-3.229 Y11.301 F1999.800
G1 X-3.199 Y11.192 F1999.800
G1 X-3.162 Y11.147 F1999.800
G1 X-3.083 Y11.117 F1999.800
G1 X-2.966 Y11.124 F1999.800
G1 X-2.966 Y11.124 F1999.800
G1 X-2.617 Y11.237 F1999.800
G1 X-2.455 Y11.320 F1999.800
G1 X-2.327 Y11.440 F1999.800
G1 X-2.117 Y11.726 F1999.800
G1 X-2.056 Y11.831 F1999.800
G1 X-1.914 Y12.173 F1999.800
G1 X-1.808 Y12.530 F1999.800
G1 X-1.741 Y12.876 F1999.800
G1 X-1.699 Y13.177 F1999.800
G1 X-1.680 Y13.545 F1999.800
G1 X-1.684 Y13.914 F1999.800
G1 X-1.707 Y14.282 F1999.800
G1 X-1.752 Y14.650 F1999.800
G1 X-1.902 Y15.376 F1999.800
G1 X-1.996 Y15.733 F1999.800
G1 X-2.105 Y16.086 F1999.800
G1 X-2.226 Y16.436 F1999.800
G1 X-2.361 Y16.782 F1999.800
G1 X-2.508 Y17.120 F1999.800
G1 X-2.861 Y17.771 F1999.800
G1 X-3.128 Y18.177 F1999.800
G1 X-3.365 Y18.429 F1999.800
G1 X-3.417 Y18.455 F1999.800
G1 X-3.474 Y18.470 F1999.800
G1 X-3.756 Y18.470 F1999.800
G1 X-3.756 Y18.470 F1999.800
G1 X-3.872 Y18.444 F1999.800
G1 X-3.925 Y18.414 F1999.800
G1 X-3.944 Y18.391 F1999.800
G0 X-3.955 Y18.368
G0 X-3.959 Y18.259
G0 X-2.767 Y11.496
G1 X-2.759 Y11.444 F1999.800
G1 X-2.744 Y11.365 F1999.800
G1 X-2.707 Y11.301 F1999.800
G1 X-2.650 Y11.263 F1999.800
G1 X-2.504 Y11.244 F1999.800
G1 X-2.504 Y11.244 F1999.800
G1 X-2.207 Y11.320 F1999.800
G1 X-2.041 Y11.398 F1999.800
G1 X-1.865 Y11.564 F1999.800
G1 X-1.620 Y11.898 F1999.800
G1 X-1.470 Y12.237 F1999.800
G1 X-1.357 Y12.590 F1999.800
G1 X-1.289 Y12.895 F1999.800
G1 X-1.244 Y13.195 F1999.800
G1 X-1.214 Y13.541 F1999.800
G1 X-1.207 Y13.910 F1999.800
G1 X-1.222 Y14.278 F1999.800
G1 X-1.263 Y14.647 F1999.800
G1 X-1.316 Y15.011 F1999.800
G1 X-1.383 Y15.376 F1999.800
G1 X-1.466 Y15.737 F1999.800
G1 X-1.564 Y16.094 F1999.800
G1 X-1.677 Y16.447 F1999.800
G1 X-1.805 Y16.793 F1999.800
G1 X-1.947 Y17.135 F1999.800
G1 X-2.102 Y17.470 F1999.800
G1 X-2.271 Y17.801 F1999.800
G1 X-2.541 Y18.203 F1999.800
G1 X-2.737 Y18.417 F1999.800
G1 X-2.838 Y18.470 F1999.800
G1 X-3.120 Y18.470 F1999.800
G1 X-3.120 Y18.470 F1999.800
G1 X-3.237 Y18.444 F1999.800
G1 X-3.289 Y18.414 F1999.800
G1 X-3.308 Y18.391 F1999.800
G0 X-3.320 Y18.368
G0 X-3.323 Y18.259
G0 X-2.346 Y11.579
G1 X-2.338 Y11.526 F1999.800
G1 X-2.316 Y11.414 F1999.800
G1 X-2.274 Y11.365 F1999.800
G1 X-2.180 Y11.327 F1999.800
G1 X-2.090 Y11.320 F1999.800
G1 X-2.090 Y11.320 F1999.800
G1 X-1.733 Y11.410 F1999.800
G1 X-1.568 Y11.489 F1999.800
G1 X-1.436 Y11.613 F1999.800
G1 X-1.203 Y11.959 F1999.800
G1 X-1.041 Y12.293 F1999.800
G1 X-0.921 Y12.643 F1999.800
G1 X-0.835 Y13.004 F1999.800
G1 X-0.786 Y13.338 F1999.800
G1 X-0.756 Y13.635 F1999.800
G1 X-0.744 Y14.004 F1999.800
G1 X-0.756 Y14.372 F1999.800
G1 X-0.789 Y14.741 F1999.800
G1 X-0.835 Y15.109 F1999.800
G1 X-0.895 Y15.474 F1999.800
G1 X-0.977 Y15.835 F1999.800
G1 X-1.071 Y16.192 F1999.800
G1 X-1.305 Y16.895 F1999.800
G1 X-1.436 Y17.241 F1999.800
G1 X-1.583 Y17.579 F1999.800
G1 X-1.759 Y17.906 F1999.800
G1 X-1.962 Y18.214 F1999.800
G1 X-2.154 Y18.429 F1999.800
G1 X-2.207 Y18.455 F1999.800
G1 X-2.263 Y18.470 F1999.800
G1 X-2.658 Y18.470 F1999.800
G1 X-2.658 Y18.470 F1999.800
G1 X-2.774 Y18.444 F1999.800
G1 X-2.827 Y18.414 F1999.800
G1 X-2.846 Y18.391 F1999.800
G0 X-2.857 Y18.368
G0 X-2.865 Y18.259
G0 X-1.936 Y11.650
G1 X-1.929 Y11.598 F1999.800
G1 X-1.914 Y11.519 F1999.800
G1 X-1.880 Y11.455 F1999.800
G1 X-1.823 Y11.417 F1999.800
G1 X-1.677 Y11.398 F1999.800
G1 X-1.677 Y11.398 F1999.800
G1 X-1.376 Y11.451 F1999.800
G1 X-1.263 Y11.492 F1999.800
G1 X-1.165 Y11.560 F1999.800
G1 X-0.996 Y11.733 F1999.800
G1 X-0.827 Y11.977 F1999.800
G1 X-0.647 Y12.305 F1999.800
G1 X-0.508 Y12.650 F1999.800
G1 X-0.406 Y13.008 F1999.800
G1 X-0.346 Y13.308 F1999.800
G1 X-0.312 Y13.613 F1999.800
G1 X-0.289 Y13.947 F1999.800
G1 X-0.286 Y14.316 F1999.800
G1 X-0.301 Y14.684 F1999.800
G1 X-0.338 Y15.053 F1999.800
G1 X-0.387 Y15.421 F1999.800
G1 X-0.459 Y15.786 F1999.800
G1 X-0.639 Y16.504 F1999.800
G1 X-0.748 Y16.857 F1999.800
G1 X-0.872 Y17.207 F1999.800
G1 X-1.023 Y17.545 F1999.800
G1 X-1.195 Y17.872 F1999.800
G1 X-1.383 Y18.192 F1999.800
G1 X-1.571 Y18.410 F1999.800
G1 X-1.617 Y18.444 F1999.800
G1 X-1.669 Y18.466 F1999.800
G1 X-2.008 Y18.470 F1999.800
G1 X-2.008 Y18.470 F1999.800
G1 X-2.124 Y18.444 F1999.800
G1 X-2.195 Y18.391 F1999.800
G0 X-2.211 Y18.368
G0 X-2.218 Y18.259
G0 X-1.564 Y11.707
G1 X-1.560 Y11.654 F1999.800
G1 X-1.541 Y11.541 F1999.800
G1 X-1.511 Y11.492 F1999.800
G1 X-1.436 Y11.447 F1999.800
G1 X-1.320 Y11.436 F1999.800
G1 X-1.320 Y11.436 F1999.800
G1 X-1.019 Y11.485 F1999.800
G1 X-0.850 Y11.553 F1999.800
G1 X-0.669 Y11.711 F1999.800
G1 X-0.414 Y12.041 F1999.800
G1 X-0.226 Y12.361 F1999.800
G1 X-0.079 Y12.703 F1999.800
G1 X0.030 Y13.056 F1999.800
G1 X0.098 Y13.365 F1999.800
G1 X0.139 Y13.673 F1999.800
G1 X0.173 Y14.023 F1999.800
G1 X0.184 Y14.391 F1999.800
G1 X0.177 Y14.759 F1999.800
G1 X0.147 Y15.128 F1999.800
G1 X0.034 Y15.861 F1999.800
G1 X-0.139 Y16.583 F1999.800
G1 X-0.248 Y16.936 F1999.800
G1 X-0.372 Y17.286 F1999.800
G1 X-0.519 Y17.624 F1999.800
G1 X-0.692 Y17.951 F1999.800
G1 X-0.891 Y18.263 F1999.800
G1 X-1.045 Y18.432 F1999.800
G1 X-1.098 Y18.459 F1999.800
G1 X-1.154 Y18.470 F1999.800
G1 X-1.492 Y18.470 F1999.800
G1 X-1.492 Y18.470 F1999.800
G1 X-1.609 Y18.444 F1999.800
G1 X-1.680 Y18.391 F1999.800
G0 X-1.695 Y18.368
G0 X-1.707 Y18.256
G0 X-1.203 Y11.741
G1 X-1.199 Y11.688 F1999.800
G1 X-1.180 Y11.575 F1999.800
G1 X-1.150 Y11.526 F1999.800
G1 X-1.075 Y11.481 F1999.800
G1 X-0.959 Y11.466 F1999.800
G1 X-0.959 Y11.466 F1999.800
G1 X-0.658 Y11.519 F1999.800
G1 X-0.489 Y11.586 F1999.800
G1 X-0.214 Y11.820 F1999.800
G1 X-0.064 Y12.004 F1999.800
G1 X0.147 Y12.308 F1999.800
G1 X0.312 Y12.639 F1999.800
G1 X0.440 Y12.985 F1999.800
G1 X0.519 Y13.271 F1999.800
G1 X0.579 Y13.553 F1999.800
G1 X0.628 Y13.921 F1999.800
G1 X0.654 Y14.289 F1999.800
G1 X0.654 Y14.658 F1999.800
G1 X0.639 Y15.026 F1999.800
G1 X0.605 Y15.395 F1999.800
G1 X0.556 Y15.763 F1999.800
G1 X0.489 Y16.128 F1999.800
G1 X0.402 Y16.489 F1999.800
G1 X0.301 Y16.846 F1999.800
G1 X0.180 Y17.195 F1999.800
G1 X0.041 Y17.541 F1999.800
G1 X-0.109 Y17.880 F1999.800
G1 X-0.301 Y18.195 F1999.800
G1 X-0.489 Y18.414 F1999.800
G1 X-0.538 Y18.447 F1999.800
G1 X-0.590 Y18.470 F1999.800
G1 X-0.872 Y18.470 F1999.800
G1 X-0.872 Y18.470 F1999.800
G1 X-0.989 Y18.444 F1999.800
G1 X-1.060 Y18.391 F1999.800
G0 X-1.075 Y18.368
G0 X-1.090 Y18.256
G0 X-0.835 Y11.774
G1 X-0.835 Y11.722 F1999.800
G1 X-0.823 Y11.609 F1999.800
G1 X-0.793 Y11.560 F1999.800
G1 X-0.718 Y11.515 F1999.800
G1 X-0.602 Y11.500 F1999.800
G1 X-0.602 Y11.500 F1999.800
G1 X-0.301 Y11.534 F1999.800
G1 X-0.124 Y11.590 F1999.800
G1 X0.154 Y11.801 F1999.800
G1 X0.350 Y12.019 F1999.800
G1 X0.560 Y12.323 F1999.800
G1 X0.737 Y12.647 F1999.800
G1 X0.865 Y12.966 F1999.800
G1 X0.944 Y13.229 F1999.800
G1 X1.011 Y13.511 F1999.800
G1 X1.075 Y13.876 F1999.800
G1 X1.113 Y14.244 F1999.800
G1 X1.132 Y14.613 F1999.800
G1 X1.124 Y14.981 F1999.800
G1 X1.105 Y15.350 F1999.800
G1 X1.060 Y15.718 F1999.800
G1 X0.996 Y16.083 F1999.800
G1 X0.921 Y16.447 F1999.800
G1 X0.823 Y16.805 F1999.800
G1 X0.714 Y17.158 F1999.800
G1 X0.590 Y17.508 F1999.800
G1 X0.432 Y17.842 F1999.800
G1 X0.248 Y18.165 F1999.800
G1 X0.004 Y18.429 F1999.800
G1 X-0.049 Y18.455 F1999.800
G1 X-0.105 Y18.470 F1999.800
G1 X-0.556 Y18.470 F1999.800
G1 X-0.556 Y18.470 F1999.800
G1 X-0.673 Y18.444 F1999.800
G1 X-0.744 Y18.391 F1999.800
G0 X-0.759 Y18.368
G0 X-0.774 Y18.256
G0 X-0.466 Y11.812
G1 X-0.466 Y11.759 F1999.800
G1 X-0.455 Y11.647 F1999.800
G1 X-0.425 Y11.594 F1999.800
G1 X-0.353 Y11.541 F1999.800
G1 X-0.241 Y11.515 F1999.800
G1 X-0.241 Y11.515 F1999.800
G1 X0.056 Y11.534 F1999.800
G1 X0.226 Y11.575 F1999.800
G1 X0.470 Y11.726 F1999.800
G1 X0.722 Y11.962 F1999.800
G1 X0.944 Y12.259 F1999.800
G1 X1.132 Y12.575 F1999.800
G1 X1.271 Y12.883 F1999.800
G1 X1.361 Y13.147 F1999.800
G1 X1.440 Y13.421 F1999.800
G1 X1.519 Y13.782 F1999.800
G1 X1.571 Y14.147 F1999.800
G1 X1.598 Y14.515 F1999.800
G1 X1.609 Y14.883 F1999.800
G1 X1.602 Y15.252 F1999.800
G1 X1.568 Y15.620 F1999.800
G1 X1.515 Y15.989 F1999.800
G1 X1.444 Y16.353 F1999.800
G1 X1.361 Y16.714 F1999.800
G1 X1.256 Y17.071 F1999.800
G1 X1.135 Y17.421 F1999.800
G1 X0.989 Y17.763 F1999.800
G1 X0.812 Y18.090 F1999.800
G1 X0.583 Y18.372 F1999.800
G1 X0.485 Y18.447 F1999.800
G1 X0.429 Y18.470 F1999.800
G1 X-0.049 Y18.470 F1999.800
G1 X-0.049 Y18.470 F1999.800
G1 X-0.165 Y18.444 F1999.800
G1 X-0.237 Y18.391 F1999.800
G0 X-0.252 Y18.368
G0 X-0.267 Y18.256
G0 X-0.060 Y11.816
G1 X-0.060 Y11.763 F1999.800
G1 X-0.049 Y11.650 F1999.800
G1 X-0.019 Y11.598 F1999.800
G1 X0.049 Y11.545 F1999.800
G1 X0.173 Y11.519 F1999.800
G1 X0.173 Y11.519 F1999.800
G1 X0.455 Y11.519 F1999.800
G1 X0.624 Y11.553 F1999.800
G1 X0.868 Y11.703 F1999.800
G1 X1.120 Y11.936 F1999.800
G1 X1.353 Y12.222 F1999.800
G1 X1.549 Y12.534 F1999.800
G1 X1.688 Y12.820 F1999.800
G1 X1.786 Y13.083 F1999.800
G1 X1.876 Y13.365 F1999.800
G1 X1.966 Y13.726 F1999.800
G1 X2.030 Y14.090 F1999.800
G1 X2.068 Y14.459 F1999.800
G1 X2.083 Y14.827 F1999.800
G1 X2.083 Y15.195 F1999.800
G1 X2.056 Y15.564 F1999.800
G1 X2.019 Y15.932 F1999.800
G1 X1.959 Y16.297 F1999.800
G1 X1.883 Y16.662 F1999.800
G1 X1.789 Y17.019 F1999.800
G1 X1.677 Y17.372 F1999.800
G1 X1.530 Y17.714 F1999.800
G1 X1.353 Y18.041 F1999.800
G1 X1.132 Y18.327 F1999.800
G1 X1.049 Y18.410 F1999.800
G1 X1.000 Y18.444 F1999.800
G1 X0.944 Y18.466 F1999.800
G1 X0.523 Y18.470 F1999.800
G1 X0.523 Y18.470 F1999.800
G1 X0.395 Y18.444 F1999.800
G1 X0.316 Y18.391 F1999.800
G0 X0.301 Y18.368
G0 X0.282 Y18.256
G0 X0.305 Y11.812
G1 X0.305 Y11.759 F1999.800
G1 X0.312 Y11.647 F1999.800
G1 X0.342 Y11.590 F1999.800
G1 X0.414 Y11.534 F1999.800
G1 X0.534 Y11.492 F1999.800
G1 X0.534 Y11.492 F1999.800
G1 X0.816 Y11.485 F1999.800
G1 X0.985 Y11.511 F1999.800
G1 X1.090 Y11.556 F1999.800
G1 X1.417 Y11.793 F1999.800
G1 X1.541 Y11.910 F1999.800
G1 X1.782 Y12.192 F1999.800
G1 X1.981 Y12.504 F1999.800
G1 X2.113 Y12.763 F1999.800
G1 X2.218 Y13.015 F1999.800
G1 X2.323 Y13.331 F1999.800
G1 X2.421 Y13.688 F1999.800
G1 X2.492 Y14.053 F1999.800
G1 X2.538 Y14.421 F1999.800
G1 X2.564 Y14.789 F1999.800
G1 X2.571 Y15.158 F1999.800
G1 X2.553 Y15.526 F1999.800
G1 X2.523 Y15.895 F1999.800
G1 X2.466 Y16.259 F1999.800
G1 X2.308 Y16.985 F1999.800
G1 X2.199 Y17.338 F1999.800
G1 X2.060 Y17.684 F1999.800
G1 X1.891 Y18.015 F1999.800
G1 X1.632 Y18.346 F1999.800
G1 X1.545 Y18.429 F1999.800
G1 X1.489 Y18.455 F1999.800
G1 X1.429 Y18.470 F1999.800
G1 X1.008 Y18.470 F1999.800
G1 X1.008 Y18.470 F1999.800
G1 X0.880 Y18.444 F1999.800
G1 X0.801 Y18.391 F1999.800
G0 X0.786 Y18.368
G0 X0.763 Y18.256
G0 X0.665 Y11.782
G1 X0.665 Y11.729 F1999.800
G1 X0.673 Y11.617 F1999.800
G1 X0.699 Y11.560 F1999.800
G1 X0.771 Y11.504 F1999.800
G1 X0.891 Y11.462 F1999.800
G1 X0.891 Y11.462 F1999.800
G1 X1.286 Y11.455 F1999.800
G1 X1.455 Y11.489 F1999.800
G1 X1.748 Y11.677 F1999.800
G1 X1.962 Y11.868 F1999.800
G1 X2.207 Y12.147 F1999.800
G1 X2.414 Y12.455 F1999.800
G1 X2.564 Y12.737 F1999.800
G1 X2.684 Y12.996 F1999.800
G1 X2.801 Y13.342 F1999.800
G1 X2.883 Y13.654 F1999.800
G1 X2.959 Y14.015 F1999.800
G1 X3.011 Y14.380 F1999.800
G1 X3.045 Y14.748 F1999.800
G1 X3.056 Y15.117 F1999.800
G1 X3.045 Y15.485 F1999.800
G1 X2.970 Y16.222 F1999.800
G1 X2.902 Y16.586 F1999.800
G1 X2.820 Y16.947 F1999.800
G1 X2.722 Y17.305 F1999.800
G1 X2.583 Y17.650 F1999.800
G1 X2.417 Y17.981 F1999.800
G1 X2.226 Y18.271 F1999.800
G1 X2.098 Y18.402 F1999.800
G1 X2.049 Y18.440 F1999.800
G1 X1.992 Y18.466 F1999.800
G1 X1.511 Y18.470 F1999.800
G1 X1.511 Y18.470 F1999.800
G1 X1.383 Y18.444 F1999.800
G1 X1.305 Y18.391 F1999.800
G0 X1.289 Y18.368
G0 X1.267 Y18.256
G0 X1.139 Y11.737
G1 X1.139 Y11.684 F1999.800
G1 X1.147 Y11.571 F1999.800
G1 X1.173 Y11.515 F1999.800
G1 X1.244 Y11.459 F1999.800
G1 X1.368 Y11.425 F1999.800
G1 X1.368 Y11.425 F1999.800
G1 X1.707 Y11.421 F1999.800
G1 X1.820 Y11.440 F1999.800
G1 X2.075 Y11.575 F1999.800
G1 X2.350 Y11.789 F1999.800
G1 X2.602 Y12.060 F1999.800
G1 X2.820 Y12.361 F1999.800
G1 X2.977 Y12.635 F1999.800
G1 X3.098 Y12.880 F1999.800
G1 X3.226 Y13.203 F1999.800
G1 X3.331 Y13.553 F1999.800
G1 X3.417 Y13.914 F1999.800
G1 X3.481 Y14.278 F1999.800
G1 X3.523 Y14.647 F1999.800
G1 X3.538 Y15.015 F1999.800
G1 X3.538 Y15.383 F1999.800
G1 X3.523 Y15.752 F1999.800
G1 X3.481 Y16.120 F1999.800
G1 X3.425 Y16.485 F1999.800
G1 X3.350 Y16.850 F1999.800
G1 X3.252 Y17.207 F1999.800
G1 X3.124 Y17.556 F1999.800
G1 X2.970 Y17.895 F1999.800
G1 X2.782 Y18.214 F1999.800
G1 X2.575 Y18.432 F1999.800
G1 X2.519 Y18.459 F1999.800
G1 X2.459 Y18.470 F1999.800
G1 X2.038 Y18.470 F1999.800
G1 X2.038 Y18.470 F1999.800
G1 X1.910 Y18.444 F1999.800
G1 X1.831 Y18.391 F1999.800
G0 X1.816 Y18.368
G0 X1.793 Y18.256
G0 X1.523 Y11.722
G1 X1.523 Y11.669 F1999.800
G1 X1.526 Y11.556 F1999.800
G1 X1.549 Y11.496 F1999.800
G1 X1.613 Y11.436 F1999.800
G1 X1.729 Y11.387 F1999.800
G1 X1.729 Y11.387 F1999.800
G1 X2.011 Y11.353 F1999.800
G1 X2.124 Y11.357 F1999.800
G1 X2.237 Y11.383 F1999.800
G1 X2.489 Y11.519 F1999.800
G1 X2.722 Y11.695 F1999.800
G1 X2.985 Y11.955 F1999.800
G1 X3.214 Y12.244 F1999.800
G1 X3.391 Y12.526 F1999.800
G1 X3.515 Y12.774 F1999.800
G1 X3.628 Y13.034 F1999.800
G1 X3.756 Y13.380 F1999.800
G1 X3.857 Y13.737 F1999.800
G1 X3.932 Y14.098 F1999.800
G1 X3.985 Y14.462 F1999.800
G1 X4.023 Y14.831 F1999.800
G1 X4.030 Y15.199 F1999.800
G1 X4.026 Y15.568 F1999.800
G1 X4.000 Y15.936 F1999.800
G1 X3.951 Y16.305 F1999.800
G1 X3.883 Y16.669 F1999.800
G1 X3.797 Y17.030 F1999.800
G1 X3.688 Y17.383 F1999.800
G1 X3.560 Y17.733 F1999.800
G1 X3.391 Y18.064 F1999.800
G1 X3.248 Y18.259 F1999.800
G1 X3.079 Y18.432 F1999.800
G1 X3.023 Y18.459 F1999.800
G1 X2.962 Y18.470 F1999.800
G1 X2.541 Y18.470 F1999.800
G1 X2.541 Y18.470 F1999.800
G1 X2.414 Y18.444 F1999.800
G1 X2.335 Y18.391 F1999.800
G0 X2.320 Y18.368
G0 X2.293 Y18.256
G0 X1.883 Y11.665
G1 X1.880 Y11.613 F1999.800
G1 X1.880 Y11.496 F1999.800
G1 X1.902 Y11.440 F1999.800
G1 X1.966 Y11.372 F1999.800
G1 X2.083 Y11.320 F1999.800
G1 X2.083 Y11.320 F1999.800
G1 X2.421 Y11.278 F1999.800
G1 X2.590 Y11.297 F1999.800
G1 X2.805 Y11.387 F1999.800
G1 X3.094 Y11.575 F1999.800
G1 X3.406 Y11.868 F1999.800
G1 X3.639 Y12.154 F1999.800
G1 X3.808 Y12.414 F1999.800
G1 X3.940 Y12.647 F1999.800
G1 X4.086 Y12.962 F1999.800
G1 X4.218 Y13.308 F1999.800
G1 X4.320 Y13.665 F1999.800
G1 X4.402 Y14.026 F1999.800
G1 X4.462 Y14.391 F1999.800
G1 X4.504 Y14.759 F1999.800
G1 X4.523 Y15.128 F1999.800
G1 X4.519 Y15.496 F1999.800
G1 X4.500 Y15.865 F1999.800
G1 X4.459 Y16.233 F1999.800
G1 X4.398 Y16.598 F1999.800
G1 X4.320 Y16.959 F1999.800
G1 X4.218 Y17.316 F1999.800
G1 X4.098 Y17.665 F1999.800
G1 X3.932 Y18.000 F1999.800
G1 X3.759 Y18.244 F1999.800
G1 X3.594 Y18.417 F1999.800
G1 X3.485 Y18.470 F1999.800
G1 X3.064 Y18.470 F1999.800
G1 X3.064 Y18.470 F1999.800
G1 X2.936 Y18.444 F1999.800
G1 X2.857 Y18.391 F1999.800
G0 X2.842 Y18.368
G0 X2.812 Y18.259
G0 X2.297 Y11.586
G1 X2.293 Y11.534 F1999.800
G1 X2.289 Y11.417 F1999.800
G1 X2.312 Y11.361 F1999.800
G1 X2.376 Y11.293 F1999.800
G1 X2.492 Y11.241 F1999.800
G1 X2.492 Y11.241 F1999.800
G1 X2.831 Y11.195 F1999.800
G1 X2.944 Y11.199 F1999.800
G1 X3.263 Y11.331 F1999.800
G1 X3.504 Y11.492 F1999.800
G1 X3.782 Y11.733 F1999.800
G1 X4.026 Y12.011 F1999.800
G1 X4.192 Y12.244 F1999.800
G1 X4.331 Y12.470 F1999.800
G1 X4.481 Y12.771 F1999.800
G1 X4.628 Y13.109 F1999.800
G1 X4.748 Y13.459 F1999.800
G1 X4.842 Y13.816 F1999.800
G1 X4.914 Y14.180 F1999.800
G1 X4.966 Y14.545 F1999.800
G1 X5.000 Y14.914 F1999.800
G1 X5.008 Y15.282 F1999.800
G1 X5.004 Y15.650 F1999.800
G1 X4.977 Y16.019 F1999.800
G1 X4.929 Y16.387 F1999.800
G1 X4.865 Y16.752 F1999.800
G1 X4.782 Y17.113 F1999.800
G1 X4.680 Y17.470 F1999.800
G1 X4.538 Y17.812 F1999.800
G1 X4.335 Y18.165 F1999.800
G1 X4.090 Y18.425 F1999.800
G1 X4.038 Y18.455 F1999.800
G1 X3.977 Y18.470 F1999.800
G1 X3.556 Y18.470 F1999.800
G1 X3.556 Y18.470 F1999.800
G1 X3.429 Y18.444 F1999.800
G1 X3.350 Y18.391 F1999.800
G0 X3.335 Y18.368
G0 X3.305 Y18.259
G0 X2.658 Y11.511
G1 X2.654 Y11.459 F1999.800
G1 X2.650 Y11.342 F1999.800
G1 X2.669 Y11.286 F1999.800
G1 X2.733 Y11.218 F1999.800
G1 X2.846 Y11.162 F1999.800
G1 X2.846 Y11.162 F1999.800
G1 X3.128 Y11.098 F1999.800
G1 X3.297 Y11.094 F1999.800
G1 X3.571 Y11.184 F1999.800
G1 X3.872 Y11.357 F1999.800
G1 X4.158 Y11.590 F1999.800
G1 X4.410 Y11.861 F1999.800
G1 X4.594 Y12.102 F1999.800
G1 X4.741 Y12.323 F1999.800
G1 X4.902 Y12.617 F1999.800
G1 X5.056 Y12.955 F1999.800
G1 X5.180 Y13.305 F1999.800
G1 X5.286 Y13.654 F1999.800
G1 X5.368 Y14.015 F1999.800
G1 X5.432 Y14.380 F1999.800
G1 X5.470 Y14.748 F1999.800
G1 X5.496 Y15.117 F1999.800
G1 X5.500 Y15.485 F1999.800
G1 X5.481 Y15.853 F1999.800
G1 X5.444 Y16.222 F1999.800
G1 X5.395 Y16.590 F1999.800
G1 X5.323 Y16.955 F1999.800
G1 X5.233 Y17.316 F1999.800
G1 X5.105 Y17.665 F1999.800
G1 X4.944 Y18.000 F1999.800
G1 X4.688 Y18.331 F1999.800
G1 X4.605 Y18.414 F1999.800
G1 X4.553 Y18.447 F1999.800
G1 X4.496 Y18.470 F1999.800
G1 X4.075 Y18.470 F1999.800
G1 X4.075 Y18.470 F1999.800
G1 X3.947 Y18.444 F1999.800
G1 X3.868 Y18.391 F1999.800
G0 X3.850 Y18.368
G0 X3.820 Y18.259
G0 X3.015 Y11.414
G1 X3.008 Y11.361 F1999.800
G1 X3.000 Y11.244 F1999.800
G1 X3.019 Y11.188 F1999.800
G1 X3.079 Y11.117 F1999.800
G1 X3.188 Y11.056 F1999.800
G1 X3.188 Y11.056 F1999.800
G1 X3.470 Y10.985 F1999.800
G1 X3.639 Y10.974 F1999.800
G1 X3.695 Y10.977 F1999.800
G1 X3.865 Y11.026 F1999.800
G1 X4.128 Y11.150 F1999.800
G1 X4.274 Y11.241 F1999.800
G1 X4.564 Y11.470 F1999.800
G1 X4.823 Y11.733 F1999.800
G1 X5.011 Y11.974 F1999.800
G1 X5.162 Y12.192 F1999.800
G1 X5.331 Y12.485 F1999.800
G1 X5.492 Y12.820 F1999.800
G1 X5.624 Y13.165 F1999.800
G1 X5.737 Y13.519 F1999.800
G1 X5.831 Y13.876 F1999.800
G1 X5.902 Y14.241 F1999.800
G1 X5.951 Y14.609 F1999.800
G1 X5.977 Y14.977 F1999.800
G1 X5.992 Y15.346 F1999.800
G1 X5.989 Y15.714 F1999.800
G1 X5.962 Y16.083 F1999.800
G1 X5.921 Y16.451 F1999.800
G1 X5.861 Y16.816 F1999.800
G1 X5.782 Y17.177 F1999.800
G1 X5.665 Y17.530 F1999.800
G1 X5.515 Y17.868 F1999.800
G1 X5.350 Y18.154 F1999.800
G1 X5.154 Y18.376 F1999.800
G1 X5.109 Y18.417 F1999.800
G1 X5.000 Y18.470 F1999.800
G1 X4.579 Y18.470 F1999.800
G1 X4.579 Y18.470 F1999.800
G1 X4.451 Y18.444 F1999.800
G1 X4.372 Y18.391 F1999.800
G0 X4.353 Y18.368
G0 X4.323 Y18.259
G0 X3.421 Y11.293
G1 X3.414 Y11.241 F1999.800
G1 X3.406 Y11.124 F1999.800
G1 X3.421 Y11.068 F1999.800
G1 X3.481 Y10.996 F1999.800
G1 X3.590 Y10.936 F1999.800
G1 X3.590 Y10.936 F1999.800
G1 X3.985 Y10.846 F1999.800
G1 X4.041 Y10.842 F1999.800
G1 X4.320 Y10.921 F1999.800
G1 X4.628 Y11.075 F1999.800
G1 X4.925 Y11.293 F1999.800
G1 X5.192 Y11.549 F1999.800
G1 X5.391 Y11.782 F1999.800
G1 X5.560 Y12.004 F1999.800
G1 X5.741 Y12.297 F1999.800
G1 X5.898 Y12.602 F1999.800
G1 X6.049 Y12.940 F1999.800
G1 X6.173 Y13.289 F1999.800
G1 X6.271 Y13.647 F1999.800
G1 X6.353 Y14.008 F1999.800
G1 X6.417 Y14.372 F1999.800
G1 X6.455 Y14.741 F1999.800
G1 X6.481 Y15.109 F1999.800
G1 X6.481 Y15.846 F1999.800
G1 X6.455 Y16.214 F1999.800
G1 X6.414 Y16.583 F1999.800
G1 X6.342 Y16.947 F1999.800
G1 X6.244 Y17.305 F1999.800
G1 X6.117 Y17.654 F1999.800
G1 X5.951 Y17.985 F1999.800
G1 X5.786 Y18.248 F1999.800
G1 X5.617 Y18.417 F1999.800
G1 X5.508 Y18.470 F1999.800
G1 X5.086 Y18.470 F1999.800
G1 X5.086 Y18.470 F1999.800
G1 X4.959 Y18.444 F1999.800
G1 X4.880 Y18.391 F1999.800
G0 X4.861 Y18.368
G0 X4.827 Y18.259
G0 X3.831 Y11.177
G1 X3.823 Y11.124 F1999.800
G1 X3.816 Y11.008 F1999.800
G1 X3.846 Y10.921 F1999.800
G1 X3.932 Y10.835 F1999.800
G1 X3.989 Y10.805 F1999.800
G1 X3.989 Y10.805 F1999.800
G1 X4.214 Y10.729 F1999.800
G1 X4.383 Y10.703 F1999.800
G1 X4.440 Y10.703 F1999.800
G1 X4.823 Y10.827 F1999.800
G1 X5.026 Y10.932 F1999.800
G1 X5.331 Y11.143 F1999.800
G1 X5.602 Y11.395 F1999.800
G1 X5.801 Y11.617 F1999.800
G1 X5.966 Y11.831 F1999.800
G1 X6.150 Y12.113 F1999.800
G1 X6.327 Y12.436 F1999.800
G1 X6.477 Y12.774 F1999.800
G1 X6.609 Y13.113 F1999.800
G1 X6.722 Y13.466 F1999.800
G1 X6.812 Y13.823 F1999.800
G1 X6.880 Y14.188 F1999.800
G1 X6.929 Y14.556 F1999.800
G1 X6.966 Y14.925 F1999.800
G1 X6.989 Y15.293 F1999.800
G1 X6.989 Y15.662 F1999.800
G1 X6.977 Y16.030 F1999.800
G1 X6.947 Y16.398 F1999.800
G1 X6.805 Y17.124 F1999.800
G1 X6.692 Y17.477 F1999.800
G1 X6.556 Y17.823 F1999.800
G1 X6.372 Y18.147 F1999.800
G1 X6.173 Y18.372 F1999.800
G1 X6.075 Y18.447 F1999.800
G1 X6.019 Y18.470 F1999.800
G1 X5.598 Y18.470 F1999.800
G1 X5.598 Y18.470 F1999.800
G1 X5.470 Y18.444 F1999.800
G1 X5.391 Y18.391 F1999.800
G0 X5.372 Y18.368
G0 X5.338 Y18.259
G0 X4.169 Y11.045
G1 X4.162 Y10.989 F1999.800
G1 X4.150 Y10.872 F1999.800
G1 X4.180 Y10.786 F1999.800
G1 X4.267 Y10.699 F1999.800
G1 X4.323 Y10.669 F1999.800
G1 X4.323 Y10.669 F1999.800
G1 X4.602 Y10.575 F1999.800
G1 X4.771 Y10.553 F1999.800
G1 X4.827 Y10.553 F1999.800
G1 X5.158 Y10.647 F1999.800
G1 X5.368 Y10.744 F1999.800
G1 X5.680 Y10.944 F1999.800
G1 X5.962 Y11.184 F1999.800
G1 X6.165 Y11.398 F1999.800
G1 X6.331 Y11.602 F1999.800
G1 X6.519 Y11.872 F1999.800
G1 X6.707 Y12.188 F1999.800
G1 X6.876 Y12.519 F1999.800
G1 X7.023 Y12.857 F1999.800
G1 X7.143 Y13.207 F1999.800
G1 X7.241 Y13.564 F1999.800
G1 X7.323 Y13.925 F1999.800
G1 X7.391 Y14.289 F1999.800
G1 X7.444 Y14.654 F1999.800
G1 X7.477 Y15.023 F1999.800
G1 X7.496 Y15.391 F1999.800
G1 X7.496 Y15.759 F1999.800
G1 X7.477 Y16.128 F1999.800
G1 X7.429 Y16.496 F1999.800
G1 X7.368 Y16.861 F1999.800
G1 X7.286 Y17.222 F1999.800
G1 X7.165 Y17.571 F1999.800
G1 X7.015 Y17.910 F1999.800
G1 X6.842 Y18.195 F1999.800
G1 X6.632 Y18.414 F1999.800
G1 X6.579 Y18.447 F1999.800
G1 X6.523 Y18.470 F1999.800
G1 X6.102 Y18.470 F1999.800
G1 X6.102 Y18.470 F1999.800
G1 X5.974 Y18.444 F1999.800
G1 X5.895 Y18.391 F1999.800
G0 X5.876 Y18.368
G0 X5.838 Y18.259
G0 X4.511 Y10.910
G1 X4.500 Y10.853 F1999.800
G1 X4.485 Y10.737 F1999.800
G1 X4.500 Y10.677 F1999.800
G1 X4.553 Y10.602 F1999.800
G1 X4.658 Y10.534 F1999.800
G1 X4.658 Y10.534 F1999.800
G1 X4.985 Y10.406 F1999.800
G1 X5.154 Y10.380 F1999.800
G1 X5.380 Y10.421 F1999.800
G1 X5.756 Y10.575 F1999.800
G1 X6.068 Y10.771 F1999.800
G1 X6.353 Y11.008 F1999.800
G1 X6.571 Y11.229 F1999.800
G1 X6.744 Y11.440 F1999.800
G1 X6.917 Y11.673 F1999.800
G1 X7.113 Y11.985 F1999.800
G1 X7.289 Y12.308 F1999.800
G1 X7.444 Y12.643 F1999.800
G1 X7.575 Y12.989 F1999.800
G1 X7.684 Y13.342 F1999.800
G1 X7.782 Y13.699 F1999.800
G1 X7.861 Y14.060 F1999.800
G1 X7.917 Y14.425 F1999.800
G1 X7.959 Y14.793 F1999.800
G1 X7.989 Y15.162 F1999.800
G1 X7.996 Y15.530 F1999.800
G1 X7.989 Y15.898 F1999.800
G1 X7.966 Y16.267 F1999.800
G1 X7.910 Y16.632 F1999.800
G1 X7.842 Y16.996 F1999.800
G1 X7.744 Y17.353 F1999.800
G1 X7.613 Y17.699 F1999.800
G1 X7.417 Y18.079 F1999.800
G1 X7.147 Y18.402 F1999.800
G1 X7.098 Y18.440 F1999.800
G1 X7.041 Y18.466 F1999.800
G1 X6.620 Y18.470 F1999.800
G1 X6.620 Y18.470 F1999.800
G1 X6.492 Y18.444 F1999.800
G1 X6.414 Y18.391 F1999.800
G0 X6.395 Y18.368
G0 X6.357 Y18.259
G0 X4.906 Y10.748
G1 X4.895 Y10.695 F1999.800
G1 X4.880 Y10.575 F1999.800
G1 X4.902 Y10.481 F1999.800
G1 X4.985 Y10.391 F1999.800
G1 X5.038 Y10.353 F1999.800
G1 X5.038 Y10.353 F1999.800
G1 X5.312 Y10.237 F1999.800
G1 X5.481 Y10.203 F1999.800
G1 X5.707 Y10.233 F1999.800
G1 X6.038 Y10.346 F1999.800
G1 X6.414 Y10.553 F1999.800
G1 X6.703 Y10.782 F1999.800
G1 X6.917 Y10.989 F1999.800
G1 X7.102 Y11.192 F1999.800
G1 X7.293 Y11.440 F1999.800
G1 X7.504 Y11.744 F1999.800
G1 X7.684 Y12.068 F1999.800
G1 X7.850 Y12.398 F1999.800
G1 X7.989 Y12.741 F1999.800
G1 X8.117 Y13.086 F1999.800
G1 X8.312 Y13.801 F1999.800
G1 X8.383 Y14.165 F1999.800
G1 X8.436 Y14.534 F1999.800
G1 X8.470 Y14.902 F1999.800
G1 X8.492 Y15.271 F1999.800
G1 X8.492 Y15.639 F1999.800
G1 X8.477 Y16.008 F1999.800
G1 X8.447 Y16.376 F1999.800
G1 X8.398 Y16.744 F1999.800
G1 X8.316 Y17.105 F1999.800
G1 X8.203 Y17.459 F1999.800
G1 X8.064 Y17.793 F1999.800
G1 X7.906 Y18.105 F1999.800
G1 X7.673 Y18.380 F1999.800
G1 X7.628 Y18.421 F1999.800
G1 X7.575 Y18.451 F1999.800
G1 X7.519 Y18.470 F1999.800
G1 X7.098 Y18.470 F1999.800
G1 X7.098 Y18.470 F1999.800
G1 X6.970 Y18.444 F1999.800
G1 X6.891 Y18.391 F1999.800
G0 X6.872 Y18.368
G0 X6.831 Y18.259
G0 X5.229 Y10.586
G1 X5.218 Y10.534 F1999.800
G1 X5.199 Y10.414 F1999.800
G1 X5.222 Y10.320 F1999.800
G1 X5.305 Y10.229 F1999.800
G1 X5.357 Y10.192 F1999.800
G1 X5.357 Y10.192 F1999.800
G1 X5.628 Y10.068 F1999.800
G1 X5.797 Y10.019 F1999.800
G1 X5.966 Y10.023 F1999.800
G1 X6.357 Y10.132 F1999.800
G1 X6.737 Y10.327 F1999.800
G1 X7.038 Y10.541 F1999.800
G1 X7.267 Y10.744 F1999.800
G1 X7.455 Y10.932 F1999.800
G1 X7.673 Y11.192 F1999.800
G1 X7.880 Y11.481 F1999.800
G1 X8.075 Y11.797 F1999.800
G1 X8.252 Y12.124 F1999.800
G1 X8.402 Y12.462 F1999.800
G1 X8.538 Y12.808 F1999.800
G1 X8.654 Y13.158 F1999.800
G1 X8.756 Y13.515 F1999.800
G1 X8.838 Y13.876 F1999.800
G1 X8.902 Y14.241 F1999.800
G1 X8.951 Y14.609 F1999.800
G1 X8.981 Y14.977 F1999.800
G1 X8.996 Y15.714 F1999.800
G1 X8.977 Y16.083 F1999.800
G1 X8.944 Y16.451 F1999.800
G1 X8.880 Y16.816 F1999.800
G1 X8.793 Y17.177 F1999.800
G1 X8.677 Y17.530 F1999.800
G1 X8.538 Y17.876 F1999.800
G1 X8.350 Y18.195 F1999.800
G1 X8.143 Y18.414 F1999.800
G1 X8.034 Y18.466 F1999.800
G1 X7.613 Y18.470 F1999.800
G1 X7.613 Y18.470 F1999.800
G1 X7.485 Y18.444 F1999.800
G1 X7.406 Y18.391 F1999.800
G0 X7.387 Y18.368
G0 X7.346 Y18.259
G0 X5.624 Y10.406
G1 X5.613 Y10.353 F1999.800
G1 X5.594 Y10.203 F1999.800
G1 X5.624 Y10.113 F1999.800
G1 X5.726 Y9.992 F1999.800
G1 X5.726 Y9.992 F1999.800
G1 X5.989 Y9.857 F1999.800
G1 X6.102 Y9.823 F1999.800
G1 X6.271 Y9.820 F1999.800
G1 X6.609 Y9.887 F1999.800
G1 X6.771 Y9.944 F1999.800
G1 X7.102 Y10.109 F1999.800
G1 X7.406 Y10.320 F1999.800
G1 X7.624 Y10.504 F1999.800
G1 X7.816 Y10.688 F1999.800
G1 X8.038 Y10.936 F1999.800
G1 X8.263 Y11.229 F1999.800
G1 X8.462 Y11.541 F1999.800
G1 X8.647 Y11.861 F1999.800
G1 X8.812 Y12.192 F1999.800
G1 X8.959 Y12.530 F1999.800
G1 X9.083 Y12.880 F1999.800
G1 X9.195 Y13.233 F1999.800
G1 X9.286 Y13.590 F1999.800
G1 X9.357 Y13.955 F1999.800
G1 X9.417 Y14.320 F1999.800
G1 X9.485 Y15.056 F1999.800
G1 X9.496 Y15.425 F1999.800
G1 X9.492 Y15.793 F1999.800
G1 X9.474 Y16.162 F1999.800
G1 X9.425 Y16.530 F1999.800
G1 X9.365 Y16.895 F1999.800
G1 X9.274 Y17.256 F1999.800
G1 X9.150 Y17.605 F1999.800
G1 X8.996 Y17.944 F1999.800
G1 X8.820 Y18.233 F1999.800
G1 X8.650 Y18.406 F1999.800
G1 X8.545 Y18.466 F1999.800
G1 X8.124 Y18.470 F1999.800
G1 X8.124 Y18.470 F1999.800
G1 X7.996 Y18.444 F1999.800
G1 X7.917 Y18.391 F1999.800
G0 X7.898 Y18.368
G0 X7.853 Y18.259
G0 X5.936 Y10.218
G1 X5.921 Y10.162 F1999.800
G1 X5.902 Y10.011 F1999.800
G1 X5.929 Y9.921 F1999.800
G1 X6.030 Y9.801 F1999.800
G1 X6.030 Y9.801 F1999.800
G1 X6.289 Y9.658 F1999.800
G1 X6.459 Y9.602 F1999.800
G1 X6.515 Y9.594 F1999.800
G1 X6.853 Y9.635 F1999.800
G1 X7.079 Y9.703 F1999.800
G1 X7.414 Y9.857 F1999.800
G1 X7.726 Y10.053 F1999.800
G1 X7.970 Y10.244 F1999.800
G1 X8.165 Y10.421 F1999.800
G1 X8.395 Y10.665 F1999.800
G1 X8.624 Y10.947 F1999.800
G1 X8.838 Y11.248 F1999.800
G1 X9.034 Y11.564 F1999.800
G1 X9.203 Y11.891 F1999.800
G1 X9.361 Y12.226 F1999.800
G1 X9.500 Y12.568 F1999.800
G1 X9.617 Y12.917 F1999.800
G1 X9.718 Y13.274 F1999.800
G1 X9.801 Y13.635 F1999.800
G1 X9.872 Y14.000 F1999.800
G1 X9.932 Y14.365 F1999.800
G1 X9.970 Y14.733 F1999.800
G1 X9.996 Y15.102 F1999.800
G1 X10.008 Y15.470 F1999.800
G1 X10.004 Y15.838 F1999.800
G1 X9.985 Y16.207 F1999.800
G1 X9.936 Y16.575 F1999.800
G1 X9.857 Y16.936 F1999.800
G1 X9.767 Y17.297 F1999.800
G1 X9.647 Y17.647 F1999.800
G1 X9.481 Y17.977 F1999.800
G1 X9.320 Y18.226 F1999.800
G1 X9.154 Y18.398 F1999.800
G1 X9.109 Y18.436 F1999.800
G1 X9.053 Y18.459 F1999.800
G1 X8.992 Y18.470 F1999.800
G1 X8.632 Y18.470 F1999.800
G1 X8.632 Y18.470 F1999.800
G1 X8.504 Y18.444 F1999.800
G1 X8.425 Y18.391 F1999.800
G0 X8.406 Y18.368
G0 X8.361 Y18.259
G0 X6.241 Y10.026
G1 X6.229 Y9.970 F1999.800
G1 X6.207 Y9.853 F1999.800
G1 X6.222 Y9.756 F1999.800
G1 X6.335 Y9.609 F1999.800
G1 X6.335 Y9.609 F1999.800
G1 X6.590 Y9.462 F1999.800
G1 X6.756 Y9.398 F1999.800
G1 X6.925 Y9.383 F1999.800
G1 X7.263 Y9.429 F1999.800
G1 X7.376 Y9.459 F1999.800
G1 X7.718 Y9.598 F1999.800
G1 X8.038 Y9.782 F1999.800
G1 X8.274 Y9.951 F1999.800
G1 X8.474 Y10.117 F1999.800
G1 X8.707 Y10.342 F1999.800
G1 X8.951 Y10.620 F1999.800
G1 X9.177 Y10.914 F1999.800
G1 X9.380 Y11.222 F1999.800
G1 X9.568 Y11.538 F1999.800
G1 X9.737 Y11.865 F1999.800
G1 X9.883 Y12.203 F1999.800
G1 X10.019 Y12.545 F1999.800
G1 X10.132 Y12.898 F1999.800
G1 X10.233 Y13.256 F1999.800
G1 X10.316 Y13.617 F1999.800
G1 X10.387 Y13.981 F1999.800
G1 X10.485 Y14.714 F1999.800
G1 X10.511 Y15.083 F1999.800
G1 X10.523 Y15.451 F1999.800
G1 X10.523 Y15.820 F1999.800
G1 X10.440 Y16.556 F1999.800
G1 X10.376 Y16.921 F1999.800
G1 X10.286 Y17.282 F1999.800
G1 X10.158 Y17.632 F1999.800
G1 X10.008 Y17.947 F1999.800
G1 X9.838 Y18.218 F1999.800
G1 X9.673 Y18.391 F1999.800
G1 X9.628 Y18.429 F1999.800
G1 X9.575 Y18.455 F1999.800
G1 X9.515 Y18.470 F1999.800
G1 X9.094 Y18.470 F1999.800
G1 X9.094 Y18.470 F1999.800
G1 X8.966 Y18.444 F1999.800
G1 X8.887 Y18.391 F1999.800
G0 X8.868 Y18.368
G0 X8.823 Y18.259
G0 X6.617 Y9.801
G1 X6.602 Y9.744 F1999.800
G1 X6.575 Y9.594 F1999.800
G1 X6.598 Y9.504 F1999.800
G1 X6.688 Y9.376 F1999.800
G1 X6.688 Y9.376 F1999.800
G1 X6.996 Y9.192 F1999.800
G1 X7.109 Y9.162 F1999.800
G1 X7.391 Y9.158 F1999.800
G1 X7.729 Y9.226 F1999.800
G1 X8.071 Y9.365 F1999.800
G1 X8.395 Y9.541 F1999.800
G1 X8.669 Y9.729 F1999.800
G1 X8.891 Y9.917 F1999.800
G1 X9.105 Y10.120 F1999.800
G1 X9.353 Y10.391 F1999.800
G1 X9.583 Y10.680 F1999.800
G1 X9.789 Y10.985 F1999.800
G1 X9.985 Y11.301 F1999.800
G1 X10.162 Y11.624 F1999.800
G1 X10.316 Y11.962 F1999.800
G1 X10.451 Y12.305 F1999.800
G1 X10.575 Y12.654 F1999.800
G1 X10.684 Y13.008 F1999.800
G1 X10.857 Y13.729 F1999.800
G1 X10.921 Y14.094 F1999.800
G1 X10.970 Y14.462 F1999.800
G1 X11.004 Y14.831 F1999.800
G1 X11.023 Y15.199 F1999.800
G1 X11.026 Y15.568 F1999.800
G1 X11.015 Y15.936 F1999.800
G1 X10.989 Y16.305 F1999.800
G1 X10.932 Y16.669 F1999.800
G1 X10.853 Y17.030 F1999.800
G1 X10.744 Y17.383 F1999.800
G1 X10.617 Y17.733 F1999.800
G1 X10.447 Y18.064 F1999.800
G1 X10.222 Y18.346 F1999.800
G1 X10.135 Y18.425 F1999.800
G1 X10.083 Y18.455 F1999.800
G1 X10.023 Y18.470 F1999.800
G1 X9.602 Y18.470 F1999.800
G1 X9.602 Y18.470 F1999.800
G1 X9.474 Y18.444 F1999.800
G1 X9.395 Y18.391 F1999.800
G0 X9.372 Y18.368
G0 X9.327 Y18.263
G0 X6.902 Y9.583
G1 X6.887 Y9.523 F1999.800
G1 X6.857 Y9.372 F1999.800
G1 X6.880 Y9.282 F1999.800
G1 X6.974 Y9.158 F1999.800
G1 X6.974 Y9.158 F1999.800
G1 X7.222 Y8.989 F1999.800
G1 X7.383 Y8.921 F1999.800
G1 X7.609 Y8.902 F1999.800
G1 X7.947 Y8.947 F1999.800
G1 X8.353 Y9.083 F1999.800
G1 X8.684 Y9.248 F1999.800
G1 X8.940 Y9.410 F1999.800
G1 X9.169 Y9.575 F1999.800
G1 X9.429 Y9.801 F1999.800
G1 X9.669 Y10.056 F1999.800
G1 X9.880 Y10.297 F1999.800
G1 X10.105 Y10.590 F1999.800
G1 X10.312 Y10.895 F1999.800
G1 X10.500 Y11.214 F1999.800
G1 X10.669 Y11.541 F1999.800
G1 X10.820 Y11.880 F1999.800
G1 X10.959 Y12.222 F1999.800
G1 X11.184 Y12.925 F1999.800
G1 X11.282 Y13.282 F1999.800
G1 X11.361 Y13.643 F1999.800
G1 X11.429 Y14.008 F1999.800
G1 X11.485 Y14.372 F1999.800
G1 X11.526 Y14.741 F1999.800
G1 X11.553 Y15.109 F1999.800
G1 X11.538 Y15.846 F1999.800
G1 X11.504 Y16.214 F1999.800
G1 X11.447 Y16.579 F1999.800
G1 X11.380 Y16.944 F1999.800
G1 X11.278 Y17.301 F1999.800
G1 X11.150 Y17.650 F1999.800
G1 X10.985 Y17.985 F1999.800
G1 X10.812 Y18.259 F1999.800
G1 X10.639 Y18.425 F1999.800
G1 X10.526 Y18.470 F1999.800
G1 X10.105 Y18.470 F1999.800
G1 X10.105 Y18.470 F1999.800
G1 X9.977 Y18.444 F1999.800
G1 X9.898 Y18.391 F1999.800
G0 X9.876 Y18.368
G0 X9.831 Y18.263
G0 X7.241 Y9.331
G1 X7.226 Y9.271 F1999.800
G1 X7.192 Y9.120 F1999.800
G1 X7.214 Y9.030 F1999.800
G1 X7.305 Y8.902 F1999.800
G1 X7.305 Y8.902 F1999.800
G1 X7.602 Y8.703 F1999.800
G1 X7.711 Y8.665 F1999.800
G1 X7.992 Y8.650 F1999.800
G1 X8.274 Y8.684 F1999.800
G1 X8.628 Y8.793 F1999.800
G1 X8.966 Y8.944 F1999.800
G1 X9.222 Y9.090 F1999.800
G1 X9.451 Y9.244 F1999.800
G1 X9.707 Y9.451 F1999.800
G1 X9.966 Y9.692 F1999.800
G1 X10.218 Y9.962 F1999.800
G1 X10.447 Y10.252 F1999.800
G1 X10.662 Y10.553 F1999.800
G1 X10.861 Y10.865 F1999.800
G1 X11.045 Y11.184 F1999.800
G1 X11.207 Y11.515 F1999.800
G1 X11.353 Y11.853 F1999.800
G1 X11.489 Y12.199 F1999.800
G1 X11.609 Y12.549 F1999.800
G1 X11.711 Y12.906 F1999.800
G1 X11.883 Y13.628 F1999.800
G1 X11.947 Y13.992 F1999.800
G1 X12.000 Y14.357 F1999.800
G1 X12.041 Y14.726 F1999.800
G1 X12.068 Y15.094 F1999.800
G1 X12.068 Y15.462 F1999.800
G1 X12.045 Y15.831 F1999.800
G1 X12.008 Y16.199 F1999.800
G1 X11.955 Y16.568 F1999.800
G1 X11.880 Y16.932 F1999.800
G1 X11.789 Y17.293 F1999.800
G1 X11.662 Y17.643 F1999.800
G1 X11.504 Y17.977 F1999.800
G1 X11.312 Y18.271 F1999.800
G1 X11.139 Y18.432 F1999.800
G1 X11.083 Y18.459 F1999.800
G1 X11.023 Y18.470 F1999.800
G1 X10.602 Y18.470 F1999.800
G1 X10.602 Y18.470 F1999.800
G1 X10.474 Y18.444 F1999.800
G1 X10.391 Y18.391 F1999.800
G0 X10.372 Y18.368
G0 X10.323 Y18.263
G0 X7.541 Y9.109
G1 X7.523 Y9.053 F1999.800
G1 X7.489 Y8.898 F1999.800
G1 X7.511 Y8.774 F1999.800
G1 X7.579 Y8.669 F1999.800
G1 X7.579 Y8.669 F1999.800
G1 X7.812 Y8.481 F1999.800
G1 X7.974 Y8.402 F1999.800
G1 X8.312 Y8.376 F1999.800
G1 X8.594 Y8.402 F1999.800
G1 X8.951 Y8.504 F1999.800
G1 X9.289 Y8.650 F1999.800
G1 X9.526 Y8.782 F1999.800
G1 X9.752 Y8.932 F1999.800
G1 X9.992 Y9.117 F1999.800
G1 X10.271 Y9.361 F1999.800
G1 X10.534 Y9.620 F1999.800
G1 X10.778 Y9.898 F1999.800
G1 X11.004 Y10.192 F1999.800
G1 X11.214 Y10.496 F1999.800
G1 X11.402 Y10.816 F1999.800
G1 X11.579 Y11.139 F1999.800
G1 X11.741 Y11.470 F1999.800
G1 X11.887 Y11.808 F1999.800
G1 X12.019 Y12.154 F1999.800
G1 X12.135 Y12.504 F1999.800
G1 X12.237 Y12.861 F1999.800
G1 X12.327 Y13.218 F1999.800
G1 X12.406 Y13.579 F1999.800
G1 X12.470 Y13.944 F1999.800
G1 X12.523 Y14.308 F1999.800
G1 X12.564 Y14.677 F1999.800
G1 X12.579 Y15.414 F1999.800
G1 X12.564 Y15.782 F1999.800
G1 X12.530 Y16.150 F1999.800
G1 X12.481 Y16.519 F1999.800
G1 X12.414 Y16.883 F1999.800
G1 X12.316 Y17.241 F1999.800
G1 X12.188 Y17.590 F1999.800
G1 X12.034 Y17.929 F1999.800
G1 X11.838 Y18.244 F1999.800
G1 X11.673 Y18.414 F1999.800
G1 X11.564 Y18.466 F1999.800
G1 X11.083 Y18.470 F1999.800
G1 X11.083 Y18.470 F1999.800
G1 X10.955 Y18.444 F1999.800
G1 X10.872 Y18.391 F1999.800
G0 X10.853 Y18.368
G0 X10.805 Y18.263
G0 X7.808 Y8.865
G1 X7.789 Y8.808 F1999.800
G1 X7.752 Y8.654 F1999.800
G1 X7.774 Y8.530 F1999.800
G1 X7.842 Y8.425 F1999.800
G1 X7.842 Y8.425 F1999.800
G1 X7.891 Y8.391 F1999.800
G1 X8.071 Y8.229 F1999.800
G1 X8.226 Y8.139 F1999.800
G1 X8.282 Y8.117 F1999.800
G1 X8.508 Y8.086 F1999.800
G1 X8.902 Y8.105 F1999.800
G1 X9.259 Y8.207 F1999.800
G1 X9.602 Y8.350 F1999.800
G1 X9.846 Y8.481 F1999.800
G1 X10.079 Y8.624 F1999.800
G1 X10.372 Y8.838 F1999.800
G1 X10.654 Y9.079 F1999.800
G1 X10.917 Y9.338 F1999.800
G1 X11.165 Y9.613 F1999.800
G1 X11.395 Y9.902 F1999.800
G1 X11.609 Y10.203 F1999.800
G1 X11.805 Y10.515 F1999.800
G1 X11.989 Y10.835 F1999.800
G1 X12.154 Y11.165 F1999.800
G1 X12.308 Y11.500 F1999.800
G1 X12.571 Y12.192 F1999.800
G1 X12.684 Y12.545 F1999.800
G1 X12.782 Y12.902 F1999.800
G1 X12.868 Y13.263 F1999.800
G1 X12.940 Y13.628 F1999.800
G1 X12.996 Y13.992 F1999.800
G1 X13.071 Y14.729 F1999.800
G1 X13.090 Y15.098 F1999.800
G1 X13.098 Y15.466 F1999.800
G1 X13.079 Y15.835 F1999.800
G1 X13.049 Y16.203 F1999.800
G1 X12.985 Y16.568 F1999.800
G1 X12.906 Y16.929 F1999.800
G1 X12.808 Y17.286 F1999.800
G1 X12.684 Y17.635 F1999.800
G1 X12.526 Y17.970 F1999.800
G1 X12.331 Y18.271 F1999.800
G1 X12.154 Y18.432 F1999.800
G1 X12.098 Y18.459 F1999.800
G1 X12.038 Y18.470 F1999.800
G1 X11.617 Y18.470 F1999.800
G1 X11.617 Y18.470 F1999.800
G1 X11.489 Y18.444 F1999.800
G1 X11.406 Y18.391 F1999.800
G0 X11.387 Y18.368
G0 X11.338 Y18.263
G0 X8.117 Y8.579
G1 X8.098 Y8.519 F1999.800
G1 X8.060 Y8.368 F1999.800
G1 X8.083 Y8.244 F1999.800
G1 X8.150 Y8.139 F1999.800
G1 X8.150 Y8.139 F1999.800
G1 X8.368 Y7.936 F1999.800
G1 X8.466 Y7.868 F1999.800
G1 X8.575 Y7.823 F1999.800
G1 X8.801 Y7.793 F1999.800
G1 X9.139 Y7.805 F1999.800
G1 X9.500 Y7.887 F1999.800
G1 X9.846 Y8.015 F1999.800
G1 X10.109 Y8.139 F1999.800
G1 X10.353 Y8.278 F1999.800
G1 X10.624 Y8.462 F1999.800
G1 X10.914 Y8.692 F1999.800
G1 X11.184 Y8.944 F1999.800
G1 X11.444 Y9.207 F1999.800
G1 X11.688 Y9.485 F1999.800
G1 X11.910 Y9.782 F1999.800
G1 X12.117 Y10.090 F1999.800
G1 X12.312 Y10.402 F1999.800
G1 X12.492 Y10.726 F1999.800
G1 X12.662 Y11.056 F1999.800
G1 X12.816 Y11.391 F1999.800
G1 X12.955 Y11.733 F1999.800
G1 X13.079 Y12.083 F1999.800
G1 X13.188 Y12.436 F1999.800
G1 X13.286 Y12.793 F1999.800
G1 X13.444 Y13.515 F1999.800
G1 X13.500 Y13.880 F1999.800
G1 X13.545 Y14.248 F1999.800
G1 X13.579 Y14.617 F1999.800
G1 X13.598 Y14.985 F1999.800
G1 X13.605 Y15.353 F1999.800
G1 X13.598 Y15.722 F1999.800
G1 X13.564 Y16.090 F1999.800
G1 X13.508 Y16.455 F1999.800
G1 X13.440 Y16.820 F1999.800
G1 X13.350 Y17.180 F1999.800
G1 X13.237 Y17.534 F1999.800
G1 X13.090 Y17.876 F1999.800
G1 X12.902 Y18.195 F1999.800
G1 X12.737 Y18.372 F1999.800
G1 X12.635 Y18.440 F1999.800
G1 X12.579 Y18.462 F1999.800
G1 X12.098 Y18.470 F1999.800
G1 X12.098 Y18.470 F1999.800
G1 X11.970 Y18.444 F1999.800
G1 X11.887 Y18.395 F1999.800
G0 X11.868 Y18.372
G0 X11.816 Y18.263
G0 X8.417 Y8.274
G1 X8.395 Y8.214 F1999.800
G1 X8.357 Y8.064 F1999.800
G1 X8.365 Y7.970 F1999.800
G1 X8.440 Y7.835 F1999.800
G1 X8.440 Y7.835 F1999.800
G1 X8.654 Y7.628 F1999.800
G1 X8.756 Y7.564 F1999.800
G1 X8.865 Y7.523 F1999.800
G1 X9.147 Y7.485 F1999.800
G1 X9.372 Y7.489 F1999.800
G1 X9.737 Y7.556 F1999.800
G1 X10.090 Y7.669 F1999.800
G1 X10.338 Y7.778 F1999.800
G1 X10.575 Y7.906 F1999.800
G1 X10.838 Y8.068 F1999.800
G1 X11.139 Y8.282 F1999.800
G1 X11.425 Y8.515 F1999.800
G1 X11.695 Y8.767 F1999.800
G1 X11.947 Y9.038 F1999.800
G1 X12.180 Y9.323 F1999.800
G1 X12.402 Y9.620 F1999.800
G1 X12.609 Y9.925 F1999.800
G1 X12.805 Y10.241 F1999.800
G1 X12.981 Y10.564 F1999.800
G1 X13.305 Y11.229 F1999.800
G1 X13.440 Y11.571 F1999.800
G1 X13.564 Y11.921 F1999.800
G1 X13.782 Y12.628 F1999.800
G1 X13.868 Y12.989 F1999.800
G1 X13.944 Y13.350 F1999.800
G1 X14.008 Y13.714 F1999.800
G1 X14.056 Y14.083 F1999.800
G1 X14.094 Y14.451 F1999.800
G1 X14.120 Y14.820 F1999.800
G1 X14.132 Y15.188 F1999.800
G1 X14.094 Y15.925 F1999.800
G1 X14.053 Y16.293 F1999.800
G1 X13.989 Y16.658 F1999.800
G1 X13.914 Y17.023 F1999.800
G1 X13.801 Y17.376 F1999.800
G1 X13.662 Y17.722 F1999.800
G1 X13.489 Y18.053 F1999.800
G1 X13.305 Y18.286 F1999.800
G1 X13.177 Y18.410 F1999.800
G1 X13.128 Y18.444 F1999.800
G1 X13.071 Y18.466 F1999.800
G1 X12.590 Y18.470 F1999.800
G1 X12.590 Y18.470 F1999.800
G1 X12.462 Y18.444 F1999.800
G1 X12.380 Y18.395 F1999.800
G0 X12.361 Y18.372
G0 X12.308 Y18.263
G0 X8.665 Y8.011
G1 X8.643 Y7.947 F1999.800
G1 X8.602 Y7.797 F1999.800
G1 X8.609 Y7.703 F1999.800
G1 X8.684 Y7.568 F1999.800
G1 X8.684 Y7.568 F1999.800
G1 X8.940 Y7.316 F1999.800
G1 X9.041 Y7.256 F1999.800
G1 X9.436 Y7.180 F1999.800
G1 X9.605 Y7.173 F1999.800
G1 X9.970 Y7.226 F1999.800
G1 X10.327 Y7.327 F1999.800
G1 X10.583 Y7.425 F1999.800
G1 X10.831 Y7.545 F1999.800
G1 X11.102 Y7.699 F1999.800
G1 X11.410 Y7.902 F1999.800
G1 X11.703 Y8.128 F1999.800
G1 X11.977 Y8.372 F1999.800
G1 X12.237 Y8.635 F1999.800
G1 X12.485 Y8.910 F1999.800
G1 X12.718 Y9.199 F1999.800
G1 X12.936 Y9.496 F1999.800
G1 X13.139 Y9.805 F1999.800
G1 X13.504 Y10.447 F1999.800
G1 X13.662 Y10.782 F1999.800
G1 X13.947 Y11.462 F1999.800
G1 X14.075 Y11.808 F1999.800
G1 X14.293 Y12.515 F1999.800
G1 X14.387 Y12.872 F1999.800
G1 X14.466 Y13.233 F1999.800
G1 X14.534 Y13.598 F1999.800
G1 X14.590 Y13.962 F1999.800
G1 X14.643 Y14.699 F1999.800
G1 X14.643 Y15.436 F1999.800
G1 X14.620 Y15.805 F1999.800
G1 X14.586 Y16.173 F1999.800
G1 X14.451 Y16.902 F1999.800
G1 X14.350 Y17.259 F1999.800
G1 X14.229 Y17.609 F1999.800
G1 X14.068 Y17.944 F1999.800
G1 X13.891 Y18.218 F1999.800
G1 X13.677 Y18.432 F1999.800
G1 X13.620 Y18.459 F1999.800
G1 X13.560 Y18.470 F1999.800
G1 X13.139 Y18.470 F1999.800
G1 X13.135 Y18.470 F1999.800
G1 X13.008 Y18.444 F1999.800
G1 X12.925 Y18.395 F1999.800
G0 X12.906 Y18.372
G0 X12.853 Y18.263
G0 X8.929 Y7.741
G1 X8.906 Y7.677 F1999.800
G1 X8.853 Y7.492 F1999.800
G1 X8.868 Y7.372 F1999.800
G1 X8.910 Y7.289 F1999.800
G1 X8.910 Y7.289 F1999.800
G1 X9.105 Y7.064 F1999.800
G1 X9.248 Y6.959 F1999.800
G1 X9.583 Y6.865 F1999.800
G1 X9.865 Y6.846 F1999.800
G1 X10.233 Y6.891 F1999.800
G1 X10.590 Y6.985 F1999.800
G1 X10.846 Y7.075 F1999.800
G1 X11.102 Y7.192 F1999.800
G1 X11.380 Y7.338 F1999.800
G1 X11.692 Y7.534 F1999.800
G1 X11.989 Y7.752 F1999.800
G1 X12.271 Y7.989 F1999.800
G1 X12.538 Y8.244 F1999.800
G1 X12.793 Y8.511 F1999.800
G1 X13.034 Y8.793 F1999.800
G1 X13.470 Y9.391 F1999.800
G1 X13.853 Y10.026 F1999.800
G1 X14.026 Y10.353 F1999.800
G1 X14.184 Y10.688 F1999.800
G1 X14.470 Y11.368 F1999.800
G1 X14.598 Y11.714 F1999.800
G1 X14.714 Y12.068 F1999.800
G1 X14.820 Y12.421 F1999.800
G1 X14.914 Y12.778 F1999.800
G1 X14.996 Y13.139 F1999.800
G1 X15.102 Y13.872 F1999.800
G1 X15.135 Y14.241 F1999.800
G1 X15.158 Y14.609 F1999.800
G1 X15.165 Y14.977 F1999.800
G1 X15.162 Y15.346 F1999.800
G1 X15.143 Y15.714 F1999.800
G1 X15.113 Y16.083 F1999.800
G1 X14.985 Y16.812 F1999.800
G1 X14.898 Y17.173 F1999.800
G1 X14.778 Y17.523 F1999.800
G1 X14.628 Y17.861 F1999.800
G1 X14.444 Y18.173 F1999.800
G1 X14.233 Y18.391 F1999.800
G1 X14.188 Y18.429 F1999.800
G1 X14.132 Y18.455 F1999.800
G1 X14.071 Y18.470 F1999.800
G1 X13.650 Y18.470 F1999.800
G1 X13.650 Y18.470 F1999.800
G1 X13.523 Y18.444 F1999.800
G1 X13.440 Y18.395 F1999.800
G0 X13.421 Y18.372
G0 X13.365 Y18.267
G0 X9.150 Y7.451
G1 X9.128 Y7.391 F1999.800
G1 X9.071 Y7.203 F1999.800
G1 X9.086 Y7.083 F1999.800
G1 X9.128 Y7.000 F1999.800
G1 X9.128 Y7.000 F1999.800
G1 X9.320 Y6.767 F1999.800
G1 X9.459 Y6.654 F1999.800
G1 X9.511 Y6.624 F1999.800
G1 X9.850 Y6.534 F1999.800
G1 X10.075 Y6.511 F1999.800
G1 X10.444 Y6.541 F1999.800
G1 X10.805 Y6.624 F1999.800
G1 X11.068 Y6.707 F1999.800
G1 X11.327 Y6.816 F1999.800
G1 X11.609 Y6.955 F1999.800
G1 X11.929 Y7.143 F1999.800
G1 X12.233 Y7.350 F1999.800
G1 X12.523 Y7.579 F1999.800
G1 X12.797 Y7.827 F1999.800
G1 X13.060 Y8.086 F1999.800
G1 X13.308 Y8.357 F1999.800
G1 X13.767 Y8.940 F1999.800
G1 X14.173 Y9.560 F1999.800
G1 X14.357 Y9.880 F1999.800
G1 X14.526 Y10.211 F1999.800
G1 X14.835 Y10.883 F1999.800
G1 X14.977 Y11.226 F1999.800
G1 X15.226 Y11.921 F1999.800
G1 X15.335 Y12.274 F1999.800
G1 X15.500 Y12.996 F1999.800
G1 X15.564 Y13.361 F1999.800
G1 X15.613 Y13.729 F1999.800
G1 X15.650 Y14.098 F1999.800
G1 X15.688 Y14.835 F1999.800
G1 X15.684 Y15.203 F1999.800
G1 X15.669 Y15.571 F1999.800
G1 X15.643 Y15.940 F1999.800
G1 X15.530 Y16.673 F1999.800
G1 X15.455 Y17.034 F1999.800
G1 X15.342 Y17.387 F1999.800
G1 X15.207 Y17.733 F1999.800
G1 X15.030 Y18.060 F1999.800
G1 X14.797 Y18.335 F1999.800
G1 X14.707 Y18.417 F1999.800
G1 X14.598 Y18.470 F1999.800
G1 X14.177 Y18.470 F1999.800
G1 X14.177 Y18.470 F1999.800
G1 X14.049 Y18.444 F1999.800
G1 X13.966 Y18.395 F1999.800
G0 X13.947 Y18.372
G0 X13.891 Y18.267
G0 X9.406 Y7.120
G1 X9.380 Y7.056 F1999.800
G1 X9.327 Y6.902 F1999.800
G1 X9.331 Y6.778 F1999.800
G1 X9.380 Y6.665 F1999.800
G1 X9.380 Y6.665 F1999.800
G1 X9.613 Y6.391 F1999.800
G1 X9.707 Y6.316 F1999.800
G1 X9.872 Y6.248 F1999.800
G1 X10.267 Y6.173 F1999.800
G1 X10.323 Y6.169 F1999.800
G1 X10.692 Y6.192 F1999.800
G1 X11.056 Y6.263 F1999.800
G1 X11.338 Y6.350 F1999.800
G1 X11.598 Y6.447 F1999.800
G1 X11.902 Y6.590 F1999.800
G1 X12.222 Y6.774 F1999.800
G1 X12.530 Y6.977 F1999.800
G1 X12.827 Y7.199 F1999.800
G1 X13.105 Y7.444 F1999.800
G1 X13.372 Y7.699 F1999.800
G1 X13.628 Y7.966 F1999.800
G1 X13.872 Y8.244 F1999.800
G1 X14.098 Y8.538 F1999.800
G1 X14.519 Y9.147 F1999.800
G1 X14.887 Y9.789 F1999.800
G1 X15.060 Y10.117 F1999.800
G1 X15.368 Y10.789 F1999.800
G1 X15.508 Y11.132 F1999.800
G1 X15.635 Y11.477 F1999.800
G1 X15.752 Y11.827 F1999.800
G1 X15.857 Y12.180 F1999.800
G1 X15.951 Y12.538 F1999.800
G1 X16.086 Y13.263 F1999.800
G1 X16.135 Y13.632 F1999.800
G1 X16.169 Y14.000 F1999.800
G1 X16.192 Y14.368 F1999.800
G1 X16.203 Y15.105 F1999.800
G1 X16.188 Y15.474 F1999.800
G1 X16.128 Y16.211 F1999.800
G1 X16.064 Y16.575 F1999.800
G1 X15.981 Y16.936 F1999.800
G1 X15.887 Y17.293 F1999.800
G1 X15.756 Y17.639 F1999.800
G1 X15.590 Y17.970 F1999.800
G1 X15.406 Y18.248 F1999.800
G1 X15.233 Y18.410 F1999.800
G1 X15.180 Y18.444 F1999.800
G1 X15.124 Y18.466 F1999.800
G1 X14.643 Y18.470 F1999.800
G1 X14.643 Y18.470 F1999.800
G1 X14.515 Y18.444 F1999.800
G1 X14.432 Y18.395 F1999.800
G0 X14.414 Y18.372
G0 X14.357 Y18.267
G0 X9.673 Y6.778
G1 X9.647 Y6.714 F1999.800
G1 X9.583 Y6.530 F1999.800
G1 X9.590 Y6.410 F1999.800
G1 X9.624 Y6.323 F1999.800
G1 X9.624 Y6.323 F1999.800
G1 X9.763 Y6.124 F1999.800
G1 X9.895 Y6.000 F1999.800
G1 X10.053 Y5.925 F1999.800
G1 X10.335 Y5.846 F1999.800
G1 X10.504 Y5.823 F1999.800
G1 X10.872 Y5.835 F1999.800
G1 X11.237 Y5.891 F1999.800
G1 X11.523 Y5.962 F1999.800
G1 X11.771 Y6.045 F1999.800
G1 X12.064 Y6.169 F1999.800
G1 X12.395 Y6.335 F1999.800
G1 X12.711 Y6.523 F1999.800
G1 X13.011 Y6.733 F1999.800
G1 X13.305 Y6.959 F1999.800
G1 X13.579 Y7.207 F1999.800
G1 X13.842 Y7.466 F1999.800
G1 X14.094 Y7.737 F1999.800
G1 X14.335 Y8.019 F1999.800
G1 X14.778 Y8.609 F1999.800
G1 X15.177 Y9.229 F1999.800
G1 X15.357 Y9.553 F1999.800
G1 X15.526 Y9.880 F1999.800
G1 X15.835 Y10.553 F1999.800
G1 X16.109 Y11.241 F1999.800
G1 X16.342 Y11.944 F1999.800
G1 X16.511 Y12.665 F1999.800
G1 X16.579 Y13.030 F1999.800
G1 X16.628 Y13.398 F1999.800
G1 X16.699 Y14.135 F1999.800
G1 X16.718 Y14.504 F1999.800
G1 X16.726 Y15.241 F1999.800
G1 X16.714 Y15.609 F1999.800
G1 X16.628 Y16.346 F1999.800
G1 X16.553 Y16.711 F1999.800
G1 X16.462 Y17.071 F1999.800
G1 X16.346 Y17.425 F1999.800
G1 X16.211 Y17.771 F1999.800
G1 X16.030 Y18.094 F1999.800
G1 X15.831 Y18.320 F1999.800
G1 X15.741 Y18.402 F1999.800
G1 X15.692 Y18.436 F1999.800
G1 X15.635 Y18.459 F1999.800
G1 X15.575 Y18.470 F1999.800
G1 X15.214 Y18.470 F1999.800
G1 X15.214 Y18.470 F1999.800
G1 X15.086 Y18.444 F1999.800
G1 X15.004 Y18.395 F1999.800
G0 X14.985 Y18.372
G0 X14.925 Y18.267
G0 X9.872 Y6.474
G1 X9.846 Y6.406 F1999.800
G1 X9.782 Y6.222 F1999.800
G1 X9.789 Y6.071 F1999.800
G1 X9.808 Y6.015 F1999.800
G1 X9.808 Y6.015 F1999.800
G1 X9.985 Y5.771 F1999.800
G1 X10.068 Y5.684 F1999.800
G1 X10.169 Y5.617 F1999.800
G1 X10.504 Y5.508 F1999.800
G1 X10.673 Y5.477 F1999.800
G1 X11.041 Y5.470 F1999.800
G1 X11.410 Y5.511 F1999.800
G1 X11.680 Y5.568 F1999.800
G1 X11.951 Y5.647 F1999.800
G1 X12.256 Y5.759 F1999.800
G1 X12.590 Y5.914 F1999.800
G1 X12.914 Y6.090 F1999.800
G1 X13.222 Y6.293 F1999.800
G1 X13.523 Y6.508 F1999.800
G1 X13.808 Y6.741 F1999.800
G1 X14.083 Y6.989 F1999.800
G1 X14.342 Y7.252 F1999.800
G1 X14.827 Y7.812 F1999.800
G1 X15.271 Y8.406 F1999.800
G1 X15.477 Y8.711 F1999.800
G1 X15.673 Y9.023 F1999.800
G1 X15.857 Y9.342 F1999.800
G1 X16.030 Y9.669 F1999.800
G1 X16.192 Y10.000 F1999.800
G1 X16.342 Y10.338 F1999.800
G1 X16.481 Y10.680 F1999.800
G1 X16.609 Y11.026 F1999.800
G1 X16.726 Y11.376 F1999.800
G1 X16.831 Y11.729 F1999.800
G1 X16.921 Y12.086 F1999.800
G1 X17.000 Y12.447 F1999.800
G1 X17.068 Y12.812 F1999.800
G1 X17.173 Y13.545 F1999.800
G1 X17.233 Y14.282 F1999.800
G1 X17.248 Y14.650 F1999.800
G1 X17.252 Y15.019 F1999.800
G1 X17.244 Y15.387 F1999.800
G1 X17.177 Y16.124 F1999.800
G1 X17.109 Y16.489 F1999.800
G1 X17.030 Y16.850 F1999.800
G1 X16.936 Y17.207 F1999.800
G1 X16.820 Y17.560 F1999.800
G1 X16.658 Y17.895 F1999.800
G1 X16.485 Y18.169 F1999.800
G1 X16.271 Y18.387 F1999.800
G1 X16.222 Y18.425 F1999.800
G1 X16.109 Y18.470 F1999.800
G1 X15.688 Y18.470 F1999.800
G1 X15.688 Y18.470 F1999.800
G1 X15.560 Y18.444 F1999.800
G1 X15.477 Y18.395 F1999.800
G0 X15.459 Y18.372
G0 X15.398 Y18.267
G0 X10.053 Y6.169
G1 X10.023 Y6.105 F1999.800
G1 X9.955 Y5.917 F1999.800
G1 X9.962 Y5.797 F1999.800
G1 X9.996 Y5.711 F1999.800
G1 X9.996 Y5.711 F1999.800
G1 X10.203 Y5.410 F1999.800
G1 X10.289 Y5.323 F1999.800
G1 X10.444 Y5.237 F1999.800
G1 X10.895 Y5.117 F1999.800
G1 X11.263 Y5.102 F1999.800
G1 X11.632 Y5.135 F1999.800
G1 X11.914 Y5.188 F1999.800
G1 X12.162 Y5.256 F1999.800
G1 X12.462 Y5.357 F1999.800
G1 X12.801 Y5.504 F1999.800
G1 X13.132 Y5.669 F1999.800
G1 X13.447 Y5.861 F1999.800
G1 X13.752 Y6.071 F1999.800
G1 X14.045 Y6.297 F1999.800
G1 X14.327 Y6.538 F1999.800
G1 X14.598 Y6.789 F1999.800
G1 X14.853 Y7.056 F1999.800
G1 X15.102 Y7.331 F1999.800
G1 X15.560 Y7.910 F1999.800
G1 X15.981 Y8.519 F1999.800
G1 X16.177 Y8.835 F1999.800
G1 X16.361 Y9.154 F1999.800
G1 X16.534 Y9.481 F1999.800
G1 X16.695 Y9.812 F1999.800
G1 X16.846 Y10.150 F1999.800
G1 X16.985 Y10.492 F1999.800
G1 X17.113 Y10.838 F1999.800
G1 X17.229 Y11.188 F1999.800
G1 X17.331 Y11.541 F1999.800
G1 X17.421 Y11.898 F1999.800
G1 X17.500 Y12.259 F1999.800
G1 X17.632 Y12.989 F1999.800
G1 X17.680 Y13.357 F1999.800
G1 X17.748 Y14.094 F1999.800
G1 X17.778 Y14.831 F1999.800
G1 X17.778 Y15.199 F1999.800
G1 X17.722 Y15.936 F1999.800
G1 X17.662 Y16.301 F1999.800
G1 X17.590 Y16.665 F1999.800
G1 X17.504 Y17.026 F1999.800
G1 X17.395 Y17.380 F1999.800
G1 X17.248 Y17.722 F1999.800
G1 X17.071 Y18.049 F1999.800
G1 X16.793 Y18.361 F1999.800
G1 X16.699 Y18.436 F1999.800
G1 X16.643 Y18.462 F1999.800
G1 X16.162 Y18.470 F1999.800
G1 X16.162 Y18.470 F1999.800
G1 X16.034 Y18.444 F1999.800
G1 X15.951 Y18.395 F1999.800
G0 X15.932 Y18.372
G0 X15.872 Y18.267
G0 X10.274 Y5.805
G1 X10.244 Y5.737 F1999.800
G1 X10.177 Y5.549 F1999.800
G1 X10.173 Y5.429 F1999.800
G1 X10.199 Y5.342 F1999.800
G1 X10.199 Y5.342 F1999.800
G1 X10.323 Y5.132 F1999.800
G1 X10.440 Y4.996 F1999.800
G1 X10.699 Y4.857 F1999.800
G1 X11.038 Y4.759 F1999.800
G1 X11.406 Y4.726 F1999.800
G1 X11.774 Y4.744 F1999.800
G1 X12.056 Y4.786 F1999.800
G1 X12.320 Y4.846 F1999.800
G1 X12.624 Y4.936 F1999.800
G1 X12.970 Y5.068 F1999.800
G1 X13.305 Y5.229 F1999.800
G1 X13.628 Y5.410 F1999.800
G1 X13.940 Y5.605 F1999.800
G1 X14.241 Y5.820 F1999.800
G1 X14.805 Y6.293 F1999.800
G1 X15.068 Y6.553 F1999.800
G1 X15.323 Y6.820 F1999.800
G1 X15.571 Y7.094 F1999.800
G1 X16.030 Y7.673 F1999.800
G1 X16.451 Y8.278 F1999.800
G1 X16.827 Y8.914 F1999.800
G1 X17.000 Y9.241 F1999.800
G1 X17.162 Y9.571 F1999.800
G1 X17.312 Y9.910 F1999.800
G1 X17.451 Y10.252 F1999.800
G1 X17.579 Y10.598 F1999.800
G1 X17.695 Y10.947 F1999.800
G1 X17.801 Y11.301 F1999.800
G1 X17.985 Y12.015 F1999.800
G1 X18.267 Y14.293 F1999.800
G1 X18.229 Y15.647 F1999.800
G1 X18.060 Y16.718 F1999.800
G1 X17.880 Y17.357 F1999.800
G1 X17.748 Y17.703 F1999.800
G1 X17.575 Y18.034 F1999.800
G1 X17.301 Y18.350 F1999.800
G1 X17.211 Y18.429 F1999.800
G1 X17.154 Y18.455 F1999.800
G1 X17.094 Y18.470 F1999.800
G1 X16.673 Y18.470 F1999.800
G1 X16.673 Y18.470 F1999.800
G1 X16.545 Y18.444 F1999.800
G1 X16.462 Y18.395 F1999.800
G0 X16.444 Y18.372
G0 X16.380 Y18.267
G0 X10.436 Y5.481
G1 X10.406 Y5.414 F1999.800
G1 X10.335 Y5.226 F1999.800
G1 X10.331 Y5.105 F1999.800
G1 X10.357 Y5.019 F1999.800
G1 X10.357 Y5.019 F1999.800
G1 X10.508 Y4.756 F1999.800
G1 X10.586 Y4.662 F1999.800
G1 X10.632 Y4.620 F1999.800
G1 X10.842 Y4.508 F1999.800
G1 X11.180 Y4.395 F1999.800
G1 X11.549 Y4.353 F1999.800
G1 X11.917 Y4.353 F1999.800
G1 X12.233 Y4.387 F1999.800
G1 X12.508 Y4.436 F1999.800
G1 X12.831 Y4.526 F1999.800
G1 X13.154 Y4.643 F1999.800
G1 X13.492 Y4.789 F1999.800
G1 X13.823 Y4.959 F1999.800
G1 X14.447 Y5.357 F1999.800
G1 X14.744 Y5.575 F1999.800
G1 X15.305 Y6.060 F1999.800
G1 X15.564 Y6.323 F1999.800
G1 X15.816 Y6.594 F1999.800
G1 X16.293 Y7.158 F1999.800
G1 X16.729 Y7.752 F1999.800
G1 X16.936 Y8.060 F1999.800
G1 X17.312 Y8.695 F1999.800
G1 X17.485 Y9.023 F1999.800
G1 X17.647 Y9.353 F1999.800
G1 X17.797 Y9.692 F1999.800
G1 X17.936 Y10.034 F1999.800
G1 X18.425 Y11.733 F1999.800
G1 X18.470 Y12.128 F1999.800
G1 X18.447 Y16.695 F1999.800
G1 X18.402 Y17.034 F1999.800
G1 X18.180 Y17.707 F1999.800
G1 X17.981 Y18.071 F1999.800
G1 X17.842 Y18.263 F1999.800
G1 X17.669 Y18.432 F1999.800
G1 X17.613 Y18.459 F1999.800
G1 X17.553 Y18.470 F1999.800
G1 X17.192 Y18.470 F1999.800
G1 X17.192 Y18.470 F1999.800
G1 X17.064 Y18.444 F1999.800
G1 X16.981 Y18.395 F1999.800
G0 X16.959 Y18.372
G0 X16.898 Y18.271
G0 X10.594 Y5.154
G1 X10.564 Y5.086 F1999.800
G1 X10.489 Y4.902 F1999.800
G1 X10.485 Y4.782 F1999.800
G1 X10.511 Y4.695 F1999.800
G1 X10.511 Y4.695 F1999.800
G1 X10.692 Y4.380 F1999.800
G1 X10.729 Y4.331 F1999.800
G1 X10.872 Y4.222 F1999.800
G1 X11.192 Y4.068 F1999.800
G1 X11.305 Y4.030 F1999.800
G1 X11.669 Y3.966 F1999.800
G1 X12.038 Y3.951 F1999.800
G1 X12.312 Y3.970 F1999.800
G1 X12.575 Y4.008 F1999.800
G1 X12.876 Y4.071 F1999.800
G1 X13.229 Y4.177 F1999.800
G1 X13.575 Y4.308 F1999.800
G1 X13.910 Y4.462 F1999.800
G1 X14.237 Y4.635 F1999.800
G1 X14.549 Y4.831 F1999.800
G1 X14.857 Y5.038 F1999.800
G1 X15.154 Y5.259 F1999.800
G1 X15.436 Y5.500 F1999.800
G1 X15.707 Y5.752 F1999.800
G1 X15.970 Y6.011 F1999.800
G1 X16.226 Y6.278 F1999.800
G1 X16.470 Y6.556 F1999.800
G1 X16.929 Y7.135 F1999.800
G1 X17.147 Y7.432 F1999.800
G1 X17.353 Y7.741 F1999.800
G1 X17.737 Y8.372 F1999.800
G1 X18.308 Y9.553 F1999.800
G1 X18.440 Y9.929 F1999.800
G1 X18.470 Y10.154 F1999.800
G1 X18.470 Y11.564 F1999.800
G1 X18.470 Y11.564 F1999.800
G1 X18.440 Y11.680 F1999.800
G1 X18.410 Y11.733 F1999.800
G1 X18.391 Y11.748 F1999.800
G0 X18.372 Y11.752
G0 X18.286 Y11.703
G0 X10.823 Y4.756
G1 X10.778 Y4.714 F1999.800
G1 X10.669 Y4.598 F1999.800
G1 X10.639 Y4.508 F1999.800
G1 X10.654 Y4.361 F1999.800
G1 X10.654 Y4.361 F1999.800
G1 X10.748 Y4.135 F1999.800
G1 X10.842 Y3.981 F1999.800
G1 X10.925 Y3.895 F1999.800
G1 X11.233 Y3.718 F1999.800
G1 X11.459 Y3.635 F1999.800
G1 X11.823 Y3.568 F1999.800
G1 X12.192 Y3.549 F1999.800
G1 X12.481 Y3.560 F1999.800
G1 X12.763 Y3.590 F1999.800
G1 X13.090 Y3.658 F1999.800
G1 X13.429 Y3.752 F1999.800
G1 X13.778 Y3.876 F1999.800
G1 X14.117 Y4.023 F1999.800
G1 X14.447 Y4.188 F1999.800
G1 X14.763 Y4.376 F1999.800
G1 X15.075 Y4.575 F1999.800
G1 X15.662 Y5.023 F1999.800
G1 X15.940 Y5.267 F1999.800
G1 X16.211 Y5.519 F1999.800
G1 X16.470 Y5.782 F1999.800
G1 X16.718 Y6.056 F1999.800
G1 X17.195 Y6.624 F1999.800
G1 X17.632 Y7.222 F1999.800
G1 X17.838 Y7.526 F1999.800
G1 X18.417 Y8.556 F1999.800
G1 X18.466 Y8.722 F1999.800
G1 X18.470 Y9.793 F1999.800
G1 X18.470 Y9.793 F1999.800
G1 X18.440 Y9.910 F1999.800
G1 X18.410 Y9.962 F1999.800
G1 X18.391 Y9.977 F1999.800
G0 X18.368 Y9.985
G0 X18.278 Y9.944
G0 X10.974 Y4.346
G1 X10.929 Y4.308 F1999.800
G1 X10.835 Y4.229 F1999.800
G1 X10.789 Y4.147 F1999.800
G1 X10.782 Y4.026 F1999.800
G1 X10.797 Y3.970 F1999.800
G1 X10.797 Y3.970 F1999.800
G1 X10.891 Y3.744 F1999.800
G1 X10.985 Y3.590 F1999.800
G1 X11.068 Y3.504 F1999.800
G1 X11.376 Y3.327 F1999.800
G1 X11.594 Y3.241 F1999.800
G1 X11.955 Y3.162 F1999.800
G1 X12.323 Y3.132 F1999.800
G1 X12.590 Y3.135 F1999.800
G1 X12.857 Y3.162 F1999.800
G1 X13.162 Y3.211 F1999.800
G1 X13.523 Y3.293 F1999.800
G1 X13.876 Y3.402 F1999.800
G1 X14.222 Y3.534 F1999.800
G1 X14.556 Y3.688 F1999.800
G1 X14.880 Y3.865 F1999.800
G1 X15.195 Y4.053 F1999.800
G1 X15.504 Y4.256 F1999.800
G1 X15.801 Y4.474 F1999.800
G1 X16.086 Y4.707 F1999.800
G1 X16.365 Y4.951 F1999.800
G1 X16.632 Y5.207 F1999.800
G1 X16.891 Y5.470 F1999.800
G1 X17.143 Y5.741 F1999.800
G1 X17.617 Y6.308 F1999.800
G1 X17.842 Y6.602 F1999.800
G1 X18.425 Y7.485 F1999.800
G1 X18.462 Y7.594 F1999.800
G1 X18.470 Y8.327 F1999.800
G1 X18.470 Y8.327 F1999.800
G1 X18.440 Y8.444 F1999.800
G1 X18.410 Y8.496 F1999.800
G1 X18.391 Y8.511 F1999.800
G0 X18.368 Y8.519
G0 X18.271 Y8.485
G0 X11.135 Y3.932
G1 X11.086 Y3.898 F1999.800
G1 X10.989 Y3.831 F1999.800
G1 X10.940 Y3.752 F1999.800
G1 X10.940 Y3.575 F1999.800
G1 X10.940 Y3.575 F1999.800
G1 X11.060 Y3.293 F1999.800
G1 X11.124 Y3.192 F1999.800
G1 X11.165 Y3.147 F1999.800
G1 X11.361 Y3.004 F1999.800
G1 X11.684 Y2.850 F1999.800
G1 X12.045 Y2.759 F1999.800
G1 X12.414 Y2.718 F1999.800
G1 X12.707 Y2.711 F1999.800
G1 X12.989 Y2.726 F1999.800
G1 X13.327 Y2.774 F1999.800
G1 X13.680 Y2.850 F1999.800
G1 X14.038 Y2.951 F1999.800
G1 X14.387 Y3.075 F1999.800
G1 X14.726 Y3.226 F1999.800
G1 X15.056 Y3.391 F1999.800
G1 X15.380 Y3.571 F1999.800
G1 X15.692 Y3.767 F1999.800
G1 X15.992 Y3.977 F1999.800
G1 X16.286 Y4.203 F1999.800
G1 X16.846 Y4.688 F1999.800
G1 X17.368 Y5.211 F1999.800
G1 X17.861 Y5.763 F1999.800
G1 X18.398 Y6.466 F1999.800
G1 X18.451 Y6.568 F1999.800
G1 X18.470 Y6.624 F1999.800
G1 X18.470 Y7.301 F1999.800
G1 X18.470 Y7.301 F1999.800
G1 X18.440 Y7.417 F1999.800
G1 X18.410 Y7.470 F1999.800
G1 X18.391 Y7.485 F1999.800
G0 X18.368 Y7.492
G0 X18.267 Y7.462
G0 X11.271 Y3.571
G1 X11.222 Y3.545 F1999.800
G1 X11.120 Y3.481 F1999.800
G1 X11.068 Y3.410 F1999.800
G1 X11.045 Y3.289 F1999.800
G1 X11.053 Y3.233 F1999.800
G1 X11.053 Y3.233 F1999.800
G1 X11.128 Y2.996 F1999.800
G1 X11.214 Y2.835 F1999.800
G1 X11.252 Y2.786 F1999.800
G1 X11.541 Y2.571 F1999.800
G1 X11.752 Y2.462 F1999.800
G1 X12.109 Y2.357 F1999.800
G1 X12.474 Y2.301 F1999.800
G1 X12.748 Y2.282 F1999.800
G1 X13.023 Y2.289 F1999.800
G1 X13.335 Y2.320 F1999.800
G1 X13.699 Y2.376 F1999.800
G1 X14.060 Y2.459 F1999.800
G1 X14.414 Y2.568 F1999.800
G1 X14.759 Y2.699 F1999.800
G1 X15.094 Y2.853 F1999.800
G1 X15.425 Y3.019 F1999.800
G1 X15.748 Y3.199 F1999.800
G1 X16.056 Y3.402 F1999.800
G1 X16.650 Y3.838 F1999.800
G1 X16.936 Y4.071 F1999.800
G1 X17.211 Y4.320 F1999.800
G1 X17.477 Y4.575 F1999.800
G1 X17.737 Y4.838 F1999.800
G1 X17.989 Y5.109 F1999.800
G1 X18.406 Y5.617 F1999.800
G1 X18.459 Y5.718 F1999.800
G1 X18.470 Y5.774 F1999.800
G1 X18.470 Y6.113 F1999.800
G1 X18.470 Y6.113 F1999.800
G1 X18.440 Y6.229 F1999.800
G1 X18.410 Y6.282 F1999.800
G1 X18.391 Y6.297 F1999.800
G0 X18.368 Y6.308
G0 X18.263 Y6.286
G0 X11.368 Y3.207
G1 X11.316 Y3.184 F1999.800
G1 X11.214 Y3.128 F1999.800
G1 X11.169 Y3.083 F1999.800
G1 X11.139 Y3.000 F1999.800
G1 X11.143 Y2.883 F1999.800
G1 X11.143 Y2.883 F1999.800
G1 X11.237 Y2.586 F1999.800
G1 X11.327 Y2.429 F1999.800
G1 X11.504 Y2.267 F1999.800
G1 X11.865 Y2.056 F1999.800
G1 X12.218 Y1.944 F1999.800
G1 X12.583 Y1.880 F1999.800
G1 X12.876 Y1.853 F1999.800
G1 X13.143 Y1.850 F1999.800
G1 X13.474 Y1.872 F1999.800
G1 X13.838 Y1.925 F1999.800
G1 X14.199 Y2.008 F1999.800
G1 X14.556 Y2.109 F1999.800
G1 X14.906 Y2.233 F1999.800
G1 X15.248 Y2.372 F1999.800
G1 X15.579 Y2.534 F1999.800
G1 X16.222 Y2.902 F1999.800
G1 X16.530 Y3.105 F1999.800
G1 X16.827 Y3.323 F1999.800
G1 X17.117 Y3.553 F1999.800
G1 X17.673 Y4.038 F1999.800
G1 X17.936 Y4.297 F1999.800
G1 X18.417 Y4.823 F1999.800
G1 X18.462 Y4.925 F1999.800
G1 X18.470 Y5.320 F1999.800
G1 X18.470 Y5.316 F1999.800
G1 X18.440 Y5.432 F1999.800
G1 X18.410 Y5.485 F1999.800
G1 X18.391 Y5.500 F1999.800
G0 X18.368 Y5.511
G0 X18.263 Y5.492
G0 X11.477 Y2.789
G1 X11.425 Y2.771 F1999.800
G1 X11.320 Y2.722 F1999.800
G1 X11.274 Y2.677 F1999.800
G1 X11.244 Y2.594 F1999.800
G1 X11.248 Y2.477 F1999.800
G1 X11.248 Y2.477 F1999.800
G1 X11.357 Y2.124 F1999.800
G1 X11.425 Y2.023 F1999.800
G1 X11.602 Y1.861 F1999.800
G1 X11.850 Y1.699 F1999.800
G1 X11.902 Y1.673 F1999.800
G1 X12.252 Y1.545 F1999.800
G1 X12.613 Y1.462 F1999.800
G1 X12.910 Y1.425 F1999.800
G1 X13.188 Y1.410 F1999.800
G1 X13.523 Y1.421 F1999.800
G1 X13.883 Y1.462 F1999.800
G1 X14.248 Y1.526 F1999.800
G1 X14.609 Y1.613 F1999.800
G1 X14.962 Y1.722 F1999.800
G1 X15.308 Y1.853 F1999.800
G1 X15.647 Y2.000 F1999.800
G1 X15.977 Y2.165 F1999.800
G1 X16.301 Y2.346 F1999.800
G1 X16.613 Y2.541 F1999.800
G1 X17.218 Y2.970 F1999.800
G1 X17.511 Y3.195 F1999.800
G1 X17.793 Y3.436 F1999.800
G1 X18.425 Y4.056 F1999.800
G1 X18.470 Y4.162 F1999.800
G1 X18.470 Y4.500 F1999.800
G1 X18.470 Y4.500 F1999.800
G1 X18.440 Y4.617 F1999.800
G1 X18.410 Y4.669 F1999.800
G1 X18.391 Y4.688 F1999.800
G0 X18.368 Y4.695
G0 X18.259 Y4.684
G0 X11.571 Y2.417
G1 X11.519 Y2.402 F1999.800
G1 X11.414 Y2.357 F1999.800
G1 X11.365 Y2.312 F1999.800
G1 X11.323 Y2.218 F1999.800
G1 X11.316 Y2.124 F1999.800
G1 X11.316 Y2.124 F1999.800
G1 X11.387 Y1.823 F1999.800
G1 X11.466 Y1.658 F1999.800
G1 X11.680 Y1.455 F1999.800
G1 X11.932 Y1.301 F1999.800
G1 X12.274 Y1.154 F1999.800
G1 X12.632 Y1.056 F1999.800
G1 X12.962 Y1.008 F1999.800
G1 X13.218 Y0.989 F1999.800
G1 X13.519 Y0.989 F1999.800
G1 X13.887 Y1.011 F1999.800
G1 X14.256 Y1.060 F1999.800
G1 X14.617 Y1.135 F1999.800
G1 X14.974 Y1.233 F1999.800
G1 X15.327 Y1.346 F1999.800
G1 X15.673 Y1.477 F1999.800
G1 X16.011 Y1.632 F1999.800
G1 X16.342 Y1.801 F1999.800
G1 X16.665 Y1.981 F1999.800
G1 X16.981 Y2.173 F1999.800
G1 X17.286 Y2.380 F1999.800
G1 X17.876 Y2.823 F1999.800
G1 X18.432 Y3.346 F1999.800
G1 X18.459 Y3.398 F1999.800
G1 X18.470 Y3.455 F1999.800
G1 X18.470 Y3.680 F1999.800
G1 X18.470 Y3.680 F1999.800
G1 X18.440 Y3.797 F1999.800
G1 X18.410 Y3.850 F1999.800
G1 X18.387 Y3.868 F1999.800
G0 X18.365 Y3.880
G0 X18.259 Y3.872
G0 X11.635 Y2.049
G1 X11.583 Y2.034 F1999.800
G1 X11.474 Y1.996 F1999.800
G1 X11.425 Y1.955 F1999.800
G1 X11.383 Y1.857 F1999.800
G1 X11.376 Y1.767 F1999.800
G1 X11.376 Y1.767 F1999.800
G1 X11.462 Y1.406 F1999.800
G1 X11.511 Y1.297 F1999.800
G1 X11.635 Y1.165 F1999.800
G1 X11.872 Y0.989 F1999.800
G1 X11.977 Y0.929 F1999.800
G1 X12.312 Y0.767 F1999.800
G1 X12.665 Y0.658 F1999.800
G1 X12.996 Y0.594 F1999.800
G1 X13.267 Y0.564 F1999.800
G1 X13.556 Y0.553 F1999.800
G1 X13.925 Y0.568 F1999.800
G1 X14.293 Y0.605 F1999.800
G1 X14.658 Y0.665 F1999.800
G1 X15.019 Y0.752 F1999.800
G1 X15.376 Y0.853 F1999.800
G1 X15.726 Y0.974 F1999.800
G1 X16.068 Y1.117 F1999.800
G1 X16.733 Y1.440 F1999.800
G1 X17.056 Y1.620 F1999.800
G1 X17.677 Y2.019 F1999.800
G1 X17.977 Y2.237 F1999.800
G1 X18.417 Y2.639 F1999.800
G1 X18.470 Y2.741 F1999.800
G1 X18.470 Y2.966 F1999.800
G1 X18.470 Y2.966 F1999.800
G1 X18.440 Y3.083 F1999.800
G1 X18.410 Y3.135 F1999.800
G1 X18.387 Y3.154 F1999.800
G0 X18.365 Y3.165
G0 X18.256 Y3.162
G0 X11.718 Y1.628
G1 X11.665 Y1.617 F1999.800
G1 X11.556 Y1.583 F1999.800
G1 X11.504 Y1.545 F1999.800
G1 X11.459 Y1.470 F1999.800
G1 X11.440 Y1.353 F1999.800
G1 X11.440 Y1.353 F1999.800
G1 X11.481 Y1.113 F1999.800
G1 X11.523 Y1.000 F1999.800
G1 X11.553 Y0.947 F1999.800
G1 X11.767 Y0.737 F1999.800
G1 X12.011 Y0.564 F1999.800
G1 X12.338 Y0.387 F1999.800
G1 X12.688 Y0.259 F1999.800
G1 X13.030 Y0.180 F1999.800
G1 X13.282 Y0.147 F1999.800
G1 X13.545 Y0.128 F1999.800
G1 X13.914 Y0.124 F1999.800
G1 X14.282 Y0.147 F1999.800
G1 X14.650 Y0.195 F1999.800
G1 X15.015 Y0.267 F1999.800
G1 X15.376 Y0.353 F1999.800
G1 X15.729 Y0.466 F1999.800
G1 X16.079 Y0.590 F1999.800
G1 X16.421 Y0.729 F1999.800
G1 X16.756 Y0.883 F1999.800
G1 X17.083 Y1.053 F1999.800
G1 X17.402 Y1.237 F1999.800
G1 X17.714 Y1.432 F1999.800
G1 X18.244 Y1.820 F1999.800
G1 X18.410 Y1.974 F1999.800
G1 X18.444 Y2.023 F1999.800
G1 X18.466 Y2.075 F1999.800
G1 X18.470 Y2.188 F1999.800
G1 X18.470 Y2.188 F1999.800
G1 X18.440 Y2.305 F1999.800
G1 X18.410 Y2.357 F1999.800
G1 X18.387 Y2.376 F1999.800
G0 X18.365 Y2.387
G0 X18.256 Y2.391
G0 X11.744 Y1.312
