(Exported by FreeCAD)
(Post Processor: grbl_post)
(Output Time:2020-05-08 20:25:56.971858)
(Begin preamble)
G17 G90
G21
(Begin operation: Fixture)
(Path: Fixture)
G54
(Finish operation: Fixture)
(Begin operation: T5: 4FluteMetalMill4mm)
(Path: T5: 4FluteMetalMill4mm)
(T5: 4FluteMetalMill4mm)
(Begin toolchange)
(M6 T5.0)
M3 S18000.0
(Finish operation: T5: 4FluteMetalMill4mm)
(Begin operation: Adaptive002)
(Path: Adaptive002)
(Adaptive002)
(Helix to depth: -0.500000)
G0 X1.134 Y0.967 Z7.000
G0 X1.134 Y0.967 Z5.000
G1 X1.134 Y0.967 Z0.000 F199.800
G1 X1.134 Y0.967 Z0.000 F199.800
G1 X0.923 Y1.169 Z-0.026 F199.800
G1 X0.678 Y1.327 Z-0.052 F199.800
G1 X0.406 Y1.434 Z-0.077 F199.800
G1 X0.118 Y1.485 Z-0.103 F199.800
G1 X-0.174 Y1.480 Z-0.129 F199.800
G1 X-0.459 Y1.417 Z-0.155 F199.800
G1 X-0.727 Y1.301 Z-0.180 F199.800
G1 X-0.967 Y1.134 Z-0.206 F199.800
G1 X-1.169 Y0.923 Z-0.232 F199.800
G1 X-1.327 Y0.678 Z-0.258 F199.800
G1 X-1.434 Y0.406 Z-0.283 F199.800
G1 X-1.485 Y0.118 Z-0.309 F199.800
G1 X-1.480 Y-0.174 Z-0.335 F199.800
G1 X-1.417 Y-0.459 Z-0.361 F199.800
G1 X-1.301 Y-0.727 Z-0.387 F199.800
G1 X-1.134 Y-0.967 Z-0.412 F199.800
G1 X-0.923 Y-1.169 Z-0.438 F199.800
G1 X-0.678 Y-1.327 Z-0.464 F199.800
G1 X-0.406 Y-1.434 Z-0.490 F199.800
G1 X-0.118 Y-1.485 Z-0.500 F799.800
G1 X0.174 Y-1.480 Z-0.500 F799.800
G1 X0.459 Y-1.417 Z-0.500 F799.800
G1 X0.727 Y-1.301 Z-0.500 F799.800
G1 X0.967 Y-1.134 Z-0.500 F799.800
G1 X1.169 Y-0.923 Z-0.500 F799.800
G1 X1.327 Y-0.678 Z-0.500 F799.800
G1 X1.434 Y-0.406 Z-0.500 F799.800
G1 X1.485 Y-0.118 Z-0.500 F799.800
G1 X1.480 Y0.174 Z-0.500 F799.800
G1 X1.417 Y0.459 Z-0.500 F799.800
G1 X1.301 Y0.727 Z-0.500 F799.800
G1 X1.134 Y0.967 Z-0.500 F799.800
G1 X0.923 Y1.169 Z-0.500 F799.800
G1 X0.678 Y1.327 Z-0.500 F799.800
G1 X0.406 Y1.434 Z-0.500 F799.800
G1 X0.118 Y1.485 Z-0.500 F799.800
G1 X-0.174 Y1.480 Z-0.500 F799.800
G1 X-0.459 Y1.417 Z-0.500 F799.800
G1 X-0.727 Y1.301 Z-0.500 F799.800
G1 X-0.967 Y1.134 Z-0.500 F799.800
G1 X-1.169 Y0.923 Z-0.500 F799.800
G1 X-1.327 Y0.678 Z-0.500 F799.800
G1 X-1.434 Y0.406 Z-0.500 F799.800
G1 X-1.485 Y0.118 Z-0.500 F799.800
G1 X-1.480 Y-0.174 Z-0.500 F799.800
G1 X-1.417 Y-0.459 Z-0.500 F799.800
G1 X-1.301 Y-0.727 Z-0.500 F799.800
G1 X-1.134 Y-0.967 Z-0.500 F799.800
G1 X-0.923 Y-1.169 Z-0.500 F799.800
G1 X-0.678 Y-1.327 Z-0.500 F799.800
G1 X-0.406 Y-1.434 Z-0.500 F799.800
(Adaptive - depth: -0.500000)
G1 X0.000 Y-1.500 F799.800
G1 X0.055 Y-1.555 F799.800
G1 X0.200 Y-1.610 F799.800
G1 X0.350 Y-1.635 F799.800
G1 X0.575 Y-1.620 F799.800
G1 X0.650 Y-1.605 F799.800
G1 X1.115 Y-1.425 F799.800
G1 X1.350 Y-1.240 F799.800
G1 X1.470 Y-1.105 F799.800
G1 X1.575 Y-0.955 F799.800
G1 X1.695 Y-0.740 F799.800
G1 X1.810 Y-0.430 F799.800
G1 X1.860 Y-0.140 F799.800
G1 X1.865 Y0.095 F799.800
G1 X1.835 Y0.335 F799.800
G1 X1.775 Y0.580 F799.800
G1 X1.660 Y0.865 F799.800
G1 X1.500 Y1.125 F799.800
G1 X1.325 Y1.320 F799.800
G1 X1.145 Y1.475 F799.800
G1 X0.925 Y1.625 F799.800
G1 X0.640 Y1.760 F799.800
G1 X0.365 Y1.840 F799.800
G1 X0.105 Y1.875 F799.800
G1 X-0.140 Y1.870 F799.800
G1 X-0.400 Y1.830 F799.800
G1 X-0.665 Y1.755 F799.800
G1 X-0.950 Y1.625 F799.800
G1 X-1.185 Y1.460 F799.800
G1 X-1.365 Y1.295 F799.800
G1 X-1.525 Y1.095 F799.800
G1 X-1.660 Y0.875 F799.800
G1 X-1.775 Y0.595 F799.800
G1 X-1.840 Y0.330 F799.800
G1 X-1.870 Y0.055 F799.800
G1 X-1.860 Y-0.220 F799.800
G1 X-1.810 Y-0.490 F799.800
G1 X-1.725 Y-0.755 F799.800
G1 X-1.595 Y-1.000 F799.800
G1 X-1.450 Y-1.200 F799.800
G1 X-1.260 Y-1.390 F799.800
G1 X-1.055 Y-1.555 F799.800
G1 X-0.800 Y-1.720 F799.800
G1 X-0.490 Y-1.880 F799.800
G1 X-0.090 Y-1.975 F799.800
G1 X0.440 Y-2.015 F799.800
G1 X0.930 Y-1.935 F799.800
G1 X1.305 Y-1.765 F799.800
G1 X1.475 Y-1.640 F799.800
G1 X1.610 Y-1.515 F799.800
G1 X1.770 Y-1.345 F799.800
G1 X1.985 Y-1.045 F799.800
G1 X2.135 Y-0.720 F799.800
G1 X2.210 Y-0.465 F799.800
G1 X2.255 Y-0.210 F799.800
G1 X2.270 Y0.070 F799.800
G1 X2.245 Y0.390 F799.800
G1 X2.180 Y0.705 F799.800
G1 X2.065 Y0.990 F799.800
G1 X1.940 Y1.225 F799.800
G1 X1.765 Y1.465 F799.800
G1 X1.565 Y1.675 F799.800
G1 X1.325 Y1.870 F799.800
G1 X1.070 Y2.025 F799.800
G1 X0.795 Y2.150 F799.800
G1 X0.500 Y2.235 F799.800
G1 X0.200 Y2.280 F799.800
G1 X-0.095 Y2.290 F799.800
G1 X-0.390 Y2.260 F799.800
G1 X-0.680 Y2.190 F799.800
G1 X-0.960 Y2.090 F799.800
G1 X-1.255 Y1.935 F799.800
G1 X-1.505 Y1.745 F799.800
G1 X-1.695 Y1.565 F799.800
G1 X-1.880 Y1.330 F799.800
G1 X-2.025 Y1.075 F799.800
G1 X-2.140 Y0.815 F799.800
G1 X-2.230 Y0.500 F799.800
G1 X-2.275 Y0.200 F799.800
G1 X-2.285 Y-0.100 F799.800
G1 X-2.250 Y-0.405 F799.800
G1 X-2.185 Y-0.700 F799.800
G1 X-2.070 Y-1.010 F799.800
G1 X-1.915 Y-1.280 F799.800
G1 X-1.755 Y-1.500 F799.800
G1 X-1.540 Y-1.720 F799.800
G1 X-1.315 Y-1.915 F799.800
G1 X-1.000 Y-2.120 F799.800
G1 X-0.710 Y-2.260 F799.800
G1 X-0.405 Y-2.370 F799.800
G1 X-0.070 Y-2.445 F799.800
G1 X0.255 Y-2.480 F799.800
G1 X0.580 Y-2.460 F799.800
G1 X0.855 Y-2.415 F799.800
G1 X1.150 Y-2.325 F799.800
G1 X1.425 Y-2.195 F799.800
G1 X1.675 Y-2.035 F799.800
G1 X1.905 Y-1.840 F799.800
G1 X2.110 Y-1.625 F799.800
G1 X2.310 Y-1.350 F799.800
G1 X2.460 Y-1.075 F799.800
G1 X2.580 Y-0.775 F799.800
G1 X2.665 Y-0.460 F799.800
G1 X2.710 Y-0.140 F799.800
G1 X2.715 Y0.175 F799.800
G1 X2.680 Y0.490 F799.800
G1 X2.610 Y0.800 F799.800
G1 X2.490 Y1.130 F799.800
G1 X2.340 Y1.425 F799.800
G1 X2.160 Y1.700 F799.800
G1 X1.945 Y1.955 F799.800
G1 X1.695 Y2.175 F799.800
G1 X1.455 Y2.345 F799.800
G1 X1.170 Y2.495 F799.800
G1 X0.875 Y2.610 F799.800
G1 X0.550 Y2.690 F799.800
G1 X0.225 Y2.735 F799.800
G1 X-0.130 Y2.750 F799.800
G1 X-0.495 Y2.720 F799.800
G1 X-0.835 Y2.640 F799.800
G1 X-1.110 Y2.545 F799.800
G1 X-1.410 Y2.395 F799.800
G1 X-1.680 Y2.215 F799.800
G1 X-1.925 Y2.005 F799.800
G1 X-2.145 Y1.765 F799.800
G1 X-2.330 Y1.500 F799.800
G1 X-2.485 Y1.215 F799.800
G1 X-2.605 Y0.910 F799.800
G1 X-2.685 Y0.595 F799.800
G1 X-2.735 Y0.270 F799.800
G1 X-2.745 Y-0.090 F799.800
G1 X-2.715 Y-0.420 F799.800
G1 X-2.645 Y-0.750 F799.800
G1 X-2.535 Y-1.075 F799.800
G1 X-2.390 Y-1.380 F799.800
G1 X-2.210 Y-1.670 F799.800
G1 X-1.995 Y-1.940 F799.800
G1 X-1.755 Y-2.180 F799.800
G1 X-1.485 Y-2.395 F799.800
G1 X-1.190 Y-2.575 F799.800
G1 X-0.880 Y-2.720 F799.800
G1 X-0.550 Y-2.830 F799.800
G1 X-0.210 Y-2.910 F799.800
G1 X0.170 Y-2.950 F799.800
G1 X0.520 Y-2.950 F799.800
G1 X0.875 Y-2.895 F799.800
G1 X1.165 Y-2.820 F799.800
G1 X1.475 Y-2.695 F799.800
G1 X1.765 Y-2.540 F799.800
G1 X2.050 Y-2.340 F799.800
G1 X2.305 Y-2.115 F799.800
G1 X2.530 Y-1.860 F799.800
G1 X2.725 Y-1.580 F799.800
G1 X2.895 Y-1.285 F799.800
G1 X3.040 Y-0.940 F799.800
G1 X3.140 Y-0.600 F799.800
G1 X3.185 Y-0.245 F799.800
G1 X3.200 Y0.040 F799.800
G1 X3.185 Y0.395 F799.800
G1 X3.125 Y0.780 F799.800
G1 X3.010 Y1.150 F799.800
G1 X2.885 Y1.450 F799.800
G1 X2.710 Y1.770 F799.800
G1 X2.500 Y2.060 F799.800
G1 X2.265 Y2.320 F799.800
G1 X2.000 Y2.555 F799.800
G1 X1.710 Y2.760 F799.800
G1 X1.400 Y2.930 F799.800
G1 X1.070 Y3.065 F799.800
G1 X0.725 Y3.165 F799.800
G1 X0.375 Y3.225 F799.800
G1 X0.020 Y3.245 F799.800
G1 X-0.330 Y3.235 F799.800
G1 X-0.730 Y3.175 F799.800
G1 X-1.085 Y3.080 F799.800
G1 X-1.430 Y2.935 F799.800
G1 X-1.710 Y2.785 F799.800
G1 X-2.000 Y2.580 F799.800
G1 X-2.265 Y2.350 F799.800
G1 X-2.515 Y2.080 F799.800
G1 X-2.725 Y1.795 F799.800
G1 X-2.905 Y1.485 F799.800
G1 X-3.050 Y1.155 F799.800
G1 X-3.160 Y0.810 F799.800
G1 X-3.230 Y0.455 F799.800
G1 X-3.260 Y0.095 F799.800
G1 X-3.250 Y-0.260 F799.800
G1 X-3.200 Y-0.615 F799.800
G1 X-3.110 Y-0.960 F799.800
G1 X-2.985 Y-1.295 F799.800
G1 X-2.830 Y-1.620 F799.800
G1 X-2.615 Y-1.960 F799.800
G1 X-2.385 Y-2.255 F799.800
G1 X-2.120 Y-2.530 F799.800
G1 X-1.825 Y-2.780 F799.800
G1 X-1.500 Y-2.980 F799.800
G1 X-1.215 Y-3.120 F799.800
G1 X-0.885 Y-3.255 F799.800
G1 X-0.470 Y-3.380 F799.800
G1 X-0.035 Y-3.445 F799.800
G1 X0.300 Y-3.460 F799.800
G1 X0.630 Y-3.440 F799.800
G1 X0.995 Y-3.385 F799.800
G1 X1.405 Y-3.275 F799.800
G1 X1.750 Y-3.130 F799.800
G1 X2.040 Y-2.975 F799.800
G1 X2.345 Y-2.765 F799.800
G1 X2.610 Y-2.530 F799.800
G1 X2.850 Y-2.275 F799.800
G1 X3.085 Y-1.960 F799.800
G1 X3.280 Y-1.650 F799.800
G1 X3.470 Y-1.270 F799.800
G1 X3.590 Y-0.890 F799.800
G1 X3.665 Y-0.570 F799.800
G1 X3.710 Y-0.195 F799.800
G1 X3.720 Y0.165 F799.800
G1 X3.685 Y0.565 F799.800
G1 X3.615 Y0.935 F799.800
G1 X3.505 Y1.295 F799.800
G1 X3.355 Y1.655 F799.800
G1 X3.170 Y1.990 F799.800
G1 X2.950 Y2.305 F799.800
G1 X2.700 Y2.595 F799.800
G1 X2.420 Y2.860 F799.800
G1 X2.115 Y3.095 F799.800
G1 X1.785 Y3.300 F799.800
G1 X1.435 Y3.470 F799.800
G1 X1.070 Y3.600 F799.800
G1 X0.695 Y3.695 F799.800
G1 X0.310 Y3.750 F799.800
G1 X-0.070 Y3.765 F799.800
G1 X-0.450 Y3.740 F799.800
G1 X-0.825 Y3.675 F799.800
G1 X-1.195 Y3.580 F799.800
G1 X-1.605 Y3.425 F799.800
G1 X-1.955 Y3.235 F799.800
G1 X-2.230 Y3.055 F799.800
G1 X-2.525 Y2.810 F799.800
G1 X-2.790 Y2.550 F799.800
G1 X-3.055 Y2.225 F799.800
G1 X-3.270 Y1.900 F799.800
G1 X-3.455 Y1.550 F799.800
G1 X-3.605 Y1.180 F799.800
G1 X-3.705 Y0.795 F799.800
G1 X-3.765 Y0.455 F799.800
G1 X-3.785 Y0.075 F799.800
G1 X-3.770 Y-0.290 F799.800
G1 X-3.710 Y-0.690 F799.800
G1 X-3.625 Y-1.065 F799.800
G1 X-3.485 Y-1.480 F799.800
G1 X-3.315 Y-1.850 F799.800
G1 X-3.100 Y-2.200 F799.800
G1 X-2.890 Y-2.480 F799.800
G1 X-2.635 Y-2.770 F799.800
G1 X-2.305 Y-3.060 F799.800
G1 X-1.990 Y-3.290 F799.800
G1 X-1.645 Y-3.500 F799.800
G1 X-1.275 Y-3.675 F799.800
G1 X-0.895 Y-3.810 F799.800
G1 X-0.500 Y-3.910 F799.800
G1 X-0.095 Y-3.970 F799.800
G1 X0.305 Y-3.990 F799.800
G1 X0.705 Y-3.970 F799.800
G1 X1.105 Y-3.910 F799.800
G1 X1.495 Y-3.810 F799.800
G1 X1.870 Y-3.660 F799.800
G1 X2.165 Y-3.510 F799.800
G1 X2.490 Y-3.310 F799.800
G1 X2.835 Y-3.045 F799.800
G1 X3.145 Y-2.755 F799.800
G1 X3.410 Y-2.440 F799.800
G1 X3.625 Y-2.135 F799.800
G1 X3.820 Y-1.785 F799.800
G1 X3.975 Y-1.420 F799.800
G1 X4.095 Y-1.045 F799.800
G1 X4.185 Y-0.660 F799.800
G1 X4.240 Y-0.205 F799.800
G1 X4.255 Y0.200 F799.800
G1 X4.230 Y0.615 F799.800
G1 X4.145 Y1.030 F799.800
G1 X4.050 Y1.355 F799.800
G1 X3.915 Y1.720 F799.800
G1 X3.710 Y2.140 F799.800
G1 X3.480 Y2.520 F799.800
G1 X3.210 Y2.855 F799.800
G1 X2.970 Y3.105 F799.800
G1 X2.665 Y3.365 F799.800
G1 X2.350 Y3.595 F799.800
G1 X1.940 Y3.830 F799.800
G1 X1.560 Y4.005 F799.800
G1 X1.165 Y4.145 F799.800
G1 X0.740 Y4.250 F799.800
G1 X0.315 Y4.295 F799.800
G1 X-0.025 Y4.305 F799.800
G1 X-0.415 Y4.290 F799.800
G1 X-0.875 Y4.230 F799.800
G1 X-1.325 Y4.125 F799.800
G1 X-1.735 Y3.965 F799.800
G1 X-2.025 Y3.825 F799.800
G1 X-2.365 Y3.615 F799.800
G1 X-2.675 Y3.390 F799.800
G1 X-3.035 Y3.080 F799.800
G1 X-3.360 Y2.740 F799.800
G1 X-3.620 Y2.385 F799.800
G1 X-3.805 Y2.080 F799.800
G1 X-3.985 Y1.705 F799.800
G1 X-4.120 Y1.325 F799.800
G1 X-4.215 Y0.950 F799.800
G1 X-4.280 Y0.555 F799.800
G1 X-4.320 Y0.105 F799.800
G1 X-4.315 Y-0.360 F799.800
G1 X-4.250 Y-0.795 F799.800
G1 X-4.175 Y-1.135 F799.800
G1 X-4.055 Y-1.530 F799.800
G1 X-3.860 Y-1.970 F799.800
G1 X-3.665 Y-2.330 F799.800
G1 X-3.430 Y-2.690 F799.800
G1 X-3.155 Y-3.025 F799.800
G1 X-2.860 Y-3.330 F799.800
G1 X-2.525 Y-3.600 F799.800
G1 X-2.205 Y-3.815 F799.800
G1 X-1.845 Y-4.020 F799.800
G1 X-1.430 Y-4.215 F799.800
G1 X-0.970 Y-4.380 F799.800
G1 X-0.530 Y-4.475 F799.800
G1 X-0.175 Y-4.525 F799.800
G1 X0.240 Y-4.550 F799.800
G1 X0.685 Y-4.535 F799.800
G1 X1.145 Y-4.465 F799.800
G1 X1.515 Y-4.380 F799.800
G1 X1.920 Y-4.240 F799.800
G1 X2.305 Y-4.060 F799.800
G1 X2.660 Y-3.855 F799.800
G1 X3.005 Y-3.620 F799.800
G1 X3.360 Y-3.320 F799.800
G1 X3.655 Y-3.005 F799.800
G1 X3.885 Y-2.715 F799.800
G1 X4.120 Y-2.365 F799.800
G1 X4.345 Y-1.940 F799.800
G1 X4.510 Y-1.550 F799.800
G1 X4.645 Y-1.135 F799.800
G1 X4.740 Y-0.700 F799.800
G1 X4.795 Y-0.270 F799.800
G1 X4.815 Y0.160 F799.800
G1 X4.790 Y0.590 F799.800
G1 X4.730 Y1.020 F799.800
G1 X4.630 Y1.440 F799.800
G1 X4.490 Y1.850 F799.800
G1 X4.315 Y2.245 F799.800
G1 X4.105 Y2.625 F799.800
G1 X3.845 Y2.975 F799.800
G1 X3.610 Y3.245 F799.800
G1 X3.320 Y3.535 F799.800
G1 X2.940 Y3.860 F799.800
G1 X2.530 Y4.150 F799.800
G1 X2.115 Y4.380 F799.800
G1 X1.755 Y4.545 F799.800
G1 X1.320 Y4.700 F799.800
G1 X0.890 Y4.805 F799.800
G1 X0.460 Y4.855 F799.800
G1 X0.100 Y4.870 F799.800
G1 X-0.300 Y4.865 F799.800
G1 X-0.795 Y4.820 F799.800
G1 X-1.285 Y4.730 F799.800
G1 X-1.760 Y4.575 F799.800
G1 X-2.090 Y4.435 F799.800
G1 X-2.420 Y4.255 F799.800
G1 X-2.760 Y4.035 F799.800
G1 X-3.155 Y3.745 F799.800
G1 X-3.525 Y3.410 F799.800
G1 X-3.830 Y3.050 F799.800
G1 X-4.045 Y2.760 F799.800
G1 X-4.275 Y2.375 F799.800
G1 X-4.460 Y2.000 F799.800
G1 X-4.630 Y1.555 F799.800
G1 X-4.750 Y1.125 F799.800
G1 X-4.835 Y0.685 F799.800
G1 X-4.880 Y0.230 F799.800
G1 X-4.885 Y-0.215 F799.800
G1 X-4.855 Y-0.660 F799.800
G1 X-4.785 Y-1.100 F799.800
G1 X-4.660 Y-1.530 F799.800
G1 X-4.525 Y-1.885 F799.800
G1 X-4.350 Y-2.270 F799.800
G1 X-4.105 Y-2.705 F799.800
G1 X-3.825 Y-3.120 F799.800
G1 X-3.510 Y-3.480 F799.800
G1 X-3.245 Y-3.745 F799.800
G1 X-2.900 Y-4.025 F799.800
G1 X-2.550 Y-4.275 F799.800
G1 X-2.115 Y-4.525 F799.800
G1 X-1.695 Y-4.725 F799.800
G1 X-1.255 Y-4.890 F799.800
G1 X-0.785 Y-5.020 F799.800
G1 X-0.320 Y-5.090 F799.800
G1 X0.050 Y-5.120 F799.800
G1 X0.480 Y-5.125 F799.800
G1 X0.970 Y-5.085 F799.800
G1 X1.460 Y-4.990 F799.800
G1 X1.845 Y-4.885 F799.800
G1 X2.280 Y-4.725 F799.800
G1 X2.690 Y-4.525 F799.800
G1 X3.060 Y-4.290 F799.800
G1 X3.365 Y-4.060 F799.800
G1 X3.685 Y-3.785 F799.800
G1 X4.035 Y-3.430 F799.800
G1 X4.355 Y-3.045 F799.800
G1 X4.625 Y-2.640 F799.800
G1 X4.835 Y-2.275 F799.800
G1 X5.030 Y-1.845 F799.800
G1 X5.180 Y-1.415 F799.800
G1 X5.295 Y-0.980 F799.800
G1 X5.370 Y-0.525 F799.800
G1 X5.405 Y-0.070 F799.800
G1 X5.400 Y0.380 F799.800
G1 X5.355 Y0.830 F799.800
G1 X5.270 Y1.275 F799.800
G1 X5.155 Y1.715 F799.800
G1 X4.985 Y2.185 F799.800
G1 X4.775 Y2.605 F799.800
G1 X4.575 Y2.945 F799.800
G1 X4.315 Y3.315 F799.800
G1 X3.990 Y3.690 F799.800
G1 X3.675 Y4.005 F799.800
G1 X3.315 Y4.305 F799.800
G1 X2.940 Y4.580 F799.800
G1 X2.510 Y4.835 F799.800
G1 X2.075 Y5.050 F799.800
G1 X1.610 Y5.210 F799.800
G1 X1.250 Y5.305 F799.800
G1 X0.815 Y5.390 F799.800
G1 X0.315 Y5.445 F799.800
G1 X-0.180 Y5.460 F799.800
G1 X-0.675 Y5.440 F799.800
G1 X-1.165 Y5.360 F799.800
G1 X-1.560 Y5.250 F799.800
G1 X-1.915 Y5.135 F799.800
G1 X-2.375 Y4.940 F799.800
G1 X-2.810 Y4.700 F799.800
G1 X-3.195 Y4.455 F799.800
G1 X-3.585 Y4.155 F799.800
G1 X-3.940 Y3.825 F799.800
G1 X-4.250 Y3.465 F799.800
G1 X-4.470 Y3.160 F799.800
G1 X-4.710 Y2.790 F799.800
G1 X-4.945 Y2.345 F799.800
G1 X-5.140 Y1.885 F799.800
G1 X-5.280 Y1.415 F799.800
G1 X-5.370 Y1.015 F799.800
G1 X-5.445 Y0.550 F799.800
G1 X-5.470 Y0.050 F799.800
G1 X-5.460 Y-0.410 F799.800
G1 X-5.410 Y-0.890 F799.800
G1 X-5.320 Y-1.370 F799.800
G1 X-5.175 Y-1.825 F799.800
G1 X-5.030 Y-2.195 F799.800
G1 X-4.840 Y-2.605 F799.800
G1 X-4.590 Y-3.040 F799.800
G1 X-4.310 Y-3.455 F799.800
G1 X-3.980 Y-3.830 F799.800
G1 X-3.705 Y-4.100 F799.800
G1 X-3.360 Y-4.410 F799.800
G1 X-2.960 Y-4.710 F799.800
G1 X-2.535 Y-4.980 F799.800
G1 X-2.085 Y-5.200 F799.800
G1 X-1.695 Y-5.360 F799.800
G1 X-1.230 Y-5.505 F799.800
G1 X-0.770 Y-5.615 F799.800
G1 X-0.275 Y-5.690 F799.800
G1 X0.220 Y-5.730 F799.800
G1 X0.715 Y-5.715 F799.800
G1 X1.130 Y-5.670 F799.800
G1 X1.595 Y-5.580 F799.800
G1 X2.040 Y-5.450 F799.800
G1 X2.465 Y-5.290 F799.800
G1 X2.880 Y-5.085 F799.800
G1 X3.275 Y-4.850 F799.800
G1 X3.655 Y-4.590 F799.800
G1 X4.040 Y-4.270 F799.800
G1 X4.385 Y-3.930 F799.800
G1 X4.710 Y-3.560 F799.800
G1 X5.005 Y-3.155 F799.800
G1 X5.265 Y-2.740 F799.800
G1 X5.490 Y-2.300 F799.800
G1 X5.680 Y-1.840 F799.800
G1 X5.815 Y-1.360 F799.800
G1 X5.895 Y-0.970 F799.800
G1 X5.965 Y-0.520 F799.800
G1 X5.995 Y-0.020 F799.800
G1 X5.990 Y0.475 F799.800
G1 X5.950 Y0.970 F799.800
G1 X5.850 Y1.460 F799.800
G1 X5.740 Y1.865 F799.800
G1 X5.575 Y2.320 F799.800
G1 X5.380 Y2.750 F799.800
G1 X5.135 Y3.185 F799.800
G1 X4.860 Y3.595 F799.800
G1 X4.555 Y3.985 F799.800
G1 X4.215 Y4.350 F799.800
G1 X3.835 Y4.675 F799.800
G1 X3.505 Y4.925 F799.800
G1 X3.115 Y5.185 F799.800
G1 X2.670 Y5.420 F799.800
G1 X2.230 Y5.615 F799.800
G1 X1.755 Y5.785 F799.800
G1 X1.270 Y5.910 F799.800
G1 X0.775 Y6.000 F799.800
G1 X0.275 Y6.050 F799.800
G1 X-0.220 Y6.060 F799.800
G1 X-0.715 Y6.030 F799.800
G1 X-1.210 Y5.965 F799.800
G1 X-1.695 Y5.845 F799.800
G1 X-2.095 Y5.715 F799.800
G1 X-2.530 Y5.530 F799.800
G1 X-2.945 Y5.325 F799.800
G1 X-3.370 Y5.065 F799.800
G1 X-3.775 Y4.770 F799.800
G1 X-4.160 Y4.450 F799.800
G1 X-4.505 Y4.085 F799.800
G1 X-4.775 Y3.760 F799.800
G1 X-5.060 Y3.365 F799.800
G1 X-5.320 Y2.935 F799.800
G1 X-5.545 Y2.490 F799.800
G1 X-5.725 Y2.020 F799.800
G1 X-5.850 Y1.605 F799.800
G1 X-5.955 Y1.125 F799.800
G1 X-6.030 Y0.655 F799.800
G1 X-6.065 Y0.155 F799.800
G1 X-6.060 Y-0.340 F799.800
G1 X-6.025 Y-0.835 F799.800
G1 X-5.950 Y-1.325 F799.800
G1 X-5.815 Y-1.805 F799.800
G1 X-5.680 Y-2.190 F799.800
G1 X-5.495 Y-2.640 F799.800
G1 X-5.270 Y-3.085 F799.800
G1 X-5.010 Y-3.510 F799.800
G1 X-4.705 Y-3.905 F799.800
G1 X-4.425 Y-4.225 F799.800
G1 X-4.075 Y-4.585 F799.800
G1 X-3.700 Y-4.915 F799.800
G1 X-3.305 Y-5.220 F799.800
G1 X-2.875 Y-5.475 F799.800
G1 X-2.510 Y-5.665 F799.800
G1 X-2.050 Y-5.865 F799.800
G1 X-1.580 Y-6.035 F799.800
G1 X-1.095 Y-6.170 F799.800
G1 X-0.605 Y-6.270 F799.800
G1 X-0.105 Y-6.320 F799.800
G1 X0.355 Y-6.340 F799.800
G1 X0.850 Y-6.320 F799.800
G1 X1.345 Y-6.260 F799.800
G1 X1.830 Y-6.145 F799.800
G1 X2.220 Y-6.025 F799.800
G1 X2.660 Y-5.855 F799.800
G1 X3.110 Y-5.645 F799.800
G1 X3.545 Y-5.400 F799.800
G1 X3.960 Y-5.125 F799.800
G1 X4.355 Y-4.820 F799.800
G1 X4.725 Y-4.485 F799.800
G1 X5.055 Y-4.110 F799.800
G1 X5.315 Y-3.780 F799.800
G1 X5.600 Y-3.370 F799.800
G1 X5.855 Y-2.940 F799.800
G1 X6.075 Y-2.490 F799.800
G1 X6.255 Y-2.020 F799.800
G1 X6.405 Y-1.555 F799.800
G1 X6.520 Y-1.065 F799.800
G1 X6.595 Y-0.570 F799.800
G1 X6.635 Y-0.070 F799.800
G1 X6.635 Y0.425 F799.800
G1 X6.580 Y0.920 F799.800
G1 X6.505 Y1.335 F799.800
G1 X6.395 Y1.810 F799.800
G1 X6.245 Y2.285 F799.800
G1 X6.060 Y2.750 F799.800
G1 X5.845 Y3.200 F799.800
G1 X5.585 Y3.625 F799.800
G1 X5.320 Y4.000 F799.800
G1 X5.000 Y4.385 F799.800
G1 X4.660 Y4.750 F799.800
G1 X4.290 Y5.090 F799.800
G1 X3.900 Y5.400 F799.800
G1 X3.490 Y5.685 F799.800
G1 X3.050 Y5.920 F799.800
G1 X2.660 Y6.100 F799.800
G1 X2.195 Y6.285 F799.800
G1 X1.715 Y6.435 F799.800
G1 X1.225 Y6.550 F799.800
G1 X0.730 Y6.635 F799.800
G1 X0.230 Y6.685 F799.800
G1 X-0.265 Y6.680 F799.800
G1 X-0.695 Y6.655 F799.800
G1 X-1.190 Y6.585 F799.800
G1 X-1.680 Y6.485 F799.800
G1 X-2.160 Y6.345 F799.800
G1 X-2.625 Y6.170 F799.800
G1 X-3.080 Y5.965 F799.800
G1 X-3.510 Y5.710 F799.800
G1 X-3.880 Y5.460 F799.800
G1 X-4.270 Y5.150 F799.800
G1 X-4.640 Y4.815 F799.800
G1 X-4.985 Y4.450 F799.800
G1 X-5.300 Y4.065 F799.800
G1 X-5.590 Y3.660 F799.800
G1 X-5.850 Y3.230 F799.800
G1 X-6.080 Y2.785 F799.800
G1 X-6.275 Y2.325 F799.800
G1 X-6.420 Y1.845 F799.800
G1 X-6.520 Y1.420 F799.800
G1 X-6.610 Y0.925 F799.800
G1 X-6.665 Y0.425 F799.800
G1 X-6.685 Y-0.070 F799.800
G1 X-6.675 Y-0.565 F799.800
G1 X-6.610 Y-1.060 F799.800
G1 X-6.525 Y-1.525 F799.800
G1 X-6.395 Y-2.005 F799.800
G1 X-6.225 Y-2.475 F799.800
G1 X-6.035 Y-2.935 F799.800
G1 X-5.805 Y-3.380 F799.800
G1 X-5.545 Y-3.805 F799.800
G1 X-5.260 Y-4.215 F799.800
G1 X-4.945 Y-4.600 F799.800
G1 X-4.600 Y-4.965 F799.800
G1 X-4.235 Y-5.305 F799.800
G1 X-3.845 Y-5.615 F799.800
G1 X-3.420 Y-5.880 F799.800
G1 X-3.035 Y-6.095 F799.800
G1 X-2.585 Y-6.315 F799.800
G1 X-2.120 Y-6.505 F799.800
G1 X-1.645 Y-6.665 F799.800
G1 X-1.160 Y-6.795 F799.800
G1 X-0.670 Y-6.895 F799.800
G1 X-0.170 Y-6.950 F799.800
G1 X0.325 Y-6.980 F799.800
G1 X0.820 Y-6.955 F799.800
G1 X1.265 Y-6.900 F799.800
G1 X1.755 Y-6.805 F799.800
G1 X2.235 Y-6.665 F799.800
G1 X2.695 Y-6.505 F799.800
G1 X3.155 Y-6.315 F799.800
G1 X3.600 Y-6.085 F799.800
G1 X4.030 Y-5.830 F799.800
G1 X4.440 Y-5.550 F799.800
G1 X4.830 Y-5.240 F799.800
G1 X5.185 Y-4.890 F799.800
G1 X5.490 Y-4.555 F799.800
G1 X5.805 Y-4.170 F799.800
G1 X6.085 Y-3.755 F799.800
G1 X6.340 Y-3.325 F799.800
G1 X6.565 Y-2.875 F799.800
G1 X6.765 Y-2.415 F799.800
G1 X6.930 Y-1.940 F799.800
G1 X7.065 Y-1.455 F799.800
G1 X7.170 Y-0.965 F799.800
G1 X7.240 Y-0.470 F799.800
G1 X7.260 Y0.025 F799.800
G1 X7.255 Y0.505 F799.800
G1 X7.210 Y1.000 F799.800
G1 X7.125 Y1.490 F799.800
G1 X7.010 Y1.975 F799.800
G1 X6.855 Y2.450 F799.800
G1 X6.665 Y2.910 F799.800
G1 X6.450 Y3.360 F799.800
G1 X6.200 Y3.790 F799.800
G1 X5.920 Y4.205 F799.800
G1 X5.615 Y4.600 F799.800
G1 X5.290 Y4.980 F799.800
G1 X4.940 Y5.335 F799.800
G1 X4.565 Y5.670 F799.800
G1 X4.175 Y5.980 F799.800
G1 X3.750 Y6.245 F799.800
G1 X3.355 Y6.465 F799.800
G1 X2.900 Y6.675 F799.800
G1 X2.435 Y6.860 F799.800
G1 X1.955 Y7.010 F799.800
G1 X1.465 Y7.130 F799.800
G1 X0.970 Y7.220 F799.800
G1 X0.470 Y7.275 F799.800
G1 X-0.025 Y7.300 F799.800
G1 X-0.520 Y7.290 F799.800
G1 X-1.015 Y7.250 F799.800
G1 X-1.505 Y7.175 F799.800
G1 X-1.990 Y7.070 F799.800
G1 X-2.465 Y6.915 F799.800
G1 X-2.905 Y6.745 F799.800
G1 X-3.355 Y6.530 F799.800
G1 X-3.785 Y6.275 F799.800
G1 X-4.195 Y5.995 F799.800
G1 X-4.595 Y5.695 F799.800
G1 X-4.965 Y5.360 F799.800
G1 X-5.315 Y5.000 F799.800
G1 X-5.640 Y4.620 F799.800
G1 X-5.945 Y4.225 F799.800
G1 X-6.220 Y3.805 F799.800
G1 X-6.470 Y3.370 F799.800
G1 X-6.695 Y2.920 F799.800
G1 X-6.875 Y2.450 F799.800
G1 X-7.030 Y1.980 F799.800
G1 X-7.150 Y1.495 F799.800
G1 X-7.230 Y1.000 F799.800
G1 X-7.280 Y0.500 F799.800
G1 X-7.305 Y0.000 F799.800
G1 X-7.290 Y-0.495 F799.800
G1 X-7.245 Y-0.990 F799.800
G1 X-7.170 Y-1.480 F799.800
G1 X-7.060 Y-1.965 F799.800
G1 X-6.920 Y-2.445 F799.800
G1 X-6.750 Y-2.915 F799.800
G1 X-6.535 Y-3.365 F799.800
G1 X-6.300 Y-3.790 F799.800
G1 X-6.035 Y-4.215 F799.800
G1 X-5.740 Y-4.620 F799.800
G1 X-5.420 Y-5.005 F799.800
G1 X-5.080 Y-5.370 F799.800
G1 X-4.715 Y-5.715 F799.800
G1 X-4.330 Y-6.035 F799.800
G1 X-3.915 Y-6.315 F799.800
G1 X-3.500 Y-6.560 F799.800
G1 X-3.055 Y-6.790 F799.800
G1 X-2.600 Y-6.995 F799.800
G1 X-2.130 Y-7.170 F799.800
G1 X-1.650 Y-7.315 F799.800
G1 X-1.160 Y-7.430 F799.800
G1 X-0.665 Y-7.515 F799.800
G1 X-0.085 Y-7.575 F799.800
G1 X0.895 Y-7.550 F799.800
G1 X2.170 Y-7.300 F799.800
G1 X3.770 Y-6.630 F799.800
G1 X4.570 Y-6.135 F799.800
G1 X5.470 Y-5.355 F799.800
G1 X6.255 Y-4.430 F799.800
G1 X7.000 Y-3.195 F799.800
G1 X7.320 Y-2.445 F799.800
G1 X7.620 Y-1.415 F799.800
G1 X7.790 Y0.020 F799.800
G1 X7.695 Y1.445 F799.800
G1 X7.390 Y2.570 F799.800
G1 X6.945 Y3.580 F799.800
G1 X6.315 Y4.585 F799.800
G1 X5.435 Y5.610 F799.800
G1 X4.640 Y6.290 F799.800
G1 X3.685 Y6.885 F799.800
G1 X2.415 Y7.420 F799.800
G1 X1.055 Y7.745 F799.800
G1 X-0.585 Y7.860 F799.800
G1 X-1.485 Y7.775 F799.800
G1 X-2.235 Y7.605 F799.800
G1 X-3.195 Y7.240 F799.800
G1 X-4.030 Y6.780 F799.800
G1 X-4.925 Y6.125 F799.800
G1 X-5.885 Y5.175 F799.800
G1 X-6.640 Y4.145 F799.800
G1 X-7.170 Y3.140 F799.800
G1 X-7.505 Y2.230 F799.800
G1 X-7.810 Y0.630 F799.800
G1 X-7.800 Y-0.980 F799.800
G1 X-7.630 Y-2.030 F799.800
G1 X-7.150 Y-3.360 F799.800
G1 X-6.620 Y-4.325 F799.800
G1 X-5.575 Y-5.635 F799.800
G1 X-4.540 Y-6.525 F799.800
G1 X-3.370 Y-7.230 F799.800
G1 X-2.095 Y-7.760 F799.800
G1 X-0.900 Y-8.060 F799.800
G1 X0.355 Y-8.140 F799.800
G1 X1.255 Y-8.080 F799.800
G1 X1.930 Y-7.950 F799.800
G1 X3.400 Y-7.430 F799.800
G1 X4.365 Y-6.905 F799.800
G1 X5.550 Y-5.985 F799.800
G1 X6.305 Y-5.195 F799.800
G1 X7.050 Y-4.145 F799.800
G1 X7.690 Y-2.830 F799.800
G1 X8.000 Y-1.800 F799.800
G1 X8.185 Y-0.680 F799.800
G1 X8.190 Y0.485 F799.800
G1 X8.070 Y1.460 F799.800
G1 X7.800 Y2.510 F799.800
G1 X7.495 Y3.335 F799.800
G1 X7.060 Y4.175 F799.800
G1 X6.335 Y5.210 F799.800
G1 X5.510 Y6.075 F799.800
G1 X4.905 Y6.570 F799.800
G1 X3.930 Y7.200 F799.800
G1 X3.045 Y7.620 F799.800
G1 X1.865 Y7.985 F799.800
G1 X0.745 Y8.170 F799.800
G1 X0.025 Y8.200 F799.800
G1 X-1.175 Y8.115 F799.800
G1 X-1.925 Y7.975 F799.800
G1 X-3.115 Y7.575 F799.800
G1 X-3.840 Y7.250 F799.800
G1 X-4.525 Y6.835 F799.800
G1 X-5.480 Y6.095 F799.800
G1 X-6.095 Y5.490 F799.800
G1 X-6.590 Y4.880 F799.800
G1 X-7.205 Y3.915 F799.800
G1 X-7.625 Y3.040 F799.800
G1 X-7.995 Y1.850 F799.800
G1 X-8.175 Y0.730 F799.800
G1 X-8.125 Y-1.115 F799.800
G1 X-7.970 Y-1.940 F799.800
G1 X-7.665 Y-2.915 F799.800
G1 X-7.205 Y-3.915 F799.800
G1 X-6.835 Y-4.525 F799.800
G1 X-6.090 Y-5.485 F799.800
G1 X-4.940 Y-6.550 F799.800
G1 X-3.900 Y-7.215 F799.800
G1 X-3.010 Y-7.630 F799.800
G1 X-1.830 Y-8.000 F799.800
G1 X-0.710 Y-8.180 F799.800
G1 X1.130 Y-8.120 F799.800
G1 X1.355 Y-8.080 F799.800
G1 X1.355 Y-8.080 F799.800
G1 X1.370 Y-8.065 F799.800
G0 X1.375 Y-8.055
G1 X1.360 Y-8.045 F799.800
G1 X1.260 Y-8.030 F799.800
G1 X1.155 Y-8.075 F799.800
G1 X1.120 Y-8.115 F799.800
G1 X1.155 Y-8.155 F799.800
G1 X1.155 Y-8.155 F799.800
G1 X1.955 Y-8.010 F799.800
G1 X2.930 Y-7.700 F799.800
G1 X3.875 Y-7.275 F799.800
G1 X4.615 Y-6.820 F799.800
G1 X5.490 Y-6.145 F799.800
G1 X6.115 Y-5.530 F799.800
G1 X6.600 Y-4.940 F799.800
G1 X7.240 Y-3.940 F799.800
G1 X7.660 Y-3.060 F799.800
G1 X8.025 Y-1.890 F799.800
G1 X8.225 Y-0.655 F799.800
G1 X8.240 Y-0.205 F799.800
G1 X8.225 Y0.530 F799.800
G1 X8.115 Y1.455 F799.800
G1 X7.900 Y2.315 F799.800
G1 X7.525 Y3.370 F799.800
G1 X7.030 Y4.290 F799.800
G1 X6.355 Y5.245 F799.800
G1 X5.540 Y6.100 F799.800
G1 X4.925 Y6.610 F799.800
G1 X3.945 Y7.235 F799.800
G1 X2.975 Y7.690 F799.800
G1 X1.905 Y8.015 F799.800
G1 X0.745 Y8.210 F799.800
G1 X0.005 Y8.240 F799.800
G1 X-1.155 Y8.160 F799.800
G1 X-1.965 Y8.005 F799.800
G1 X-2.930 Y7.700 F799.800
G1 X-3.875 Y7.275 F799.800
G1 X-4.615 Y6.820 F799.800
G1 X-5.470 Y6.155 F799.800
G1 X-6.135 Y5.500 F799.800
G1 X-6.600 Y4.940 F799.800
G1 X-7.240 Y3.940 F799.800
G1 X-7.650 Y3.075 F799.800
G1 X-8.030 Y1.870 F799.800
G1 X-8.220 Y0.700 F799.800
G1 X-8.240 Y-0.020 F799.800
G1 X-8.155 Y-1.155 F799.800
G1 X-8.010 Y-1.955 F799.800
G1 X-7.700 Y-2.930 F799.800
G1 X-7.275 Y-3.875 F799.800
G1 X-6.820 Y-4.615 F799.800
G1 X-6.155 Y-5.470 F799.800
G1 X-5.500 Y-6.135 F799.800
G1 X-4.940 Y-6.600 F799.800
G1 X-3.940 Y-7.240 F799.800
G1 X-2.970 Y-7.695 F799.800
G1 X-1.900 Y-8.020 F799.800
G1 X-0.740 Y-8.215 F799.800
G1 X-0.045 Y-8.240 F799.800
G1 X1.155 Y-8.155 F799.800
G1 X1.155 Y-8.155 F799.800
G0 Z7.000
(Helix to depth: -1.000000)
G0 X1.134 Y0.967 Z7.000
G0 X1.134 Y0.967 Z5.000
G1 X1.134 Y0.967 Z-0.500 F199.800
G1 X1.134 Y0.967 Z-0.500 F199.800
G1 X0.923 Y1.169 Z-0.526 F199.800
G1 X0.678 Y1.327 Z-0.552 F199.800
G1 X0.406 Y1.434 Z-0.577 F199.800
G1 X0.118 Y1.485 Z-0.603 F199.800
G1 X-0.174 Y1.480 Z-0.629 F199.800
G1 X-0.459 Y1.417 Z-0.655 F199.800
G1 X-0.727 Y1.301 Z-0.680 F199.800
G1 X-0.967 Y1.134 Z-0.706 F199.800
G1 X-1.169 Y0.923 Z-0.732 F199.800
G1 X-1.327 Y0.678 Z-0.758 F199.800
G1 X-1.434 Y0.406 Z-0.783 F199.800
G1 X-1.485 Y0.118 Z-0.809 F199.800
G1 X-1.480 Y-0.174 Z-0.835 F199.800
G1 X-1.417 Y-0.459 Z-0.861 F199.800
G1 X-1.301 Y-0.727 Z-0.887 F199.800
G1 X-1.134 Y-0.967 Z-0.912 F199.800
G1 X-0.923 Y-1.169 Z-0.938 F199.800
G1 X-0.678 Y-1.327 Z-0.964 F199.800
G1 X-0.406 Y-1.434 Z-0.990 F199.800
G1 X-0.118 Y-1.485 Z-1.000 F799.800
G1 X0.174 Y-1.480 Z-1.000 F799.800
G1 X0.459 Y-1.417 Z-1.000 F799.800
G1 X0.727 Y-1.301 Z-1.000 F799.800
G1 X0.967 Y-1.134 Z-1.000 F799.800
G1 X1.169 Y-0.923 Z-1.000 F799.800
G1 X1.327 Y-0.678 Z-1.000 F799.800
G1 X1.434 Y-0.406 Z-1.000 F799.800
G1 X1.485 Y-0.118 Z-1.000 F799.800
G1 X1.480 Y0.174 Z-1.000 F799.800
G1 X1.417 Y0.459 Z-1.000 F799.800
G1 X1.301 Y0.727 Z-1.000 F799.800
G1 X1.134 Y0.967 Z-1.000 F799.800
G1 X0.923 Y1.169 Z-1.000 F799.800
G1 X0.678 Y1.327 Z-1.000 F799.800
G1 X0.406 Y1.434 Z-1.000 F799.800
G1 X0.118 Y1.485 Z-1.000 F799.800
G1 X-0.174 Y1.480 Z-1.000 F799.800
G1 X-0.459 Y1.417 Z-1.000 F799.800
G1 X-0.727 Y1.301 Z-1.000 F799.800
G1 X-0.967 Y1.134 Z-1.000 F799.800
G1 X-1.169 Y0.923 Z-1.000 F799.800
G1 X-1.327 Y0.678 Z-1.000 F799.800
G1 X-1.434 Y0.406 Z-1.000 F799.800
G1 X-1.485 Y0.118 Z-1.000 F799.800
G1 X-1.480 Y-0.174 Z-1.000 F799.800
G1 X-1.417 Y-0.459 Z-1.000 F799.800
G1 X-1.301 Y-0.727 Z-1.000 F799.800
G1 X-1.134 Y-0.967 Z-1.000 F799.800
G1 X-0.923 Y-1.169 Z-1.000 F799.800
G1 X-0.678 Y-1.327 Z-1.000 F799.800
G1 X-0.406 Y-1.434 Z-1.000 F799.800
(Adaptive - depth: -1.000000)
G1 X0.000 Y-1.500 F799.800
G1 X0.055 Y-1.555 F799.800
G1 X0.200 Y-1.610 F799.800
G1 X0.350 Y-1.635 F799.800
G1 X0.575 Y-1.620 F799.800
G1 X0.650 Y-1.605 F799.800
G1 X1.115 Y-1.425 F799.800
G1 X1.350 Y-1.240 F799.800
G1 X1.470 Y-1.105 F799.800
G1 X1.575 Y-0.955 F799.800
G1 X1.695 Y-0.740 F799.800
G1 X1.810 Y-0.430 F799.800
G1 X1.860 Y-0.140 F799.800
G1 X1.865 Y0.095 F799.800
G1 X1.835 Y0.335 F799.800
G1 X1.775 Y0.580 F799.800
G1 X1.660 Y0.865 F799.800
G1 X1.500 Y1.125 F799.800
G1 X1.325 Y1.320 F799.800
G1 X1.145 Y1.475 F799.800
G1 X0.925 Y1.625 F799.800
G1 X0.640 Y1.760 F799.800
G1 X0.365 Y1.840 F799.800
G1 X0.105 Y1.875 F799.800
G1 X-0.140 Y1.870 F799.800
G1 X-0.400 Y1.830 F799.800
G1 X-0.665 Y1.755 F799.800
G1 X-0.950 Y1.625 F799.800
G1 X-1.185 Y1.460 F799.800
G1 X-1.365 Y1.295 F799.800
G1 X-1.525 Y1.095 F799.800
G1 X-1.660 Y0.875 F799.800
G1 X-1.775 Y0.595 F799.800
G1 X-1.840 Y0.330 F799.800
G1 X-1.870 Y0.055 F799.800
G1 X-1.860 Y-0.220 F799.800
G1 X-1.810 Y-0.490 F799.800
G1 X-1.725 Y-0.755 F799.800
G1 X-1.595 Y-1.000 F799.800
G1 X-1.450 Y-1.200 F799.800
G1 X-1.260 Y-1.390 F799.800
G1 X-1.055 Y-1.555 F799.800
G1 X-0.800 Y-1.720 F799.800
G1 X-0.490 Y-1.880 F799.800
G1 X-0.090 Y-1.975 F799.800
G1 X0.440 Y-2.015 F799.800
G1 X0.930 Y-1.935 F799.800
G1 X1.305 Y-1.765 F799.800
G1 X1.475 Y-1.640 F799.800
G1 X1.610 Y-1.515 F799.800
G1 X1.770 Y-1.345 F799.800
G1 X1.985 Y-1.045 F799.800
G1 X2.135 Y-0.720 F799.800
G1 X2.210 Y-0.465 F799.800
G1 X2.255 Y-0.210 F799.800
G1 X2.270 Y0.070 F799.800
G1 X2.245 Y0.390 F799.800
G1 X2.180 Y0.705 F799.800
G1 X2.065 Y0.990 F799.800
G1 X1.940 Y1.225 F799.800
G1 X1.765 Y1.465 F799.800
G1 X1.565 Y1.675 F799.800
G1 X1.325 Y1.870 F799.800
G1 X1.070 Y2.025 F799.800
G1 X0.795 Y2.150 F799.800
G1 X0.500 Y2.235 F799.800
G1 X0.200 Y2.280 F799.800
G1 X-0.095 Y2.290 F799.800
G1 X-0.390 Y2.260 F799.800
G1 X-0.680 Y2.190 F799.800
G1 X-0.960 Y2.090 F799.800
G1 X-1.255 Y1.935 F799.800
G1 X-1.505 Y1.745 F799.800
G1 X-1.695 Y1.565 F799.800
G1 X-1.880 Y1.330 F799.800
G1 X-2.025 Y1.075 F799.800
G1 X-2.140 Y0.815 F799.800
G1 X-2.230 Y0.500 F799.800
G1 X-2.275 Y0.200 F799.800
G1 X-2.285 Y-0.100 F799.800
G1 X-2.250 Y-0.405 F799.800
G1 X-2.185 Y-0.700 F799.800
G1 X-2.070 Y-1.010 F799.800
G1 X-1.915 Y-1.280 F799.800
G1 X-1.755 Y-1.500 F799.800
G1 X-1.540 Y-1.720 F799.800
G1 X-1.315 Y-1.915 F799.800
G1 X-1.000 Y-2.120 F799.800
G1 X-0.710 Y-2.260 F799.800
G1 X-0.405 Y-2.370 F799.800
G1 X-0.070 Y-2.445 F799.800
G1 X0.255 Y-2.480 F799.800
G1 X0.580 Y-2.460 F799.800
G1 X0.855 Y-2.415 F799.800
G1 X1.150 Y-2.325 F799.800
G1 X1.425 Y-2.195 F799.800
G1 X1.675 Y-2.035 F799.800
G1 X1.905 Y-1.840 F799.800
G1 X2.110 Y-1.625 F799.800
G1 X2.310 Y-1.350 F799.800
G1 X2.460 Y-1.075 F799.800
G1 X2.580 Y-0.775 F799.800
G1 X2.665 Y-0.460 F799.800
G1 X2.710 Y-0.140 F799.800
G1 X2.715 Y0.175 F799.800
G1 X2.680 Y0.490 F799.800
G1 X2.610 Y0.800 F799.800
G1 X2.490 Y1.130 F799.800
G1 X2.340 Y1.425 F799.800
G1 X2.160 Y1.700 F799.800
G1 X1.945 Y1.955 F799.800
G1 X1.695 Y2.175 F799.800
G1 X1.455 Y2.345 F799.800
G1 X1.170 Y2.495 F799.800
G1 X0.875 Y2.610 F799.800
G1 X0.550 Y2.690 F799.800
G1 X0.225 Y2.735 F799.800
G1 X-0.130 Y2.750 F799.800
G1 X-0.495 Y2.720 F799.800
G1 X-0.835 Y2.640 F799.800
G1 X-1.110 Y2.545 F799.800
G1 X-1.410 Y2.395 F799.800
G1 X-1.680 Y2.215 F799.800
G1 X-1.925 Y2.005 F799.800
G1 X-2.145 Y1.765 F799.800
G1 X-2.330 Y1.500 F799.800
G1 X-2.485 Y1.215 F799.800
G1 X-2.605 Y0.910 F799.800
G1 X-2.685 Y0.595 F799.800
G1 X-2.735 Y0.270 F799.800
G1 X-2.745 Y-0.090 F799.800
G1 X-2.715 Y-0.420 F799.800
G1 X-2.645 Y-0.750 F799.800
G1 X-2.535 Y-1.075 F799.800
G1 X-2.390 Y-1.380 F799.800
G1 X-2.210 Y-1.670 F799.800
G1 X-1.995 Y-1.940 F799.800
G1 X-1.755 Y-2.180 F799.800
G1 X-1.485 Y-2.395 F799.800
G1 X-1.190 Y-2.575 F799.800
G1 X-0.880 Y-2.720 F799.800
G1 X-0.550 Y-2.830 F799.800
G1 X-0.210 Y-2.910 F799.800
G1 X0.170 Y-2.950 F799.800
G1 X0.520 Y-2.950 F799.800
G1 X0.875 Y-2.895 F799.800
G1 X1.165 Y-2.820 F799.800
G1 X1.475 Y-2.695 F799.800
G1 X1.765 Y-2.540 F799.800
G1 X2.050 Y-2.340 F799.800
G1 X2.305 Y-2.115 F799.800
G1 X2.530 Y-1.860 F799.800
G1 X2.725 Y-1.580 F799.800
G1 X2.895 Y-1.285 F799.800
G1 X3.040 Y-0.940 F799.800
G1 X3.140 Y-0.600 F799.800
G1 X3.185 Y-0.245 F799.800
G1 X3.200 Y0.040 F799.800
G1 X3.185 Y0.395 F799.800
G1 X3.125 Y0.780 F799.800
G1 X3.010 Y1.150 F799.800
G1 X2.885 Y1.450 F799.800
G1 X2.710 Y1.770 F799.800
G1 X2.500 Y2.060 F799.800
G1 X2.265 Y2.320 F799.800
G1 X2.000 Y2.555 F799.800
G1 X1.710 Y2.760 F799.800
G1 X1.400 Y2.930 F799.800
G1 X1.070 Y3.065 F799.800
G1 X0.725 Y3.165 F799.800
G1 X0.375 Y3.225 F799.800
G1 X0.020 Y3.245 F799.800
G1 X-0.330 Y3.235 F799.800
G1 X-0.730 Y3.175 F799.800
G1 X-1.085 Y3.080 F799.800
G1 X-1.430 Y2.935 F799.800
G1 X-1.710 Y2.785 F799.800
G1 X-2.000 Y2.580 F799.800
G1 X-2.265 Y2.350 F799.800
G1 X-2.515 Y2.080 F799.800
G1 X-2.725 Y1.795 F799.800
G1 X-2.905 Y1.485 F799.800
G1 X-3.050 Y1.155 F799.800
G1 X-3.160 Y0.810 F799.800
G1 X-3.230 Y0.455 F799.800
G1 X-3.260 Y0.095 F799.800
G1 X-3.250 Y-0.260 F799.800
G1 X-3.200 Y-0.615 F799.800
G1 X-3.110 Y-0.960 F799.800
G1 X-2.985 Y-1.295 F799.800
G1 X-2.830 Y-1.620 F799.800
G1 X-2.615 Y-1.960 F799.800
G1 X-2.385 Y-2.255 F799.800
G1 X-2.120 Y-2.530 F799.800
G1 X-1.825 Y-2.780 F799.800
G1 X-1.500 Y-2.980 F799.800
G1 X-1.215 Y-3.120 F799.800
G1 X-0.885 Y-3.255 F799.800
G1 X-0.470 Y-3.380 F799.800
G1 X-0.035 Y-3.445 F799.800
G1 X0.300 Y-3.460 F799.800
G1 X0.630 Y-3.440 F799.800
G1 X0.995 Y-3.385 F799.800
G1 X1.405 Y-3.275 F799.800
G1 X1.750 Y-3.130 F799.800
G1 X2.040 Y-2.975 F799.800
G1 X2.345 Y-2.765 F799.800
G1 X2.610 Y-2.530 F799.800
G1 X2.850 Y-2.275 F799.800
G1 X3.085 Y-1.960 F799.800
G1 X3.280 Y-1.650 F799.800
G1 X3.470 Y-1.270 F799.800
G1 X3.590 Y-0.890 F799.800
G1 X3.665 Y-0.570 F799.800
G1 X3.710 Y-0.195 F799.800
G1 X3.720 Y0.165 F799.800
G1 X3.685 Y0.565 F799.800
G1 X3.615 Y0.935 F799.800
G1 X3.505 Y1.295 F799.800
G1 X3.355 Y1.655 F799.800
G1 X3.170 Y1.990 F799.800
G1 X2.950 Y2.305 F799.800
G1 X2.700 Y2.595 F799.800
G1 X2.420 Y2.860 F799.800
G1 X2.115 Y3.095 F799.800
G1 X1.785 Y3.300 F799.800
G1 X1.435 Y3.470 F799.800
G1 X1.070 Y3.600 F799.800
G1 X0.695 Y3.695 F799.800
G1 X0.310 Y3.750 F799.800
G1 X-0.070 Y3.765 F799.800
G1 X-0.450 Y3.740 F799.800
G1 X-0.825 Y3.675 F799.800
G1 X-1.195 Y3.580 F799.800
G1 X-1.605 Y3.425 F799.800
G1 X-1.955 Y3.235 F799.800
G1 X-2.230 Y3.055 F799.800
G1 X-2.525 Y2.810 F799.800
G1 X-2.790 Y2.550 F799.800
G1 X-3.055 Y2.225 F799.800
G1 X-3.270 Y1.900 F799.800
G1 X-3.455 Y1.550 F799.800
G1 X-3.605 Y1.180 F799.800
G1 X-3.705 Y0.795 F799.800
G1 X-3.765 Y0.455 F799.800
G1 X-3.785 Y0.075 F799.800
G1 X-3.770 Y-0.290 F799.800
G1 X-3.710 Y-0.690 F799.800
G1 X-3.625 Y-1.065 F799.800
G1 X-3.485 Y-1.480 F799.800
G1 X-3.315 Y-1.850 F799.800
G1 X-3.100 Y-2.200 F799.800
G1 X-2.890 Y-2.480 F799.800
G1 X-2.635 Y-2.770 F799.800
G1 X-2.305 Y-3.060 F799.800
G1 X-1.990 Y-3.290 F799.800
G1 X-1.645 Y-3.500 F799.800
G1 X-1.275 Y-3.675 F799.800
G1 X-0.895 Y-3.810 F799.800
G1 X-0.500 Y-3.910 F799.800
G1 X-0.095 Y-3.970 F799.800
G1 X0.305 Y-3.990 F799.800
G1 X0.705 Y-3.970 F799.800
G1 X1.105 Y-3.910 F799.800
G1 X1.495 Y-3.810 F799.800
G1 X1.870 Y-3.660 F799.800
G1 X2.165 Y-3.510 F799.800
G1 X2.490 Y-3.310 F799.800
G1 X2.835 Y-3.045 F799.800
G1 X3.145 Y-2.755 F799.800
G1 X3.410 Y-2.440 F799.800
G1 X3.625 Y-2.135 F799.800
G1 X3.820 Y-1.785 F799.800
G1 X3.975 Y-1.420 F799.800
G1 X4.095 Y-1.045 F799.800
G1 X4.185 Y-0.660 F799.800
G1 X4.240 Y-0.205 F799.800
G1 X4.255 Y0.200 F799.800
G1 X4.230 Y0.615 F799.800
G1 X4.145 Y1.030 F799.800
G1 X4.050 Y1.355 F799.800
G1 X3.915 Y1.720 F799.800
G1 X3.710 Y2.140 F799.800
G1 X3.480 Y2.520 F799.800
G1 X3.210 Y2.855 F799.800
G1 X2.970 Y3.105 F799.800
G1 X2.665 Y3.365 F799.800
G1 X2.350 Y3.595 F799.800
G1 X1.940 Y3.830 F799.800
G1 X1.560 Y4.005 F799.800
G1 X1.165 Y4.145 F799.800
G1 X0.740 Y4.250 F799.800
G1 X0.315 Y4.295 F799.800
G1 X-0.025 Y4.305 F799.800
G1 X-0.415 Y4.290 F799.800
G1 X-0.875 Y4.230 F799.800
G1 X-1.325 Y4.125 F799.800
G1 X-1.735 Y3.965 F799.800
G1 X-2.025 Y3.825 F799.800
G1 X-2.365 Y3.615 F799.800
G1 X-2.675 Y3.390 F799.800
G1 X-3.035 Y3.080 F799.800
G1 X-3.360 Y2.740 F799.800
G1 X-3.620 Y2.385 F799.800
G1 X-3.805 Y2.080 F799.800
G1 X-3.985 Y1.705 F799.800
G1 X-4.120 Y1.325 F799.800
G1 X-4.215 Y0.950 F799.800
G1 X-4.280 Y0.555 F799.800
G1 X-4.320 Y0.105 F799.800
G1 X-4.315 Y-0.360 F799.800
G1 X-4.250 Y-0.795 F799.800
G1 X-4.175 Y-1.135 F799.800
G1 X-4.055 Y-1.530 F799.800
G1 X-3.860 Y-1.970 F799.800
G1 X-3.665 Y-2.330 F799.800
G1 X-3.430 Y-2.690 F799.800
G1 X-3.155 Y-3.025 F799.800
G1 X-2.860 Y-3.330 F799.800
G1 X-2.525 Y-3.600 F799.800
G1 X-2.205 Y-3.815 F799.800
G1 X-1.845 Y-4.020 F799.800
G1 X-1.430 Y-4.215 F799.800
G1 X-0.970 Y-4.380 F799.800
G1 X-0.530 Y-4.475 F799.800
G1 X-0.175 Y-4.525 F799.800
G1 X0.240 Y-4.550 F799.800
G1 X0.685 Y-4.535 F799.800
G1 X1.145 Y-4.465 F799.800
G1 X1.515 Y-4.380 F799.800
G1 X1.920 Y-4.240 F799.800
G1 X2.305 Y-4.060 F799.800
G1 X2.660 Y-3.855 F799.800
G1 X3.005 Y-3.620 F799.800
G1 X3.360 Y-3.320 F799.800
G1 X3.655 Y-3.005 F799.800
G1 X3.885 Y-2.715 F799.800
G1 X4.120 Y-2.365 F799.800
G1 X4.345 Y-1.940 F799.800
G1 X4.510 Y-1.550 F799.800
G1 X4.645 Y-1.135 F799.800
G1 X4.740 Y-0.700 F799.800
G1 X4.795 Y-0.270 F799.800
G1 X4.815 Y0.160 F799.800
G1 X4.790 Y0.590 F799.800
G1 X4.730 Y1.020 F799.800
G1 X4.630 Y1.440 F799.800
G1 X4.490 Y1.850 F799.800
G1 X4.315 Y2.245 F799.800
G1 X4.105 Y2.625 F799.800
G1 X3.845 Y2.975 F799.800
G1 X3.610 Y3.245 F799.800
G1 X3.320 Y3.535 F799.800
G1 X2.940 Y3.860 F799.800
G1 X2.530 Y4.150 F799.800
G1 X2.115 Y4.380 F799.800
G1 X1.755 Y4.545 F799.800
G1 X1.320 Y4.700 F799.800
G1 X0.890 Y4.805 F799.800
G1 X0.460 Y4.855 F799.800
G1 X0.100 Y4.870 F799.800
G1 X-0.300 Y4.865 F799.800
G1 X-0.795 Y4.820 F799.800
G1 X-1.285 Y4.730 F799.800
G1 X-1.760 Y4.575 F799.800
G1 X-2.090 Y4.435 F799.800
G1 X-2.420 Y4.255 F799.800
G1 X-2.760 Y4.035 F799.800
G1 X-3.155 Y3.745 F799.800
G1 X-3.525 Y3.410 F799.800
G1 X-3.830 Y3.050 F799.800
G1 X-4.045 Y2.760 F799.800
G1 X-4.275 Y2.375 F799.800
G1 X-4.460 Y2.000 F799.800
G1 X-4.630 Y1.555 F799.800
G1 X-4.750 Y1.125 F799.800
G1 X-4.835 Y0.685 F799.800
G1 X-4.880 Y0.230 F799.800
G1 X-4.885 Y-0.215 F799.800
G1 X-4.855 Y-0.660 F799.800
G1 X-4.785 Y-1.100 F799.800
G1 X-4.660 Y-1.530 F799.800
G1 X-4.525 Y-1.885 F799.800
G1 X-4.350 Y-2.270 F799.800
G1 X-4.105 Y-2.705 F799.800
G1 X-3.825 Y-3.120 F799.800
G1 X-3.510 Y-3.480 F799.800
G1 X-3.245 Y-3.745 F799.800
G1 X-2.900 Y-4.025 F799.800
G1 X-2.550 Y-4.275 F799.800
G1 X-2.115 Y-4.525 F799.800
G1 X-1.695 Y-4.725 F799.800
G1 X-1.255 Y-4.890 F799.800
G1 X-0.785 Y-5.020 F799.800
G1 X-0.320 Y-5.090 F799.800
G1 X0.050 Y-5.120 F799.800
G1 X0.480 Y-5.125 F799.800
G1 X0.970 Y-5.085 F799.800
G1 X1.460 Y-4.990 F799.800
G1 X1.845 Y-4.885 F799.800
G1 X2.280 Y-4.725 F799.800
G1 X2.690 Y-4.525 F799.800
G1 X3.060 Y-4.290 F799.800
G1 X3.365 Y-4.060 F799.800
G1 X3.685 Y-3.785 F799.800
G1 X4.035 Y-3.430 F799.800
G1 X4.355 Y-3.045 F799.800
G1 X4.625 Y-2.640 F799.800
G1 X4.835 Y-2.275 F799.800
G1 X5.030 Y-1.845 F799.800
G1 X5.180 Y-1.415 F799.800
G1 X5.295 Y-0.980 F799.800
G1 X5.370 Y-0.525 F799.800
G1 X5.405 Y-0.070 F799.800
G1 X5.400 Y0.380 F799.800
G1 X5.355 Y0.830 F799.800
G1 X5.270 Y1.275 F799.800
G1 X5.155 Y1.715 F799.800
G1 X4.985 Y2.185 F799.800
G1 X4.775 Y2.605 F799.800
G1 X4.575 Y2.945 F799.800
G1 X4.315 Y3.315 F799.800
G1 X3.990 Y3.690 F799.800
G1 X3.675 Y4.005 F799.800
G1 X3.315 Y4.305 F799.800
G1 X2.940 Y4.580 F799.800
G1 X2.510 Y4.835 F799.800
G1 X2.075 Y5.050 F799.800
G1 X1.610 Y5.210 F799.800
G1 X1.250 Y5.305 F799.800
G1 X0.815 Y5.390 F799.800
G1 X0.315 Y5.445 F799.800
G1 X-0.180 Y5.460 F799.800
G1 X-0.675 Y5.440 F799.800
G1 X-1.165 Y5.360 F799.800
G1 X-1.560 Y5.250 F799.800
G1 X-1.915 Y5.135 F799.800
G1 X-2.375 Y4.940 F799.800
G1 X-2.810 Y4.700 F799.800
G1 X-3.195 Y4.455 F799.800
G1 X-3.585 Y4.155 F799.800
G1 X-3.940 Y3.825 F799.800
G1 X-4.250 Y3.465 F799.800
G1 X-4.470 Y3.160 F799.800
G1 X-4.710 Y2.790 F799.800
G1 X-4.945 Y2.345 F799.800
G1 X-5.140 Y1.885 F799.800
G1 X-5.280 Y1.415 F799.800
G1 X-5.370 Y1.015 F799.800
G1 X-5.445 Y0.550 F799.800
G1 X-5.470 Y0.050 F799.800
G1 X-5.460 Y-0.410 F799.800
G1 X-5.410 Y-0.890 F799.800
G1 X-5.320 Y-1.370 F799.800
G1 X-5.175 Y-1.825 F799.800
G1 X-5.030 Y-2.195 F799.800
G1 X-4.840 Y-2.605 F799.800
G1 X-4.590 Y-3.040 F799.800
G1 X-4.310 Y-3.455 F799.800
G1 X-3.980 Y-3.830 F799.800
G1 X-3.705 Y-4.100 F799.800
G1 X-3.360 Y-4.410 F799.800
G1 X-2.960 Y-4.710 F799.800
G1 X-2.535 Y-4.980 F799.800
G1 X-2.085 Y-5.200 F799.800
G1 X-1.695 Y-5.360 F799.800
G1 X-1.230 Y-5.505 F799.800
G1 X-0.770 Y-5.615 F799.800
G1 X-0.275 Y-5.690 F799.800
G1 X0.220 Y-5.730 F799.800
G1 X0.715 Y-5.715 F799.800
G1 X1.130 Y-5.670 F799.800
G1 X1.595 Y-5.580 F799.800
G1 X2.040 Y-5.450 F799.800
G1 X2.465 Y-5.290 F799.800
G1 X2.880 Y-5.085 F799.800
G1 X3.275 Y-4.850 F799.800
G1 X3.655 Y-4.590 F799.800
G1 X4.040 Y-4.270 F799.800
G1 X4.385 Y-3.930 F799.800
G1 X4.710 Y-3.560 F799.800
G1 X5.005 Y-3.155 F799.800
G1 X5.265 Y-2.740 F799.800
G1 X5.490 Y-2.300 F799.800
G1 X5.680 Y-1.840 F799.800
G1 X5.815 Y-1.360 F799.800
G1 X5.895 Y-0.970 F799.800
G1 X5.965 Y-0.520 F799.800
G1 X5.995 Y-0.020 F799.800
G1 X5.990 Y0.475 F799.800
G1 X5.950 Y0.970 F799.800
G1 X5.850 Y1.460 F799.800
G1 X5.740 Y1.865 F799.800
G1 X5.575 Y2.320 F799.800
G1 X5.380 Y2.750 F799.800
G1 X5.135 Y3.185 F799.800
G1 X4.860 Y3.595 F799.800
G1 X4.555 Y3.985 F799.800
G1 X4.215 Y4.350 F799.800
G1 X3.835 Y4.675 F799.800
G1 X3.505 Y4.925 F799.800
G1 X3.115 Y5.185 F799.800
G1 X2.670 Y5.420 F799.800
G1 X2.230 Y5.615 F799.800
G1 X1.755 Y5.785 F799.800
G1 X1.270 Y5.910 F799.800
G1 X0.775 Y6.000 F799.800
G1 X0.275 Y6.050 F799.800
G1 X-0.220 Y6.060 F799.800
G1 X-0.715 Y6.030 F799.800
G1 X-1.210 Y5.965 F799.800
G1 X-1.695 Y5.845 F799.800
G1 X-2.095 Y5.715 F799.800
G1 X-2.530 Y5.530 F799.800
G1 X-2.945 Y5.325 F799.800
G1 X-3.370 Y5.065 F799.800
G1 X-3.775 Y4.770 F799.800
G1 X-4.160 Y4.450 F799.800
G1 X-4.505 Y4.085 F799.800
G1 X-4.775 Y3.760 F799.800
G1 X-5.060 Y3.365 F799.800
G1 X-5.320 Y2.935 F799.800
G1 X-5.545 Y2.490 F799.800
G1 X-5.725 Y2.020 F799.800
G1 X-5.850 Y1.605 F799.800
G1 X-5.955 Y1.125 F799.800
G1 X-6.030 Y0.655 F799.800
G1 X-6.065 Y0.155 F799.800
G1 X-6.060 Y-0.340 F799.800
G1 X-6.025 Y-0.835 F799.800
G1 X-5.950 Y-1.325 F799.800
G1 X-5.815 Y-1.805 F799.800
G1 X-5.680 Y-2.190 F799.800
G1 X-5.495 Y-2.640 F799.800
G1 X-5.270 Y-3.085 F799.800
G1 X-5.010 Y-3.510 F799.800
G1 X-4.705 Y-3.905 F799.800
G1 X-4.425 Y-4.225 F799.800
G1 X-4.075 Y-4.585 F799.800
G1 X-3.700 Y-4.915 F799.800
G1 X-3.305 Y-5.220 F799.800
G1 X-2.875 Y-5.475 F799.800
G1 X-2.510 Y-5.665 F799.800
G1 X-2.050 Y-5.865 F799.800
G1 X-1.580 Y-6.035 F799.800
G1 X-1.095 Y-6.170 F799.800
G1 X-0.605 Y-6.270 F799.800
G1 X-0.105 Y-6.320 F799.800
G1 X0.355 Y-6.340 F799.800
G1 X0.850 Y-6.320 F799.800
G1 X1.345 Y-6.260 F799.800
G1 X1.830 Y-6.145 F799.800
G1 X2.220 Y-6.025 F799.800
G1 X2.660 Y-5.855 F799.800
G1 X3.110 Y-5.645 F799.800
G1 X3.545 Y-5.400 F799.800
G1 X3.960 Y-5.125 F799.800
G1 X4.355 Y-4.820 F799.800
G1 X4.725 Y-4.485 F799.800
G1 X5.055 Y-4.110 F799.800
G1 X5.315 Y-3.780 F799.800
G1 X5.600 Y-3.370 F799.800
G1 X5.855 Y-2.940 F799.800
G1 X6.075 Y-2.490 F799.800
G1 X6.255 Y-2.020 F799.800
G1 X6.405 Y-1.555 F799.800
G1 X6.520 Y-1.065 F799.800
G1 X6.595 Y-0.570 F799.800
G1 X6.635 Y-0.070 F799.800
G1 X6.635 Y0.425 F799.800
G1 X6.580 Y0.920 F799.800
G1 X6.505 Y1.335 F799.800
G1 X6.395 Y1.810 F799.800
G1 X6.245 Y2.285 F799.800
G1 X6.060 Y2.750 F799.800
G1 X5.845 Y3.200 F799.800
G1 X5.585 Y3.625 F799.800
G1 X5.320 Y4.000 F799.800
G1 X5.000 Y4.385 F799.800
G1 X4.660 Y4.750 F799.800
G1 X4.290 Y5.090 F799.800
G1 X3.900 Y5.400 F799.800
G1 X3.490 Y5.685 F799.800
G1 X3.050 Y5.920 F799.800
G1 X2.660 Y6.100 F799.800
G1 X2.195 Y6.285 F799.800
G1 X1.715 Y6.435 F799.800
G1 X1.225 Y6.550 F799.800
G1 X0.730 Y6.635 F799.800
G1 X0.230 Y6.685 F799.800
G1 X-0.265 Y6.680 F799.800
G1 X-0.695 Y6.655 F799.800
G1 X-1.190 Y6.585 F799.800
G1 X-1.680 Y6.485 F799.800
G1 X-2.160 Y6.345 F799.800
G1 X-2.625 Y6.170 F799.800
G1 X-3.080 Y5.965 F799.800
G1 X-3.510 Y5.710 F799.800
G1 X-3.880 Y5.460 F799.800
G1 X-4.270 Y5.150 F799.800
G1 X-4.640 Y4.815 F799.800
G1 X-4.985 Y4.450 F799.800
G1 X-5.300 Y4.065 F799.800
G1 X-5.590 Y3.660 F799.800
G1 X-5.850 Y3.230 F799.800
G1 X-6.080 Y2.785 F799.800
G1 X-6.275 Y2.325 F799.800
G1 X-6.420 Y1.845 F799.800
G1 X-6.520 Y1.420 F799.800
G1 X-6.610 Y0.925 F799.800
G1 X-6.665 Y0.425 F799.800
G1 X-6.685 Y-0.070 F799.800
G1 X-6.675 Y-0.565 F799.800
G1 X-6.610 Y-1.060 F799.800
G1 X-6.525 Y-1.525 F799.800
G1 X-6.395 Y-2.005 F799.800
G1 X-6.225 Y-2.475 F799.800
G1 X-6.035 Y-2.935 F799.800
G1 X-5.805 Y-3.380 F799.800
G1 X-5.545 Y-3.805 F799.800
G1 X-5.260 Y-4.215 F799.800
G1 X-4.945 Y-4.600 F799.800
G1 X-4.600 Y-4.965 F799.800
G1 X-4.235 Y-5.305 F799.800
G1 X-3.845 Y-5.615 F799.800
G1 X-3.420 Y-5.880 F799.800
G1 X-3.035 Y-6.095 F799.800
G1 X-2.585 Y-6.315 F799.800
G1 X-2.120 Y-6.505 F799.800
G1 X-1.645 Y-6.665 F799.800
G1 X-1.160 Y-6.795 F799.800
G1 X-0.670 Y-6.895 F799.800
G1 X-0.170 Y-6.950 F799.800
G1 X0.325 Y-6.980 F799.800
G1 X0.820 Y-6.955 F799.800
G1 X1.265 Y-6.900 F799.800
G1 X1.755 Y-6.805 F799.800
G1 X2.235 Y-6.665 F799.800
G1 X2.695 Y-6.505 F799.800
G1 X3.155 Y-6.315 F799.800
G1 X3.600 Y-6.085 F799.800
G1 X4.030 Y-5.830 F799.800
G1 X4.440 Y-5.550 F799.800
G1 X4.830 Y-5.240 F799.800
G1 X5.185 Y-4.890 F799.800
G1 X5.490 Y-4.555 F799.800
G1 X5.805 Y-4.170 F799.800
G1 X6.085 Y-3.755 F799.800
G1 X6.340 Y-3.325 F799.800
G1 X6.565 Y-2.875 F799.800
G1 X6.765 Y-2.415 F799.800
G1 X6.930 Y-1.940 F799.800
G1 X7.065 Y-1.455 F799.800
G1 X7.170 Y-0.965 F799.800
G1 X7.240 Y-0.470 F799.800
G1 X7.260 Y0.025 F799.800
G1 X7.255 Y0.505 F799.800
G1 X7.210 Y1.000 F799.800
G1 X7.125 Y1.490 F799.800
G1 X7.010 Y1.975 F799.800
G1 X6.855 Y2.450 F799.800
G1 X6.665 Y2.910 F799.800
G1 X6.450 Y3.360 F799.800
G1 X6.200 Y3.790 F799.800
G1 X5.920 Y4.205 F799.800
G1 X5.615 Y4.600 F799.800
G1 X5.290 Y4.980 F799.800
G1 X4.940 Y5.335 F799.800
G1 X4.565 Y5.670 F799.800
G1 X4.175 Y5.980 F799.800
G1 X3.750 Y6.245 F799.800
G1 X3.355 Y6.465 F799.800
G1 X2.900 Y6.675 F799.800
G1 X2.435 Y6.860 F799.800
G1 X1.955 Y7.010 F799.800
G1 X1.465 Y7.130 F799.800
G1 X0.970 Y7.220 F799.800
G1 X0.470 Y7.275 F799.800
G1 X-0.025 Y7.300 F799.800
G1 X-0.520 Y7.290 F799.800
G1 X-1.015 Y7.250 F799.800
G1 X-1.505 Y7.175 F799.800
G1 X-1.990 Y7.070 F799.800
G1 X-2.465 Y6.915 F799.800
G1 X-2.905 Y6.745 F799.800
G1 X-3.355 Y6.530 F799.800
G1 X-3.785 Y6.275 F799.800
G1 X-4.195 Y5.995 F799.800
G1 X-4.595 Y5.695 F799.800
G1 X-4.965 Y5.360 F799.800
G1 X-5.315 Y5.000 F799.800
G1 X-5.640 Y4.620 F799.800
G1 X-5.945 Y4.225 F799.800
G1 X-6.220 Y3.805 F799.800
G1 X-6.470 Y3.370 F799.800
G1 X-6.695 Y2.920 F799.800
G1 X-6.875 Y2.450 F799.800
G1 X-7.030 Y1.980 F799.800
G1 X-7.150 Y1.495 F799.800
G1 X-7.230 Y1.000 F799.800
G1 X-7.280 Y0.500 F799.800
G1 X-7.305 Y0.000 F799.800
G1 X-7.290 Y-0.495 F799.800
G1 X-7.245 Y-0.990 F799.800
G1 X-7.170 Y-1.480 F799.800
G1 X-7.060 Y-1.965 F799.800
G1 X-6.920 Y-2.445 F799.800
G1 X-6.750 Y-2.915 F799.800
G1 X-6.535 Y-3.365 F799.800
G1 X-6.300 Y-3.790 F799.800
G1 X-6.035 Y-4.215 F799.800
G1 X-5.740 Y-4.620 F799.800
G1 X-5.420 Y-5.005 F799.800
G1 X-5.080 Y-5.370 F799.800
G1 X-4.715 Y-5.715 F799.800
G1 X-4.330 Y-6.035 F799.800
G1 X-3.915 Y-6.315 F799.800
G1 X-3.500 Y-6.560 F799.800
G1 X-3.055 Y-6.790 F799.800
G1 X-2.600 Y-6.995 F799.800
G1 X-2.130 Y-7.170 F799.800
G1 X-1.650 Y-7.315 F799.800
G1 X-1.160 Y-7.430 F799.800
G1 X-0.665 Y-7.515 F799.800
G1 X-0.085 Y-7.575 F799.800
G1 X0.895 Y-7.550 F799.800
G1 X2.170 Y-7.300 F799.800
G1 X3.770 Y-6.630 F799.800
G1 X4.570 Y-6.135 F799.800
G1 X5.470 Y-5.355 F799.800
G1 X6.255 Y-4.430 F799.800
G1 X7.000 Y-3.195 F799.800
G1 X7.320 Y-2.445 F799.800
G1 X7.620 Y-1.415 F799.800
G1 X7.790 Y0.020 F799.800
G1 X7.695 Y1.445 F799.800
G1 X7.390 Y2.570 F799.800
G1 X6.945 Y3.580 F799.800
G1 X6.315 Y4.585 F799.800
G1 X5.435 Y5.610 F799.800
G1 X4.640 Y6.290 F799.800
G1 X3.685 Y6.885 F799.800
G1 X2.415 Y7.420 F799.800
G1 X1.055 Y7.745 F799.800
G1 X-0.585 Y7.860 F799.800
G1 X-1.485 Y7.775 F799.800
G1 X-2.235 Y7.605 F799.800
G1 X-3.195 Y7.240 F799.800
G1 X-4.030 Y6.780 F799.800
G1 X-4.925 Y6.125 F799.800
G1 X-5.885 Y5.175 F799.800
G1 X-6.640 Y4.145 F799.800
G1 X-7.170 Y3.140 F799.800
G1 X-7.505 Y2.230 F799.800
G1 X-7.810 Y0.630 F799.800
G1 X-7.800 Y-0.980 F799.800
G1 X-7.630 Y-2.030 F799.800
G1 X-7.150 Y-3.360 F799.800
G1 X-6.620 Y-4.325 F799.800
G1 X-5.575 Y-5.635 F799.800
G1 X-4.540 Y-6.525 F799.800
G1 X-3.370 Y-7.230 F799.800
G1 X-2.095 Y-7.760 F799.800
G1 X-0.900 Y-8.060 F799.800
G1 X0.355 Y-8.140 F799.800
G1 X1.255 Y-8.080 F799.800
G1 X1.930 Y-7.950 F799.800
G1 X3.400 Y-7.430 F799.800
G1 X4.365 Y-6.905 F799.800
G1 X5.550 Y-5.985 F799.800
G1 X6.305 Y-5.195 F799.800
G1 X7.050 Y-4.145 F799.800
G1 X7.690 Y-2.830 F799.800
G1 X8.000 Y-1.800 F799.800
G1 X8.185 Y-0.680 F799.800
G1 X8.190 Y0.485 F799.800
G1 X8.070 Y1.460 F799.800
G1 X7.800 Y2.510 F799.800
G1 X7.495 Y3.335 F799.800
G1 X7.060 Y4.175 F799.800
G1 X6.335 Y5.210 F799.800
G1 X5.510 Y6.075 F799.800
G1 X4.905 Y6.570 F799.800
G1 X3.930 Y7.200 F799.800
G1 X3.045 Y7.620 F799.800
G1 X1.865 Y7.985 F799.800
G1 X0.745 Y8.170 F799.800
G1 X0.025 Y8.200 F799.800
G1 X-1.175 Y8.115 F799.800
G1 X-1.925 Y7.975 F799.800
G1 X-3.115 Y7.575 F799.800
G1 X-3.840 Y7.250 F799.800
G1 X-4.525 Y6.835 F799.800
G1 X-5.480 Y6.095 F799.800
G1 X-6.095 Y5.490 F799.800
G1 X-6.590 Y4.880 F799.800
G1 X-7.205 Y3.915 F799.800
G1 X-7.625 Y3.040 F799.800
G1 X-7.995 Y1.850 F799.800
G1 X-8.175 Y0.730 F799.800
G1 X-8.125 Y-1.115 F799.800
G1 X-7.970 Y-1.940 F799.800
G1 X-7.665 Y-2.915 F799.800
G1 X-7.205 Y-3.915 F799.800
G1 X-6.835 Y-4.525 F799.800
G1 X-6.090 Y-5.485 F799.800
G1 X-4.940 Y-6.550 F799.800
G1 X-3.900 Y-7.215 F799.800
G1 X-3.010 Y-7.630 F799.800
G1 X-1.830 Y-8.000 F799.800
G1 X-0.710 Y-8.180 F799.800
G1 X1.130 Y-8.120 F799.800
G1 X1.355 Y-8.080 F799.800
G1 X1.355 Y-8.080 F799.800
G1 X1.370 Y-8.065 F799.800
G0 X1.375 Y-8.055
G1 X1.360 Y-8.045 F799.800
G1 X1.260 Y-8.030 F799.800
G1 X1.155 Y-8.075 F799.800
G1 X1.120 Y-8.115 F799.800
G1 X1.155 Y-8.155 F799.800
G1 X1.155 Y-8.155 F799.800
G1 X1.955 Y-8.010 F799.800
G1 X2.930 Y-7.700 F799.800
G1 X3.875 Y-7.275 F799.800
G1 X4.615 Y-6.820 F799.800
G1 X5.490 Y-6.145 F799.800
G1 X6.115 Y-5.530 F799.800
G1 X6.600 Y-4.940 F799.800
G1 X7.240 Y-3.940 F799.800
G1 X7.660 Y-3.060 F799.800
G1 X8.025 Y-1.890 F799.800
G1 X8.225 Y-0.655 F799.800
G1 X8.240 Y-0.205 F799.800
G1 X8.225 Y0.530 F799.800
G1 X8.115 Y1.455 F799.800
G1 X7.900 Y2.315 F799.800
G1 X7.525 Y3.370 F799.800
G1 X7.030 Y4.290 F799.800
G1 X6.355 Y5.245 F799.800
G1 X5.540 Y6.100 F799.800
G1 X4.925 Y6.610 F799.800
G1 X3.945 Y7.235 F799.800
G1 X2.975 Y7.690 F799.800
G1 X1.905 Y8.015 F799.800
G1 X0.745 Y8.210 F799.800
G1 X0.005 Y8.240 F799.800
G1 X-1.155 Y8.160 F799.800
G1 X-1.965 Y8.005 F799.800
G1 X-2.930 Y7.700 F799.800
G1 X-3.875 Y7.275 F799.800
G1 X-4.615 Y6.820 F799.800
G1 X-5.470 Y6.155 F799.800
G1 X-6.135 Y5.500 F799.800
G1 X-6.600 Y4.940 F799.800
G1 X-7.240 Y3.940 F799.800
G1 X-7.650 Y3.075 F799.800
G1 X-8.030 Y1.870 F799.800
G1 X-8.220 Y0.700 F799.800
G1 X-8.240 Y-0.020 F799.800
G1 X-8.155 Y-1.155 F799.800
G1 X-8.010 Y-1.955 F799.800
G1 X-7.700 Y-2.930 F799.800
G1 X-7.275 Y-3.875 F799.800
G1 X-6.820 Y-4.615 F799.800
G1 X-6.155 Y-5.470 F799.800
G1 X-5.500 Y-6.135 F799.800
G1 X-4.940 Y-6.600 F799.800
G1 X-3.940 Y-7.240 F799.800
G1 X-2.970 Y-7.695 F799.800
G1 X-1.900 Y-8.020 F799.800
G1 X-0.740 Y-8.215 F799.800
G1 X-0.045 Y-8.240 F799.800
G1 X1.155 Y-8.155 F799.800
G1 X1.155 Y-8.155 F799.800
G0 Z7.000
G0 Z7.000
(Finish operation: Adaptive002)
(Begin postamble)
M5
G17 G90
M2
