(Exported by FreeCAD)
(Post Processor: grbl_post)
(Output Time:2020-05-25 00:15:22.768345)
(Begin preamble)
G17 G90
G21
(Begin operation: Fixture)
(Path: Fixture)
G54
(Finish operation: Fixture)
(Begin operation: T6: 2FluteWoodMill003)
(Path: T6: 2FluteWoodMill003)
(T6: 2FluteWoodMill003)
(Begin toolchange)
(M6 T6.0)
M3 S14000.0
G4 P5
(Finish operation: T6: 2FluteWoodMill003)
(Begin operation: Hole_12.8mm)
(Path: Hole_12.8mm)
(Hole_12.8mm)
(helix cut operation)
G0 Z23.000
G0 X220.915 Y-200.000
G0 Z21.000
G1 Z12.800 F999.600
G2 X219.085 Y-200.000 Z12.540 I-0.915 J0.000 F1999.800
G2 X220.915 Y-200.000 Z12.280 I0.915 J0.000 F1999.800
G2 X219.085 Y-200.000 Z12.020 I-0.915 J0.000 F1999.800
G2 X220.915 Y-200.000 Z11.760 I0.915 J0.000 F1999.800
G2 X219.085 Y-200.000 Z11.500 I-0.915 J0.000 F1999.800
G2 X220.915 Y-200.000 Z11.240 I0.915 J0.000 F1999.800
G2 X219.085 Y-200.000 Z10.980 I-0.915 J0.000 F1999.800
G2 X220.915 Y-200.000 Z10.720 I0.915 J0.000 F1999.800
G2 X219.085 Y-200.000 Z10.460 I-0.915 J0.000 F1999.800
G2 X220.915 Y-200.000 Z10.200 I0.915 J0.000 F1999.800
G2 X219.085 Y-200.000 Z9.940 I-0.915 J0.000 F1999.800
G2 X220.915 Y-200.000 Z9.680 I0.915 J0.000 F1999.800
G2 X219.085 Y-200.000 Z9.420 I-0.915 J0.000 F1999.800
G2 X220.915 Y-200.000 Z9.160 I0.915 J0.000 F1999.800
G2 X219.085 Y-200.000 Z8.900 I-0.915 J0.000 F1999.800
G2 X220.915 Y-200.000 Z8.640 I0.915 J0.000 F1999.800
G2 X219.085 Y-200.000 Z8.380 I-0.915 J0.000 F1999.800
G2 X220.915 Y-200.000 Z8.120 I0.915 J0.000 F1999.800
G2 X219.085 Y-200.000 Z7.860 I-0.915 J0.000 F1999.800
G2 X220.915 Y-200.000 Z7.600 I0.915 J0.000 F1999.800
G2 X219.085 Y-200.000 Z7.340 I-0.915 J0.000 F1999.800
G2 X220.915 Y-200.000 Z7.080 I0.915 J0.000 F1999.800
G2 X219.085 Y-200.000 Z6.820 I-0.915 J0.000 F1999.800
G2 X220.915 Y-200.000 Z6.560 I0.915 J0.000 F1999.800
G2 X219.085 Y-200.000 Z6.300 I-0.915 J0.000 F1999.800
G2 X220.915 Y-200.000 Z6.040 I0.915 J0.000 F1999.800
G2 X219.085 Y-200.000 Z5.780 I-0.915 J0.000 F1999.800
G2 X220.915 Y-200.000 Z5.520 I0.915 J0.000 F1999.800
G2 X219.085 Y-200.000 Z5.260 I-0.915 J0.000 F1999.800
G2 X220.915 Y-200.000 Z5.000 I0.915 J0.000 F1999.800
G2 X219.085 Y-200.000 Z4.740 I-0.915 J0.000 F1999.800
G2 X220.915 Y-200.000 Z4.480 I0.915 J0.000 F1999.800
G2 X219.085 Y-200.000 Z4.220 I-0.915 J0.000 F1999.800
G2 X220.915 Y-200.000 Z3.960 I0.915 J0.000 F1999.800
G2 X219.085 Y-200.000 Z3.700 I-0.915 J0.000 F1999.800
G2 X220.915 Y-200.000 Z3.440 I0.915 J0.000 F1999.800
G2 X219.085 Y-200.000 Z3.180 I-0.915 J0.000 F1999.800
G2 X220.915 Y-200.000 Z2.920 I0.915 J0.000 F1999.800
G2 X219.085 Y-200.000 Z2.660 I-0.915 J0.000 F1999.800
G2 X220.915 Y-200.000 Z2.400 I0.915 J0.000 F1999.800
G2 X219.085 Y-200.000 Z2.140 I-0.915 J0.000 F1999.800
G2 X220.915 Y-200.000 Z1.880 I0.915 J0.000 F1999.800
G2 X219.085 Y-200.000 Z1.620 I-0.915 J0.000 F1999.800
G2 X220.915 Y-200.000 Z1.360 I0.915 J0.000 F1999.800
G2 X219.085 Y-200.000 Z1.100 I-0.915 J0.000 F1999.800
G2 X220.915 Y-200.000 Z0.840 I0.915 J0.000 F1999.800
G2 X219.085 Y-200.000 Z0.580 I-0.915 J0.000 F1999.800
G2 X220.915 Y-200.000 Z0.320 I0.915 J0.000 F1999.800
G2 X219.085 Y-200.000 Z0.060 I-0.915 J0.000 F1999.800
G2 X220.915 Y-200.000 Z-0.200 I0.915 J0.000 F1999.800
G2 X219.085 Y-200.000 Z-0.200 I-0.915 J0.000 F1999.800
G2 X220.915 Y-200.000 Z-0.200 I0.915 J0.000 F1999.800
G0 Z21.000
G0 X220.915 Y200.000
G0 Z21.000
G1 Z12.800 F999.600
G2 X219.085 Y200.000 Z12.540 I-0.915 J0.000 F1999.800
G2 X220.915 Y200.000 Z12.280 I0.915 J0.000 F1999.800
G2 X219.085 Y200.000 Z12.020 I-0.915 J0.000 F1999.800
G2 X220.915 Y200.000 Z11.760 I0.915 J0.000 F1999.800
G2 X219.085 Y200.000 Z11.500 I-0.915 J0.000 F1999.800
G2 X220.915 Y200.000 Z11.240 I0.915 J0.000 F1999.800
G2 X219.085 Y200.000 Z10.980 I-0.915 J0.000 F1999.800
G2 X220.915 Y200.000 Z10.720 I0.915 J0.000 F1999.800
G2 X219.085 Y200.000 Z10.460 I-0.915 J0.000 F1999.800
G2 X220.915 Y200.000 Z10.200 I0.915 J0.000 F1999.800
G2 X219.085 Y200.000 Z9.940 I-0.915 J0.000 F1999.800
G2 X220.915 Y200.000 Z9.680 I0.915 J0.000 F1999.800
G2 X219.085 Y200.000 Z9.420 I-0.915 J0.000 F1999.800
G2 X220.915 Y200.000 Z9.160 I0.915 J0.000 F1999.800
G2 X219.085 Y200.000 Z8.900 I-0.915 J0.000 F1999.800
G2 X220.915 Y200.000 Z8.640 I0.915 J0.000 F1999.800
G2 X219.085 Y200.000 Z8.380 I-0.915 J0.000 F1999.800
G2 X220.915 Y200.000 Z8.120 I0.915 J0.000 F1999.800
G2 X219.085 Y200.000 Z7.860 I-0.915 J0.000 F1999.800
G2 X220.915 Y200.000 Z7.600 I0.915 J0.000 F1999.800
G2 X219.085 Y200.000 Z7.340 I-0.915 J0.000 F1999.800
G2 X220.915 Y200.000 Z7.080 I0.915 J0.000 F1999.800
G2 X219.085 Y200.000 Z6.820 I-0.915 J0.000 F1999.800
G2 X220.915 Y200.000 Z6.560 I0.915 J0.000 F1999.800
G2 X219.085 Y200.000 Z6.300 I-0.915 J0.000 F1999.800
G2 X220.915 Y200.000 Z6.040 I0.915 J0.000 F1999.800
G2 X219.085 Y200.000 Z5.780 I-0.915 J0.000 F1999.800
G2 X220.915 Y200.000 Z5.520 I0.915 J0.000 F1999.800
G2 X219.085 Y200.000 Z5.260 I-0.915 J0.000 F1999.800
G2 X220.915 Y200.000 Z5.000 I0.915 J0.000 F1999.800
G2 X219.085 Y200.000 Z4.740 I-0.915 J0.000 F1999.800
G2 X220.915 Y200.000 Z4.480 I0.915 J0.000 F1999.800
G2 X219.085 Y200.000 Z4.220 I-0.915 J0.000 F1999.800
G2 X220.915 Y200.000 Z3.960 I0.915 J0.000 F1999.800
G2 X219.085 Y200.000 Z3.700 I-0.915 J0.000 F1999.800
G2 X220.915 Y200.000 Z3.440 I0.915 J0.000 F1999.800
G2 X219.085 Y200.000 Z3.180 I-0.915 J0.000 F1999.800
G2 X220.915 Y200.000 Z2.920 I0.915 J0.000 F1999.800
G2 X219.085 Y200.000 Z2.660 I-0.915 J0.000 F1999.800
G2 X220.915 Y200.000 Z2.400 I0.915 J0.000 F1999.800
G2 X219.085 Y200.000 Z2.140 I-0.915 J0.000 F1999.800
G2 X220.915 Y200.000 Z1.880 I0.915 J0.000 F1999.800
G2 X219.085 Y200.000 Z1.620 I-0.915 J0.000 F1999.800
G2 X220.915 Y200.000 Z1.360 I0.915 J0.000 F1999.800
G2 X219.085 Y200.000 Z1.100 I-0.915 J0.000 F1999.800
G2 X220.915 Y200.000 Z0.840 I0.915 J0.000 F1999.800
G2 X219.085 Y200.000 Z0.580 I-0.915 J0.000 F1999.800
G2 X220.915 Y200.000 Z0.320 I0.915 J0.000 F1999.800
G2 X219.085 Y200.000 Z0.060 I-0.915 J0.000 F1999.800
G2 X220.915 Y200.000 Z-0.200 I0.915 J0.000 F1999.800
G2 X219.085 Y200.000 Z-0.200 I-0.915 J0.000 F1999.800
G2 X220.915 Y200.000 Z-0.200 I0.915 J0.000 F1999.800
G0 Z21.000
G0 X-219.085 Y200.000
G0 Z21.000
G1 Z12.800 F999.600
G2 X-220.915 Y200.000 Z12.540 I-0.915 J0.000 F1999.800
G2 X-219.085 Y200.000 Z12.280 I0.915 J0.000 F1999.800
G2 X-220.915 Y200.000 Z12.020 I-0.915 J0.000 F1999.800
G2 X-219.085 Y200.000 Z11.760 I0.915 J0.000 F1999.800
G2 X-220.915 Y200.000 Z11.500 I-0.915 J0.000 F1999.800
G2 X-219.085 Y200.000 Z11.240 I0.915 J0.000 F1999.800
G2 X-220.915 Y200.000 Z10.980 I-0.915 J0.000 F1999.800
G2 X-219.085 Y200.000 Z10.720 I0.915 J0.000 F1999.800
G2 X-220.915 Y200.000 Z10.460 I-0.915 J0.000 F1999.800
G2 X-219.085 Y200.000 Z10.200 I0.915 J0.000 F1999.800
G2 X-220.915 Y200.000 Z9.940 I-0.915 J0.000 F1999.800
G2 X-219.085 Y200.000 Z9.680 I0.915 J0.000 F1999.800
G2 X-220.915 Y200.000 Z9.420 I-0.915 J0.000 F1999.800
G2 X-219.085 Y200.000 Z9.160 I0.915 J0.000 F1999.800
G2 X-220.915 Y200.000 Z8.900 I-0.915 J0.000 F1999.800
G2 X-219.085 Y200.000 Z8.640 I0.915 J0.000 F1999.800
G2 X-220.915 Y200.000 Z8.380 I-0.915 J0.000 F1999.800
G2 X-219.085 Y200.000 Z8.120 I0.915 J0.000 F1999.800
G2 X-220.915 Y200.000 Z7.860 I-0.915 J0.000 F1999.800
G2 X-219.085 Y200.000 Z7.600 I0.915 J0.000 F1999.800
G2 X-220.915 Y200.000 Z7.340 I-0.915 J0.000 F1999.800
G2 X-219.085 Y200.000 Z7.080 I0.915 J0.000 F1999.800
G2 X-220.915 Y200.000 Z6.820 I-0.915 J0.000 F1999.800
G2 X-219.085 Y200.000 Z6.560 I0.915 J0.000 F1999.800
G2 X-220.915 Y200.000 Z6.300 I-0.915 J0.000 F1999.800
G2 X-219.085 Y200.000 Z6.040 I0.915 J0.000 F1999.800
G2 X-220.915 Y200.000 Z5.780 I-0.915 J0.000 F1999.800
G2 X-219.085 Y200.000 Z5.520 I0.915 J0.000 F1999.800
G2 X-220.915 Y200.000 Z5.260 I-0.915 J0.000 F1999.800
G2 X-219.085 Y200.000 Z5.000 I0.915 J0.000 F1999.800
G2 X-220.915 Y200.000 Z4.740 I-0.915 J0.000 F1999.800
G2 X-219.085 Y200.000 Z4.480 I0.915 J0.000 F1999.800
G2 X-220.915 Y200.000 Z4.220 I-0.915 J0.000 F1999.800
G2 X-219.085 Y200.000 Z3.960 I0.915 J0.000 F1999.800
G2 X-220.915 Y200.000 Z3.700 I-0.915 J0.000 F1999.800
G2 X-219.085 Y200.000 Z3.440 I0.915 J0.000 F1999.800
G2 X-220.915 Y200.000 Z3.180 I-0.915 J0.000 F1999.800
G2 X-219.085 Y200.000 Z2.920 I0.915 J0.000 F1999.800
G2 X-220.915 Y200.000 Z2.660 I-0.915 J0.000 F1999.800
G2 X-219.085 Y200.000 Z2.400 I0.915 J0.000 F1999.800
G2 X-220.915 Y200.000 Z2.140 I-0.915 J0.000 F1999.800
G2 X-219.085 Y200.000 Z1.880 I0.915 J0.000 F1999.800
G2 X-220.915 Y200.000 Z1.620 I-0.915 J0.000 F1999.800
G2 X-219.085 Y200.000 Z1.360 I0.915 J0.000 F1999.800
G2 X-220.915 Y200.000 Z1.100 I-0.915 J0.000 F1999.800
G2 X-219.085 Y200.000 Z0.840 I0.915 J0.000 F1999.800
G2 X-220.915 Y200.000 Z0.580 I-0.915 J0.000 F1999.800
G2 X-219.085 Y200.000 Z0.320 I0.915 J0.000 F1999.800
G2 X-220.915 Y200.000 Z0.060 I-0.915 J0.000 F1999.800
G2 X-219.085 Y200.000 Z-0.200 I0.915 J0.000 F1999.800
G2 X-220.915 Y200.000 Z-0.200 I-0.915 J0.000 F1999.800
G2 X-219.085 Y200.000 Z-0.200 I0.915 J0.000 F1999.800
G0 Z21.000
G0 X-219.085 Y-200.000
G0 Z21.000
G1 Z12.800 F999.600
G2 X-220.915 Y-200.000 Z12.540 I-0.915 J0.000 F1999.800
G2 X-219.085 Y-200.000 Z12.280 I0.915 J0.000 F1999.800
G2 X-220.915 Y-200.000 Z12.020 I-0.915 J0.000 F1999.800
G2 X-219.085 Y-200.000 Z11.760 I0.915 J0.000 F1999.800
G2 X-220.915 Y-200.000 Z11.500 I-0.915 J0.000 F1999.800
G2 X-219.085 Y-200.000 Z11.240 I0.915 J0.000 F1999.800
G2 X-220.915 Y-200.000 Z10.980 I-0.915 J0.000 F1999.800
G2 X-219.085 Y-200.000 Z10.720 I0.915 J0.000 F1999.800
G2 X-220.915 Y-200.000 Z10.460 I-0.915 J0.000 F1999.800
G2 X-219.085 Y-200.000 Z10.200 I0.915 J0.000 F1999.800
G2 X-220.915 Y-200.000 Z9.940 I-0.915 J0.000 F1999.800
G2 X-219.085 Y-200.000 Z9.680 I0.915 J0.000 F1999.800
G2 X-220.915 Y-200.000 Z9.420 I-0.915 J0.000 F1999.800
G2 X-219.085 Y-200.000 Z9.160 I0.915 J0.000 F1999.800
G2 X-220.915 Y-200.000 Z8.900 I-0.915 J0.000 F1999.800
G2 X-219.085 Y-200.000 Z8.640 I0.915 J0.000 F1999.800
G2 X-220.915 Y-200.000 Z8.380 I-0.915 J0.000 F1999.800
G2 X-219.085 Y-200.000 Z8.120 I0.915 J0.000 F1999.800
G2 X-220.915 Y-200.000 Z7.860 I-0.915 J0.000 F1999.800
G2 X-219.085 Y-200.000 Z7.600 I0.915 J0.000 F1999.800
G2 X-220.915 Y-200.000 Z7.340 I-0.915 J0.000 F1999.800
G2 X-219.085 Y-200.000 Z7.080 I0.915 J0.000 F1999.800
G2 X-220.915 Y-200.000 Z6.820 I-0.915 J0.000 F1999.800
G2 X-219.085 Y-200.000 Z6.560 I0.915 J0.000 F1999.800
G2 X-220.915 Y-200.000 Z6.300 I-0.915 J0.000 F1999.800
G2 X-219.085 Y-200.000 Z6.040 I0.915 J0.000 F1999.800
G2 X-220.915 Y-200.000 Z5.780 I-0.915 J0.000 F1999.800
G2 X-219.085 Y-200.000 Z5.520 I0.915 J0.000 F1999.800
G2 X-220.915 Y-200.000 Z5.260 I-0.915 J0.000 F1999.800
G2 X-219.085 Y-200.000 Z5.000 I0.915 J0.000 F1999.800
G2 X-220.915 Y-200.000 Z4.740 I-0.915 J0.000 F1999.800
G2 X-219.085 Y-200.000 Z4.480 I0.915 J0.000 F1999.800
G2 X-220.915 Y-200.000 Z4.220 I-0.915 J0.000 F1999.800
G2 X-219.085 Y-200.000 Z3.960 I0.915 J0.000 F1999.800
G2 X-220.915 Y-200.000 Z3.700 I-0.915 J0.000 F1999.800
G2 X-219.085 Y-200.000 Z3.440 I0.915 J0.000 F1999.800
G2 X-220.915 Y-200.000 Z3.180 I-0.915 J0.000 F1999.800
G2 X-219.085 Y-200.000 Z2.920 I0.915 J0.000 F1999.800
G2 X-220.915 Y-200.000 Z2.660 I-0.915 J0.000 F1999.800
G2 X-219.085 Y-200.000 Z2.400 I0.915 J0.000 F1999.800
G2 X-220.915 Y-200.000 Z2.140 I-0.915 J0.000 F1999.800
G2 X-219.085 Y-200.000 Z1.880 I0.915 J0.000 F1999.800
G2 X-220.915 Y-200.000 Z1.620 I-0.915 J0.000 F1999.800
G2 X-219.085 Y-200.000 Z1.360 I0.915 J0.000 F1999.800
G2 X-220.915 Y-200.000 Z1.100 I-0.915 J0.000 F1999.800
G2 X-219.085 Y-200.000 Z0.840 I0.915 J0.000 F1999.800
G2 X-220.915 Y-200.000 Z0.580 I-0.915 J0.000 F1999.800
G2 X-219.085 Y-200.000 Z0.320 I0.915 J0.000 F1999.800
G2 X-220.915 Y-200.000 Z0.060 I-0.915 J0.000 F1999.800
G2 X-219.085 Y-200.000 Z-0.200 I0.915 J0.000 F1999.800
G2 X-220.915 Y-200.000 Z-0.200 I-0.915 J0.000 F1999.800
G2 X-219.085 Y-200.000 Z-0.200 I0.915 J0.000 F1999.800
G0 Z21.000
G0 Z23.000
(Finish operation: Hole_12.8mm)
(Begin operation: Counterbore_12.8mm_11.8mm)
(Path: Counterbore_12.8mm_11.8mm)
(Counterbore_12.8mm_11.8mm)
(helix cut operation)
G0 Z23.000
G0 X221.189 Y-200.000
G0 Z21.000
G1 Z12.800 F999.600
G2 X218.811 Y-200.000 Z12.550 I-1.189 J0.000 F1999.800
G2 X221.189 Y-200.000 Z12.300 I1.189 J0.000 F1999.800
G2 X218.811 Y-200.000 Z12.050 I-1.189 J0.000 F1999.800
G2 X221.189 Y-200.000 Z11.800 I1.189 J0.000 F1999.800
G2 X218.811 Y-200.000 Z11.800 I-1.189 J0.000 F1999.800
G2 X221.189 Y-200.000 Z11.800 I1.189 J0.000 F1999.800
G0 Z21.000
G0 X223.415 Y-200.000
G0 Z21.000
G1 Z12.800 F999.600
G2 X216.585 Y-200.000 Z12.550 I-3.415 J0.000 F1999.800
G2 X223.415 Y-200.000 Z12.300 I3.415 J0.000 F1999.800
G2 X216.585 Y-200.000 Z12.050 I-3.415 J0.000 F1999.800
G2 X223.415 Y-200.000 Z11.800 I3.415 J0.000 F1999.800
G2 X216.585 Y-200.000 Z11.800 I-3.415 J0.000 F1999.800
G2 X223.415 Y-200.000 Z11.800 I3.415 J0.000 F1999.800
G0 Z21.000
G0 X221.189 Y200.000
G0 Z21.000
G1 Z12.800 F999.600
G2 X218.811 Y200.000 Z12.550 I-1.189 J0.000 F1999.800
G2 X221.189 Y200.000 Z12.300 I1.189 J0.000 F1999.800
G2 X218.811 Y200.000 Z12.050 I-1.189 J0.000 F1999.800
G2 X221.189 Y200.000 Z11.800 I1.189 J0.000 F1999.800
G2 X218.811 Y200.000 Z11.800 I-1.189 J0.000 F1999.800
G2 X221.189 Y200.000 Z11.800 I1.189 J0.000 F1999.800
G0 Z21.000
G0 X223.415 Y200.000
G0 Z21.000
G1 Z12.800 F999.600
G2 X216.585 Y200.000 Z12.550 I-3.415 J0.000 F1999.800
G2 X223.415 Y200.000 Z12.300 I3.415 J0.000 F1999.800
G2 X216.585 Y200.000 Z12.050 I-3.415 J0.000 F1999.800
G2 X223.415 Y200.000 Z11.800 I3.415 J0.000 F1999.800
G2 X216.585 Y200.000 Z11.800 I-3.415 J0.000 F1999.800
G2 X223.415 Y200.000 Z11.800 I3.415 J0.000 F1999.800
G0 Z21.000
G0 X-218.811 Y200.000
G0 Z21.000
G1 Z12.800 F999.600
G2 X-221.189 Y200.000 Z12.550 I-1.189 J0.000 F1999.800
G2 X-218.811 Y200.000 Z12.300 I1.189 J0.000 F1999.800
G2 X-221.189 Y200.000 Z12.050 I-1.189 J0.000 F1999.800
G2 X-218.811 Y200.000 Z11.800 I1.189 J0.000 F1999.800
G2 X-221.189 Y200.000 Z11.800 I-1.189 J0.000 F1999.800
G2 X-218.811 Y200.000 Z11.800 I1.189 J0.000 F1999.800
G0 Z21.000
G0 X-216.585 Y200.000
G0 Z21.000
G1 Z12.800 F999.600
G2 X-223.415 Y200.000 Z12.550 I-3.415 J0.000 F1999.800
G2 X-216.585 Y200.000 Z12.300 I3.415 J0.000 F1999.800
G2 X-223.415 Y200.000 Z12.050 I-3.415 J0.000 F1999.800
G2 X-216.585 Y200.000 Z11.800 I3.415 J0.000 F1999.800
G2 X-223.415 Y200.000 Z11.800 I-3.415 J0.000 F1999.800
G2 X-216.585 Y200.000 Z11.800 I3.415 J0.000 F1999.800
G0 Z21.000
G0 X-218.811 Y-200.000
G0 Z21.000
G1 Z12.800 F999.600
G2 X-221.189 Y-200.000 Z12.550 I-1.189 J0.000 F1999.800
G2 X-218.811 Y-200.000 Z12.300 I1.189 J0.000 F1999.800
G2 X-221.189 Y-200.000 Z12.050 I-1.189 J0.000 F1999.800
G2 X-218.811 Y-200.000 Z11.800 I1.189 J0.000 F1999.800
G2 X-221.189 Y-200.000 Z11.800 I-1.189 J0.000 F1999.800
G2 X-218.811 Y-200.000 Z11.800 I1.189 J0.000 F1999.800
G0 Z21.000
G0 X-216.585 Y-200.000
G0 Z21.000
G1 Z12.800 F999.600
G2 X-223.415 Y-200.000 Z12.550 I-3.415 J0.000 F1999.800
G2 X-216.585 Y-200.000 Z12.300 I3.415 J0.000 F1999.800
G2 X-223.415 Y-200.000 Z12.050 I-3.415 J0.000 F1999.800
G2 X-216.585 Y-200.000 Z11.800 I3.415 J0.000 F1999.800
G2 X-223.415 Y-200.000 Z11.800 I-3.415 J0.000 F1999.800
G2 X-216.585 Y-200.000 Z11.800 I3.415 J0.000 F1999.800
G0 Z21.000
G0 Z23.000
(Finish operation: Counterbore_12.8mm_11.8mm)
(Begin postamble)
M5
G17 G90
M2
