(Exported by FreeCAD)
(Post Processor: grbl_post)
(Output Time:2020-05-23 15:18:39.729811)
(Begin preamble)
G17 G90
G21
(Begin operation: Fixture)
(Path: Fixture)
G54
(Finish operation: Fixture)
(Begin operation: T6: 2FluteWoodMill004)
(Path: T6: 2FluteWoodMill004)
(T6: 2FluteWoodMill004)
(Begin toolchange)
(M6 T6.0)
M3 S14000.0
(Finish operation: T6: 2FluteWoodMill004)
(Begin operation: Base_Mount_Pocket)
(Path: Base_Mount_Pocket)
(Pocket_Shape002)
G0 Z23.000
G0 X45.913 Y45.913
G0 Z21.000
G1 X45.913 Y45.913 Z17.471 F999.600
G1 X-45.913 Y45.913 Z17.471 F1999.800
G1 X-45.913 Y-45.913 Z17.471 F1999.800
G1 X45.913 Y-45.913 Z17.471 F1999.800
G1 X45.913 Y45.913 Z17.471 F1999.800
G0 Z23.000
G0 X43.531 Y43.531 Z23.000
G0 X43.531 Y43.531 Z21.000
G1 X43.531 Y43.531 Z17.471 F999.600
G1 X-43.531 Y43.531 Z17.471 F1999.800
G1 X-43.531 Y-43.531 Z17.471 F1999.800
G1 X43.531 Y-43.531 Z17.471 F1999.800
G1 X43.531 Y43.531 Z17.471 F1999.800
G0 Z23.000
G0 X41.150 Y41.150 Z23.000
G0 X41.150 Y41.150 Z21.000
G1 X41.150 Y41.150 Z17.471 F999.600
G1 X-41.150 Y41.150 Z17.471 F1999.800
G1 X-41.150 Y-41.150 Z17.471 F1999.800
G1 X41.150 Y-41.150 Z17.471 F1999.800
G1 X41.150 Y41.150 Z17.471 F1999.800
G0 Z23.000
G0 X38.769 Y38.769 Z23.000
G0 X38.769 Y38.769 Z21.000
G1 X38.769 Y38.769 Z17.471 F999.600
G1 X-38.769 Y38.769 Z17.471 F1999.800
G1 X-38.769 Y-38.769 Z17.471 F1999.800
G1 X38.769 Y-38.769 Z17.471 F1999.800
G1 X38.769 Y38.769 Z17.471 F1999.800
G0 Z23.000
G0 X36.388 Y36.388 Z23.000
G0 X36.388 Y36.388 Z21.000
G1 X36.388 Y36.388 Z17.471 F999.600
G1 X-36.388 Y36.388 Z17.471 F1999.800
G1 X-36.388 Y-36.388 Z17.471 F1999.800
G1 X36.388 Y-36.388 Z17.471 F1999.800
G1 X36.388 Y36.388 Z17.471 F1999.800
G0 Z23.000
G0 X34.006 Y34.006 Z23.000
G0 X34.006 Y34.006 Z21.000
G1 X34.006 Y34.006 Z17.471 F999.600
G1 X-34.006 Y34.006 Z17.471 F1999.800
G1 X-34.006 Y-34.006 Z17.471 F1999.800
G1 X34.006 Y-34.006 Z17.471 F1999.800
G1 X34.006 Y34.006 Z17.471 F1999.800
G0 Z23.000
G0 X31.625 Y31.625 Z23.000
G0 X31.625 Y31.625 Z21.000
G1 X31.625 Y31.625 Z17.471 F999.600
G1 X-31.625 Y31.625 Z17.471 F1999.800
G1 X-31.625 Y-31.625 Z17.471 F1999.800
G1 X31.625 Y-31.625 Z17.471 F1999.800
G1 X31.625 Y31.625 Z17.471 F1999.800
G0 Z23.000
G0 X29.244 Y29.244 Z23.000
G0 X29.244 Y29.244 Z21.000
G1 X29.244 Y29.244 Z17.471 F999.600
G1 X-29.244 Y29.244 Z17.471 F1999.800
G1 X-29.244 Y-29.244 Z17.471 F1999.800
G1 X29.244 Y-29.244 Z17.471 F1999.800
G1 X29.244 Y29.244 Z17.471 F1999.800
G0 Z23.000
G0 X26.863 Y26.863 Z23.000
G0 X26.863 Y26.863 Z21.000
G1 X26.863 Y26.863 Z17.471 F999.600
G1 X-26.863 Y26.863 Z17.471 F1999.800
G1 X-26.863 Y-26.863 Z17.471 F1999.800
G1 X26.863 Y-26.863 Z17.471 F1999.800
G1 X26.863 Y26.863 Z17.471 F1999.800
G0 Z23.000
G0 X24.481 Y24.481 Z23.000
G0 X24.481 Y24.481 Z21.000
G1 X24.481 Y24.481 Z17.471 F999.600
G1 X-24.481 Y24.481 Z17.471 F1999.800
G1 X-24.481 Y-24.481 Z17.471 F1999.800
G1 X24.481 Y-24.481 Z17.471 F1999.800
G1 X24.481 Y24.481 Z17.471 F1999.800
G0 Z23.000
G0 X22.100 Y22.100 Z23.000
G0 X22.100 Y22.100 Z21.000
G1 X22.100 Y22.100 Z17.471 F999.600
G1 X-22.100 Y22.100 Z17.471 F1999.800
G1 X-22.100 Y-22.100 Z17.471 F1999.800
G1 X22.100 Y-22.100 Z17.471 F1999.800
G1 X22.100 Y22.100 Z17.471 F1999.800
G0 Z23.000
G0 X19.719 Y19.719 Z23.000
G0 X19.719 Y19.719 Z21.000
G1 X19.719 Y19.719 Z17.471 F999.600
G1 X-19.719 Y19.719 Z17.471 F1999.800
G1 X-19.719 Y-19.719 Z17.471 F1999.800
G1 X19.719 Y-19.719 Z17.471 F1999.800
G1 X19.719 Y19.719 Z17.471 F1999.800
G0 Z23.000
G0 X17.337 Y17.337 Z23.000
G0 X17.337 Y17.337 Z21.000
G1 X17.337 Y17.337 Z17.471 F999.600
G1 X-17.337 Y17.337 Z17.471 F1999.800
G1 X-17.337 Y-17.337 Z17.471 F1999.800
G1 X17.337 Y-17.337 Z17.471 F1999.800
G1 X17.337 Y17.337 Z17.471 F1999.800
G0 Z23.000
G0 X14.956 Y14.956 Z23.000
G0 X14.956 Y14.956 Z21.000
G1 X14.956 Y14.956 Z17.471 F999.600
G1 X-14.956 Y14.956 Z17.471 F1999.800
G1 X-14.956 Y-14.956 Z17.471 F1999.800
G1 X14.956 Y-14.956 Z17.471 F1999.800
G1 X14.956 Y14.956 Z17.471 F1999.800
G0 Z23.000
G0 X12.575 Y12.575 Z23.000
G0 X12.575 Y12.575 Z21.000
G1 X12.575 Y12.575 Z17.471 F999.600
G1 X-12.575 Y12.575 Z17.471 F1999.800
G1 X-12.575 Y-12.575 Z17.471 F1999.800
G1 X12.575 Y-12.575 Z17.471 F1999.800
G1 X12.575 Y12.575 Z17.471 F1999.800
G0 Z23.000
G0 X10.194 Y10.194 Z23.000
G0 X10.194 Y10.194 Z21.000
G1 X10.194 Y10.194 Z17.471 F999.600
G1 X-10.194 Y10.194 Z17.471 F1999.800
G1 X-10.194 Y-10.194 Z17.471 F1999.800
G1 X10.194 Y-10.194 Z17.471 F1999.800
G1 X10.194 Y10.194 Z17.471 F1999.800
G0 Z23.000
G0 X7.812 Y7.812 Z23.000
G0 X7.812 Y7.812 Z21.000
G1 X7.812 Y7.812 Z17.471 F999.600
G1 X-7.812 Y7.812 Z17.471 F1999.800
G1 X-7.812 Y-7.812 Z17.471 F1999.800
G1 X7.812 Y-7.812 Z17.471 F1999.800
G1 X7.812 Y7.812 Z17.471 F1999.800
G0 Z23.000
G0 X5.431 Y5.431 Z23.000
G0 X5.431 Y5.431 Z21.000
G1 X5.431 Y5.431 Z17.471 F999.600
G1 X-5.431 Y5.431 Z17.471 F1999.800
G1 X-5.431 Y-5.431 Z17.471 F1999.800
G1 X5.431 Y-5.431 Z17.471 F1999.800
G1 X5.431 Y5.431 Z17.471 F1999.800
G0 Z23.000
G0 X3.050 Y3.050 Z23.000
G0 X3.050 Y3.050 Z21.000
G1 X3.050 Y3.050 Z17.471 F999.600
G1 X-3.050 Y3.050 Z17.471 F1999.800
G1 X-3.050 Y-3.050 Z17.471 F1999.800
G1 X3.050 Y-3.050 Z17.471 F1999.800
G1 X3.050 Y3.050 Z17.471 F1999.800
G0 Z23.000
G0 X0.669 Y0.669 Z23.000
G0 X0.669 Y0.669 Z21.000
G1 X0.669 Y0.669 Z17.471 F999.600
G1 X-0.669 Y0.669 Z17.471 F1999.800
G1 X-0.669 Y-0.669 Z17.471 F1999.800
G1 X0.669 Y-0.669 Z17.471 F1999.800
G1 X0.669 Y0.669 Z17.471 F1999.800
G1 X0.669 Y0.669 Z17.000 F999.600
G1 X-0.669 Y0.669 Z17.000 F1999.800
G1 X-0.669 Y-0.669 Z17.000 F1999.800
G1 X0.669 Y-0.669 Z17.000 F1999.800
G1 X0.669 Y0.669 Z17.000 F1999.800
G0 Z23.000
G0 X3.050 Z23.000
G0 X3.050 Z21.000
G1 X3.050 Y0.669 Z17.000 F999.600
G1 X3.050 Y3.050 Z17.000 F1999.800
G1 X-3.050 Y3.050 Z17.000 F1999.800
G1 X-3.050 Y-3.050 Z17.000 F1999.800
G1 X3.050 Y-3.050 Z17.000 F1999.800
G1 X3.050 Y0.669 Z17.000 F1999.800
G0 Z23.000
G0 X5.431 Z23.000
G0 X5.431 Z21.000
G1 X5.431 Y0.669 Z17.000 F999.600
G1 X5.431 Y5.431 Z17.000 F1999.800
G1 X-5.431 Y5.431 Z17.000 F1999.800
G1 X-5.431 Y-5.431 Z17.000 F1999.800
G1 X5.431 Y-5.431 Z17.000 F1999.800
G1 X5.431 Y0.669 Z17.000 F1999.800
G0 Z23.000
G0 X7.812 Z23.000
G0 X7.812 Z21.000
G1 X7.812 Y0.669 Z17.000 F999.600
G1 X7.812 Y7.812 Z17.000 F1999.800
G1 X-7.812 Y7.812 Z17.000 F1999.800
G1 X-7.812 Y-7.812 Z17.000 F1999.800
G1 X7.812 Y-7.812 Z17.000 F1999.800
G1 X7.812 Y0.669 Z17.000 F1999.800
G0 Z23.000
G0 X10.194 Z23.000
G0 X10.194 Z21.000
G1 X10.194 Y0.669 Z17.000 F999.600
G1 X10.194 Y10.194 Z17.000 F1999.800
G1 X-10.194 Y10.194 Z17.000 F1999.800
G1 X-10.194 Y-10.194 Z17.000 F1999.800
G1 X10.194 Y-10.194 Z17.000 F1999.800
G1 X10.194 Y0.669 Z17.000 F1999.800
G0 Z23.000
G0 X12.575 Z23.000
G0 X12.575 Z21.000
G1 X12.575 Y0.669 Z17.000 F999.600
G1 X12.575 Y12.575 Z17.000 F1999.800
G1 X-12.575 Y12.575 Z17.000 F1999.800
G1 X-12.575 Y-12.575 Z17.000 F1999.800
G1 X12.575 Y-12.575 Z17.000 F1999.800
G1 X12.575 Y0.669 Z17.000 F1999.800
G0 Z23.000
G0 X14.956 Z23.000
G0 X14.956 Z21.000
G1 X14.956 Y0.669 Z17.000 F999.600
G1 X14.956 Y14.956 Z17.000 F1999.800
G1 X-14.956 Y14.956 Z17.000 F1999.800
G1 X-14.956 Y-14.956 Z17.000 F1999.800
G1 X14.956 Y-14.956 Z17.000 F1999.800
G1 X14.956 Y0.669 Z17.000 F1999.800
G0 Z23.000
G0 X17.337 Z23.000
G0 X17.337 Z21.000
G1 X17.337 Y0.669 Z17.000 F999.600
G1 X17.337 Y17.337 Z17.000 F1999.800
G1 X-17.337 Y17.337 Z17.000 F1999.800
G1 X-17.337 Y-17.337 Z17.000 F1999.800
G1 X17.337 Y-17.337 Z17.000 F1999.800
G1 X17.337 Y0.669 Z17.000 F1999.800
G0 Z23.000
G0 X19.719 Z23.000
G0 X19.719 Z21.000
G1 X19.719 Y0.669 Z17.000 F999.600
G1 X19.719 Y19.719 Z17.000 F1999.800
G1 X-19.719 Y19.719 Z17.000 F1999.800
G1 X-19.719 Y-19.719 Z17.000 F1999.800
G1 X19.719 Y-19.719 Z17.000 F1999.800
G1 X19.719 Y0.669 Z17.000 F1999.800
G0 Z23.000
G0 X22.100 Z23.000
G0 X22.100 Z21.000
G1 X22.100 Y0.669 Z17.000 F999.600
G1 X22.100 Y22.100 Z17.000 F1999.800
G1 X-22.100 Y22.100 Z17.000 F1999.800
G1 X-22.100 Y-22.100 Z17.000 F1999.800
G1 X22.100 Y-22.100 Z17.000 F1999.800
G1 X22.100 Y0.669 Z17.000 F1999.800
G0 Z23.000
G0 X24.481 Z23.000
G0 X24.481 Z21.000
G1 X24.481 Y0.669 Z17.000 F999.600
G1 X24.481 Y24.481 Z17.000 F1999.800
G1 X-24.481 Y24.481 Z17.000 F1999.800
G1 X-24.481 Y-24.481 Z17.000 F1999.800
G1 X24.481 Y-24.481 Z17.000 F1999.800
G1 X24.481 Y0.669 Z17.000 F1999.800
G0 Z23.000
G0 X26.863 Z23.000
G0 X26.863 Z21.000
G1 X26.863 Y0.669 Z17.000 F999.600
G1 X26.863 Y26.863 Z17.000 F1999.800
G1 X-26.863 Y26.863 Z17.000 F1999.800
G1 X-26.863 Y-26.863 Z17.000 F1999.800
G1 X26.863 Y-26.863 Z17.000 F1999.800
G1 X26.863 Y0.669 Z17.000 F1999.800
G0 Z23.000
G0 X29.244 Z23.000
G0 X29.244 Z21.000
G1 X29.244 Y0.669 Z17.000 F999.600
G1 X29.244 Y29.244 Z17.000 F1999.800
G1 X-29.244 Y29.244 Z17.000 F1999.800
G1 X-29.244 Y-29.244 Z17.000 F1999.800
G1 X29.244 Y-29.244 Z17.000 F1999.800
G1 X29.244 Y0.669 Z17.000 F1999.800
G0 Z23.000
G0 X31.625 Z23.000
G0 X31.625 Z21.000
G1 X31.625 Y0.669 Z17.000 F999.600
G1 X31.625 Y31.625 Z17.000 F1999.800
G1 X-31.625 Y31.625 Z17.000 F1999.800
G1 X-31.625 Y-31.625 Z17.000 F1999.800
G1 X31.625 Y-31.625 Z17.000 F1999.800
G1 X31.625 Y0.669 Z17.000 F1999.800
G0 Z23.000
G0 X34.006 Z23.000
G0 X34.006 Z21.000
G1 X34.006 Y0.669 Z17.000 F999.600
G1 X34.006 Y34.006 Z17.000 F1999.800
G1 X-34.006 Y34.006 Z17.000 F1999.800
G1 X-34.006 Y-34.006 Z17.000 F1999.800
G1 X34.006 Y-34.006 Z17.000 F1999.800
G1 X34.006 Y0.669 Z17.000 F1999.800
G0 Z23.000
G0 X36.388 Z23.000
G0 X36.388 Z21.000
G1 X36.388 Y0.669 Z17.000 F999.600
G1 X36.388 Y36.388 Z17.000 F1999.800
G1 X-36.388 Y36.388 Z17.000 F1999.800
G1 X-36.388 Y-36.388 Z17.000 F1999.800
G1 X36.388 Y-36.388 Z17.000 F1999.800
G1 X36.388 Y0.669 Z17.000 F1999.800
G0 Z23.000
G0 X38.769 Z23.000
G0 X38.769 Z21.000
G1 X38.769 Y0.669 Z17.000 F999.600
G1 X38.769 Y38.769 Z17.000 F1999.800
G1 X-38.769 Y38.769 Z17.000 F1999.800
G1 X-38.769 Y-38.769 Z17.000 F1999.800
G1 X38.769 Y-38.769 Z17.000 F1999.800
G1 X38.769 Y0.669 Z17.000 F1999.800
G0 Z23.000
G0 X41.150 Z23.000
G0 X41.150 Z21.000
G1 X41.150 Y0.669 Z17.000 F999.600
G1 X41.150 Y41.150 Z17.000 F1999.800
G1 X-41.150 Y41.150 Z17.000 F1999.800
G1 X-41.150 Y-41.150 Z17.000 F1999.800
G1 X41.150 Y-41.150 Z17.000 F1999.800
G1 X41.150 Y0.669 Z17.000 F1999.800
G0 Z23.000
G0 X43.531 Z23.000
G0 X43.531 Z21.000
G1 X43.531 Y0.669 Z17.000 F999.600
G1 X43.531 Y43.531 Z17.000 F1999.800
G1 X-43.531 Y43.531 Z17.000 F1999.800
G1 X-43.531 Y-43.531 Z17.000 F1999.800
G1 X43.531 Y-43.531 Z17.000 F1999.800
G1 X43.531 Y0.669 Z17.000 F1999.800
G0 Z23.000
G0 X45.913 Z23.000
G0 X45.913 Z21.000
G1 X45.913 Y0.669 Z17.000 F999.600
G1 X45.913 Y45.913 Z17.000 F1999.800
G1 X-45.913 Y45.913 Z17.000 F1999.800
G1 X-45.913 Y-45.913 Z17.000 F1999.800
G1 X45.913 Y-45.913 Z17.000 F1999.800
G1 X45.913 Y0.669 Z17.000 F1999.800
G0 Z23.000
G0 Z23.000
(Finish operation: Base_Mount_Pocket)
(Begin operation: Base_Mount_Holes)
(Path: Base_Mount_Holes)
(Helix009)
(helix cut operation)
G0 Z23.000
G0 X-40.587 Y-41.500
G0 Z21.000
G1 Z18.000 F999.600
G2 X-42.413 Y-41.500 Z17.738 I-0.912 J0.000 F1999.800
G2 X-40.587 Y-41.500 Z17.476 I0.912 J0.000 F1999.800
G2 X-42.413 Y-41.500 Z17.214 I-0.912 J0.000 F1999.800
G2 X-40.587 Y-41.500 Z16.952 I0.912 J0.000 F1999.800
G2 X-42.413 Y-41.500 Z16.690 I-0.912 J0.000 F1999.800
G2 X-40.587 Y-41.500 Z16.429 I0.912 J0.000 F1999.800
G2 X-42.413 Y-41.500 Z16.167 I-0.912 J0.000 F1999.800
G2 X-40.587 Y-41.500 Z15.905 I0.912 J0.000 F1999.800
G2 X-42.413 Y-41.500 Z15.643 I-0.912 J0.000 F1999.800
G2 X-40.587 Y-41.500 Z15.381 I0.912 J0.000 F1999.800
G2 X-42.413 Y-41.500 Z15.119 I-0.912 J0.000 F1999.800
G2 X-40.587 Y-41.500 Z14.857 I0.912 J0.000 F1999.800
G2 X-42.413 Y-41.500 Z14.595 I-0.912 J0.000 F1999.800
G2 X-40.587 Y-41.500 Z14.333 I0.912 J0.000 F1999.800
G2 X-42.413 Y-41.500 Z14.071 I-0.912 J0.000 F1999.800
G2 X-40.587 Y-41.500 Z13.810 I0.912 J0.000 F1999.800
G2 X-42.413 Y-41.500 Z13.548 I-0.912 J0.000 F1999.800
G2 X-40.587 Y-41.500 Z13.286 I0.912 J0.000 F1999.800
G2 X-42.413 Y-41.500 Z13.024 I-0.912 J0.000 F1999.800
G2 X-40.587 Y-41.500 Z12.762 I0.912 J0.000 F1999.800
G2 X-42.413 Y-41.500 Z12.500 I-0.912 J0.000 F1999.800
G2 X-40.587 Y-41.500 Z12.238 I0.912 J0.000 F1999.800
G2 X-42.413 Y-41.500 Z11.976 I-0.912 J0.000 F1999.800
G2 X-40.587 Y-41.500 Z11.714 I0.912 J0.000 F1999.800
G2 X-42.413 Y-41.500 Z11.452 I-0.912 J0.000 F1999.800
G2 X-40.587 Y-41.500 Z11.190 I0.912 J0.000 F1999.800
G2 X-42.413 Y-41.500 Z10.929 I-0.912 J0.000 F1999.800
G2 X-40.587 Y-41.500 Z10.667 I0.912 J0.000 F1999.800
G2 X-42.413 Y-41.500 Z10.405 I-0.912 J0.000 F1999.800
G2 X-40.587 Y-41.500 Z10.143 I0.912 J0.000 F1999.800
G2 X-42.413 Y-41.500 Z9.881 I-0.912 J0.000 F1999.800
G2 X-40.587 Y-41.500 Z9.619 I0.912 J0.000 F1999.800
G2 X-42.413 Y-41.500 Z9.357 I-0.912 J0.000 F1999.800
G2 X-40.587 Y-41.500 Z9.095 I0.912 J0.000 F1999.800
G2 X-42.413 Y-41.500 Z8.833 I-0.912 J0.000 F1999.800
G2 X-40.587 Y-41.500 Z8.571 I0.912 J0.000 F1999.800
G2 X-42.413 Y-41.500 Z8.310 I-0.912 J0.000 F1999.800
G2 X-40.587 Y-41.500 Z8.048 I0.912 J0.000 F1999.800
G2 X-42.413 Y-41.500 Z7.786 I-0.912 J0.000 F1999.800
G2 X-40.587 Y-41.500 Z7.524 I0.912 J0.000 F1999.800
G2 X-42.413 Y-41.500 Z7.262 I-0.912 J0.000 F1999.800
G2 X-40.587 Y-41.500 Z7.000 I0.912 J0.000 F1999.800
G2 X-42.413 Y-41.500 Z7.000 I-0.912 J0.000 F1999.800
G2 X-40.587 Y-41.500 Z7.000 I0.912 J0.000 F1999.800
G0 Z21.000
G0 X42.413 Y-41.500
G0 Z21.000
G1 Z18.000 F999.600
G2 X40.587 Y-41.500 Z17.738 I-0.912 J0.000 F1999.800
G2 X42.413 Y-41.500 Z17.476 I0.912 J0.000 F1999.800
G2 X40.587 Y-41.500 Z17.214 I-0.912 J0.000 F1999.800
G2 X42.413 Y-41.500 Z16.952 I0.912 J0.000 F1999.800
G2 X40.587 Y-41.500 Z16.690 I-0.912 J0.000 F1999.800
G2 X42.413 Y-41.500 Z16.429 I0.912 J0.000 F1999.800
G2 X40.587 Y-41.500 Z16.167 I-0.912 J0.000 F1999.800
G2 X42.413 Y-41.500 Z15.905 I0.912 J0.000 F1999.800
G2 X40.587 Y-41.500 Z15.643 I-0.912 J0.000 F1999.800
G2 X42.413 Y-41.500 Z15.381 I0.912 J0.000 F1999.800
G2 X40.587 Y-41.500 Z15.119 I-0.912 J0.000 F1999.800
G2 X42.413 Y-41.500 Z14.857 I0.912 J0.000 F1999.800
G2 X40.587 Y-41.500 Z14.595 I-0.912 J0.000 F1999.800
G2 X42.413 Y-41.500 Z14.333 I0.912 J0.000 F1999.800
G2 X40.587 Y-41.500 Z14.071 I-0.912 J0.000 F1999.800
G2 X42.413 Y-41.500 Z13.810 I0.912 J0.000 F1999.800
G2 X40.587 Y-41.500 Z13.548 I-0.912 J0.000 F1999.800
G2 X42.413 Y-41.500 Z13.286 I0.912 J0.000 F1999.800
G2 X40.587 Y-41.500 Z13.024 I-0.912 J0.000 F1999.800
G2 X42.413 Y-41.500 Z12.762 I0.912 J0.000 F1999.800
G2 X40.587 Y-41.500 Z12.500 I-0.912 J0.000 F1999.800
G2 X42.413 Y-41.500 Z12.238 I0.912 J0.000 F1999.800
G2 X40.587 Y-41.500 Z11.976 I-0.912 J0.000 F1999.800
G2 X42.413 Y-41.500 Z11.714 I0.912 J0.000 F1999.800
G2 X40.587 Y-41.500 Z11.452 I-0.912 J0.000 F1999.800
G2 X42.413 Y-41.500 Z11.190 I0.912 J0.000 F1999.800
G2 X40.587 Y-41.500 Z10.929 I-0.912 J0.000 F1999.800
G2 X42.413 Y-41.500 Z10.667 I0.912 J0.000 F1999.800
G2 X40.587 Y-41.500 Z10.405 I-0.912 J0.000 F1999.800
G2 X42.413 Y-41.500 Z10.143 I0.912 J0.000 F1999.800
G2 X40.587 Y-41.500 Z9.881 I-0.912 J0.000 F1999.800
G2 X42.413 Y-41.500 Z9.619 I0.912 J0.000 F1999.800
G2 X40.587 Y-41.500 Z9.357 I-0.912 J0.000 F1999.800
G2 X42.413 Y-41.500 Z9.095 I0.912 J0.000 F1999.800
G2 X40.587 Y-41.500 Z8.833 I-0.912 J0.000 F1999.800
G2 X42.413 Y-41.500 Z8.571 I0.912 J0.000 F1999.800
G2 X40.587 Y-41.500 Z8.310 I-0.912 J0.000 F1999.800
G2 X42.413 Y-41.500 Z8.048 I0.912 J0.000 F1999.800
G2 X40.587 Y-41.500 Z7.786 I-0.912 J0.000 F1999.800
G2 X42.413 Y-41.500 Z7.524 I0.912 J0.000 F1999.800
G2 X40.587 Y-41.500 Z7.262 I-0.912 J0.000 F1999.800
G2 X42.413 Y-41.500 Z7.000 I0.912 J0.000 F1999.800
G2 X40.587 Y-41.500 Z7.000 I-0.912 J0.000 F1999.800
G2 X42.413 Y-41.500 Z7.000 I0.912 J0.000 F1999.800
G0 Z21.000
G0 X42.413 Y41.500
G0 Z21.000
G1 Z18.000 F999.600
G2 X40.587 Y41.500 Z17.738 I-0.912 J0.000 F1999.800
G2 X42.413 Y41.500 Z17.476 I0.912 J0.000 F1999.800
G2 X40.587 Y41.500 Z17.214 I-0.912 J0.000 F1999.800
G2 X42.413 Y41.500 Z16.952 I0.912 J0.000 F1999.800
G2 X40.587 Y41.500 Z16.690 I-0.912 J0.000 F1999.800
G2 X42.413 Y41.500 Z16.429 I0.912 J0.000 F1999.800
G2 X40.587 Y41.500 Z16.167 I-0.912 J0.000 F1999.800
G2 X42.413 Y41.500 Z15.905 I0.912 J0.000 F1999.800
G2 X40.587 Y41.500 Z15.643 I-0.912 J0.000 F1999.800
G2 X42.413 Y41.500 Z15.381 I0.912 J0.000 F1999.800
G2 X40.587 Y41.500 Z15.119 I-0.912 J0.000 F1999.800
G2 X42.413 Y41.500 Z14.857 I0.912 J0.000 F1999.800
G2 X40.587 Y41.500 Z14.595 I-0.912 J0.000 F1999.800
G2 X42.413 Y41.500 Z14.333 I0.912 J0.000 F1999.800
G2 X40.587 Y41.500 Z14.071 I-0.912 J0.000 F1999.800
G2 X42.413 Y41.500 Z13.810 I0.912 J0.000 F1999.800
G2 X40.587 Y41.500 Z13.548 I-0.912 J0.000 F1999.800
G2 X42.413 Y41.500 Z13.286 I0.912 J0.000 F1999.800
G2 X40.587 Y41.500 Z13.024 I-0.912 J0.000 F1999.800
G2 X42.413 Y41.500 Z12.762 I0.912 J0.000 F1999.800
G2 X40.587 Y41.500 Z12.500 I-0.912 J0.000 F1999.800
G2 X42.413 Y41.500 Z12.238 I0.912 J0.000 F1999.800
G2 X40.587 Y41.500 Z11.976 I-0.912 J0.000 F1999.800
G2 X42.413 Y41.500 Z11.714 I0.912 J0.000 F1999.800
G2 X40.587 Y41.500 Z11.452 I-0.912 J0.000 F1999.800
G2 X42.413 Y41.500 Z11.190 I0.912 J0.000 F1999.800
G2 X40.587 Y41.500 Z10.929 I-0.912 J0.000 F1999.800
G2 X42.413 Y41.500 Z10.667 I0.912 J0.000 F1999.800
G2 X40.587 Y41.500 Z10.405 I-0.912 J0.000 F1999.800
G2 X42.413 Y41.500 Z10.143 I0.912 J0.000 F1999.800
G2 X40.587 Y41.500 Z9.881 I-0.912 J0.000 F1999.800
G2 X42.413 Y41.500 Z9.619 I0.912 J0.000 F1999.800
G2 X40.587 Y41.500 Z9.357 I-0.912 J0.000 F1999.800
G2 X42.413 Y41.500 Z9.095 I0.912 J0.000 F1999.800
G2 X40.587 Y41.500 Z8.833 I-0.912 J0.000 F1999.800
G2 X42.413 Y41.500 Z8.571 I0.912 J0.000 F1999.800
G2 X40.587 Y41.500 Z8.310 I-0.912 J0.000 F1999.800
G2 X42.413 Y41.500 Z8.048 I0.912 J0.000 F1999.800
G2 X40.587 Y41.500 Z7.786 I-0.912 J0.000 F1999.800
G2 X42.413 Y41.500 Z7.524 I0.912 J0.000 F1999.800
G2 X40.587 Y41.500 Z7.262 I-0.912 J0.000 F1999.800
G2 X42.413 Y41.500 Z7.000 I0.912 J0.000 F1999.800
G2 X40.587 Y41.500 Z7.000 I-0.912 J0.000 F1999.800
G2 X42.413 Y41.500 Z7.000 I0.912 J0.000 F1999.800
G0 Z21.000
G0 X-40.587 Y41.500
G0 Z21.000
G1 Z18.000 F999.600
G2 X-42.413 Y41.500 Z17.738 I-0.912 J0.000 F1999.800
G2 X-40.587 Y41.500 Z17.476 I0.912 J0.000 F1999.800
G2 X-42.413 Y41.500 Z17.214 I-0.912 J0.000 F1999.800
G2 X-40.587 Y41.500 Z16.952 I0.912 J0.000 F1999.800
G2 X-42.413 Y41.500 Z16.690 I-0.912 J0.000 F1999.800
G2 X-40.587 Y41.500 Z16.429 I0.912 J0.000 F1999.800
G2 X-42.413 Y41.500 Z16.167 I-0.912 J0.000 F1999.800
G2 X-40.587 Y41.500 Z15.905 I0.912 J0.000 F1999.800
G2 X-42.413 Y41.500 Z15.643 I-0.912 J0.000 F1999.800
G2 X-40.587 Y41.500 Z15.381 I0.912 J0.000 F1999.800
G2 X-42.413 Y41.500 Z15.119 I-0.912 J0.000 F1999.800
G2 X-40.587 Y41.500 Z14.857 I0.912 J0.000 F1999.800
G2 X-42.413 Y41.500 Z14.595 I-0.912 J0.000 F1999.800
G2 X-40.587 Y41.500 Z14.333 I0.912 J0.000 F1999.800
G2 X-42.413 Y41.500 Z14.071 I-0.912 J0.000 F1999.800
G2 X-40.587 Y41.500 Z13.810 I0.912 J0.000 F1999.800
G2 X-42.413 Y41.500 Z13.548 I-0.912 J0.000 F1999.800
G2 X-40.587 Y41.500 Z13.286 I0.912 J0.000 F1999.800
G2 X-42.413 Y41.500 Z13.024 I-0.912 J0.000 F1999.800
G2 X-40.587 Y41.500 Z12.762 I0.912 J0.000 F1999.800
G2 X-42.413 Y41.500 Z12.500 I-0.912 J0.000 F1999.800
G2 X-40.587 Y41.500 Z12.238 I0.912 J0.000 F1999.800
G2 X-42.413 Y41.500 Z11.976 I-0.912 J0.000 F1999.800
G2 X-40.587 Y41.500 Z11.714 I0.912 J0.000 F1999.800
G2 X-42.413 Y41.500 Z11.452 I-0.912 J0.000 F1999.800
G2 X-40.587 Y41.500 Z11.190 I0.912 J0.000 F1999.800
G2 X-42.413 Y41.500 Z10.929 I-0.912 J0.000 F1999.800
G2 X-40.587 Y41.500 Z10.667 I0.912 J0.000 F1999.800
G2 X-42.413 Y41.500 Z10.405 I-0.912 J0.000 F1999.800
G2 X-40.587 Y41.500 Z10.143 I0.912 J0.000 F1999.800
G2 X-42.413 Y41.500 Z9.881 I-0.912 J0.000 F1999.800
G2 X-40.587 Y41.500 Z9.619 I0.912 J0.000 F1999.800
G2 X-42.413 Y41.500 Z9.357 I-0.912 J0.000 F1999.800
G2 X-40.587 Y41.500 Z9.095 I0.912 J0.000 F1999.800
G2 X-42.413 Y41.500 Z8.833 I-0.912 J0.000 F1999.800
G2 X-40.587 Y41.500 Z8.571 I0.912 J0.000 F1999.800
G2 X-42.413 Y41.500 Z8.310 I-0.912 J0.000 F1999.800
G2 X-40.587 Y41.500 Z8.048 I0.912 J0.000 F1999.800
G2 X-42.413 Y41.500 Z7.786 I-0.912 J0.000 F1999.800
G2 X-40.587 Y41.500 Z7.524 I0.912 J0.000 F1999.800
G2 X-42.413 Y41.500 Z7.262 I-0.912 J0.000 F1999.800
G2 X-40.587 Y41.500 Z7.000 I0.912 J0.000 F1999.800
G2 X-42.413 Y41.500 Z7.000 I-0.912 J0.000 F1999.800
G2 X-40.587 Y41.500 Z7.000 I0.912 J0.000 F1999.800
G0 Z21.000
G0 Z23.000
(Finish operation: Base_Mount_Holes)
(Begin operation: Base_Mount_Counterbores)
(Path: Base_Mount_Counterbores)
(Base_Mount_Counterbores)
(helix cut operation)
G0 Z23.000
G0 X-39.087 Y-41.500
G0 Z21.000
G1 Z18.000 F999.600
G2 X-43.912 Y-41.500 Z17.750 I-2.413 J0.000 F1999.800
G2 X-39.087 Y-41.500 Z17.500 I2.413 J0.000 F1999.800
G2 X-43.912 Y-41.500 Z17.250 I-2.413 J0.000 F1999.800
G2 X-39.087 Y-41.500 Z17.000 I2.413 J0.000 F1999.800
G2 X-43.912 Y-41.500 Z16.750 I-2.413 J0.000 F1999.800
G2 X-39.087 Y-41.500 Z16.500 I2.413 J0.000 F1999.800
G2 X-43.912 Y-41.500 Z16.250 I-2.413 J0.000 F1999.800
G2 X-39.087 Y-41.500 Z16.000 I2.413 J0.000 F1999.800
G2 X-43.912 Y-41.500 Z16.000 I-2.413 J0.000 F1999.800
G2 X-39.087 Y-41.500 Z16.000 I2.413 J0.000 F1999.800
G0 Z21.000
G0 X43.913 Y-41.500
G0 Z21.000
G1 Z18.000 F999.600
G2 X39.087 Y-41.500 Z17.750 I-2.413 J0.000 F1999.800
G2 X43.913 Y-41.500 Z17.500 I2.413 J0.000 F1999.800
G2 X39.087 Y-41.500 Z17.250 I-2.413 J0.000 F1999.800
G2 X43.913 Y-41.500 Z17.000 I2.413 J0.000 F1999.800
G2 X39.087 Y-41.500 Z16.750 I-2.413 J0.000 F1999.800
G2 X43.913 Y-41.500 Z16.500 I2.413 J0.000 F1999.800
G2 X39.087 Y-41.500 Z16.250 I-2.413 J0.000 F1999.800
G2 X43.913 Y-41.500 Z16.000 I2.413 J0.000 F1999.800
G2 X39.087 Y-41.500 Z16.000 I-2.413 J0.000 F1999.800
G2 X43.913 Y-41.500 Z16.000 I2.413 J0.000 F1999.800
G0 Z21.000
G0 X43.913 Y41.500
G0 Z21.000
G1 Z18.000 F999.600
G2 X39.087 Y41.500 Z17.750 I-2.413 J0.000 F1999.800
G2 X43.913 Y41.500 Z17.500 I2.413 J0.000 F1999.800
G2 X39.087 Y41.500 Z17.250 I-2.413 J0.000 F1999.800
G2 X43.913 Y41.500 Z17.000 I2.413 J0.000 F1999.800
G2 X39.087 Y41.500 Z16.750 I-2.413 J0.000 F1999.800
G2 X43.913 Y41.500 Z16.500 I2.413 J0.000 F1999.800
G2 X39.087 Y41.500 Z16.250 I-2.413 J0.000 F1999.800
G2 X43.913 Y41.500 Z16.000 I2.413 J0.000 F1999.800
G2 X39.087 Y41.500 Z16.000 I-2.413 J0.000 F1999.800
G2 X43.913 Y41.500 Z16.000 I2.413 J0.000 F1999.800
G0 Z21.000
G0 X-39.087 Y41.500
G0 Z21.000
G1 Z18.000 F999.600
G2 X-43.913 Y41.500 Z17.750 I-2.413 J0.000 F1999.800
G2 X-39.087 Y41.500 Z17.500 I2.413 J0.000 F1999.800
G2 X-43.913 Y41.500 Z17.250 I-2.413 J0.000 F1999.800
G2 X-39.087 Y41.500 Z17.000 I2.413 J0.000 F1999.800
G2 X-43.913 Y41.500 Z16.750 I-2.413 J0.000 F1999.800
G2 X-39.087 Y41.500 Z16.500 I2.413 J0.000 F1999.800
G2 X-43.913 Y41.500 Z16.250 I-2.413 J0.000 F1999.800
G2 X-39.087 Y41.500 Z16.000 I2.413 J0.000 F1999.800
G2 X-43.913 Y41.500 Z16.000 I-2.413 J0.000 F1999.800
G2 X-39.087 Y41.500 Z16.000 I2.413 J0.000 F1999.800
G0 Z21.000
G0 Z23.000
(Finish operation: Base_Mount_Counterbores)
(Begin postamble)
M5
G17 G90
M2
