(Exported by FreeCAD)
(Post Processor: grbl_post)
(Output Time:2020-05-23 18:35:51.246046)
(Begin preamble)
G17 G90
G21
(Begin operation: Fixture)
(Path: Fixture)
G54
(Finish operation: Fixture)
(Begin operation: T6: 2FluteWoodMill005)
(Path: T6: 2FluteWoodMill005)
(T6: 2FluteWoodMill005)
(Begin toolchange)
(M6 T6.0)
M3 S14000.0
(Finish operation: T6: 2FluteWoodMill005)
(Begin operation: Inner_Groove_Pocket)
(Path: Inner_Groove_Pocket)
(Inner_Groove_Pocket)
G0 Z23.000
G0 X-68.914 Y-16.086
G0 Z21.000
G1 X-68.914 Y-16.086 Z17.471 F999.600
G1 X-64.771 Y-28.839 Z17.471 F1999.800
G1 X-115.522 Y-45.329 Z17.471 F1999.800
G1 X-120.103 Y-31.230 Z17.471 F1999.800
G1 X-69.352 Y-14.740 Z17.471 F1999.800
G1 X-68.914 Y-16.086 Z17.471 F1999.800
G0 Z23.000
G0 X-70.881 Y-17.740 Z23.000
G0 X-70.881 Y-17.740 Z21.000
G1 X-70.881 Y-17.740 Z17.471 F999.600
G1 X-67.771 Y-27.310 Z17.471 F1999.800
G1 X-113.993 Y-42.329 Z17.471 F1999.800
G1 X-117.102 Y-32.759 Z17.471 F1999.800
G1 X-70.881 Y-17.740 Z17.471 F1999.800
G0 Z23.000
G0 X-72.410 Y-20.741 Z23.000
G0 X-72.410 Y-20.741 Z21.000
G1 X-72.410 Y-20.741 Z17.471 F999.600
G1 X-70.772 Y-25.782 Z17.471 F1999.800
G1 X-112.464 Y-39.328 Z17.471 F1999.800
G1 X-114.102 Y-34.287 Z17.471 F1999.800
G1 X-72.410 Y-20.741 Z17.471 F1999.800
G0 Z23.000
G0 X-73.938 Y-23.741 Z23.000
G0 X-73.938 Y-23.741 Z21.000
G1 X-73.938 Y-23.741 Z17.471 F999.600
G1 X-73.772 Y-24.253 Z17.471 F1999.800
G1 X-110.935 Y-36.328 Z17.471 F1999.800
G1 X-111.101 Y-35.816 Z17.471 F1999.800
G1 X-73.938 Y-23.741 Z17.471 F1999.800
G1 X-73.938 Y-23.741 Z16.942 F999.600
G1 X-73.772 Y-24.253 Z16.942 F1999.800
G1 X-110.935 Y-36.328 Z16.942 F1999.800
G1 X-111.101 Y-35.816 Z16.942 F1999.800
G1 X-73.938 Y-23.741 Z16.942 F1999.800
G0 Z23.000
G0 X-74.674 Y-21.477 Z23.000
G0 X-74.674 Y-21.477 Z21.000
G1 X-74.674 Y-21.477 Z16.942 F999.600
G1 X-72.410 Y-20.741 Z16.942 F1999.800
G1 X-70.772 Y-25.782 Z16.942 F1999.800
G1 X-112.464 Y-39.328 Z16.942 F1999.800
G1 X-114.102 Y-34.287 Z16.942 F1999.800
G1 X-74.674 Y-21.477 Z16.942 F1999.800
G0 Z23.000
G0 X-75.410 Y-19.212 Z23.000
G0 X-75.410 Y-19.212 Z21.000
G1 X-75.410 Y-19.212 Z16.942 F999.600
G1 X-70.881 Y-17.740 Z16.942 F1999.800
G1 X-67.771 Y-27.310 Z16.942 F1999.800
G1 X-113.993 Y-42.329 Z16.942 F1999.800
G1 X-117.102 Y-32.759 Z16.942 F1999.800
G1 X-75.410 Y-19.212 Z16.942 F1999.800
G0 Z23.000
G0 X-76.146 Y-16.947 Z23.000
G0 X-76.146 Y-16.947 Z21.000
G1 X-76.146 Y-16.947 Z16.942 F999.600
G1 X-69.352 Y-14.740 Z16.942 F1999.800
G1 X-64.771 Y-28.839 Z16.942 F1999.800
G1 X-115.522 Y-45.329 Z16.942 F1999.800
G1 X-120.103 Y-31.230 Z16.942 F1999.800
G1 X-76.146 Y-16.947 Z16.942 F1999.800
G1 X-76.146 Y-16.947 Z16.413 F999.600
G1 X-69.352 Y-14.740 Z16.413 F1999.800
G1 X-64.771 Y-28.839 Z16.413 F1999.800
G1 X-115.522 Y-45.329 Z16.413 F1999.800
G1 X-120.103 Y-31.230 Z16.413 F1999.800
G1 X-76.146 Y-16.947 Z16.413 F1999.800
G0 Z23.000
G0 X-75.410 Y-19.212 Z23.000
G0 X-75.410 Y-19.212 Z21.000
G1 X-75.410 Y-19.212 Z16.413 F999.600
G1 X-70.881 Y-17.740 Z16.413 F1999.800
G1 X-67.771 Y-27.310 Z16.413 F1999.800
G1 X-113.993 Y-42.329 Z16.413 F1999.800
G1 X-117.102 Y-32.759 Z16.413 F1999.800
G1 X-75.410 Y-19.212 Z16.413 F1999.800
G0 Z23.000
G0 X-74.674 Y-21.477 Z23.000
G0 X-74.674 Y-21.477 Z21.000
G1 X-74.674 Y-21.477 Z16.413 F999.600
G1 X-72.410 Y-20.741 Z16.413 F1999.800
G1 X-70.772 Y-25.782 Z16.413 F1999.800
G1 X-112.464 Y-39.328 Z16.413 F1999.800
G1 X-114.102 Y-34.287 Z16.413 F1999.800
G1 X-74.674 Y-21.477 Z16.413 F1999.800
G0 Z23.000
G0 X-73.938 Y-23.741 Z23.000
G0 X-73.938 Y-23.741 Z21.000
G1 X-73.938 Y-23.741 Z16.413 F999.600
G1 X-73.772 Y-24.253 Z16.413 F1999.800
G1 X-110.935 Y-36.328 Z16.413 F1999.800
G1 X-111.101 Y-35.816 Z16.413 F1999.800
G1 X-73.938 Y-23.741 Z16.413 F1999.800
G1 X-73.938 Y-23.741 Z15.883 F999.600
G1 X-73.772 Y-24.253 Z15.883 F1999.800
G1 X-110.935 Y-36.328 Z15.883 F1999.800
G1 X-111.101 Y-35.816 Z15.883 F1999.800
G1 X-73.938 Y-23.741 Z15.883 F1999.800
G0 Z23.000
G0 X-74.674 Y-21.477 Z23.000
G0 X-74.674 Y-21.477 Z21.000
G1 X-74.674 Y-21.477 Z15.883 F999.600
G1 X-72.410 Y-20.741 Z15.883 F1999.800
G1 X-70.772 Y-25.782 Z15.883 F1999.800
G1 X-112.464 Y-39.328 Z15.883 F1999.800
G1 X-114.102 Y-34.287 Z15.883 F1999.800
G1 X-74.674 Y-21.477 Z15.883 F1999.800
G0 Z23.000
G0 X-75.410 Y-19.212 Z23.000
G0 X-75.410 Y-19.212 Z21.000
G1 X-75.410 Y-19.212 Z15.883 F999.600
G1 X-70.881 Y-17.740 Z15.883 F1999.800
G1 X-67.771 Y-27.310 Z15.883 F1999.800
G1 X-113.993 Y-42.329 Z15.883 F1999.800
G1 X-117.102 Y-32.759 Z15.883 F1999.800
G1 X-75.410 Y-19.212 Z15.883 F1999.800
G0 Z23.000
G0 X-76.146 Y-16.947 Z23.000
G0 X-76.146 Y-16.947 Z21.000
G1 X-76.146 Y-16.947 Z15.883 F999.600
G1 X-69.352 Y-14.740 Z15.883 F1999.800
G1 X-64.771 Y-28.839 Z15.883 F1999.800
G1 X-115.522 Y-45.329 Z15.883 F1999.800
G1 X-120.103 Y-31.230 Z15.883 F1999.800
G1 X-76.146 Y-16.947 Z15.883 F1999.800
G1 X-76.146 Y-16.947 Z15.354 F999.600
G1 X-69.352 Y-14.740 Z15.354 F1999.800
G1 X-64.771 Y-28.839 Z15.354 F1999.800
G1 X-115.522 Y-45.329 Z15.354 F1999.800
G1 X-120.103 Y-31.230 Z15.354 F1999.800
G1 X-76.146 Y-16.947 Z15.354 F1999.800
G0 Z23.000
G0 X-75.410 Y-19.212 Z23.000
G0 X-75.410 Y-19.212 Z21.000
G1 X-75.410 Y-19.212 Z15.354 F999.600
G1 X-70.881 Y-17.740 Z15.354 F1999.800
G1 X-67.771 Y-27.310 Z15.354 F1999.800
G1 X-113.993 Y-42.329 Z15.354 F1999.800
G1 X-117.102 Y-32.759 Z15.354 F1999.800
G1 X-75.410 Y-19.212 Z15.354 F1999.800
G0 Z23.000
G0 X-74.674 Y-21.477 Z23.000
G0 X-74.674 Y-21.477 Z21.000
G1 X-74.674 Y-21.477 Z15.354 F999.600
G1 X-72.410 Y-20.741 Z15.354 F1999.800
G1 X-70.772 Y-25.782 Z15.354 F1999.800
G1 X-112.464 Y-39.328 Z15.354 F1999.800
G1 X-114.102 Y-34.287 Z15.354 F1999.800
G1 X-74.674 Y-21.477 Z15.354 F1999.800
G0 Z23.000
G0 X-73.938 Y-23.741 Z23.000
G0 X-73.938 Y-23.741 Z21.000
G1 X-73.938 Y-23.741 Z15.354 F999.600
G1 X-73.772 Y-24.253 Z15.354 F1999.800
G1 X-110.935 Y-36.328 Z15.354 F1999.800
G1 X-111.101 Y-35.816 Z15.354 F1999.800
G1 X-73.938 Y-23.741 Z15.354 F1999.800
G1 X-73.938 Y-23.741 Z14.825 F999.600
G1 X-73.772 Y-24.253 Z14.825 F1999.800
G1 X-110.935 Y-36.328 Z14.825 F1999.800
G1 X-111.101 Y-35.816 Z14.825 F1999.800
G1 X-73.938 Y-23.741 Z14.825 F1999.800
G0 Z23.000
G0 X-74.674 Y-21.477 Z23.000
G0 X-74.674 Y-21.477 Z21.000
G1 X-74.674 Y-21.477 Z14.825 F999.600
G1 X-72.410 Y-20.741 Z14.825 F1999.800
G1 X-70.772 Y-25.782 Z14.825 F1999.800
G1 X-112.464 Y-39.328 Z14.825 F1999.800
G1 X-114.102 Y-34.287 Z14.825 F1999.800
G1 X-74.674 Y-21.477 Z14.825 F1999.800
G0 Z23.000
G0 X-75.410 Y-19.212 Z23.000
G0 X-75.410 Y-19.212 Z21.000
G1 X-75.410 Y-19.212 Z14.825 F999.600
G1 X-70.881 Y-17.740 Z14.825 F1999.800
G1 X-67.771 Y-27.310 Z14.825 F1999.800
G1 X-113.993 Y-42.329 Z14.825 F1999.800
G1 X-117.102 Y-32.759 Z14.825 F1999.800
G1 X-75.410 Y-19.212 Z14.825 F1999.800
G0 Z23.000
G0 X-76.146 Y-16.947 Z23.000
G0 X-76.146 Y-16.947 Z21.000
G1 X-76.146 Y-16.947 Z14.825 F999.600
G1 X-69.352 Y-14.740 Z14.825 F1999.800
G1 X-64.771 Y-28.839 Z14.825 F1999.800
G1 X-115.522 Y-45.329 Z14.825 F1999.800
G1 X-120.103 Y-31.230 Z14.825 F1999.800
G1 X-76.146 Y-16.947 Z14.825 F1999.800
G1 X-76.146 Y-16.947 Z14.296 F999.600
G1 X-69.352 Y-14.740 Z14.296 F1999.800
G1 X-64.771 Y-28.839 Z14.296 F1999.800
G1 X-115.522 Y-45.329 Z14.296 F1999.800
G1 X-120.103 Y-31.230 Z14.296 F1999.800
G1 X-76.146 Y-16.947 Z14.296 F1999.800
G0 Z23.000
G0 X-75.410 Y-19.212 Z23.000
G0 X-75.410 Y-19.212 Z21.000
G1 X-75.410 Y-19.212 Z14.296 F999.600
G1 X-70.881 Y-17.740 Z14.296 F1999.800
G1 X-67.771 Y-27.310 Z14.296 F1999.800
G1 X-113.993 Y-42.329 Z14.296 F1999.800
G1 X-117.102 Y-32.759 Z14.296 F1999.800
G1 X-75.410 Y-19.212 Z14.296 F1999.800
G0 Z23.000
G0 X-74.674 Y-21.477 Z23.000
G0 X-74.674 Y-21.477 Z21.000
G1 X-74.674 Y-21.477 Z14.296 F999.600
G1 X-72.410 Y-20.741 Z14.296 F1999.800
G1 X-70.772 Y-25.782 Z14.296 F1999.800
G1 X-112.464 Y-39.328 Z14.296 F1999.800
G1 X-114.102 Y-34.287 Z14.296 F1999.800
G1 X-74.674 Y-21.477 Z14.296 F1999.800
G0 Z23.000
G0 X-73.938 Y-23.741 Z23.000
G0 X-73.938 Y-23.741 Z21.000
G1 X-73.938 Y-23.741 Z14.296 F999.600
G1 X-73.772 Y-24.253 Z14.296 F1999.800
G1 X-110.935 Y-36.328 Z14.296 F1999.800
G1 X-111.101 Y-35.816 Z14.296 F1999.800
G1 X-73.938 Y-23.741 Z14.296 F1999.800
G1 X-73.938 Y-23.741 Z13.767 F999.600
G1 X-73.772 Y-24.253 Z13.767 F1999.800
G1 X-110.935 Y-36.328 Z13.767 F1999.800
G1 X-111.101 Y-35.816 Z13.767 F1999.800
G1 X-73.938 Y-23.741 Z13.767 F1999.800
G0 Z23.000
G0 X-74.674 Y-21.477 Z23.000
G0 X-74.674 Y-21.477 Z21.000
G1 X-74.674 Y-21.477 Z13.767 F999.600
G1 X-72.410 Y-20.741 Z13.767 F1999.800
G1 X-70.772 Y-25.782 Z13.767 F1999.800
G1 X-112.464 Y-39.328 Z13.767 F1999.800
G1 X-114.102 Y-34.287 Z13.767 F1999.800
G1 X-74.674 Y-21.477 Z13.767 F1999.800
G0 Z23.000
G0 X-75.410 Y-19.212 Z23.000
G0 X-75.410 Y-19.212 Z21.000
G1 X-75.410 Y-19.212 Z13.767 F999.600
G1 X-70.881 Y-17.740 Z13.767 F1999.800
G1 X-67.771 Y-27.310 Z13.767 F1999.800
G1 X-113.993 Y-42.329 Z13.767 F1999.800
G1 X-117.102 Y-32.759 Z13.767 F1999.800
G1 X-75.410 Y-19.212 Z13.767 F1999.800
G0 Z23.000
G0 X-76.146 Y-16.947 Z23.000
G0 X-76.146 Y-16.947 Z21.000
G1 X-76.146 Y-16.947 Z13.767 F999.600
G1 X-69.352 Y-14.740 Z13.767 F1999.800
G1 X-64.771 Y-28.839 Z13.767 F1999.800
G1 X-115.522 Y-45.329 Z13.767 F1999.800
G1 X-120.103 Y-31.230 Z13.767 F1999.800
G1 X-76.146 Y-16.947 Z13.767 F1999.800
G1 X-76.146 Y-16.947 Z13.238 F999.600
G1 X-69.352 Y-14.740 Z13.238 F1999.800
G1 X-64.771 Y-28.839 Z13.238 F1999.800
G1 X-115.522 Y-45.329 Z13.238 F1999.800
G1 X-120.103 Y-31.230 Z13.238 F1999.800
G1 X-76.146 Y-16.947 Z13.238 F1999.800
G0 Z23.000
G0 X-75.410 Y-19.212 Z23.000
G0 X-75.410 Y-19.212 Z21.000
G1 X-75.410 Y-19.212 Z13.238 F999.600
G1 X-70.881 Y-17.740 Z13.238 F1999.800
G1 X-67.771 Y-27.310 Z13.238 F1999.800
G1 X-113.993 Y-42.329 Z13.238 F1999.800
G1 X-117.102 Y-32.759 Z13.238 F1999.800
G1 X-75.410 Y-19.212 Z13.238 F1999.800
G0 Z23.000
G0 X-74.674 Y-21.477 Z23.000
G0 X-74.674 Y-21.477 Z21.000
G1 X-74.674 Y-21.477 Z13.238 F999.600
G1 X-72.410 Y-20.741 Z13.238 F1999.800
G1 X-70.772 Y-25.782 Z13.238 F1999.800
G1 X-112.464 Y-39.328 Z13.238 F1999.800
G1 X-114.102 Y-34.287 Z13.238 F1999.800
G1 X-74.674 Y-21.477 Z13.238 F1999.800
G0 Z23.000
G0 X-73.938 Y-23.741 Z23.000
G0 X-73.938 Y-23.741 Z21.000
G1 X-73.938 Y-23.741 Z13.238 F999.600
G1 X-73.772 Y-24.253 Z13.238 F1999.800
G1 X-110.935 Y-36.328 Z13.238 F1999.800
G1 X-111.101 Y-35.816 Z13.238 F1999.800
G1 X-73.938 Y-23.741 Z13.238 F1999.800
G1 X-73.938 Y-23.741 Z12.708 F999.600
G1 X-73.772 Y-24.253 Z12.708 F1999.800
G1 X-110.935 Y-36.328 Z12.708 F1999.800
G1 X-111.101 Y-35.816 Z12.708 F1999.800
G1 X-73.938 Y-23.741 Z12.708 F1999.800
G0 Z23.000
G0 X-74.674 Y-21.477 Z23.000
G0 X-74.674 Y-21.477 Z21.000
G1 X-74.674 Y-21.477 Z12.708 F999.600
G1 X-72.410 Y-20.741 Z12.708 F1999.800
G1 X-70.772 Y-25.782 Z12.708 F1999.800
G1 X-112.464 Y-39.328 Z12.708 F1999.800
G1 X-114.102 Y-34.287 Z12.708 F1999.800
G1 X-74.674 Y-21.477 Z12.708 F1999.800
G0 Z23.000
G0 X-75.410 Y-19.212 Z23.000
G0 X-75.410 Y-19.212 Z21.000
G1 X-75.410 Y-19.212 Z12.708 F999.600
G1 X-70.881 Y-17.740 Z12.708 F1999.800
G1 X-67.771 Y-27.310 Z12.708 F1999.800
G1 X-113.993 Y-42.329 Z12.708 F1999.800
G1 X-117.102 Y-32.759 Z12.708 F1999.800
G1 X-75.410 Y-19.212 Z12.708 F1999.800
G0 Z23.000
G0 X-76.146 Y-16.947 Z23.000
G0 X-76.146 Y-16.947 Z21.000
G1 X-76.146 Y-16.947 Z12.708 F999.600
G1 X-69.352 Y-14.740 Z12.708 F1999.800
G1 X-64.771 Y-28.839 Z12.708 F1999.800
G1 X-115.522 Y-45.329 Z12.708 F1999.800
G1 X-120.103 Y-31.230 Z12.708 F1999.800
G1 X-76.146 Y-16.947 Z12.708 F1999.800
G1 X-76.146 Y-16.947 Z12.179 F999.600
G1 X-69.352 Y-14.740 Z12.179 F1999.800
G1 X-64.771 Y-28.839 Z12.179 F1999.800
G1 X-115.522 Y-45.329 Z12.179 F1999.800
G1 X-120.103 Y-31.230 Z12.179 F1999.800
G1 X-76.146 Y-16.947 Z12.179 F1999.800
G0 Z23.000
G0 X-75.410 Y-19.212 Z23.000
G0 X-75.410 Y-19.212 Z21.000
G1 X-75.410 Y-19.212 Z12.179 F999.600
G1 X-70.881 Y-17.740 Z12.179 F1999.800
G1 X-67.771 Y-27.310 Z12.179 F1999.800
G1 X-113.993 Y-42.329 Z12.179 F1999.800
G1 X-117.102 Y-32.759 Z12.179 F1999.800
G1 X-75.410 Y-19.212 Z12.179 F1999.800
G0 Z23.000
G0 X-74.674 Y-21.477 Z23.000
G0 X-74.674 Y-21.477 Z21.000
G1 X-74.674 Y-21.477 Z12.179 F999.600
G1 X-72.410 Y-20.741 Z12.179 F1999.800
G1 X-70.772 Y-25.782 Z12.179 F1999.800
G1 X-112.464 Y-39.328 Z12.179 F1999.800
G1 X-114.102 Y-34.287 Z12.179 F1999.800
G1 X-74.674 Y-21.477 Z12.179 F1999.800
G0 Z23.000
G0 X-73.938 Y-23.741 Z23.000
G0 X-73.938 Y-23.741 Z21.000
G1 X-73.938 Y-23.741 Z12.179 F999.600
G1 X-73.772 Y-24.253 Z12.179 F1999.800
G1 X-110.935 Y-36.328 Z12.179 F1999.800
G1 X-111.101 Y-35.816 Z12.179 F1999.800
G1 X-73.938 Y-23.741 Z12.179 F1999.800
G1 X-73.938 Y-23.741 Z11.650 F999.600
G1 X-73.772 Y-24.253 Z11.650 F1999.800
G1 X-110.935 Y-36.328 Z11.650 F1999.800
G1 X-111.101 Y-35.816 Z11.650 F1999.800
G1 X-73.938 Y-23.741 Z11.650 F1999.800
G0 Z23.000
G0 X-74.674 Y-21.477 Z23.000
G0 X-74.674 Y-21.477 Z21.000
G1 X-74.674 Y-21.477 Z11.650 F999.600
G1 X-72.410 Y-20.741 Z11.650 F1999.800
G1 X-70.772 Y-25.782 Z11.650 F1999.800
G1 X-112.464 Y-39.328 Z11.650 F1999.800
G1 X-114.102 Y-34.287 Z11.650 F1999.800
G1 X-74.674 Y-21.477 Z11.650 F1999.800
G0 Z23.000
G0 X-75.410 Y-19.212 Z23.000
G0 X-75.410 Y-19.212 Z21.000
G1 X-75.410 Y-19.212 Z11.650 F999.600
G1 X-70.881 Y-17.740 Z11.650 F1999.800
G1 X-67.771 Y-27.310 Z11.650 F1999.800
G1 X-113.993 Y-42.329 Z11.650 F1999.800
G1 X-117.102 Y-32.759 Z11.650 F1999.800
G1 X-75.410 Y-19.212 Z11.650 F1999.800
G0 Z23.000
G0 X-76.146 Y-16.947 Z23.000
G0 X-76.146 Y-16.947 Z21.000
G1 X-76.146 Y-16.947 Z11.650 F999.600
G1 X-69.352 Y-14.740 Z11.650 F1999.800
G1 X-64.771 Y-28.839 Z11.650 F1999.800
G1 X-115.522 Y-45.329 Z11.650 F1999.800
G1 X-120.103 Y-31.230 Z11.650 F1999.800
G1 X-76.146 Y-16.947 Z11.650 F1999.800
G1 X-76.146 Y-16.947 Z11.121 F999.600
G1 X-69.352 Y-14.740 Z11.121 F1999.800
G1 X-64.771 Y-28.839 Z11.121 F1999.800
G1 X-115.522 Y-45.329 Z11.121 F1999.800
G1 X-120.103 Y-31.230 Z11.121 F1999.800
G1 X-76.146 Y-16.947 Z11.121 F1999.800
G0 Z23.000
G0 X-75.410 Y-19.212 Z23.000
G0 X-75.410 Y-19.212 Z21.000
G1 X-75.410 Y-19.212 Z11.121 F999.600
G1 X-70.881 Y-17.740 Z11.121 F1999.800
G1 X-67.771 Y-27.310 Z11.121 F1999.800
G1 X-113.993 Y-42.329 Z11.121 F1999.800
G1 X-117.102 Y-32.759 Z11.121 F1999.800
G1 X-75.410 Y-19.212 Z11.121 F1999.800
G0 Z23.000
G0 X-74.674 Y-21.477 Z23.000
G0 X-74.674 Y-21.477 Z21.000
G1 X-74.674 Y-21.477 Z11.121 F999.600
G1 X-72.410 Y-20.741 Z11.121 F1999.800
G1 X-70.772 Y-25.782 Z11.121 F1999.800
G1 X-112.464 Y-39.328 Z11.121 F1999.800
G1 X-114.102 Y-34.287 Z11.121 F1999.800
G1 X-74.674 Y-21.477 Z11.121 F1999.800
G0 Z23.000
G0 X-73.938 Y-23.741 Z23.000
G0 X-73.938 Y-23.741 Z21.000
G1 X-73.938 Y-23.741 Z11.121 F999.600
G1 X-73.772 Y-24.253 Z11.121 F1999.800
G1 X-110.935 Y-36.328 Z11.121 F1999.800
G1 X-111.101 Y-35.816 Z11.121 F1999.800
G1 X-73.938 Y-23.741 Z11.121 F1999.800
G1 X-73.938 Y-23.741 Z10.592 F999.600
G1 X-73.772 Y-24.253 Z10.592 F1999.800
G1 X-110.935 Y-36.328 Z10.592 F1999.800
G1 X-111.101 Y-35.816 Z10.592 F1999.800
G1 X-73.938 Y-23.741 Z10.592 F1999.800
G0 Z23.000
G0 X-74.674 Y-21.477 Z23.000
G0 X-74.674 Y-21.477 Z21.000
G1 X-74.674 Y-21.477 Z10.592 F999.600
G1 X-72.410 Y-20.741 Z10.592 F1999.800
G1 X-70.772 Y-25.782 Z10.592 F1999.800
G1 X-112.464 Y-39.328 Z10.592 F1999.800
G1 X-114.102 Y-34.287 Z10.592 F1999.800
G1 X-74.674 Y-21.477 Z10.592 F1999.800
G0 Z23.000
G0 X-75.410 Y-19.212 Z23.000
G0 X-75.410 Y-19.212 Z21.000
G1 X-75.410 Y-19.212 Z10.592 F999.600
G1 X-70.881 Y-17.740 Z10.592 F1999.800
G1 X-67.771 Y-27.310 Z10.592 F1999.800
G1 X-113.993 Y-42.329 Z10.592 F1999.800
G1 X-117.102 Y-32.759 Z10.592 F1999.800
G1 X-75.410 Y-19.212 Z10.592 F1999.800
G0 Z23.000
G0 X-76.146 Y-16.947 Z23.000
G0 X-76.146 Y-16.947 Z21.000
G1 X-76.146 Y-16.947 Z10.592 F999.600
G1 X-69.352 Y-14.740 Z10.592 F1999.800
G1 X-64.771 Y-28.839 Z10.592 F1999.800
G1 X-115.522 Y-45.329 Z10.592 F1999.800
G1 X-120.103 Y-31.230 Z10.592 F1999.800
G1 X-76.146 Y-16.947 Z10.592 F1999.800
G1 X-76.146 Y-16.947 Z10.063 F999.600
G1 X-69.352 Y-14.740 Z10.063 F1999.800
G1 X-64.771 Y-28.839 Z10.063 F1999.800
G1 X-115.522 Y-45.329 Z10.063 F1999.800
G1 X-120.103 Y-31.230 Z10.063 F1999.800
G1 X-76.146 Y-16.947 Z10.063 F1999.800
G0 Z23.000
G0 X-75.410 Y-19.212 Z23.000
G0 X-75.410 Y-19.212 Z21.000
G1 X-75.410 Y-19.212 Z10.063 F999.600
G1 X-70.881 Y-17.740 Z10.063 F1999.800
G1 X-67.771 Y-27.310 Z10.063 F1999.800
G1 X-113.993 Y-42.329 Z10.063 F1999.800
G1 X-117.102 Y-32.759 Z10.063 F1999.800
G1 X-75.410 Y-19.212 Z10.063 F1999.800
G0 Z23.000
G0 X-74.674 Y-21.477 Z23.000
G0 X-74.674 Y-21.477 Z21.000
G1 X-74.674 Y-21.477 Z10.063 F999.600
G1 X-72.410 Y-20.741 Z10.063 F1999.800
G1 X-70.772 Y-25.782 Z10.063 F1999.800
G1 X-112.464 Y-39.328 Z10.063 F1999.800
G1 X-114.102 Y-34.287 Z10.063 F1999.800
G1 X-74.674 Y-21.477 Z10.063 F1999.800
G0 Z23.000
G0 X-73.938 Y-23.741 Z23.000
G0 X-73.938 Y-23.741 Z21.000
G1 X-73.938 Y-23.741 Z10.063 F999.600
G1 X-73.772 Y-24.253 Z10.063 F1999.800
G1 X-110.935 Y-36.328 Z10.063 F1999.800
G1 X-111.101 Y-35.816 Z10.063 F1999.800
G1 X-73.938 Y-23.741 Z10.063 F1999.800
G1 X-73.938 Y-23.741 Z9.533 F999.600
G1 X-73.772 Y-24.253 Z9.533 F1999.800
G1 X-110.935 Y-36.328 Z9.533 F1999.800
G1 X-111.101 Y-35.816 Z9.533 F1999.800
G1 X-73.938 Y-23.741 Z9.533 F1999.800
G0 Z23.000
G0 X-74.674 Y-21.477 Z23.000
G0 X-74.674 Y-21.477 Z21.000
G1 X-74.674 Y-21.477 Z9.533 F999.600
G1 X-72.410 Y-20.741 Z9.533 F1999.800
G1 X-70.772 Y-25.782 Z9.533 F1999.800
G1 X-112.464 Y-39.328 Z9.533 F1999.800
G1 X-114.102 Y-34.287 Z9.533 F1999.800
G1 X-74.674 Y-21.477 Z9.533 F1999.800
G0 Z23.000
G0 X-75.410 Y-19.212 Z23.000
G0 X-75.410 Y-19.212 Z21.000
G1 X-75.410 Y-19.212 Z9.533 F999.600
G1 X-70.881 Y-17.740 Z9.533 F1999.800
G1 X-67.771 Y-27.310 Z9.533 F1999.800
G1 X-113.993 Y-42.329 Z9.533 F1999.800
G1 X-117.102 Y-32.759 Z9.533 F1999.800
G1 X-75.410 Y-19.212 Z9.533 F1999.800
G0 Z23.000
G0 X-76.146 Y-16.947 Z23.000
G0 X-76.146 Y-16.947 Z21.000
G1 X-76.146 Y-16.947 Z9.533 F999.600
G1 X-69.352 Y-14.740 Z9.533 F1999.800
G1 X-64.771 Y-28.839 Z9.533 F1999.800
G1 X-115.522 Y-45.329 Z9.533 F1999.800
G1 X-120.103 Y-31.230 Z9.533 F1999.800
G1 X-76.146 Y-16.947 Z9.533 F1999.800
G1 X-76.146 Y-16.947 Z9.004 F999.600
G1 X-69.352 Y-14.740 Z9.004 F1999.800
G1 X-64.771 Y-28.839 Z9.004 F1999.800
G1 X-115.522 Y-45.329 Z9.004 F1999.800
G1 X-120.103 Y-31.230 Z9.004 F1999.800
G1 X-76.146 Y-16.947 Z9.004 F1999.800
G0 Z23.000
G0 X-75.410 Y-19.212 Z23.000
G0 X-75.410 Y-19.212 Z21.000
G1 X-75.410 Y-19.212 Z9.004 F999.600
G1 X-70.881 Y-17.740 Z9.004 F1999.800
G1 X-67.771 Y-27.310 Z9.004 F1999.800
G1 X-113.993 Y-42.329 Z9.004 F1999.800
G1 X-117.102 Y-32.759 Z9.004 F1999.800
G1 X-75.410 Y-19.212 Z9.004 F1999.800
G0 Z23.000
G0 X-74.674 Y-21.477 Z23.000
G0 X-74.674 Y-21.477 Z21.000
G1 X-74.674 Y-21.477 Z9.004 F999.600
G1 X-72.410 Y-20.741 Z9.004 F1999.800
G1 X-70.772 Y-25.782 Z9.004 F1999.800
G1 X-112.464 Y-39.328 Z9.004 F1999.800
G1 X-114.102 Y-34.287 Z9.004 F1999.800
G1 X-74.674 Y-21.477 Z9.004 F1999.800
G0 Z23.000
G0 X-73.938 Y-23.741 Z23.000
G0 X-73.938 Y-23.741 Z21.000
G1 X-73.938 Y-23.741 Z9.004 F999.600
G1 X-73.772 Y-24.253 Z9.004 F1999.800
G1 X-110.935 Y-36.328 Z9.004 F1999.800
G1 X-111.101 Y-35.816 Z9.004 F1999.800
G1 X-73.938 Y-23.741 Z9.004 F1999.800
G1 X-73.938 Y-23.741 Z8.475 F999.600
G1 X-73.772 Y-24.253 Z8.475 F1999.800
G1 X-110.935 Y-36.328 Z8.475 F1999.800
G1 X-111.101 Y-35.816 Z8.475 F1999.800
G1 X-73.938 Y-23.741 Z8.475 F1999.800
G0 Z23.000
G0 X-74.674 Y-21.477 Z23.000
G0 X-74.674 Y-21.477 Z21.000
G1 X-74.674 Y-21.477 Z8.475 F999.600
G1 X-72.410 Y-20.741 Z8.475 F1999.800
G1 X-70.772 Y-25.782 Z8.475 F1999.800
G1 X-112.464 Y-39.328 Z8.475 F1999.800
G1 X-114.102 Y-34.287 Z8.475 F1999.800
G1 X-74.674 Y-21.477 Z8.475 F1999.800
G0 Z23.000
G0 X-75.410 Y-19.212 Z23.000
G0 X-75.410 Y-19.212 Z21.000
G1 X-75.410 Y-19.212 Z8.475 F999.600
G1 X-70.881 Y-17.740 Z8.475 F1999.800
G1 X-67.771 Y-27.310 Z8.475 F1999.800
G1 X-113.993 Y-42.329 Z8.475 F1999.800
G1 X-117.102 Y-32.759 Z8.475 F1999.800
G1 X-75.410 Y-19.212 Z8.475 F1999.800
G0 Z23.000
G0 X-76.146 Y-16.947 Z23.000
G0 X-76.146 Y-16.947 Z21.000
G1 X-76.146 Y-16.947 Z8.475 F999.600
G1 X-69.352 Y-14.740 Z8.475 F1999.800
G1 X-64.771 Y-28.839 Z8.475 F1999.800
G1 X-115.522 Y-45.329 Z8.475 F1999.800
G1 X-120.103 Y-31.230 Z8.475 F1999.800
G1 X-76.146 Y-16.947 Z8.475 F1999.800
G1 X-76.146 Y-16.947 Z7.946 F999.600
G1 X-69.352 Y-14.740 Z7.946 F1999.800
G1 X-64.771 Y-28.839 Z7.946 F1999.800
G1 X-115.522 Y-45.329 Z7.946 F1999.800
G1 X-120.103 Y-31.230 Z7.946 F1999.800
G1 X-76.146 Y-16.947 Z7.946 F1999.800
G0 Z23.000
G0 X-75.410 Y-19.212 Z23.000
G0 X-75.410 Y-19.212 Z21.000
G1 X-75.410 Y-19.212 Z7.946 F999.600
G1 X-70.881 Y-17.740 Z7.946 F1999.800
G1 X-67.771 Y-27.310 Z7.946 F1999.800
G1 X-113.993 Y-42.329 Z7.946 F1999.800
G1 X-117.102 Y-32.759 Z7.946 F1999.800
G1 X-75.410 Y-19.212 Z7.946 F1999.800
G0 Z23.000
G0 X-74.674 Y-21.477 Z23.000
G0 X-74.674 Y-21.477 Z21.000
G1 X-74.674 Y-21.477 Z7.946 F999.600
G1 X-72.410 Y-20.741 Z7.946 F1999.800
G1 X-70.772 Y-25.782 Z7.946 F1999.800
G1 X-112.464 Y-39.328 Z7.946 F1999.800
G1 X-114.102 Y-34.287 Z7.946 F1999.800
G1 X-74.674 Y-21.477 Z7.946 F1999.800
G0 Z23.000
G0 X-73.938 Y-23.741 Z23.000
G0 X-73.938 Y-23.741 Z21.000
G1 X-73.938 Y-23.741 Z7.946 F999.600
G1 X-73.772 Y-24.253 Z7.946 F1999.800
G1 X-110.935 Y-36.328 Z7.946 F1999.800
G1 X-111.101 Y-35.816 Z7.946 F1999.800
G1 X-73.938 Y-23.741 Z7.946 F1999.800
G1 X-73.938 Y-23.741 Z7.417 F999.600
G1 X-73.772 Y-24.253 Z7.417 F1999.800
G1 X-110.935 Y-36.328 Z7.417 F1999.800
G1 X-111.101 Y-35.816 Z7.417 F1999.800
G1 X-73.938 Y-23.741 Z7.417 F1999.800
G0 Z23.000
G0 X-74.674 Y-21.477 Z23.000
G0 X-74.674 Y-21.477 Z21.000
G1 X-74.674 Y-21.477 Z7.417 F999.600
G1 X-72.410 Y-20.741 Z7.417 F1999.800
G1 X-70.772 Y-25.782 Z7.417 F1999.800
G1 X-112.464 Y-39.328 Z7.417 F1999.800
G1 X-114.102 Y-34.287 Z7.417 F1999.800
G1 X-74.674 Y-21.477 Z7.417 F1999.800
G0 Z23.000
G0 X-75.410 Y-19.212 Z23.000
G0 X-75.410 Y-19.212 Z21.000
G1 X-75.410 Y-19.212 Z7.417 F999.600
G1 X-70.881 Y-17.740 Z7.417 F1999.800
G1 X-67.771 Y-27.310 Z7.417 F1999.800
G1 X-113.993 Y-42.329 Z7.417 F1999.800
G1 X-117.102 Y-32.759 Z7.417 F1999.800
G1 X-75.410 Y-19.212 Z7.417 F1999.800
G0 Z23.000
G0 X-76.146 Y-16.947 Z23.000
G0 X-76.146 Y-16.947 Z21.000
G1 X-76.146 Y-16.947 Z7.417 F999.600
G1 X-69.352 Y-14.740 Z7.417 F1999.800
G1 X-64.771 Y-28.839 Z7.417 F1999.800
G1 X-115.522 Y-45.329 Z7.417 F1999.800
G1 X-120.103 Y-31.230 Z7.417 F1999.800
G1 X-76.146 Y-16.947 Z7.417 F1999.800
G1 X-76.146 Y-16.947 Z6.888 F999.600
G1 X-69.352 Y-14.740 Z6.888 F1999.800
G1 X-64.771 Y-28.839 Z6.888 F1999.800
G1 X-115.522 Y-45.329 Z6.888 F1999.800
G1 X-120.103 Y-31.230 Z6.888 F1999.800
G1 X-76.146 Y-16.947 Z6.888 F1999.800
G0 Z23.000
G0 X-75.410 Y-19.212 Z23.000
G0 X-75.410 Y-19.212 Z21.000
G1 X-75.410 Y-19.212 Z6.888 F999.600
G1 X-70.881 Y-17.740 Z6.888 F1999.800
G1 X-67.771 Y-27.310 Z6.888 F1999.800
G1 X-113.993 Y-42.329 Z6.888 F1999.800
G1 X-117.102 Y-32.759 Z6.888 F1999.800
G1 X-75.410 Y-19.212 Z6.888 F1999.800
G0 Z23.000
G0 X-74.674 Y-21.477 Z23.000
G0 X-74.674 Y-21.477 Z21.000
G1 X-74.674 Y-21.477 Z6.888 F999.600
G1 X-72.410 Y-20.741 Z6.888 F1999.800
G1 X-70.772 Y-25.782 Z6.888 F1999.800
G1 X-112.464 Y-39.328 Z6.888 F1999.800
G1 X-114.102 Y-34.287 Z6.888 F1999.800
G1 X-74.674 Y-21.477 Z6.888 F1999.800
G0 Z23.000
G0 X-73.938 Y-23.741 Z23.000
G0 X-73.938 Y-23.741 Z21.000
G1 X-73.938 Y-23.741 Z6.888 F999.600
G1 X-73.772 Y-24.253 Z6.888 F1999.800
G1 X-110.935 Y-36.328 Z6.888 F1999.800
G1 X-111.101 Y-35.816 Z6.888 F1999.800
G1 X-73.938 Y-23.741 Z6.888 F1999.800
G1 X-73.938 Y-23.741 Z6.358 F999.600
G1 X-73.772 Y-24.253 Z6.358 F1999.800
G1 X-110.935 Y-36.328 Z6.358 F1999.800
G1 X-111.101 Y-35.816 Z6.358 F1999.800
G1 X-73.938 Y-23.741 Z6.358 F1999.800
G0 Z23.000
G0 X-74.674 Y-21.477 Z23.000
G0 X-74.674 Y-21.477 Z21.000
G1 X-74.674 Y-21.477 Z6.358 F999.600
G1 X-72.410 Y-20.741 Z6.358 F1999.800
G1 X-70.772 Y-25.782 Z6.358 F1999.800
G1 X-112.464 Y-39.328 Z6.358 F1999.800
G1 X-114.102 Y-34.287 Z6.358 F1999.800
G1 X-74.674 Y-21.477 Z6.358 F1999.800
G0 Z23.000
G0 X-75.410 Y-19.212 Z23.000
G0 X-75.410 Y-19.212 Z21.000
G1 X-75.410 Y-19.212 Z6.358 F999.600
G1 X-70.881 Y-17.740 Z6.358 F1999.800
G1 X-67.771 Y-27.310 Z6.358 F1999.800
G1 X-113.993 Y-42.329 Z6.358 F1999.800
G1 X-117.102 Y-32.759 Z6.358 F1999.800
G1 X-75.410 Y-19.212 Z6.358 F1999.800
G0 Z23.000
G0 X-76.146 Y-16.947 Z23.000
G0 X-76.146 Y-16.947 Z21.000
G1 X-76.146 Y-16.947 Z6.358 F999.600
G1 X-69.352 Y-14.740 Z6.358 F1999.800
G1 X-64.771 Y-28.839 Z6.358 F1999.800
G1 X-115.522 Y-45.329 Z6.358 F1999.800
G1 X-120.103 Y-31.230 Z6.358 F1999.800
G1 X-76.146 Y-16.947 Z6.358 F1999.800
G1 X-76.146 Y-16.947 Z5.829 F999.600
G1 X-69.352 Y-14.740 Z5.829 F1999.800
G1 X-64.771 Y-28.839 Z5.829 F1999.800
G1 X-115.522 Y-45.329 Z5.829 F1999.800
G1 X-120.103 Y-31.230 Z5.829 F1999.800
G1 X-76.146 Y-16.947 Z5.829 F1999.800
G0 Z23.000
G0 X-75.410 Y-19.212 Z23.000
G0 X-75.410 Y-19.212 Z21.000
G1 X-75.410 Y-19.212 Z5.829 F999.600
G1 X-70.881 Y-17.740 Z5.829 F1999.800
G1 X-67.771 Y-27.310 Z5.829 F1999.800
G1 X-113.993 Y-42.329 Z5.829 F1999.800
G1 X-117.102 Y-32.759 Z5.829 F1999.800
G1 X-75.410 Y-19.212 Z5.829 F1999.800
G0 Z23.000
G0 X-74.674 Y-21.477 Z23.000
G0 X-74.674 Y-21.477 Z21.000
G1 X-74.674 Y-21.477 Z5.829 F999.600
G1 X-72.410 Y-20.741 Z5.829 F1999.800
G1 X-70.772 Y-25.782 Z5.829 F1999.800
G1 X-112.464 Y-39.328 Z5.829 F1999.800
G1 X-114.102 Y-34.287 Z5.829 F1999.800
G1 X-74.674 Y-21.477 Z5.829 F1999.800
G0 Z23.000
G0 X-73.938 Y-23.741 Z23.000
G0 X-73.938 Y-23.741 Z21.000
G1 X-73.938 Y-23.741 Z5.829 F999.600
G1 X-73.772 Y-24.253 Z5.829 F1999.800
G1 X-110.935 Y-36.328 Z5.829 F1999.800
G1 X-111.101 Y-35.816 Z5.829 F1999.800
G1 X-73.938 Y-23.741 Z5.829 F1999.800
G1 X-73.938 Y-23.741 Z5.300 F999.600
G1 X-73.772 Y-24.253 Z5.300 F1999.800
G1 X-110.935 Y-36.328 Z5.300 F1999.800
G1 X-111.101 Y-35.816 Z5.300 F1999.800
G1 X-73.938 Y-23.741 Z5.300 F1999.800
G0 Z23.000
G0 X-74.674 Y-21.477 Z23.000
G0 X-74.674 Y-21.477 Z21.000
G1 X-74.674 Y-21.477 Z5.300 F999.600
G1 X-72.410 Y-20.741 Z5.300 F1999.800
G1 X-70.772 Y-25.782 Z5.300 F1999.800
G1 X-112.464 Y-39.328 Z5.300 F1999.800
G1 X-114.102 Y-34.287 Z5.300 F1999.800
G1 X-74.674 Y-21.477 Z5.300 F1999.800
G0 Z23.000
G0 X-75.410 Y-19.212 Z23.000
G0 X-75.410 Y-19.212 Z21.000
G1 X-75.410 Y-19.212 Z5.300 F999.600
G1 X-70.881 Y-17.740 Z5.300 F1999.800
G1 X-67.771 Y-27.310 Z5.300 F1999.800
G1 X-113.993 Y-42.329 Z5.300 F1999.800
G1 X-117.102 Y-32.759 Z5.300 F1999.800
G1 X-75.410 Y-19.212 Z5.300 F1999.800
G0 Z23.000
G0 X-76.146 Y-16.947 Z23.000
G0 X-76.146 Y-16.947 Z21.000
G1 X-76.146 Y-16.947 Z5.300 F999.600
G1 X-69.352 Y-14.740 Z5.300 F1999.800
G1 X-64.771 Y-28.839 Z5.300 F1999.800
G1 X-115.522 Y-45.329 Z5.300 F1999.800
G1 X-120.103 Y-31.230 Z5.300 F1999.800
G1 X-76.146 Y-16.947 Z5.300 F1999.800
G1 X-76.146 Y-16.947 Z4.771 F999.600
G1 X-69.352 Y-14.740 Z4.771 F1999.800
G1 X-64.771 Y-28.839 Z4.771 F1999.800
G1 X-115.522 Y-45.329 Z4.771 F1999.800
G1 X-120.103 Y-31.230 Z4.771 F1999.800
G1 X-76.146 Y-16.947 Z4.771 F1999.800
G0 Z23.000
G0 X-75.410 Y-19.212 Z23.000
G0 X-75.410 Y-19.212 Z21.000
G1 X-75.410 Y-19.212 Z4.771 F999.600
G1 X-70.881 Y-17.740 Z4.771 F1999.800
G1 X-67.771 Y-27.310 Z4.771 F1999.800
G1 X-113.993 Y-42.329 Z4.771 F1999.800
G1 X-117.102 Y-32.759 Z4.771 F1999.800
G1 X-75.410 Y-19.212 Z4.771 F1999.800
G0 Z23.000
G0 X-74.674 Y-21.477 Z23.000
G0 X-74.674 Y-21.477 Z21.000
G1 X-74.674 Y-21.477 Z4.771 F999.600
G1 X-72.410 Y-20.741 Z4.771 F1999.800
G1 X-70.772 Y-25.782 Z4.771 F1999.800
G1 X-112.464 Y-39.328 Z4.771 F1999.800
G1 X-114.102 Y-34.287 Z4.771 F1999.800
G1 X-74.674 Y-21.477 Z4.771 F1999.800
G0 Z23.000
G0 X-73.938 Y-23.741 Z23.000
G0 X-73.938 Y-23.741 Z21.000
G1 X-73.938 Y-23.741 Z4.771 F999.600
G1 X-73.772 Y-24.253 Z4.771 F1999.800
G1 X-110.935 Y-36.328 Z4.771 F1999.800
G1 X-111.101 Y-35.816 Z4.771 F1999.800
G1 X-73.938 Y-23.741 Z4.771 F1999.800
G1 X-73.938 Y-23.741 Z4.242 F999.600
G1 X-73.772 Y-24.253 Z4.242 F1999.800
G1 X-110.935 Y-36.328 Z4.242 F1999.800
G1 X-111.101 Y-35.816 Z4.242 F1999.800
G1 X-73.938 Y-23.741 Z4.242 F1999.800
G0 Z23.000
G0 X-74.674 Y-21.477 Z23.000
G0 X-74.674 Y-21.477 Z21.000
G1 X-74.674 Y-21.477 Z4.242 F999.600
G1 X-72.410 Y-20.741 Z4.242 F1999.800
G1 X-70.772 Y-25.782 Z4.242 F1999.800
G1 X-112.464 Y-39.328 Z4.242 F1999.800
G1 X-114.102 Y-34.287 Z4.242 F1999.800
G1 X-74.674 Y-21.477 Z4.242 F1999.800
G0 Z23.000
G0 X-75.410 Y-19.212 Z23.000
G0 X-75.410 Y-19.212 Z21.000
G1 X-75.410 Y-19.212 Z4.242 F999.600
G1 X-70.881 Y-17.740 Z4.242 F1999.800
G1 X-67.771 Y-27.310 Z4.242 F1999.800
G1 X-113.993 Y-42.329 Z4.242 F1999.800
G1 X-117.102 Y-32.759 Z4.242 F1999.800
G1 X-75.410 Y-19.212 Z4.242 F1999.800
G0 Z23.000
G0 X-76.146 Y-16.947 Z23.000
G0 X-76.146 Y-16.947 Z21.000
G1 X-76.146 Y-16.947 Z4.242 F999.600
G1 X-69.352 Y-14.740 Z4.242 F1999.800
G1 X-64.771 Y-28.839 Z4.242 F1999.800
G1 X-115.522 Y-45.329 Z4.242 F1999.800
G1 X-120.103 Y-31.230 Z4.242 F1999.800
G1 X-76.146 Y-16.947 Z4.242 F1999.800
G1 X-76.146 Y-16.947 Z3.713 F999.600
G1 X-69.352 Y-14.740 Z3.713 F1999.800
G1 X-64.771 Y-28.839 Z3.713 F1999.800
G1 X-115.522 Y-45.329 Z3.713 F1999.800
G1 X-120.103 Y-31.230 Z3.713 F1999.800
G1 X-76.146 Y-16.947 Z3.713 F1999.800
G0 Z23.000
G0 X-75.410 Y-19.212 Z23.000
G0 X-75.410 Y-19.212 Z21.000
G1 X-75.410 Y-19.212 Z3.713 F999.600
G1 X-70.881 Y-17.740 Z3.713 F1999.800
G1 X-67.771 Y-27.310 Z3.713 F1999.800
G1 X-113.993 Y-42.329 Z3.713 F1999.800
G1 X-117.102 Y-32.759 Z3.713 F1999.800
G1 X-75.410 Y-19.212 Z3.713 F1999.800
G0 Z23.000
G0 X-74.674 Y-21.477 Z23.000
G0 X-74.674 Y-21.477 Z21.000
G1 X-74.674 Y-21.477 Z3.713 F999.600
G1 X-72.410 Y-20.741 Z3.713 F1999.800
G1 X-70.772 Y-25.782 Z3.713 F1999.800
G1 X-112.464 Y-39.328 Z3.713 F1999.800
G1 X-114.102 Y-34.287 Z3.713 F1999.800
G1 X-74.674 Y-21.477 Z3.713 F1999.800
G0 Z23.000
G0 X-73.938 Y-23.741 Z23.000
G0 X-73.938 Y-23.741 Z21.000
G1 X-73.938 Y-23.741 Z3.713 F999.600
G1 X-73.772 Y-24.253 Z3.713 F1999.800
G1 X-110.935 Y-36.328 Z3.713 F1999.800
G1 X-111.101 Y-35.816 Z3.713 F1999.800
G1 X-73.938 Y-23.741 Z3.713 F1999.800
G1 X-73.938 Y-23.741 Z3.183 F999.600
G1 X-73.772 Y-24.253 Z3.183 F1999.800
G1 X-110.935 Y-36.328 Z3.183 F1999.800
G1 X-111.101 Y-35.816 Z3.183 F1999.800
G1 X-73.938 Y-23.741 Z3.183 F1999.800
G0 Z23.000
G0 X-74.674 Y-21.477 Z23.000
G0 X-74.674 Y-21.477 Z21.000
G1 X-74.674 Y-21.477 Z3.183 F999.600
G1 X-72.410 Y-20.741 Z3.183 F1999.800
G1 X-70.772 Y-25.782 Z3.183 F1999.800
G1 X-112.464 Y-39.328 Z3.183 F1999.800
G1 X-114.102 Y-34.287 Z3.183 F1999.800
G1 X-74.674 Y-21.477 Z3.183 F1999.800
G0 Z23.000
G0 X-75.410 Y-19.212 Z23.000
G0 X-75.410 Y-19.212 Z21.000
G1 X-75.410 Y-19.212 Z3.183 F999.600
G1 X-70.881 Y-17.740 Z3.183 F1999.800
G1 X-67.771 Y-27.310 Z3.183 F1999.800
G1 X-113.993 Y-42.329 Z3.183 F1999.800
G1 X-117.102 Y-32.759 Z3.183 F1999.800
G1 X-75.410 Y-19.212 Z3.183 F1999.800
G0 Z23.000
G0 X-76.146 Y-16.947 Z23.000
G0 X-76.146 Y-16.947 Z21.000
G1 X-76.146 Y-16.947 Z3.183 F999.600
G1 X-69.352 Y-14.740 Z3.183 F1999.800
G1 X-64.771 Y-28.839 Z3.183 F1999.800
G1 X-115.522 Y-45.329 Z3.183 F1999.800
G1 X-120.103 Y-31.230 Z3.183 F1999.800
G1 X-76.146 Y-16.947 Z3.183 F1999.800
G1 X-76.146 Y-16.947 Z3.000 F999.600
G1 X-69.352 Y-14.740 Z3.000 F1999.800
G1 X-64.771 Y-28.839 Z3.000 F1999.800
G1 X-115.522 Y-45.329 Z3.000 F1999.800
G1 X-120.103 Y-31.230 Z3.000 F1999.800
G1 X-76.146 Y-16.947 Z3.000 F1999.800
G0 Z23.000
G0 X-75.410 Y-19.212 Z23.000
G0 X-75.410 Y-19.212 Z21.000
G1 X-75.410 Y-19.212 Z3.000 F999.600
G1 X-70.881 Y-17.740 Z3.000 F1999.800
G1 X-67.771 Y-27.310 Z3.000 F1999.800
G1 X-113.993 Y-42.329 Z3.000 F1999.800
G1 X-117.102 Y-32.759 Z3.000 F1999.800
G1 X-75.410 Y-19.212 Z3.000 F1999.800
G0 Z23.000
G0 X-74.674 Y-21.477 Z23.000
G0 X-74.674 Y-21.477 Z21.000
G1 X-74.674 Y-21.477 Z3.000 F999.600
G1 X-72.410 Y-20.741 Z3.000 F1999.800
G1 X-70.772 Y-25.782 Z3.000 F1999.800
G1 X-112.464 Y-39.328 Z3.000 F1999.800
G1 X-114.102 Y-34.287 Z3.000 F1999.800
G1 X-74.674 Y-21.477 Z3.000 F1999.800
G0 Z23.000
G0 X-73.938 Y-23.741 Z23.000
G0 X-73.938 Y-23.741 Z21.000
G1 X-73.938 Y-23.741 Z3.000 F999.600
G1 X-73.772 Y-24.253 Z3.000 F1999.800
G1 X-110.935 Y-36.328 Z3.000 F1999.800
G1 X-111.101 Y-35.816 Z3.000 F1999.800
G1 X-73.938 Y-23.741 Z3.000 F1999.800
G0 Z23.000
G0 Z23.000
G0 X-7.412 Y-70.512
G0 X-7.412 Y-70.512 Z21.000
G1 X-7.412 Y-70.512 Z17.471 F999.600
G1 X7.412 Y-70.512 Z17.471 F1999.800
G1 X7.412 Y-123.875 Z17.471 F1999.800
G1 X-7.412 Y-123.875 Z17.471 F1999.800
G1 X-7.412 Y-70.512 Z17.471 F1999.800
G0 Z23.000
G0 X-5.031 Y-72.894 Z23.000
G0 X-5.031 Y-72.894 Z21.000
G1 X-5.031 Y-72.894 Z17.471 F999.600
G1 X5.031 Y-72.894 Z17.471 F1999.800
G1 X5.031 Y-121.494 Z17.471 F1999.800
G1 X-5.031 Y-121.494 Z17.471 F1999.800
G1 X-5.031 Y-72.894 Z17.471 F1999.800
G0 Z23.000
G0 X-2.650 Y-75.275 Z23.000
G0 X-2.650 Y-75.275 Z21.000
G1 X-2.650 Y-75.275 Z17.471 F999.600
G1 X2.650 Y-75.275 Z17.471 F1999.800
G1 X2.650 Y-119.112 Z17.471 F1999.800
G1 X-2.650 Y-119.112 Z17.471 F1999.800
G1 X-2.650 Y-75.275 Z17.471 F1999.800
G0 Z23.000
G0 X-0.269 Y-77.656 Z23.000
G0 X-0.269 Y-77.656 Z21.000
G1 X-0.269 Y-77.656 Z17.471 F999.600
G1 X0.269 Y-77.656 Z17.471 F1999.800
G1 X0.269 Y-116.731 Z17.471 F1999.800
G1 X-0.269 Y-116.731 Z17.471 F1999.800
G1 X-0.269 Y-77.656 Z17.471 F1999.800
G1 X-0.269 Y-77.656 Z16.942 F999.600
G1 X0.269 Y-77.656 Z16.942 F1999.800
G1 X0.269 Y-116.731 Z16.942 F1999.800
G1 X-0.269 Y-116.731 Z16.942 F1999.800
G1 X-0.269 Y-77.656 Z16.942 F1999.800
G0 Z23.000
G0 X-2.650 Z23.000
G0 X-2.650 Z21.000
G1 X-2.650 Y-77.656 Z16.942 F999.600
G1 X-2.650 Y-75.275 Z16.942 F1999.800
G1 X2.650 Y-75.275 Z16.942 F1999.800
G1 X2.650 Y-119.112 Z16.942 F1999.800
G1 X-2.650 Y-119.112 Z16.942 F1999.800
G1 X-2.650 Y-77.656 Z16.942 F1999.800
G0 Z23.000
G0 X-5.031 Z23.000
G0 X-5.031 Z21.000
G1 X-5.031 Y-77.656 Z16.942 F999.600
G1 X-5.031 Y-72.894 Z16.942 F1999.800
G1 X5.031 Y-72.894 Z16.942 F1999.800
G1 X5.031 Y-121.494 Z16.942 F1999.800
G1 X-5.031 Y-121.494 Z16.942 F1999.800
G1 X-5.031 Y-77.656 Z16.942 F1999.800
G0 Z23.000
G0 X-7.412 Z23.000
G0 X-7.412 Z21.000
G1 X-7.412 Y-77.656 Z16.942 F999.600
G1 X-7.412 Y-70.512 Z16.942 F1999.800
G1 X7.412 Y-70.512 Z16.942 F1999.800
G1 X7.412 Y-123.875 Z16.942 F1999.800
G1 X-7.412 Y-123.875 Z16.942 F1999.800
G1 X-7.412 Y-77.656 Z16.942 F1999.800
G1 X-7.412 Y-77.656 Z16.413 F999.600
G1 X-7.412 Y-70.512 Z16.413 F1999.800
G1 X7.412 Y-70.512 Z16.413 F1999.800
G1 X7.412 Y-123.875 Z16.413 F1999.800
G1 X-7.412 Y-123.875 Z16.413 F1999.800
G1 X-7.412 Y-77.656 Z16.413 F1999.800
G0 Z23.000
G0 X-5.031 Z23.000
G0 X-5.031 Z21.000
G1 X-5.031 Y-77.656 Z16.413 F999.600
G1 X-5.031 Y-72.894 Z16.413 F1999.800
G1 X5.031 Y-72.894 Z16.413 F1999.800
G1 X5.031 Y-121.494 Z16.413 F1999.800
G1 X-5.031 Y-121.494 Z16.413 F1999.800
G1 X-5.031 Y-77.656 Z16.413 F1999.800
G0 Z23.000
G0 X-2.650 Z23.000
G0 X-2.650 Z21.000
G1 X-2.650 Y-77.656 Z16.413 F999.600
G1 X-2.650 Y-75.275 Z16.413 F1999.800
G1 X2.650 Y-75.275 Z16.413 F1999.800
G1 X2.650 Y-119.112 Z16.413 F1999.800
G1 X-2.650 Y-119.112 Z16.413 F1999.800
G1 X-2.650 Y-77.656 Z16.413 F1999.800
G0 Z23.000
G0 X-0.269 Z23.000
G0 X-0.269 Z21.000
G1 X-0.269 Y-77.656 Z16.413 F999.600
G1 X0.269 Y-77.656 Z16.413 F1999.800
G1 X0.269 Y-116.731 Z16.413 F1999.800
G1 X-0.269 Y-116.731 Z16.413 F1999.800
G1 X-0.269 Y-77.656 Z16.413 F1999.800
G1 X-0.269 Y-77.656 Z15.883 F999.600
G1 X0.269 Y-77.656 Z15.883 F1999.800
G1 X0.269 Y-116.731 Z15.883 F1999.800
G1 X-0.269 Y-116.731 Z15.883 F1999.800
G1 X-0.269 Y-77.656 Z15.883 F1999.800
G0 Z23.000
G0 X-2.650 Z23.000
G0 X-2.650 Z21.000
G1 X-2.650 Y-77.656 Z15.883 F999.600
G1 X-2.650 Y-75.275 Z15.883 F1999.800
G1 X2.650 Y-75.275 Z15.883 F1999.800
G1 X2.650 Y-119.112 Z15.883 F1999.800
G1 X-2.650 Y-119.112 Z15.883 F1999.800
G1 X-2.650 Y-77.656 Z15.883 F1999.800
G0 Z23.000
G0 X-5.031 Z23.000
G0 X-5.031 Z21.000
G1 X-5.031 Y-77.656 Z15.883 F999.600
G1 X-5.031 Y-72.894 Z15.883 F1999.800
G1 X5.031 Y-72.894 Z15.883 F1999.800
G1 X5.031 Y-121.494 Z15.883 F1999.800
G1 X-5.031 Y-121.494 Z15.883 F1999.800
G1 X-5.031 Y-77.656 Z15.883 F1999.800
G0 Z23.000
G0 X-7.412 Z23.000
G0 X-7.412 Z21.000
G1 X-7.412 Y-77.656 Z15.883 F999.600
G1 X-7.412 Y-70.512 Z15.883 F1999.800
G1 X7.412 Y-70.512 Z15.883 F1999.800
G1 X7.412 Y-123.875 Z15.883 F1999.800
G1 X-7.412 Y-123.875 Z15.883 F1999.800
G1 X-7.412 Y-77.656 Z15.883 F1999.800
G1 X-7.412 Y-77.656 Z15.354 F999.600
G1 X-7.412 Y-70.512 Z15.354 F1999.800
G1 X7.412 Y-70.512 Z15.354 F1999.800
G1 X7.412 Y-123.875 Z15.354 F1999.800
G1 X-7.412 Y-123.875 Z15.354 F1999.800
G1 X-7.412 Y-77.656 Z15.354 F1999.800
G0 Z23.000
G0 X-5.031 Z23.000
G0 X-5.031 Z21.000
G1 X-5.031 Y-77.656 Z15.354 F999.600
G1 X-5.031 Y-72.894 Z15.354 F1999.800
G1 X5.031 Y-72.894 Z15.354 F1999.800
G1 X5.031 Y-121.494 Z15.354 F1999.800
G1 X-5.031 Y-121.494 Z15.354 F1999.800
G1 X-5.031 Y-77.656 Z15.354 F1999.800
G0 Z23.000
G0 X-2.650 Z23.000
G0 X-2.650 Z21.000
G1 X-2.650 Y-77.656 Z15.354 F999.600
G1 X-2.650 Y-75.275 Z15.354 F1999.800
G1 X2.650 Y-75.275 Z15.354 F1999.800
G1 X2.650 Y-119.112 Z15.354 F1999.800
G1 X-2.650 Y-119.112 Z15.354 F1999.800
G1 X-2.650 Y-77.656 Z15.354 F1999.800
G0 Z23.000
G0 X-0.269 Z23.000
G0 X-0.269 Z21.000
G1 X-0.269 Y-77.656 Z15.354 F999.600
G1 X0.269 Y-77.656 Z15.354 F1999.800
G1 X0.269 Y-116.731 Z15.354 F1999.800
G1 X-0.269 Y-116.731 Z15.354 F1999.800
G1 X-0.269 Y-77.656 Z15.354 F1999.800
G1 X-0.269 Y-77.656 Z14.825 F999.600
G1 X0.269 Y-77.656 Z14.825 F1999.800
G1 X0.269 Y-116.731 Z14.825 F1999.800
G1 X-0.269 Y-116.731 Z14.825 F1999.800
G1 X-0.269 Y-77.656 Z14.825 F1999.800
G0 Z23.000
G0 X-2.650 Z23.000
G0 X-2.650 Z21.000
G1 X-2.650 Y-77.656 Z14.825 F999.600
G1 X-2.650 Y-75.275 Z14.825 F1999.800
G1 X2.650 Y-75.275 Z14.825 F1999.800
G1 X2.650 Y-119.112 Z14.825 F1999.800
G1 X-2.650 Y-119.112 Z14.825 F1999.800
G1 X-2.650 Y-77.656 Z14.825 F1999.800
G0 Z23.000
G0 X-5.031 Z23.000
G0 X-5.031 Z21.000
G1 X-5.031 Y-77.656 Z14.825 F999.600
G1 X-5.031 Y-72.894 Z14.825 F1999.800
G1 X5.031 Y-72.894 Z14.825 F1999.800
G1 X5.031 Y-121.494 Z14.825 F1999.800
G1 X-5.031 Y-121.494 Z14.825 F1999.800
G1 X-5.031 Y-77.656 Z14.825 F1999.800
G0 Z23.000
G0 X-7.412 Z23.000
G0 X-7.412 Z21.000
G1 X-7.412 Y-77.656 Z14.825 F999.600
G1 X-7.412 Y-70.512 Z14.825 F1999.800
G1 X7.412 Y-70.512 Z14.825 F1999.800
G1 X7.412 Y-123.875 Z14.825 F1999.800
G1 X-7.412 Y-123.875 Z14.825 F1999.800
G1 X-7.412 Y-77.656 Z14.825 F1999.800
G1 X-7.412 Y-77.656 Z14.296 F999.600
G1 X-7.412 Y-70.512 Z14.296 F1999.800
G1 X7.412 Y-70.512 Z14.296 F1999.800
G1 X7.412 Y-123.875 Z14.296 F1999.800
G1 X-7.412 Y-123.875 Z14.296 F1999.800
G1 X-7.412 Y-77.656 Z14.296 F1999.800
G0 Z23.000
G0 X-5.031 Z23.000
G0 X-5.031 Z21.000
G1 X-5.031 Y-77.656 Z14.296 F999.600
G1 X-5.031 Y-72.894 Z14.296 F1999.800
G1 X5.031 Y-72.894 Z14.296 F1999.800
G1 X5.031 Y-121.494 Z14.296 F1999.800
G1 X-5.031 Y-121.494 Z14.296 F1999.800
G1 X-5.031 Y-77.656 Z14.296 F1999.800
G0 Z23.000
G0 X-2.650 Z23.000
G0 X-2.650 Z21.000
G1 X-2.650 Y-77.656 Z14.296 F999.600
G1 X-2.650 Y-75.275 Z14.296 F1999.800
G1 X2.650 Y-75.275 Z14.296 F1999.800
G1 X2.650 Y-119.112 Z14.296 F1999.800
G1 X-2.650 Y-119.112 Z14.296 F1999.800
G1 X-2.650 Y-77.656 Z14.296 F1999.800
G0 Z23.000
G0 X-0.269 Z23.000
G0 X-0.269 Z21.000
G1 X-0.269 Y-77.656 Z14.296 F999.600
G1 X0.269 Y-77.656 Z14.296 F1999.800
G1 X0.269 Y-116.731 Z14.296 F1999.800
G1 X-0.269 Y-116.731 Z14.296 F1999.800
G1 X-0.269 Y-77.656 Z14.296 F1999.800
G1 X-0.269 Y-77.656 Z13.767 F999.600
G1 X0.269 Y-77.656 Z13.767 F1999.800
G1 X0.269 Y-116.731 Z13.767 F1999.800
G1 X-0.269 Y-116.731 Z13.767 F1999.800
G1 X-0.269 Y-77.656 Z13.767 F1999.800
G0 Z23.000
G0 X-2.650 Z23.000
G0 X-2.650 Z21.000
G1 X-2.650 Y-77.656 Z13.767 F999.600
G1 X-2.650 Y-75.275 Z13.767 F1999.800
G1 X2.650 Y-75.275 Z13.767 F1999.800
G1 X2.650 Y-119.112 Z13.767 F1999.800
G1 X-2.650 Y-119.112 Z13.767 F1999.800
G1 X-2.650 Y-77.656 Z13.767 F1999.800
G0 Z23.000
G0 X-5.031 Z23.000
G0 X-5.031 Z21.000
G1 X-5.031 Y-77.656 Z13.767 F999.600
G1 X-5.031 Y-72.894 Z13.767 F1999.800
G1 X5.031 Y-72.894 Z13.767 F1999.800
G1 X5.031 Y-121.494 Z13.767 F1999.800
G1 X-5.031 Y-121.494 Z13.767 F1999.800
G1 X-5.031 Y-77.656 Z13.767 F1999.800
G0 Z23.000
G0 X-7.412 Z23.000
G0 X-7.412 Z21.000
G1 X-7.412 Y-77.656 Z13.767 F999.600
G1 X-7.412 Y-70.512 Z13.767 F1999.800
G1 X7.412 Y-70.512 Z13.767 F1999.800
G1 X7.412 Y-123.875 Z13.767 F1999.800
G1 X-7.412 Y-123.875 Z13.767 F1999.800
G1 X-7.412 Y-77.656 Z13.767 F1999.800
G1 X-7.412 Y-77.656 Z13.238 F999.600
G1 X-7.412 Y-70.512 Z13.238 F1999.800
G1 X7.412 Y-70.512 Z13.238 F1999.800
G1 X7.412 Y-123.875 Z13.238 F1999.800
G1 X-7.412 Y-123.875 Z13.238 F1999.800
G1 X-7.412 Y-77.656 Z13.238 F1999.800
G0 Z23.000
G0 X-5.031 Z23.000
G0 X-5.031 Z21.000
G1 X-5.031 Y-77.656 Z13.238 F999.600
G1 X-5.031 Y-72.894 Z13.238 F1999.800
G1 X5.031 Y-72.894 Z13.238 F1999.800
G1 X5.031 Y-121.494 Z13.238 F1999.800
G1 X-5.031 Y-121.494 Z13.238 F1999.800
G1 X-5.031 Y-77.656 Z13.238 F1999.800
G0 Z23.000
G0 X-2.650 Z23.000
G0 X-2.650 Z21.000
G1 X-2.650 Y-77.656 Z13.238 F999.600
G1 X-2.650 Y-75.275 Z13.238 F1999.800
G1 X2.650 Y-75.275 Z13.238 F1999.800
G1 X2.650 Y-119.112 Z13.238 F1999.800
G1 X-2.650 Y-119.112 Z13.238 F1999.800
G1 X-2.650 Y-77.656 Z13.238 F1999.800
G0 Z23.000
G0 X-0.269 Z23.000
G0 X-0.269 Z21.000
G1 X-0.269 Y-77.656 Z13.238 F999.600
G1 X0.269 Y-77.656 Z13.238 F1999.800
G1 X0.269 Y-116.731 Z13.238 F1999.800
G1 X-0.269 Y-116.731 Z13.238 F1999.800
G1 X-0.269 Y-77.656 Z13.238 F1999.800
G1 X-0.269 Y-77.656 Z12.708 F999.600
G1 X0.269 Y-77.656 Z12.708 F1999.800
G1 X0.269 Y-116.731 Z12.708 F1999.800
G1 X-0.269 Y-116.731 Z12.708 F1999.800
G1 X-0.269 Y-77.656 Z12.708 F1999.800
G0 Z23.000
G0 X-2.650 Z23.000
G0 X-2.650 Z21.000
G1 X-2.650 Y-77.656 Z12.708 F999.600
G1 X-2.650 Y-75.275 Z12.708 F1999.800
G1 X2.650 Y-75.275 Z12.708 F1999.800
G1 X2.650 Y-119.112 Z12.708 F1999.800
G1 X-2.650 Y-119.112 Z12.708 F1999.800
G1 X-2.650 Y-77.656 Z12.708 F1999.800
G0 Z23.000
G0 X-5.031 Z23.000
G0 X-5.031 Z21.000
G1 X-5.031 Y-77.656 Z12.708 F999.600
G1 X-5.031 Y-72.894 Z12.708 F1999.800
G1 X5.031 Y-72.894 Z12.708 F1999.800
G1 X5.031 Y-121.494 Z12.708 F1999.800
G1 X-5.031 Y-121.494 Z12.708 F1999.800
G1 X-5.031 Y-77.656 Z12.708 F1999.800
G0 Z23.000
G0 X-7.412 Z23.000
G0 X-7.412 Z21.000
G1 X-7.412 Y-77.656 Z12.708 F999.600
G1 X-7.412 Y-70.512 Z12.708 F1999.800
G1 X7.412 Y-70.512 Z12.708 F1999.800
G1 X7.412 Y-123.875 Z12.708 F1999.800
G1 X-7.412 Y-123.875 Z12.708 F1999.800
G1 X-7.412 Y-77.656 Z12.708 F1999.800
G1 X-7.412 Y-77.656 Z12.179 F999.600
G1 X-7.412 Y-70.512 Z12.179 F1999.800
G1 X7.412 Y-70.512 Z12.179 F1999.800
G1 X7.412 Y-123.875 Z12.179 F1999.800
G1 X-7.412 Y-123.875 Z12.179 F1999.800
G1 X-7.412 Y-77.656 Z12.179 F1999.800
G0 Z23.000
G0 X-5.031 Z23.000
G0 X-5.031 Z21.000
G1 X-5.031 Y-77.656 Z12.179 F999.600
G1 X-5.031 Y-72.894 Z12.179 F1999.800
G1 X5.031 Y-72.894 Z12.179 F1999.800
G1 X5.031 Y-121.494 Z12.179 F1999.800
G1 X-5.031 Y-121.494 Z12.179 F1999.800
G1 X-5.031 Y-77.656 Z12.179 F1999.800
G0 Z23.000
G0 X-2.650 Z23.000
G0 X-2.650 Z21.000
G1 X-2.650 Y-77.656 Z12.179 F999.600
G1 X-2.650 Y-75.275 Z12.179 F1999.800
G1 X2.650 Y-75.275 Z12.179 F1999.800
G1 X2.650 Y-119.112 Z12.179 F1999.800
G1 X-2.650 Y-119.112 Z12.179 F1999.800
G1 X-2.650 Y-77.656 Z12.179 F1999.800
G0 Z23.000
G0 X-0.269 Z23.000
G0 X-0.269 Z21.000
G1 X-0.269 Y-77.656 Z12.179 F999.600
G1 X0.269 Y-77.656 Z12.179 F1999.800
G1 X0.269 Y-116.731 Z12.179 F1999.800
G1 X-0.269 Y-116.731 Z12.179 F1999.800
G1 X-0.269 Y-77.656 Z12.179 F1999.800
G1 X-0.269 Y-77.656 Z11.650 F999.600
G1 X0.269 Y-77.656 Z11.650 F1999.800
G1 X0.269 Y-116.731 Z11.650 F1999.800
G1 X-0.269 Y-116.731 Z11.650 F1999.800
G1 X-0.269 Y-77.656 Z11.650 F1999.800
G0 Z23.000
G0 X-2.650 Z23.000
G0 X-2.650 Z21.000
G1 X-2.650 Y-77.656 Z11.650 F999.600
G1 X-2.650 Y-75.275 Z11.650 F1999.800
G1 X2.650 Y-75.275 Z11.650 F1999.800
G1 X2.650 Y-119.112 Z11.650 F1999.800
G1 X-2.650 Y-119.112 Z11.650 F1999.800
G1 X-2.650 Y-77.656 Z11.650 F1999.800
G0 Z23.000
G0 X-5.031 Z23.000
G0 X-5.031 Z21.000
G1 X-5.031 Y-77.656 Z11.650 F999.600
G1 X-5.031 Y-72.894 Z11.650 F1999.800
G1 X5.031 Y-72.894 Z11.650 F1999.800
G1 X5.031 Y-121.494 Z11.650 F1999.800
G1 X-5.031 Y-121.494 Z11.650 F1999.800
G1 X-5.031 Y-77.656 Z11.650 F1999.800
G0 Z23.000
G0 X-7.412 Z23.000
G0 X-7.412 Z21.000
G1 X-7.412 Y-77.656 Z11.650 F999.600
G1 X-7.412 Y-70.512 Z11.650 F1999.800
G1 X7.412 Y-70.512 Z11.650 F1999.800
G1 X7.412 Y-123.875 Z11.650 F1999.800
G1 X-7.412 Y-123.875 Z11.650 F1999.800
G1 X-7.412 Y-77.656 Z11.650 F1999.800
G1 X-7.412 Y-77.656 Z11.121 F999.600
G1 X-7.412 Y-70.512 Z11.121 F1999.800
G1 X7.412 Y-70.512 Z11.121 F1999.800
G1 X7.412 Y-123.875 Z11.121 F1999.800
G1 X-7.412 Y-123.875 Z11.121 F1999.800
G1 X-7.412 Y-77.656 Z11.121 F1999.800
G0 Z23.000
G0 X-5.031 Z23.000
G0 X-5.031 Z21.000
G1 X-5.031 Y-77.656 Z11.121 F999.600
G1 X-5.031 Y-72.894 Z11.121 F1999.800
G1 X5.031 Y-72.894 Z11.121 F1999.800
G1 X5.031 Y-121.494 Z11.121 F1999.800
G1 X-5.031 Y-121.494 Z11.121 F1999.800
G1 X-5.031 Y-77.656 Z11.121 F1999.800
G0 Z23.000
G0 X-2.650 Z23.000
G0 X-2.650 Z21.000
G1 X-2.650 Y-77.656 Z11.121 F999.600
G1 X-2.650 Y-75.275 Z11.121 F1999.800
G1 X2.650 Y-75.275 Z11.121 F1999.800
G1 X2.650 Y-119.112 Z11.121 F1999.800
G1 X-2.650 Y-119.112 Z11.121 F1999.800
G1 X-2.650 Y-77.656 Z11.121 F1999.800
G0 Z23.000
G0 X-0.269 Z23.000
G0 X-0.269 Z21.000
G1 X-0.269 Y-77.656 Z11.121 F999.600
G1 X0.269 Y-77.656 Z11.121 F1999.800
G1 X0.269 Y-116.731 Z11.121 F1999.800
G1 X-0.269 Y-116.731 Z11.121 F1999.800
G1 X-0.269 Y-77.656 Z11.121 F1999.800
G1 X-0.269 Y-77.656 Z10.592 F999.600
G1 X0.269 Y-77.656 Z10.592 F1999.800
G1 X0.269 Y-116.731 Z10.592 F1999.800
G1 X-0.269 Y-116.731 Z10.592 F1999.800
G1 X-0.269 Y-77.656 Z10.592 F1999.800
G0 Z23.000
G0 X-2.650 Z23.000
G0 X-2.650 Z21.000
G1 X-2.650 Y-77.656 Z10.592 F999.600
G1 X-2.650 Y-75.275 Z10.592 F1999.800
G1 X2.650 Y-75.275 Z10.592 F1999.800
G1 X2.650 Y-119.112 Z10.592 F1999.800
G1 X-2.650 Y-119.112 Z10.592 F1999.800
G1 X-2.650 Y-77.656 Z10.592 F1999.800
G0 Z23.000
G0 X-5.031 Z23.000
G0 X-5.031 Z21.000
G1 X-5.031 Y-77.656 Z10.592 F999.600
G1 X-5.031 Y-72.894 Z10.592 F1999.800
G1 X5.031 Y-72.894 Z10.592 F1999.800
G1 X5.031 Y-121.494 Z10.592 F1999.800
G1 X-5.031 Y-121.494 Z10.592 F1999.800
G1 X-5.031 Y-77.656 Z10.592 F1999.800
G0 Z23.000
G0 X-7.412 Z23.000
G0 X-7.412 Z21.000
G1 X-7.412 Y-77.656 Z10.592 F999.600
G1 X-7.412 Y-70.512 Z10.592 F1999.800
G1 X7.412 Y-70.512 Z10.592 F1999.800
G1 X7.412 Y-123.875 Z10.592 F1999.800
G1 X-7.412 Y-123.875 Z10.592 F1999.800
G1 X-7.412 Y-77.656 Z10.592 F1999.800
G1 X-7.412 Y-77.656 Z10.063 F999.600
G1 X-7.412 Y-70.512 Z10.063 F1999.800
G1 X7.412 Y-70.512 Z10.063 F1999.800
G1 X7.412 Y-123.875 Z10.063 F1999.800
G1 X-7.412 Y-123.875 Z10.063 F1999.800
G1 X-7.412 Y-77.656 Z10.063 F1999.800
G0 Z23.000
G0 X-5.031 Z23.000
G0 X-5.031 Z21.000
G1 X-5.031 Y-77.656 Z10.063 F999.600
G1 X-5.031 Y-72.894 Z10.063 F1999.800
G1 X5.031 Y-72.894 Z10.063 F1999.800
G1 X5.031 Y-121.494 Z10.063 F1999.800
G1 X-5.031 Y-121.494 Z10.063 F1999.800
G1 X-5.031 Y-77.656 Z10.063 F1999.800
G0 Z23.000
G0 X-2.650 Z23.000
G0 X-2.650 Z21.000
G1 X-2.650 Y-77.656 Z10.063 F999.600
G1 X-2.650 Y-75.275 Z10.063 F1999.800
G1 X2.650 Y-75.275 Z10.063 F1999.800
G1 X2.650 Y-119.112 Z10.063 F1999.800
G1 X-2.650 Y-119.112 Z10.063 F1999.800
G1 X-2.650 Y-77.656 Z10.063 F1999.800
G0 Z23.000
G0 X-0.269 Z23.000
G0 X-0.269 Z21.000
G1 X-0.269 Y-77.656 Z10.063 F999.600
G1 X0.269 Y-77.656 Z10.063 F1999.800
G1 X0.269 Y-116.731 Z10.063 F1999.800
G1 X-0.269 Y-116.731 Z10.063 F1999.800
G1 X-0.269 Y-77.656 Z10.063 F1999.800
G1 X-0.269 Y-77.656 Z9.533 F999.600
G1 X0.269 Y-77.656 Z9.533 F1999.800
G1 X0.269 Y-116.731 Z9.533 F1999.800
G1 X-0.269 Y-116.731 Z9.533 F1999.800
G1 X-0.269 Y-77.656 Z9.533 F1999.800
G0 Z23.000
G0 X-2.650 Z23.000
G0 X-2.650 Z21.000
G1 X-2.650 Y-77.656 Z9.533 F999.600
G1 X-2.650 Y-75.275 Z9.533 F1999.800
G1 X2.650 Y-75.275 Z9.533 F1999.800
G1 X2.650 Y-119.112 Z9.533 F1999.800
G1 X-2.650 Y-119.112 Z9.533 F1999.800
G1 X-2.650 Y-77.656 Z9.533 F1999.800
G0 Z23.000
G0 X-5.031 Z23.000
G0 X-5.031 Z21.000
G1 X-5.031 Y-77.656 Z9.533 F999.600
G1 X-5.031 Y-72.894 Z9.533 F1999.800
G1 X5.031 Y-72.894 Z9.533 F1999.800
G1 X5.031 Y-121.494 Z9.533 F1999.800
G1 X-5.031 Y-121.494 Z9.533 F1999.800
G1 X-5.031 Y-77.656 Z9.533 F1999.800
G0 Z23.000
G0 X-7.412 Z23.000
G0 X-7.412 Z21.000
G1 X-7.412 Y-77.656 Z9.533 F999.600
G1 X-7.412 Y-70.512 Z9.533 F1999.800
G1 X7.412 Y-70.512 Z9.533 F1999.800
G1 X7.412 Y-123.875 Z9.533 F1999.800
G1 X-7.412 Y-123.875 Z9.533 F1999.800
G1 X-7.412 Y-77.656 Z9.533 F1999.800
G1 X-7.412 Y-77.656 Z9.004 F999.600
G1 X-7.412 Y-70.512 Z9.004 F1999.800
G1 X7.412 Y-70.512 Z9.004 F1999.800
G1 X7.412 Y-123.875 Z9.004 F1999.800
G1 X-7.412 Y-123.875 Z9.004 F1999.800
G1 X-7.412 Y-77.656 Z9.004 F1999.800
G0 Z23.000
G0 X-5.031 Z23.000
G0 X-5.031 Z21.000
G1 X-5.031 Y-77.656 Z9.004 F999.600
G1 X-5.031 Y-72.894 Z9.004 F1999.800
G1 X5.031 Y-72.894 Z9.004 F1999.800
G1 X5.031 Y-121.494 Z9.004 F1999.800
G1 X-5.031 Y-121.494 Z9.004 F1999.800
G1 X-5.031 Y-77.656 Z9.004 F1999.800
G0 Z23.000
G0 X-2.650 Z23.000
G0 X-2.650 Z21.000
G1 X-2.650 Y-77.656 Z9.004 F999.600
G1 X-2.650 Y-75.275 Z9.004 F1999.800
G1 X2.650 Y-75.275 Z9.004 F1999.800
G1 X2.650 Y-119.112 Z9.004 F1999.800
G1 X-2.650 Y-119.112 Z9.004 F1999.800
G1 X-2.650 Y-77.656 Z9.004 F1999.800
G0 Z23.000
G0 X-0.269 Z23.000
G0 X-0.269 Z21.000
G1 X-0.269 Y-77.656 Z9.004 F999.600
G1 X0.269 Y-77.656 Z9.004 F1999.800
G1 X0.269 Y-116.731 Z9.004 F1999.800
G1 X-0.269 Y-116.731 Z9.004 F1999.800
G1 X-0.269 Y-77.656 Z9.004 F1999.800
G1 X-0.269 Y-77.656 Z8.475 F999.600
G1 X0.269 Y-77.656 Z8.475 F1999.800
G1 X0.269 Y-116.731 Z8.475 F1999.800
G1 X-0.269 Y-116.731 Z8.475 F1999.800
G1 X-0.269 Y-77.656 Z8.475 F1999.800
G0 Z23.000
G0 X-2.650 Z23.000
G0 X-2.650 Z21.000
G1 X-2.650 Y-77.656 Z8.475 F999.600
G1 X-2.650 Y-75.275 Z8.475 F1999.800
G1 X2.650 Y-75.275 Z8.475 F1999.800
G1 X2.650 Y-119.112 Z8.475 F1999.800
G1 X-2.650 Y-119.112 Z8.475 F1999.800
G1 X-2.650 Y-77.656 Z8.475 F1999.800
G0 Z23.000
G0 X-5.031 Z23.000
G0 X-5.031 Z21.000
G1 X-5.031 Y-77.656 Z8.475 F999.600
G1 X-5.031 Y-72.894 Z8.475 F1999.800
G1 X5.031 Y-72.894 Z8.475 F1999.800
G1 X5.031 Y-121.494 Z8.475 F1999.800
G1 X-5.031 Y-121.494 Z8.475 F1999.800
G1 X-5.031 Y-77.656 Z8.475 F1999.800
G0 Z23.000
G0 X-7.412 Z23.000
G0 X-7.412 Z21.000
G1 X-7.412 Y-77.656 Z8.475 F999.600
G1 X-7.412 Y-70.512 Z8.475 F1999.800
G1 X7.412 Y-70.512 Z8.475 F1999.800
G1 X7.412 Y-123.875 Z8.475 F1999.800
G1 X-7.412 Y-123.875 Z8.475 F1999.800
G1 X-7.412 Y-77.656 Z8.475 F1999.800
G1 X-7.412 Y-77.656 Z7.946 F999.600
G1 X-7.412 Y-70.512 Z7.946 F1999.800
G1 X7.412 Y-70.512 Z7.946 F1999.800
G1 X7.412 Y-123.875 Z7.946 F1999.800
G1 X-7.412 Y-123.875 Z7.946 F1999.800
G1 X-7.412 Y-77.656 Z7.946 F1999.800
G0 Z23.000
G0 X-5.031 Z23.000
G0 X-5.031 Z21.000
G1 X-5.031 Y-77.656 Z7.946 F999.600
G1 X-5.031 Y-72.894 Z7.946 F1999.800
G1 X5.031 Y-72.894 Z7.946 F1999.800
G1 X5.031 Y-121.494 Z7.946 F1999.800
G1 X-5.031 Y-121.494 Z7.946 F1999.800
G1 X-5.031 Y-77.656 Z7.946 F1999.800
G0 Z23.000
G0 X-2.650 Z23.000
G0 X-2.650 Z21.000
G1 X-2.650 Y-77.656 Z7.946 F999.600
G1 X-2.650 Y-75.275 Z7.946 F1999.800
G1 X2.650 Y-75.275 Z7.946 F1999.800
G1 X2.650 Y-119.112 Z7.946 F1999.800
G1 X-2.650 Y-119.112 Z7.946 F1999.800
G1 X-2.650 Y-77.656 Z7.946 F1999.800
G0 Z23.000
G0 X-0.269 Z23.000
G0 X-0.269 Z21.000
G1 X-0.269 Y-77.656 Z7.946 F999.600
G1 X0.269 Y-77.656 Z7.946 F1999.800
G1 X0.269 Y-116.731 Z7.946 F1999.800
G1 X-0.269 Y-116.731 Z7.946 F1999.800
G1 X-0.269 Y-77.656 Z7.946 F1999.800
G1 X-0.269 Y-77.656 Z7.417 F999.600
G1 X0.269 Y-77.656 Z7.417 F1999.800
G1 X0.269 Y-116.731 Z7.417 F1999.800
G1 X-0.269 Y-116.731 Z7.417 F1999.800
G1 X-0.269 Y-77.656 Z7.417 F1999.800
G0 Z23.000
G0 X-2.650 Z23.000
G0 X-2.650 Z21.000
G1 X-2.650 Y-77.656 Z7.417 F999.600
G1 X-2.650 Y-75.275 Z7.417 F1999.800
G1 X2.650 Y-75.275 Z7.417 F1999.800
G1 X2.650 Y-119.112 Z7.417 F1999.800
G1 X-2.650 Y-119.112 Z7.417 F1999.800
G1 X-2.650 Y-77.656 Z7.417 F1999.800
G0 Z23.000
G0 X-5.031 Z23.000
G0 X-5.031 Z21.000
G1 X-5.031 Y-77.656 Z7.417 F999.600
G1 X-5.031 Y-72.894 Z7.417 F1999.800
G1 X5.031 Y-72.894 Z7.417 F1999.800
G1 X5.031 Y-121.494 Z7.417 F1999.800
G1 X-5.031 Y-121.494 Z7.417 F1999.800
G1 X-5.031 Y-77.656 Z7.417 F1999.800
G0 Z23.000
G0 X-7.412 Z23.000
G0 X-7.412 Z21.000
G1 X-7.412 Y-77.656 Z7.417 F999.600
G1 X-7.412 Y-70.512 Z7.417 F1999.800
G1 X7.412 Y-70.512 Z7.417 F1999.800
G1 X7.412 Y-123.875 Z7.417 F1999.800
G1 X-7.412 Y-123.875 Z7.417 F1999.800
G1 X-7.412 Y-77.656 Z7.417 F1999.800
G1 X-7.412 Y-77.656 Z6.888 F999.600
G1 X-7.412 Y-70.512 Z6.888 F1999.800
G1 X7.412 Y-70.512 Z6.888 F1999.800
G1 X7.412 Y-123.875 Z6.888 F1999.800
G1 X-7.412 Y-123.875 Z6.888 F1999.800
G1 X-7.412 Y-77.656 Z6.888 F1999.800
G0 Z23.000
G0 X-5.031 Z23.000
G0 X-5.031 Z21.000
G1 X-5.031 Y-77.656 Z6.888 F999.600
G1 X-5.031 Y-72.894 Z6.888 F1999.800
G1 X5.031 Y-72.894 Z6.888 F1999.800
G1 X5.031 Y-121.494 Z6.888 F1999.800
G1 X-5.031 Y-121.494 Z6.888 F1999.800
G1 X-5.031 Y-77.656 Z6.888 F1999.800
G0 Z23.000
G0 X-2.650 Z23.000
G0 X-2.650 Z21.000
G1 X-2.650 Y-77.656 Z6.888 F999.600
G1 X-2.650 Y-75.275 Z6.888 F1999.800
G1 X2.650 Y-75.275 Z6.888 F1999.800
G1 X2.650 Y-119.112 Z6.888 F1999.800
G1 X-2.650 Y-119.112 Z6.888 F1999.800
G1 X-2.650 Y-77.656 Z6.888 F1999.800
G0 Z23.000
G0 X-0.269 Z23.000
G0 X-0.269 Z21.000
G1 X-0.269 Y-77.656 Z6.888 F999.600
G1 X0.269 Y-77.656 Z6.888 F1999.800
G1 X0.269 Y-116.731 Z6.888 F1999.800
G1 X-0.269 Y-116.731 Z6.888 F1999.800
G1 X-0.269 Y-77.656 Z6.888 F1999.800
G1 X-0.269 Y-77.656 Z6.358 F999.600
G1 X0.269 Y-77.656 Z6.358 F1999.800
G1 X0.269 Y-116.731 Z6.358 F1999.800
G1 X-0.269 Y-116.731 Z6.358 F1999.800
G1 X-0.269 Y-77.656 Z6.358 F1999.800
G0 Z23.000
G0 X-2.650 Z23.000
G0 X-2.650 Z21.000
G1 X-2.650 Y-77.656 Z6.358 F999.600
G1 X-2.650 Y-75.275 Z6.358 F1999.800
G1 X2.650 Y-75.275 Z6.358 F1999.800
G1 X2.650 Y-119.112 Z6.358 F1999.800
G1 X-2.650 Y-119.112 Z6.358 F1999.800
G1 X-2.650 Y-77.656 Z6.358 F1999.800
G0 Z23.000
G0 X-5.031 Z23.000
G0 X-5.031 Z21.000
G1 X-5.031 Y-77.656 Z6.358 F999.600
G1 X-5.031 Y-72.894 Z6.358 F1999.800
G1 X5.031 Y-72.894 Z6.358 F1999.800
G1 X5.031 Y-121.494 Z6.358 F1999.800
G1 X-5.031 Y-121.494 Z6.358 F1999.800
G1 X-5.031 Y-77.656 Z6.358 F1999.800
G0 Z23.000
G0 X-7.412 Z23.000
G0 X-7.412 Z21.000
G1 X-7.412 Y-77.656 Z6.358 F999.600
G1 X-7.412 Y-70.512 Z6.358 F1999.800
G1 X7.412 Y-70.512 Z6.358 F1999.800
G1 X7.412 Y-123.875 Z6.358 F1999.800
G1 X-7.412 Y-123.875 Z6.358 F1999.800
G1 X-7.412 Y-77.656 Z6.358 F1999.800
G1 X-7.412 Y-77.656 Z5.829 F999.600
G1 X-7.412 Y-70.512 Z5.829 F1999.800
G1 X7.412 Y-70.512 Z5.829 F1999.800
G1 X7.412 Y-123.875 Z5.829 F1999.800
G1 X-7.412 Y-123.875 Z5.829 F1999.800
G1 X-7.412 Y-77.656 Z5.829 F1999.800
G0 Z23.000
G0 X-5.031 Z23.000
G0 X-5.031 Z21.000
G1 X-5.031 Y-77.656 Z5.829 F999.600
G1 X-5.031 Y-72.894 Z5.829 F1999.800
G1 X5.031 Y-72.894 Z5.829 F1999.800
G1 X5.031 Y-121.494 Z5.829 F1999.800
G1 X-5.031 Y-121.494 Z5.829 F1999.800
G1 X-5.031 Y-77.656 Z5.829 F1999.800
G0 Z23.000
G0 X-2.650 Z23.000
G0 X-2.650 Z21.000
G1 X-2.650 Y-77.656 Z5.829 F999.600
G1 X-2.650 Y-75.275 Z5.829 F1999.800
G1 X2.650 Y-75.275 Z5.829 F1999.800
G1 X2.650 Y-119.112 Z5.829 F1999.800
G1 X-2.650 Y-119.112 Z5.829 F1999.800
G1 X-2.650 Y-77.656 Z5.829 F1999.800
G0 Z23.000
G0 X-0.269 Z23.000
G0 X-0.269 Z21.000
G1 X-0.269 Y-77.656 Z5.829 F999.600
G1 X0.269 Y-77.656 Z5.829 F1999.800
G1 X0.269 Y-116.731 Z5.829 F1999.800
G1 X-0.269 Y-116.731 Z5.829 F1999.800
G1 X-0.269 Y-77.656 Z5.829 F1999.800
G1 X-0.269 Y-77.656 Z5.300 F999.600
G1 X0.269 Y-77.656 Z5.300 F1999.800
G1 X0.269 Y-116.731 Z5.300 F1999.800
G1 X-0.269 Y-116.731 Z5.300 F1999.800
G1 X-0.269 Y-77.656 Z5.300 F1999.800
G0 Z23.000
G0 X-2.650 Z23.000
G0 X-2.650 Z21.000
G1 X-2.650 Y-77.656 Z5.300 F999.600
G1 X-2.650 Y-75.275 Z5.300 F1999.800
G1 X2.650 Y-75.275 Z5.300 F1999.800
G1 X2.650 Y-119.112 Z5.300 F1999.800
G1 X-2.650 Y-119.112 Z5.300 F1999.800
G1 X-2.650 Y-77.656 Z5.300 F1999.800
G0 Z23.000
G0 X-5.031 Z23.000
G0 X-5.031 Z21.000
G1 X-5.031 Y-77.656 Z5.300 F999.600
G1 X-5.031 Y-72.894 Z5.300 F1999.800
G1 X5.031 Y-72.894 Z5.300 F1999.800
G1 X5.031 Y-121.494 Z5.300 F1999.800
G1 X-5.031 Y-121.494 Z5.300 F1999.800
G1 X-5.031 Y-77.656 Z5.300 F1999.800
G0 Z23.000
G0 X-7.412 Z23.000
G0 X-7.412 Z21.000
G1 X-7.412 Y-77.656 Z5.300 F999.600
G1 X-7.412 Y-70.512 Z5.300 F1999.800
G1 X7.412 Y-70.512 Z5.300 F1999.800
G1 X7.412 Y-123.875 Z5.300 F1999.800
G1 X-7.412 Y-123.875 Z5.300 F1999.800
G1 X-7.412 Y-77.656 Z5.300 F1999.800
G1 X-7.412 Y-77.656 Z4.771 F999.600
G1 X-7.412 Y-70.512 Z4.771 F1999.800
G1 X7.412 Y-70.512 Z4.771 F1999.800
G1 X7.412 Y-123.875 Z4.771 F1999.800
G1 X-7.412 Y-123.875 Z4.771 F1999.800
G1 X-7.412 Y-77.656 Z4.771 F1999.800
G0 Z23.000
G0 X-5.031 Z23.000
G0 X-5.031 Z21.000
G1 X-5.031 Y-77.656 Z4.771 F999.600
G1 X-5.031 Y-72.894 Z4.771 F1999.800
G1 X5.031 Y-72.894 Z4.771 F1999.800
G1 X5.031 Y-121.494 Z4.771 F1999.800
G1 X-5.031 Y-121.494 Z4.771 F1999.800
G1 X-5.031 Y-77.656 Z4.771 F1999.800
G0 Z23.000
G0 X-2.650 Z23.000
G0 X-2.650 Z21.000
G1 X-2.650 Y-77.656 Z4.771 F999.600
G1 X-2.650 Y-75.275 Z4.771 F1999.800
G1 X2.650 Y-75.275 Z4.771 F1999.800
G1 X2.650 Y-119.112 Z4.771 F1999.800
G1 X-2.650 Y-119.112 Z4.771 F1999.800
G1 X-2.650 Y-77.656 Z4.771 F1999.800
G0 Z23.000
G0 X-0.269 Z23.000
G0 X-0.269 Z21.000
G1 X-0.269 Y-77.656 Z4.771 F999.600
G1 X0.269 Y-77.656 Z4.771 F1999.800
G1 X0.269 Y-116.731 Z4.771 F1999.800
G1 X-0.269 Y-116.731 Z4.771 F1999.800
G1 X-0.269 Y-77.656 Z4.771 F1999.800
G1 X-0.269 Y-77.656 Z4.242 F999.600
G1 X0.269 Y-77.656 Z4.242 F1999.800
G1 X0.269 Y-116.731 Z4.242 F1999.800
G1 X-0.269 Y-116.731 Z4.242 F1999.800
G1 X-0.269 Y-77.656 Z4.242 F1999.800
G0 Z23.000
G0 X-2.650 Z23.000
G0 X-2.650 Z21.000
G1 X-2.650 Y-77.656 Z4.242 F999.600
G1 X-2.650 Y-75.275 Z4.242 F1999.800
G1 X2.650 Y-75.275 Z4.242 F1999.800
G1 X2.650 Y-119.112 Z4.242 F1999.800
G1 X-2.650 Y-119.112 Z4.242 F1999.800
G1 X-2.650 Y-77.656 Z4.242 F1999.800
G0 Z23.000
G0 X-5.031 Z23.000
G0 X-5.031 Z21.000
G1 X-5.031 Y-77.656 Z4.242 F999.600
G1 X-5.031 Y-72.894 Z4.242 F1999.800
G1 X5.031 Y-72.894 Z4.242 F1999.800
G1 X5.031 Y-121.494 Z4.242 F1999.800
G1 X-5.031 Y-121.494 Z4.242 F1999.800
G1 X-5.031 Y-77.656 Z4.242 F1999.800
G0 Z23.000
G0 X-7.412 Z23.000
G0 X-7.412 Z21.000
G1 X-7.412 Y-77.656 Z4.242 F999.600
G1 X-7.412 Y-70.512 Z4.242 F1999.800
G1 X7.412 Y-70.512 Z4.242 F1999.800
G1 X7.412 Y-123.875 Z4.242 F1999.800
G1 X-7.412 Y-123.875 Z4.242 F1999.800
G1 X-7.412 Y-77.656 Z4.242 F1999.800
G1 X-7.412 Y-77.656 Z3.713 F999.600
G1 X-7.412 Y-70.512 Z3.713 F1999.800
G1 X7.412 Y-70.512 Z3.713 F1999.800
G1 X7.412 Y-123.875 Z3.713 F1999.800
G1 X-7.412 Y-123.875 Z3.713 F1999.800
G1 X-7.412 Y-77.656 Z3.713 F1999.800
G0 Z23.000
G0 X-5.031 Z23.000
G0 X-5.031 Z21.000
G1 X-5.031 Y-77.656 Z3.713 F999.600
G1 X-5.031 Y-72.894 Z3.713 F1999.800
G1 X5.031 Y-72.894 Z3.713 F1999.800
G1 X5.031 Y-121.494 Z3.713 F1999.800
G1 X-5.031 Y-121.494 Z3.713 F1999.800
G1 X-5.031 Y-77.656 Z3.713 F1999.800
G0 Z23.000
G0 X-2.650 Z23.000
G0 X-2.650 Z21.000
G1 X-2.650 Y-77.656 Z3.713 F999.600
G1 X-2.650 Y-75.275 Z3.713 F1999.800
G1 X2.650 Y-75.275 Z3.713 F1999.800
G1 X2.650 Y-119.112 Z3.713 F1999.800
G1 X-2.650 Y-119.112 Z3.713 F1999.800
G1 X-2.650 Y-77.656 Z3.713 F1999.800
G0 Z23.000
G0 X-0.269 Z23.000
G0 X-0.269 Z21.000
G1 X-0.269 Y-77.656 Z3.713 F999.600
G1 X0.269 Y-77.656 Z3.713 F1999.800
G1 X0.269 Y-116.731 Z3.713 F1999.800
G1 X-0.269 Y-116.731 Z3.713 F1999.800
G1 X-0.269 Y-77.656 Z3.713 F1999.800
G1 X-0.269 Y-77.656 Z3.183 F999.600
G1 X0.269 Y-77.656 Z3.183 F1999.800
G1 X0.269 Y-116.731 Z3.183 F1999.800
G1 X-0.269 Y-116.731 Z3.183 F1999.800
G1 X-0.269 Y-77.656 Z3.183 F1999.800
G0 Z23.000
G0 X-2.650 Z23.000
G0 X-2.650 Z21.000
G1 X-2.650 Y-77.656 Z3.183 F999.600
G1 X-2.650 Y-75.275 Z3.183 F1999.800
G1 X2.650 Y-75.275 Z3.183 F1999.800
G1 X2.650 Y-119.112 Z3.183 F1999.800
G1 X-2.650 Y-119.112 Z3.183 F1999.800
G1 X-2.650 Y-77.656 Z3.183 F1999.800
G0 Z23.000
G0 X-5.031 Z23.000
G0 X-5.031 Z21.000
G1 X-5.031 Y-77.656 Z3.183 F999.600
G1 X-5.031 Y-72.894 Z3.183 F1999.800
G1 X5.031 Y-72.894 Z3.183 F1999.800
G1 X5.031 Y-121.494 Z3.183 F1999.800
G1 X-5.031 Y-121.494 Z3.183 F1999.800
G1 X-5.031 Y-77.656 Z3.183 F1999.800
G0 Z23.000
G0 X-7.412 Z23.000
G0 X-7.412 Z21.000
G1 X-7.412 Y-77.656 Z3.183 F999.600
G1 X-7.412 Y-70.512 Z3.183 F1999.800
G1 X7.412 Y-70.512 Z3.183 F1999.800
G1 X7.412 Y-123.875 Z3.183 F1999.800
G1 X-7.412 Y-123.875 Z3.183 F1999.800
G1 X-7.412 Y-77.656 Z3.183 F1999.800
G1 X-7.412 Y-77.656 Z3.000 F999.600
G1 X-7.412 Y-70.512 Z3.000 F1999.800
G1 X7.412 Y-70.512 Z3.000 F1999.800
G1 X7.412 Y-123.875 Z3.000 F1999.800
G1 X-7.412 Y-123.875 Z3.000 F1999.800
G1 X-7.412 Y-77.656 Z3.000 F1999.800
G0 Z23.000
G0 X-5.031 Z23.000
G0 X-5.031 Z21.000
G1 X-5.031 Y-77.656 Z3.000 F999.600
G1 X-5.031 Y-72.894 Z3.000 F1999.800
G1 X5.031 Y-72.894 Z3.000 F1999.800
G1 X5.031 Y-121.494 Z3.000 F1999.800
G1 X-5.031 Y-121.494 Z3.000 F1999.800
G1 X-5.031 Y-77.656 Z3.000 F1999.800
G0 Z23.000
G0 X-2.650 Z23.000
G0 X-2.650 Z21.000
G1 X-2.650 Y-77.656 Z3.000 F999.600
G1 X-2.650 Y-75.275 Z3.000 F1999.800
G1 X2.650 Y-75.275 Z3.000 F1999.800
G1 X2.650 Y-119.112 Z3.000 F1999.800
G1 X-2.650 Y-119.112 Z3.000 F1999.800
G1 X-2.650 Y-77.656 Z3.000 F1999.800
G0 Z23.000
G0 X-0.269 Z23.000
G0 X-0.269 Z21.000
G1 X-0.269 Y-77.656 Z3.000 F999.600
G1 X0.269 Y-77.656 Z3.000 F1999.800
G1 X0.269 Y-116.731 Z3.000 F1999.800
G1 X-0.269 Y-116.731 Z3.000 F1999.800
G1 X-0.269 Y-77.656 Z3.000 F1999.800
G0 Z23.000
G0 Z23.000
G0 X64.771 Y-28.839
G0 X64.771 Y-28.839 Z21.000
G1 X64.771 Y-28.839 Z17.471 F999.600
G1 X69.352 Y-14.740 Z17.471 F1999.800
G1 X120.103 Y-31.230 Z17.471 F1999.800
G1 X115.522 Y-45.329 Z17.471 F1999.800
G1 X64.771 Y-28.839 Z17.471 F1999.800
G0 Z23.000
G0 X67.771 Y-27.310 Z23.000
G0 X67.771 Y-27.310 Z21.000
G1 X67.771 Y-27.310 Z17.471 F999.600
G1 X70.881 Y-17.740 Z17.471 F1999.800
G1 X117.102 Y-32.759 Z17.471 F1999.800
G1 X113.993 Y-42.329 Z17.471 F1999.800
G1 X67.771 Y-27.310 Z17.471 F1999.800
G0 Z23.000
G0 X70.772 Y-25.782 Z23.000
G0 X70.772 Y-25.782 Z21.000
G1 X70.772 Y-25.782 Z17.471 F999.600
G1 X72.410 Y-20.741 Z17.471 F1999.800
G1 X114.102 Y-34.287 Z17.471 F1999.800
G1 X112.464 Y-39.328 Z17.471 F1999.800
G1 X70.772 Y-25.782 Z17.471 F1999.800
G0 Z23.000
G0 X73.772 Y-24.253 Z23.000
G0 X73.772 Y-24.253 Z21.000
G1 X73.772 Y-24.253 Z17.471 F999.600
G1 X73.938 Y-23.741 Z17.471 F1999.800
G1 X111.101 Y-35.816 Z17.471 F1999.800
G1 X110.935 Y-36.328 Z17.471 F1999.800
G1 X73.772 Y-24.253 Z17.471 F1999.800
G1 X73.772 Y-24.253 Z16.942 F999.600
G1 X73.938 Y-23.741 Z16.942 F1999.800
G1 X111.101 Y-35.816 Z16.942 F1999.800
G1 X110.935 Y-36.328 Z16.942 F1999.800
G1 X73.772 Y-24.253 Z16.942 F1999.800
G0 Z23.000
G0 X73.037 Y-26.517 Z23.000
G0 X73.037 Y-26.517 Z21.000
G1 X73.037 Y-26.517 Z16.942 F999.600
G1 X70.772 Y-25.782 Z16.942 F1999.800
G1 X72.410 Y-20.741 Z16.942 F1999.800
G1 X114.102 Y-34.287 Z16.942 F1999.800
G1 X112.464 Y-39.328 Z16.942 F1999.800
G1 X73.037 Y-26.517 Z16.942 F1999.800
G0 Z23.000
G0 X72.301 Y-28.782 Z23.000
G0 X72.301 Y-28.782 Z21.000
G1 X72.301 Y-28.782 Z16.942 F999.600
G1 X67.771 Y-27.310 Z16.942 F1999.800
G1 X70.881 Y-17.740 Z16.942 F1999.800
G1 X117.102 Y-32.759 Z16.942 F1999.800
G1 X113.993 Y-42.329 Z16.942 F1999.800
G1 X72.301 Y-28.782 Z16.942 F1999.800
G0 Z23.000
G0 X71.565 Y-31.047 Z23.000
G0 X71.565 Y-31.047 Z21.000
G1 X71.565 Y-31.047 Z16.942 F999.600
G1 X64.771 Y-28.839 Z16.942 F1999.800
G1 X69.352 Y-14.740 Z16.942 F1999.800
G1 X120.103 Y-31.230 Z16.942 F1999.800
G1 X115.522 Y-45.329 Z16.942 F1999.800
G1 X71.565 Y-31.047 Z16.942 F1999.800
G1 X71.565 Y-31.047 Z16.413 F999.600
G1 X64.771 Y-28.839 Z16.413 F1999.800
G1 X69.352 Y-14.740 Z16.413 F1999.800
G1 X120.103 Y-31.230 Z16.413 F1999.800
G1 X115.522 Y-45.329 Z16.413 F1999.800
G1 X71.565 Y-31.047 Z16.413 F1999.800
G0 Z23.000
G0 X72.301 Y-28.782 Z23.000
G0 X72.301 Y-28.782 Z21.000
G1 X72.301 Y-28.782 Z16.413 F999.600
G1 X67.771 Y-27.310 Z16.413 F1999.800
G1 X70.881 Y-17.740 Z16.413 F1999.800
G1 X117.102 Y-32.759 Z16.413 F1999.800
G1 X113.993 Y-42.329 Z16.413 F1999.800
G1 X72.301 Y-28.782 Z16.413 F1999.800
G0 Z23.000
G0 X73.037 Y-26.517 Z23.000
G0 X73.037 Y-26.517 Z21.000
G1 X73.037 Y-26.517 Z16.413 F999.600
G1 X70.772 Y-25.782 Z16.413 F1999.800
G1 X72.410 Y-20.741 Z16.413 F1999.800
G1 X114.102 Y-34.287 Z16.413 F1999.800
G1 X112.464 Y-39.328 Z16.413 F1999.800
G1 X73.037 Y-26.517 Z16.413 F1999.800
G0 Z23.000
G0 X73.772 Y-24.253 Z23.000
G0 X73.772 Y-24.253 Z21.000
G1 X73.772 Y-24.253 Z16.413 F999.600
G1 X73.938 Y-23.741 Z16.413 F1999.800
G1 X111.101 Y-35.816 Z16.413 F1999.800
G1 X110.935 Y-36.328 Z16.413 F1999.800
G1 X73.772 Y-24.253 Z16.413 F1999.800
G1 X73.772 Y-24.253 Z15.883 F999.600
G1 X73.938 Y-23.741 Z15.883 F1999.800
G1 X111.101 Y-35.816 Z15.883 F1999.800
G1 X110.935 Y-36.328 Z15.883 F1999.800
G1 X73.772 Y-24.253 Z15.883 F1999.800
G0 Z23.000
G0 X73.037 Y-26.517 Z23.000
G0 X73.037 Y-26.517 Z21.000
G1 X73.037 Y-26.517 Z15.883 F999.600
G1 X70.772 Y-25.782 Z15.883 F1999.800
G1 X72.410 Y-20.741 Z15.883 F1999.800
G1 X114.102 Y-34.287 Z15.883 F1999.800
G1 X112.464 Y-39.328 Z15.883 F1999.800
G1 X73.037 Y-26.517 Z15.883 F1999.800
G0 Z23.000
G0 X72.301 Y-28.782 Z23.000
G0 X72.301 Y-28.782 Z21.000
G1 X72.301 Y-28.782 Z15.883 F999.600
G1 X67.771 Y-27.310 Z15.883 F1999.800
G1 X70.881 Y-17.740 Z15.883 F1999.800
G1 X117.102 Y-32.759 Z15.883 F1999.800
G1 X113.993 Y-42.329 Z15.883 F1999.800
G1 X72.301 Y-28.782 Z15.883 F1999.800
G0 Z23.000
G0 X71.565 Y-31.047 Z23.000
G0 X71.565 Y-31.047 Z21.000
G1 X71.565 Y-31.047 Z15.883 F999.600
G1 X64.771 Y-28.839 Z15.883 F1999.800
G1 X69.352 Y-14.740 Z15.883 F1999.800
G1 X120.103 Y-31.230 Z15.883 F1999.800
G1 X115.522 Y-45.329 Z15.883 F1999.800
G1 X71.565 Y-31.047 Z15.883 F1999.800
G1 X71.565 Y-31.047 Z15.354 F999.600
G1 X64.771 Y-28.839 Z15.354 F1999.800
G1 X69.352 Y-14.740 Z15.354 F1999.800
G1 X120.103 Y-31.230 Z15.354 F1999.800
G1 X115.522 Y-45.329 Z15.354 F1999.800
G1 X71.565 Y-31.047 Z15.354 F1999.800
G0 Z23.000
G0 X72.301 Y-28.782 Z23.000
G0 X72.301 Y-28.782 Z21.000
G1 X72.301 Y-28.782 Z15.354 F999.600
G1 X67.771 Y-27.310 Z15.354 F1999.800
G1 X70.881 Y-17.740 Z15.354 F1999.800
G1 X117.102 Y-32.759 Z15.354 F1999.800
G1 X113.993 Y-42.329 Z15.354 F1999.800
G1 X72.301 Y-28.782 Z15.354 F1999.800
G0 Z23.000
G0 X73.037 Y-26.517 Z23.000
G0 X73.037 Y-26.517 Z21.000
G1 X73.037 Y-26.517 Z15.354 F999.600
G1 X70.772 Y-25.782 Z15.354 F1999.800
G1 X72.410 Y-20.741 Z15.354 F1999.800
G1 X114.102 Y-34.287 Z15.354 F1999.800
G1 X112.464 Y-39.328 Z15.354 F1999.800
G1 X73.037 Y-26.517 Z15.354 F1999.800
G0 Z23.000
G0 X73.772 Y-24.253 Z23.000
G0 X73.772 Y-24.253 Z21.000
G1 X73.772 Y-24.253 Z15.354 F999.600
G1 X73.938 Y-23.741 Z15.354 F1999.800
G1 X111.101 Y-35.816 Z15.354 F1999.800
G1 X110.935 Y-36.328 Z15.354 F1999.800
G1 X73.772 Y-24.253 Z15.354 F1999.800
G1 X73.772 Y-24.253 Z14.825 F999.600
G1 X73.938 Y-23.741 Z14.825 F1999.800
G1 X111.101 Y-35.816 Z14.825 F1999.800
G1 X110.935 Y-36.328 Z14.825 F1999.800
G1 X73.772 Y-24.253 Z14.825 F1999.800
G0 Z23.000
G0 X73.037 Y-26.517 Z23.000
G0 X73.037 Y-26.517 Z21.000
G1 X73.037 Y-26.517 Z14.825 F999.600
G1 X70.772 Y-25.782 Z14.825 F1999.800
G1 X72.410 Y-20.741 Z14.825 F1999.800
G1 X114.102 Y-34.287 Z14.825 F1999.800
G1 X112.464 Y-39.328 Z14.825 F1999.800
G1 X73.037 Y-26.517 Z14.825 F1999.800
G0 Z23.000
G0 X72.301 Y-28.782 Z23.000
G0 X72.301 Y-28.782 Z21.000
G1 X72.301 Y-28.782 Z14.825 F999.600
G1 X67.771 Y-27.310 Z14.825 F1999.800
G1 X70.881 Y-17.740 Z14.825 F1999.800
G1 X117.102 Y-32.759 Z14.825 F1999.800
G1 X113.993 Y-42.329 Z14.825 F1999.800
G1 X72.301 Y-28.782 Z14.825 F1999.800
G0 Z23.000
G0 X71.565 Y-31.047 Z23.000
G0 X71.565 Y-31.047 Z21.000
G1 X71.565 Y-31.047 Z14.825 F999.600
G1 X64.771 Y-28.839 Z14.825 F1999.800
G1 X69.352 Y-14.740 Z14.825 F1999.800
G1 X120.103 Y-31.230 Z14.825 F1999.800
G1 X115.522 Y-45.329 Z14.825 F1999.800
G1 X71.565 Y-31.047 Z14.825 F1999.800
G1 X71.565 Y-31.047 Z14.296 F999.600
G1 X64.771 Y-28.839 Z14.296 F1999.800
G1 X69.352 Y-14.740 Z14.296 F1999.800
G1 X120.103 Y-31.230 Z14.296 F1999.800
G1 X115.522 Y-45.329 Z14.296 F1999.800
G1 X71.565 Y-31.047 Z14.296 F1999.800
G0 Z23.000
G0 X72.301 Y-28.782 Z23.000
G0 X72.301 Y-28.782 Z21.000
G1 X72.301 Y-28.782 Z14.296 F999.600
G1 X67.771 Y-27.310 Z14.296 F1999.800
G1 X70.881 Y-17.740 Z14.296 F1999.800
G1 X117.102 Y-32.759 Z14.296 F1999.800
G1 X113.993 Y-42.329 Z14.296 F1999.800
G1 X72.301 Y-28.782 Z14.296 F1999.800
G0 Z23.000
G0 X73.037 Y-26.517 Z23.000
G0 X73.037 Y-26.517 Z21.000
G1 X73.037 Y-26.517 Z14.296 F999.600
G1 X70.772 Y-25.782 Z14.296 F1999.800
G1 X72.410 Y-20.741 Z14.296 F1999.800
G1 X114.102 Y-34.287 Z14.296 F1999.800
G1 X112.464 Y-39.328 Z14.296 F1999.800
G1 X73.037 Y-26.517 Z14.296 F1999.800
G0 Z23.000
G0 X73.772 Y-24.253 Z23.000
G0 X73.772 Y-24.253 Z21.000
G1 X73.772 Y-24.253 Z14.296 F999.600
G1 X73.938 Y-23.741 Z14.296 F1999.800
G1 X111.101 Y-35.816 Z14.296 F1999.800
G1 X110.935 Y-36.328 Z14.296 F1999.800
G1 X73.772 Y-24.253 Z14.296 F1999.800
G1 X73.772 Y-24.253 Z13.767 F999.600
G1 X73.938 Y-23.741 Z13.767 F1999.800
G1 X111.101 Y-35.816 Z13.767 F1999.800
G1 X110.935 Y-36.328 Z13.767 F1999.800
G1 X73.772 Y-24.253 Z13.767 F1999.800
G0 Z23.000
G0 X73.037 Y-26.517 Z23.000
G0 X73.037 Y-26.517 Z21.000
G1 X73.037 Y-26.517 Z13.767 F999.600
G1 X70.772 Y-25.782 Z13.767 F1999.800
G1 X72.410 Y-20.741 Z13.767 F1999.800
G1 X114.102 Y-34.287 Z13.767 F1999.800
G1 X112.464 Y-39.328 Z13.767 F1999.800
G1 X73.037 Y-26.517 Z13.767 F1999.800
G0 Z23.000
G0 X72.301 Y-28.782 Z23.000
G0 X72.301 Y-28.782 Z21.000
G1 X72.301 Y-28.782 Z13.767 F999.600
G1 X67.771 Y-27.310 Z13.767 F1999.800
G1 X70.881 Y-17.740 Z13.767 F1999.800
G1 X117.102 Y-32.759 Z13.767 F1999.800
G1 X113.993 Y-42.329 Z13.767 F1999.800
G1 X72.301 Y-28.782 Z13.767 F1999.800
G0 Z23.000
G0 X71.565 Y-31.047 Z23.000
G0 X71.565 Y-31.047 Z21.000
G1 X71.565 Y-31.047 Z13.767 F999.600
G1 X64.771 Y-28.839 Z13.767 F1999.800
G1 X69.352 Y-14.740 Z13.767 F1999.800
G1 X120.103 Y-31.230 Z13.767 F1999.800
G1 X115.522 Y-45.329 Z13.767 F1999.800
G1 X71.565 Y-31.047 Z13.767 F1999.800
G1 X71.565 Y-31.047 Z13.238 F999.600
G1 X64.771 Y-28.839 Z13.238 F1999.800
G1 X69.352 Y-14.740 Z13.238 F1999.800
G1 X120.103 Y-31.230 Z13.238 F1999.800
G1 X115.522 Y-45.329 Z13.238 F1999.800
G1 X71.565 Y-31.047 Z13.238 F1999.800
G0 Z23.000
G0 X72.301 Y-28.782 Z23.000
G0 X72.301 Y-28.782 Z21.000
G1 X72.301 Y-28.782 Z13.238 F999.600
G1 X67.771 Y-27.310 Z13.238 F1999.800
G1 X70.881 Y-17.740 Z13.238 F1999.800
G1 X117.102 Y-32.759 Z13.238 F1999.800
G1 X113.993 Y-42.329 Z13.238 F1999.800
G1 X72.301 Y-28.782 Z13.238 F1999.800
G0 Z23.000
G0 X73.037 Y-26.517 Z23.000
G0 X73.037 Y-26.517 Z21.000
G1 X73.037 Y-26.517 Z13.238 F999.600
G1 X70.772 Y-25.782 Z13.238 F1999.800
G1 X72.410 Y-20.741 Z13.238 F1999.800
G1 X114.102 Y-34.287 Z13.238 F1999.800
G1 X112.464 Y-39.328 Z13.238 F1999.800
G1 X73.037 Y-26.517 Z13.238 F1999.800
G0 Z23.000
G0 X73.772 Y-24.253 Z23.000
G0 X73.772 Y-24.253 Z21.000
G1 X73.772 Y-24.253 Z13.238 F999.600
G1 X73.938 Y-23.741 Z13.238 F1999.800
G1 X111.101 Y-35.816 Z13.238 F1999.800
G1 X110.935 Y-36.328 Z13.238 F1999.800
G1 X73.772 Y-24.253 Z13.238 F1999.800
G1 X73.772 Y-24.253 Z12.708 F999.600
G1 X73.938 Y-23.741 Z12.708 F1999.800
G1 X111.101 Y-35.816 Z12.708 F1999.800
G1 X110.935 Y-36.328 Z12.708 F1999.800
G1 X73.772 Y-24.253 Z12.708 F1999.800
G0 Z23.000
G0 X73.037 Y-26.517 Z23.000
G0 X73.037 Y-26.517 Z21.000
G1 X73.037 Y-26.517 Z12.708 F999.600
G1 X70.772 Y-25.782 Z12.708 F1999.800
G1 X72.410 Y-20.741 Z12.708 F1999.800
G1 X114.102 Y-34.287 Z12.708 F1999.800
G1 X112.464 Y-39.328 Z12.708 F1999.800
G1 X73.037 Y-26.517 Z12.708 F1999.800
G0 Z23.000
G0 X72.301 Y-28.782 Z23.000
G0 X72.301 Y-28.782 Z21.000
G1 X72.301 Y-28.782 Z12.708 F999.600
G1 X67.771 Y-27.310 Z12.708 F1999.800
G1 X70.881 Y-17.740 Z12.708 F1999.800
G1 X117.102 Y-32.759 Z12.708 F1999.800
G1 X113.993 Y-42.329 Z12.708 F1999.800
G1 X72.301 Y-28.782 Z12.708 F1999.800
G0 Z23.000
G0 X71.565 Y-31.047 Z23.000
G0 X71.565 Y-31.047 Z21.000
G1 X71.565 Y-31.047 Z12.708 F999.600
G1 X64.771 Y-28.839 Z12.708 F1999.800
G1 X69.352 Y-14.740 Z12.708 F1999.800
G1 X120.103 Y-31.230 Z12.708 F1999.800
G1 X115.522 Y-45.329 Z12.708 F1999.800
G1 X71.565 Y-31.047 Z12.708 F1999.800
G1 X71.565 Y-31.047 Z12.179 F999.600
G1 X64.771 Y-28.839 Z12.179 F1999.800
G1 X69.352 Y-14.740 Z12.179 F1999.800
G1 X120.103 Y-31.230 Z12.179 F1999.800
G1 X115.522 Y-45.329 Z12.179 F1999.800
G1 X71.565 Y-31.047 Z12.179 F1999.800
G0 Z23.000
G0 X72.301 Y-28.782 Z23.000
G0 X72.301 Y-28.782 Z21.000
G1 X72.301 Y-28.782 Z12.179 F999.600
G1 X67.771 Y-27.310 Z12.179 F1999.800
G1 X70.881 Y-17.740 Z12.179 F1999.800
G1 X117.102 Y-32.759 Z12.179 F1999.800
G1 X113.993 Y-42.329 Z12.179 F1999.800
G1 X72.301 Y-28.782 Z12.179 F1999.800
G0 Z23.000
G0 X73.037 Y-26.517 Z23.000
G0 X73.037 Y-26.517 Z21.000
G1 X73.037 Y-26.517 Z12.179 F999.600
G1 X70.772 Y-25.782 Z12.179 F1999.800
G1 X72.410 Y-20.741 Z12.179 F1999.800
G1 X114.102 Y-34.287 Z12.179 F1999.800
G1 X112.464 Y-39.328 Z12.179 F1999.800
G1 X73.037 Y-26.517 Z12.179 F1999.800
G0 Z23.000
G0 X73.772 Y-24.253 Z23.000
G0 X73.772 Y-24.253 Z21.000
G1 X73.772 Y-24.253 Z12.179 F999.600
G1 X73.938 Y-23.741 Z12.179 F1999.800
G1 X111.101 Y-35.816 Z12.179 F1999.800
G1 X110.935 Y-36.328 Z12.179 F1999.800
G1 X73.772 Y-24.253 Z12.179 F1999.800
G1 X73.772 Y-24.253 Z11.650 F999.600
G1 X73.938 Y-23.741 Z11.650 F1999.800
G1 X111.101 Y-35.816 Z11.650 F1999.800
G1 X110.935 Y-36.328 Z11.650 F1999.800
G1 X73.772 Y-24.253 Z11.650 F1999.800
G0 Z23.000
G0 X73.037 Y-26.517 Z23.000
G0 X73.037 Y-26.517 Z21.000
G1 X73.037 Y-26.517 Z11.650 F999.600
G1 X70.772 Y-25.782 Z11.650 F1999.800
G1 X72.410 Y-20.741 Z11.650 F1999.800
G1 X114.102 Y-34.287 Z11.650 F1999.800
G1 X112.464 Y-39.328 Z11.650 F1999.800
G1 X73.037 Y-26.517 Z11.650 F1999.800
G0 Z23.000
G0 X72.301 Y-28.782 Z23.000
G0 X72.301 Y-28.782 Z21.000
G1 X72.301 Y-28.782 Z11.650 F999.600
G1 X67.771 Y-27.310 Z11.650 F1999.800
G1 X70.881 Y-17.740 Z11.650 F1999.800
G1 X117.102 Y-32.759 Z11.650 F1999.800
G1 X113.993 Y-42.329 Z11.650 F1999.800
G1 X72.301 Y-28.782 Z11.650 F1999.800
G0 Z23.000
G0 X71.565 Y-31.047 Z23.000
G0 X71.565 Y-31.047 Z21.000
G1 X71.565 Y-31.047 Z11.650 F999.600
G1 X64.771 Y-28.839 Z11.650 F1999.800
G1 X69.352 Y-14.740 Z11.650 F1999.800
G1 X120.103 Y-31.230 Z11.650 F1999.800
G1 X115.522 Y-45.329 Z11.650 F1999.800
G1 X71.565 Y-31.047 Z11.650 F1999.800
G1 X71.565 Y-31.047 Z11.121 F999.600
G1 X64.771 Y-28.839 Z11.121 F1999.800
G1 X69.352 Y-14.740 Z11.121 F1999.800
G1 X120.103 Y-31.230 Z11.121 F1999.800
G1 X115.522 Y-45.329 Z11.121 F1999.800
G1 X71.565 Y-31.047 Z11.121 F1999.800
G0 Z23.000
G0 X72.301 Y-28.782 Z23.000
G0 X72.301 Y-28.782 Z21.000
G1 X72.301 Y-28.782 Z11.121 F999.600
G1 X67.771 Y-27.310 Z11.121 F1999.800
G1 X70.881 Y-17.740 Z11.121 F1999.800
G1 X117.102 Y-32.759 Z11.121 F1999.800
G1 X113.993 Y-42.329 Z11.121 F1999.800
G1 X72.301 Y-28.782 Z11.121 F1999.800
G0 Z23.000
G0 X73.037 Y-26.517 Z23.000
G0 X73.037 Y-26.517 Z21.000
G1 X73.037 Y-26.517 Z11.121 F999.600
G1 X70.772 Y-25.782 Z11.121 F1999.800
G1 X72.410 Y-20.741 Z11.121 F1999.800
G1 X114.102 Y-34.287 Z11.121 F1999.800
G1 X112.464 Y-39.328 Z11.121 F1999.800
G1 X73.037 Y-26.517 Z11.121 F1999.800
G0 Z23.000
G0 X73.772 Y-24.253 Z23.000
G0 X73.772 Y-24.253 Z21.000
G1 X73.772 Y-24.253 Z11.121 F999.600
G1 X73.938 Y-23.741 Z11.121 F1999.800
G1 X111.101 Y-35.816 Z11.121 F1999.800
G1 X110.935 Y-36.328 Z11.121 F1999.800
G1 X73.772 Y-24.253 Z11.121 F1999.800
G1 X73.772 Y-24.253 Z10.592 F999.600
G1 X73.938 Y-23.741 Z10.592 F1999.800
G1 X111.101 Y-35.816 Z10.592 F1999.800
G1 X110.935 Y-36.328 Z10.592 F1999.800
G1 X73.772 Y-24.253 Z10.592 F1999.800
G0 Z23.000
G0 X73.037 Y-26.517 Z23.000
G0 X73.037 Y-26.517 Z21.000
G1 X73.037 Y-26.517 Z10.592 F999.600
G1 X70.772 Y-25.782 Z10.592 F1999.800
G1 X72.410 Y-20.741 Z10.592 F1999.800
G1 X114.102 Y-34.287 Z10.592 F1999.800
G1 X112.464 Y-39.328 Z10.592 F1999.800
G1 X73.037 Y-26.517 Z10.592 F1999.800
G0 Z23.000
G0 X72.301 Y-28.782 Z23.000
G0 X72.301 Y-28.782 Z21.000
G1 X72.301 Y-28.782 Z10.592 F999.600
G1 X67.771 Y-27.310 Z10.592 F1999.800
G1 X70.881 Y-17.740 Z10.592 F1999.800
G1 X117.102 Y-32.759 Z10.592 F1999.800
G1 X113.993 Y-42.329 Z10.592 F1999.800
G1 X72.301 Y-28.782 Z10.592 F1999.800
G0 Z23.000
G0 X71.565 Y-31.047 Z23.000
G0 X71.565 Y-31.047 Z21.000
G1 X71.565 Y-31.047 Z10.592 F999.600
G1 X64.771 Y-28.839 Z10.592 F1999.800
G1 X69.352 Y-14.740 Z10.592 F1999.800
G1 X120.103 Y-31.230 Z10.592 F1999.800
G1 X115.522 Y-45.329 Z10.592 F1999.800
G1 X71.565 Y-31.047 Z10.592 F1999.800
G1 X71.565 Y-31.047 Z10.063 F999.600
G1 X64.771 Y-28.839 Z10.063 F1999.800
G1 X69.352 Y-14.740 Z10.063 F1999.800
G1 X120.103 Y-31.230 Z10.063 F1999.800
G1 X115.522 Y-45.329 Z10.063 F1999.800
G1 X71.565 Y-31.047 Z10.063 F1999.800
G0 Z23.000
G0 X72.301 Y-28.782 Z23.000
G0 X72.301 Y-28.782 Z21.000
G1 X72.301 Y-28.782 Z10.063 F999.600
G1 X67.771 Y-27.310 Z10.063 F1999.800
G1 X70.881 Y-17.740 Z10.063 F1999.800
G1 X117.102 Y-32.759 Z10.063 F1999.800
G1 X113.993 Y-42.329 Z10.063 F1999.800
G1 X72.301 Y-28.782 Z10.063 F1999.800
G0 Z23.000
G0 X73.037 Y-26.517 Z23.000
G0 X73.037 Y-26.517 Z21.000
G1 X73.037 Y-26.517 Z10.063 F999.600
G1 X70.772 Y-25.782 Z10.063 F1999.800
G1 X72.410 Y-20.741 Z10.063 F1999.800
G1 X114.102 Y-34.287 Z10.063 F1999.800
G1 X112.464 Y-39.328 Z10.063 F1999.800
G1 X73.037 Y-26.517 Z10.063 F1999.800
G0 Z23.000
G0 X73.772 Y-24.253 Z23.000
G0 X73.772 Y-24.253 Z21.000
G1 X73.772 Y-24.253 Z10.063 F999.600
G1 X73.938 Y-23.741 Z10.063 F1999.800
G1 X111.101 Y-35.816 Z10.063 F1999.800
G1 X110.935 Y-36.328 Z10.063 F1999.800
G1 X73.772 Y-24.253 Z10.063 F1999.800
G1 X73.772 Y-24.253 Z9.533 F999.600
G1 X73.938 Y-23.741 Z9.533 F1999.800
G1 X111.101 Y-35.816 Z9.533 F1999.800
G1 X110.935 Y-36.328 Z9.533 F1999.800
G1 X73.772 Y-24.253 Z9.533 F1999.800
G0 Z23.000
G0 X73.037 Y-26.517 Z23.000
G0 X73.037 Y-26.517 Z21.000
G1 X73.037 Y-26.517 Z9.533 F999.600
G1 X70.772 Y-25.782 Z9.533 F1999.800
G1 X72.410 Y-20.741 Z9.533 F1999.800
G1 X114.102 Y-34.287 Z9.533 F1999.800
G1 X112.464 Y-39.328 Z9.533 F1999.800
G1 X73.037 Y-26.517 Z9.533 F1999.800
G0 Z23.000
G0 X72.301 Y-28.782 Z23.000
G0 X72.301 Y-28.782 Z21.000
G1 X72.301 Y-28.782 Z9.533 F999.600
G1 X67.771 Y-27.310 Z9.533 F1999.800
G1 X70.881 Y-17.740 Z9.533 F1999.800
G1 X117.102 Y-32.759 Z9.533 F1999.800
G1 X113.993 Y-42.329 Z9.533 F1999.800
G1 X72.301 Y-28.782 Z9.533 F1999.800
G0 Z23.000
G0 X71.565 Y-31.047 Z23.000
G0 X71.565 Y-31.047 Z21.000
G1 X71.565 Y-31.047 Z9.533 F999.600
G1 X64.771 Y-28.839 Z9.533 F1999.800
G1 X69.352 Y-14.740 Z9.533 F1999.800
G1 X120.103 Y-31.230 Z9.533 F1999.800
G1 X115.522 Y-45.329 Z9.533 F1999.800
G1 X71.565 Y-31.047 Z9.533 F1999.800
G1 X71.565 Y-31.047 Z9.004 F999.600
G1 X64.771 Y-28.839 Z9.004 F1999.800
G1 X69.352 Y-14.740 Z9.004 F1999.800
G1 X120.103 Y-31.230 Z9.004 F1999.800
G1 X115.522 Y-45.329 Z9.004 F1999.800
G1 X71.565 Y-31.047 Z9.004 F1999.800
G0 Z23.000
G0 X72.301 Y-28.782 Z23.000
G0 X72.301 Y-28.782 Z21.000
G1 X72.301 Y-28.782 Z9.004 F999.600
G1 X67.771 Y-27.310 Z9.004 F1999.800
G1 X70.881 Y-17.740 Z9.004 F1999.800
G1 X117.102 Y-32.759 Z9.004 F1999.800
G1 X113.993 Y-42.329 Z9.004 F1999.800
G1 X72.301 Y-28.782 Z9.004 F1999.800
G0 Z23.000
G0 X73.037 Y-26.517 Z23.000
G0 X73.037 Y-26.517 Z21.000
G1 X73.037 Y-26.517 Z9.004 F999.600
G1 X70.772 Y-25.782 Z9.004 F1999.800
G1 X72.410 Y-20.741 Z9.004 F1999.800
G1 X114.102 Y-34.287 Z9.004 F1999.800
G1 X112.464 Y-39.328 Z9.004 F1999.800
G1 X73.037 Y-26.517 Z9.004 F1999.800
G0 Z23.000
G0 X73.772 Y-24.253 Z23.000
G0 X73.772 Y-24.253 Z21.000
G1 X73.772 Y-24.253 Z9.004 F999.600
G1 X73.938 Y-23.741 Z9.004 F1999.800
G1 X111.101 Y-35.816 Z9.004 F1999.800
G1 X110.935 Y-36.328 Z9.004 F1999.800
G1 X73.772 Y-24.253 Z9.004 F1999.800
G1 X73.772 Y-24.253 Z8.475 F999.600
G1 X73.938 Y-23.741 Z8.475 F1999.800
G1 X111.101 Y-35.816 Z8.475 F1999.800
G1 X110.935 Y-36.328 Z8.475 F1999.800
G1 X73.772 Y-24.253 Z8.475 F1999.800
G0 Z23.000
G0 X73.037 Y-26.517 Z23.000
G0 X73.037 Y-26.517 Z21.000
G1 X73.037 Y-26.517 Z8.475 F999.600
G1 X70.772 Y-25.782 Z8.475 F1999.800
G1 X72.410 Y-20.741 Z8.475 F1999.800
G1 X114.102 Y-34.287 Z8.475 F1999.800
G1 X112.464 Y-39.328 Z8.475 F1999.800
G1 X73.037 Y-26.517 Z8.475 F1999.800
G0 Z23.000
G0 X72.301 Y-28.782 Z23.000
G0 X72.301 Y-28.782 Z21.000
G1 X72.301 Y-28.782 Z8.475 F999.600
G1 X67.771 Y-27.310 Z8.475 F1999.800
G1 X70.881 Y-17.740 Z8.475 F1999.800
G1 X117.102 Y-32.759 Z8.475 F1999.800
G1 X113.993 Y-42.329 Z8.475 F1999.800
G1 X72.301 Y-28.782 Z8.475 F1999.800
G0 Z23.000
G0 X71.565 Y-31.047 Z23.000
G0 X71.565 Y-31.047 Z21.000
G1 X71.565 Y-31.047 Z8.475 F999.600
G1 X64.771 Y-28.839 Z8.475 F1999.800
G1 X69.352 Y-14.740 Z8.475 F1999.800
G1 X120.103 Y-31.230 Z8.475 F1999.800
G1 X115.522 Y-45.329 Z8.475 F1999.800
G1 X71.565 Y-31.047 Z8.475 F1999.800
G1 X71.565 Y-31.047 Z7.946 F999.600
G1 X64.771 Y-28.839 Z7.946 F1999.800
G1 X69.352 Y-14.740 Z7.946 F1999.800
G1 X120.103 Y-31.230 Z7.946 F1999.800
G1 X115.522 Y-45.329 Z7.946 F1999.800
G1 X71.565 Y-31.047 Z7.946 F1999.800
G0 Z23.000
G0 X72.301 Y-28.782 Z23.000
G0 X72.301 Y-28.782 Z21.000
G1 X72.301 Y-28.782 Z7.946 F999.600
G1 X67.771 Y-27.310 Z7.946 F1999.800
G1 X70.881 Y-17.740 Z7.946 F1999.800
G1 X117.102 Y-32.759 Z7.946 F1999.800
G1 X113.993 Y-42.329 Z7.946 F1999.800
G1 X72.301 Y-28.782 Z7.946 F1999.800
G0 Z23.000
G0 X73.037 Y-26.517 Z23.000
G0 X73.037 Y-26.517 Z21.000
G1 X73.037 Y-26.517 Z7.946 F999.600
G1 X70.772 Y-25.782 Z7.946 F1999.800
G1 X72.410 Y-20.741 Z7.946 F1999.800
G1 X114.102 Y-34.287 Z7.946 F1999.800
G1 X112.464 Y-39.328 Z7.946 F1999.800
G1 X73.037 Y-26.517 Z7.946 F1999.800
G0 Z23.000
G0 X73.772 Y-24.253 Z23.000
G0 X73.772 Y-24.253 Z21.000
G1 X73.772 Y-24.253 Z7.946 F999.600
G1 X73.938 Y-23.741 Z7.946 F1999.800
G1 X111.101 Y-35.816 Z7.946 F1999.800
G1 X110.935 Y-36.328 Z7.946 F1999.800
G1 X73.772 Y-24.253 Z7.946 F1999.800
G1 X73.772 Y-24.253 Z7.417 F999.600
G1 X73.938 Y-23.741 Z7.417 F1999.800
G1 X111.101 Y-35.816 Z7.417 F1999.800
G1 X110.935 Y-36.328 Z7.417 F1999.800
G1 X73.772 Y-24.253 Z7.417 F1999.800
G0 Z23.000
G0 X73.037 Y-26.517 Z23.000
G0 X73.037 Y-26.517 Z21.000
G1 X73.037 Y-26.517 Z7.417 F999.600
G1 X70.772 Y-25.782 Z7.417 F1999.800
G1 X72.410 Y-20.741 Z7.417 F1999.800
G1 X114.102 Y-34.287 Z7.417 F1999.800
G1 X112.464 Y-39.328 Z7.417 F1999.800
G1 X73.037 Y-26.517 Z7.417 F1999.800
G0 Z23.000
G0 X72.301 Y-28.782 Z23.000
G0 X72.301 Y-28.782 Z21.000
G1 X72.301 Y-28.782 Z7.417 F999.600
G1 X67.771 Y-27.310 Z7.417 F1999.800
G1 X70.881 Y-17.740 Z7.417 F1999.800
G1 X117.102 Y-32.759 Z7.417 F1999.800
G1 X113.993 Y-42.329 Z7.417 F1999.800
G1 X72.301 Y-28.782 Z7.417 F1999.800
G0 Z23.000
G0 X71.565 Y-31.047 Z23.000
G0 X71.565 Y-31.047 Z21.000
G1 X71.565 Y-31.047 Z7.417 F999.600
G1 X64.771 Y-28.839 Z7.417 F1999.800
G1 X69.352 Y-14.740 Z7.417 F1999.800
G1 X120.103 Y-31.230 Z7.417 F1999.800
G1 X115.522 Y-45.329 Z7.417 F1999.800
G1 X71.565 Y-31.047 Z7.417 F1999.800
G1 X71.565 Y-31.047 Z6.888 F999.600
G1 X64.771 Y-28.839 Z6.888 F1999.800
G1 X69.352 Y-14.740 Z6.888 F1999.800
G1 X120.103 Y-31.230 Z6.888 F1999.800
G1 X115.522 Y-45.329 Z6.888 F1999.800
G1 X71.565 Y-31.047 Z6.888 F1999.800
G0 Z23.000
G0 X72.301 Y-28.782 Z23.000
G0 X72.301 Y-28.782 Z21.000
G1 X72.301 Y-28.782 Z6.888 F999.600
G1 X67.771 Y-27.310 Z6.888 F1999.800
G1 X70.881 Y-17.740 Z6.888 F1999.800
G1 X117.102 Y-32.759 Z6.888 F1999.800
G1 X113.993 Y-42.329 Z6.888 F1999.800
G1 X72.301 Y-28.782 Z6.888 F1999.800
G0 Z23.000
G0 X73.037 Y-26.517 Z23.000
G0 X73.037 Y-26.517 Z21.000
G1 X73.037 Y-26.517 Z6.888 F999.600
G1 X70.772 Y-25.782 Z6.888 F1999.800
G1 X72.410 Y-20.741 Z6.888 F1999.800
G1 X114.102 Y-34.287 Z6.888 F1999.800
G1 X112.464 Y-39.328 Z6.888 F1999.800
G1 X73.037 Y-26.517 Z6.888 F1999.800
G0 Z23.000
G0 X73.772 Y-24.253 Z23.000
G0 X73.772 Y-24.253 Z21.000
G1 X73.772 Y-24.253 Z6.888 F999.600
G1 X73.938 Y-23.741 Z6.888 F1999.800
G1 X111.101 Y-35.816 Z6.888 F1999.800
G1 X110.935 Y-36.328 Z6.888 F1999.800
G1 X73.772 Y-24.253 Z6.888 F1999.800
G1 X73.772 Y-24.253 Z6.358 F999.600
G1 X73.938 Y-23.741 Z6.358 F1999.800
G1 X111.101 Y-35.816 Z6.358 F1999.800
G1 X110.935 Y-36.328 Z6.358 F1999.800
G1 X73.772 Y-24.253 Z6.358 F1999.800
G0 Z23.000
G0 X73.037 Y-26.517 Z23.000
G0 X73.037 Y-26.517 Z21.000
G1 X73.037 Y-26.517 Z6.358 F999.600
G1 X70.772 Y-25.782 Z6.358 F1999.800
G1 X72.410 Y-20.741 Z6.358 F1999.800
G1 X114.102 Y-34.287 Z6.358 F1999.800
G1 X112.464 Y-39.328 Z6.358 F1999.800
G1 X73.037 Y-26.517 Z6.358 F1999.800
G0 Z23.000
G0 X72.301 Y-28.782 Z23.000
G0 X72.301 Y-28.782 Z21.000
G1 X72.301 Y-28.782 Z6.358 F999.600
G1 X67.771 Y-27.310 Z6.358 F1999.800
G1 X70.881 Y-17.740 Z6.358 F1999.800
G1 X117.102 Y-32.759 Z6.358 F1999.800
G1 X113.993 Y-42.329 Z6.358 F1999.800
G1 X72.301 Y-28.782 Z6.358 F1999.800
G0 Z23.000
G0 X71.565 Y-31.047 Z23.000
G0 X71.565 Y-31.047 Z21.000
G1 X71.565 Y-31.047 Z6.358 F999.600
G1 X64.771 Y-28.839 Z6.358 F1999.800
G1 X69.352 Y-14.740 Z6.358 F1999.800
G1 X120.103 Y-31.230 Z6.358 F1999.800
G1 X115.522 Y-45.329 Z6.358 F1999.800
G1 X71.565 Y-31.047 Z6.358 F1999.800
G1 X71.565 Y-31.047 Z5.829 F999.600
G1 X64.771 Y-28.839 Z5.829 F1999.800
G1 X69.352 Y-14.740 Z5.829 F1999.800
G1 X120.103 Y-31.230 Z5.829 F1999.800
G1 X115.522 Y-45.329 Z5.829 F1999.800
G1 X71.565 Y-31.047 Z5.829 F1999.800
G0 Z23.000
G0 X72.301 Y-28.782 Z23.000
G0 X72.301 Y-28.782 Z21.000
G1 X72.301 Y-28.782 Z5.829 F999.600
G1 X67.771 Y-27.310 Z5.829 F1999.800
G1 X70.881 Y-17.740 Z5.829 F1999.800
G1 X117.102 Y-32.759 Z5.829 F1999.800
G1 X113.993 Y-42.329 Z5.829 F1999.800
G1 X72.301 Y-28.782 Z5.829 F1999.800
G0 Z23.000
G0 X73.037 Y-26.517 Z23.000
G0 X73.037 Y-26.517 Z21.000
G1 X73.037 Y-26.517 Z5.829 F999.600
G1 X70.772 Y-25.782 Z5.829 F1999.800
G1 X72.410 Y-20.741 Z5.829 F1999.800
G1 X114.102 Y-34.287 Z5.829 F1999.800
G1 X112.464 Y-39.328 Z5.829 F1999.800
G1 X73.037 Y-26.517 Z5.829 F1999.800
G0 Z23.000
G0 X73.772 Y-24.253 Z23.000
G0 X73.772 Y-24.253 Z21.000
G1 X73.772 Y-24.253 Z5.829 F999.600
G1 X73.938 Y-23.741 Z5.829 F1999.800
G1 X111.101 Y-35.816 Z5.829 F1999.800
G1 X110.935 Y-36.328 Z5.829 F1999.800
G1 X73.772 Y-24.253 Z5.829 F1999.800
G1 X73.772 Y-24.253 Z5.300 F999.600
G1 X73.938 Y-23.741 Z5.300 F1999.800
G1 X111.101 Y-35.816 Z5.300 F1999.800
G1 X110.935 Y-36.328 Z5.300 F1999.800
G1 X73.772 Y-24.253 Z5.300 F1999.800
G0 Z23.000
G0 X73.037 Y-26.517 Z23.000
G0 X73.037 Y-26.517 Z21.000
G1 X73.037 Y-26.517 Z5.300 F999.600
G1 X70.772 Y-25.782 Z5.300 F1999.800
G1 X72.410 Y-20.741 Z5.300 F1999.800
G1 X114.102 Y-34.287 Z5.300 F1999.800
G1 X112.464 Y-39.328 Z5.300 F1999.800
G1 X73.037 Y-26.517 Z5.300 F1999.800
G0 Z23.000
G0 X72.301 Y-28.782 Z23.000
G0 X72.301 Y-28.782 Z21.000
G1 X72.301 Y-28.782 Z5.300 F999.600
G1 X67.771 Y-27.310 Z5.300 F1999.800
G1 X70.881 Y-17.740 Z5.300 F1999.800
G1 X117.102 Y-32.759 Z5.300 F1999.800
G1 X113.993 Y-42.329 Z5.300 F1999.800
G1 X72.301 Y-28.782 Z5.300 F1999.800
G0 Z23.000
G0 X71.565 Y-31.047 Z23.000
G0 X71.565 Y-31.047 Z21.000
G1 X71.565 Y-31.047 Z5.300 F999.600
G1 X64.771 Y-28.839 Z5.300 F1999.800
G1 X69.352 Y-14.740 Z5.300 F1999.800
G1 X120.103 Y-31.230 Z5.300 F1999.800
G1 X115.522 Y-45.329 Z5.300 F1999.800
G1 X71.565 Y-31.047 Z5.300 F1999.800
G1 X71.565 Y-31.047 Z4.771 F999.600
G1 X64.771 Y-28.839 Z4.771 F1999.800
G1 X69.352 Y-14.740 Z4.771 F1999.800
G1 X120.103 Y-31.230 Z4.771 F1999.800
G1 X115.522 Y-45.329 Z4.771 F1999.800
G1 X71.565 Y-31.047 Z4.771 F1999.800
G0 Z23.000
G0 X72.301 Y-28.782 Z23.000
G0 X72.301 Y-28.782 Z21.000
G1 X72.301 Y-28.782 Z4.771 F999.600
G1 X67.771 Y-27.310 Z4.771 F1999.800
G1 X70.881 Y-17.740 Z4.771 F1999.800
G1 X117.102 Y-32.759 Z4.771 F1999.800
G1 X113.993 Y-42.329 Z4.771 F1999.800
G1 X72.301 Y-28.782 Z4.771 F1999.800
G0 Z23.000
G0 X73.037 Y-26.517 Z23.000
G0 X73.037 Y-26.517 Z21.000
G1 X73.037 Y-26.517 Z4.771 F999.600
G1 X70.772 Y-25.782 Z4.771 F1999.800
G1 X72.410 Y-20.741 Z4.771 F1999.800
G1 X114.102 Y-34.287 Z4.771 F1999.800
G1 X112.464 Y-39.328 Z4.771 F1999.800
G1 X73.037 Y-26.517 Z4.771 F1999.800
G0 Z23.000
G0 X73.772 Y-24.253 Z23.000
G0 X73.772 Y-24.253 Z21.000
G1 X73.772 Y-24.253 Z4.771 F999.600
G1 X73.938 Y-23.741 Z4.771 F1999.800
G1 X111.101 Y-35.816 Z4.771 F1999.800
G1 X110.935 Y-36.328 Z4.771 F1999.800
G1 X73.772 Y-24.253 Z4.771 F1999.800
G1 X73.772 Y-24.253 Z4.242 F999.600
G1 X73.938 Y-23.741 Z4.242 F1999.800
G1 X111.101 Y-35.816 Z4.242 F1999.800
G1 X110.935 Y-36.328 Z4.242 F1999.800
G1 X73.772 Y-24.253 Z4.242 F1999.800
G0 Z23.000
G0 X73.037 Y-26.517 Z23.000
G0 X73.037 Y-26.517 Z21.000
G1 X73.037 Y-26.517 Z4.242 F999.600
G1 X70.772 Y-25.782 Z4.242 F1999.800
G1 X72.410 Y-20.741 Z4.242 F1999.800
G1 X114.102 Y-34.287 Z4.242 F1999.800
G1 X112.464 Y-39.328 Z4.242 F1999.800
G1 X73.037 Y-26.517 Z4.242 F1999.800
G0 Z23.000
G0 X72.301 Y-28.782 Z23.000
G0 X72.301 Y-28.782 Z21.000
G1 X72.301 Y-28.782 Z4.242 F999.600
G1 X67.771 Y-27.310 Z4.242 F1999.800
G1 X70.881 Y-17.740 Z4.242 F1999.800
G1 X117.102 Y-32.759 Z4.242 F1999.800
G1 X113.993 Y-42.329 Z4.242 F1999.800
G1 X72.301 Y-28.782 Z4.242 F1999.800
G0 Z23.000
G0 X71.565 Y-31.047 Z23.000
G0 X71.565 Y-31.047 Z21.000
G1 X71.565 Y-31.047 Z4.242 F999.600
G1 X64.771 Y-28.839 Z4.242 F1999.800
G1 X69.352 Y-14.740 Z4.242 F1999.800
G1 X120.103 Y-31.230 Z4.242 F1999.800
G1 X115.522 Y-45.329 Z4.242 F1999.800
G1 X71.565 Y-31.047 Z4.242 F1999.800
G1 X71.565 Y-31.047 Z3.713 F999.600
G1 X64.771 Y-28.839 Z3.713 F1999.800
G1 X69.352 Y-14.740 Z3.713 F1999.800
G1 X120.103 Y-31.230 Z3.713 F1999.800
G1 X115.522 Y-45.329 Z3.713 F1999.800
G1 X71.565 Y-31.047 Z3.713 F1999.800
G0 Z23.000
G0 X72.301 Y-28.782 Z23.000
G0 X72.301 Y-28.782 Z21.000
G1 X72.301 Y-28.782 Z3.713 F999.600
G1 X67.771 Y-27.310 Z3.713 F1999.800
G1 X70.881 Y-17.740 Z3.713 F1999.800
G1 X117.102 Y-32.759 Z3.713 F1999.800
G1 X113.993 Y-42.329 Z3.713 F1999.800
G1 X72.301 Y-28.782 Z3.713 F1999.800
G0 Z23.000
G0 X73.037 Y-26.517 Z23.000
G0 X73.037 Y-26.517 Z21.000
G1 X73.037 Y-26.517 Z3.713 F999.600
G1 X70.772 Y-25.782 Z3.713 F1999.800
G1 X72.410 Y-20.741 Z3.713 F1999.800
G1 X114.102 Y-34.287 Z3.713 F1999.800
G1 X112.464 Y-39.328 Z3.713 F1999.800
G1 X73.037 Y-26.517 Z3.713 F1999.800
G0 Z23.000
G0 X73.772 Y-24.253 Z23.000
G0 X73.772 Y-24.253 Z21.000
G1 X73.772 Y-24.253 Z3.713 F999.600
G1 X73.938 Y-23.741 Z3.713 F1999.800
G1 X111.101 Y-35.816 Z3.713 F1999.800
G1 X110.935 Y-36.328 Z3.713 F1999.800
G1 X73.772 Y-24.253 Z3.713 F1999.800
G1 X73.772 Y-24.253 Z3.183 F999.600
G1 X73.938 Y-23.741 Z3.183 F1999.800
G1 X111.101 Y-35.816 Z3.183 F1999.800
G1 X110.935 Y-36.328 Z3.183 F1999.800
G1 X73.772 Y-24.253 Z3.183 F1999.800
G0 Z23.000
G0 X73.037 Y-26.517 Z23.000
G0 X73.037 Y-26.517 Z21.000
G1 X73.037 Y-26.517 Z3.183 F999.600
G1 X70.772 Y-25.782 Z3.183 F1999.800
G1 X72.410 Y-20.741 Z3.183 F1999.800
G1 X114.102 Y-34.287 Z3.183 F1999.800
G1 X112.464 Y-39.328 Z3.183 F1999.800
G1 X73.037 Y-26.517 Z3.183 F1999.800
G0 Z23.000
G0 X72.301 Y-28.782 Z23.000
G0 X72.301 Y-28.782 Z21.000
G1 X72.301 Y-28.782 Z3.183 F999.600
G1 X67.771 Y-27.310 Z3.183 F1999.800
G1 X70.881 Y-17.740 Z3.183 F1999.800
G1 X117.102 Y-32.759 Z3.183 F1999.800
G1 X113.993 Y-42.329 Z3.183 F1999.800
G1 X72.301 Y-28.782 Z3.183 F1999.800
G0 Z23.000
G0 X71.565 Y-31.047 Z23.000
G0 X71.565 Y-31.047 Z21.000
G1 X71.565 Y-31.047 Z3.183 F999.600
G1 X64.771 Y-28.839 Z3.183 F1999.800
G1 X69.352 Y-14.740 Z3.183 F1999.800
G1 X120.103 Y-31.230 Z3.183 F1999.800
G1 X115.522 Y-45.329 Z3.183 F1999.800
G1 X71.565 Y-31.047 Z3.183 F1999.800
G1 X71.565 Y-31.047 Z3.000 F999.600
G1 X64.771 Y-28.839 Z3.000 F1999.800
G1 X69.352 Y-14.740 Z3.000 F1999.800
G1 X120.103 Y-31.230 Z3.000 F1999.800
G1 X115.522 Y-45.329 Z3.000 F1999.800
G1 X71.565 Y-31.047 Z3.000 F1999.800
G0 Z23.000
G0 X72.301 Y-28.782 Z23.000
G0 X72.301 Y-28.782 Z21.000
G1 X72.301 Y-28.782 Z3.000 F999.600
G1 X67.771 Y-27.310 Z3.000 F1999.800
G1 X70.881 Y-17.740 Z3.000 F1999.800
G1 X117.102 Y-32.759 Z3.000 F1999.800
G1 X113.993 Y-42.329 Z3.000 F1999.800
G1 X72.301 Y-28.782 Z3.000 F1999.800
G0 Z23.000
G0 X73.037 Y-26.517 Z23.000
G0 X73.037 Y-26.517 Z21.000
G1 X73.037 Y-26.517 Z3.000 F999.600
G1 X70.772 Y-25.782 Z3.000 F1999.800
G1 X72.410 Y-20.741 Z3.000 F1999.800
G1 X114.102 Y-34.287 Z3.000 F1999.800
G1 X112.464 Y-39.328 Z3.000 F1999.800
G1 X73.037 Y-26.517 Z3.000 F1999.800
G0 Z23.000
G0 X73.772 Y-24.253 Z23.000
G0 X73.772 Y-24.253 Z21.000
G1 X73.772 Y-24.253 Z3.000 F999.600
G1 X73.938 Y-23.741 Z3.000 F1999.800
G1 X111.101 Y-35.816 Z3.000 F1999.800
G1 X110.935 Y-36.328 Z3.000 F1999.800
G1 X73.772 Y-24.253 Z3.000 F1999.800
G0 Z23.000
G0 Z23.000
G0 X47.443 Y52.689
G0 X47.443 Y52.689 Z21.000
G1 X47.443 Y52.689 Z17.471 F999.600
G1 X35.449 Y61.403 Z17.471 F1999.800
G1 X66.815 Y104.574 Z17.471 F1999.800
G1 X78.809 Y95.860 Z17.471 F1999.800
G1 X47.443 Y52.689 Z17.471 F1999.800
G0 Z23.000
G0 X46.916 Y56.015 Z23.000
G0 X46.916 Y56.015 Z21.000
G1 X46.916 Y56.015 Z17.471 F999.600
G1 X38.775 Y61.930 Z17.471 F1999.800
G1 X67.342 Y101.248 Z17.471 F1999.800
G1 X75.483 Y95.333 Z17.471 F1999.800
G1 X46.916 Y56.015 Z17.471 F1999.800
G0 Z23.000
G0 X46.389 Y59.341 Z23.000
G0 X46.389 Y59.341 Z21.000
G1 X46.389 Y59.341 Z17.471 F999.600
G1 X42.102 Y62.456 Z17.471 F1999.800
G1 X67.869 Y97.922 Z17.471 F1999.800
G1 X72.156 Y94.806 Z17.471 F1999.800
G1 X46.389 Y59.341 Z17.471 F1999.800
G0 Z23.000
G0 X45.863 Y62.667 Z23.000
G0 X45.863 Y62.667 Z21.000
G1 X45.863 Y62.667 Z17.471 F999.600
G1 X45.428 Y62.983 Z17.471 F1999.800
G1 X68.395 Y94.596 Z17.471 F1999.800
G1 X68.830 Y94.280 Z17.471 F1999.800
G1 X45.863 Y62.667 Z17.471 F1999.800
G1 X45.863 Y62.667 Z16.942 F999.600
G1 X45.428 Y62.983 Z16.942 F1999.800
G1 X68.395 Y94.596 Z16.942 F1999.800
G1 X68.830 Y94.280 Z16.942 F1999.800
G1 X45.863 Y62.667 Z16.942 F1999.800
G0 Z23.000
G0 X44.463 Y60.741 Z23.000
G0 X44.463 Y60.741 Z21.000
G1 X44.463 Y60.741 Z16.942 F999.600
G1 X42.102 Y62.456 Z16.942 F1999.800
G1 X67.869 Y97.922 Z16.942 F1999.800
G1 X72.156 Y94.806 Z16.942 F1999.800
G1 X46.389 Y59.341 Z16.942 F1999.800
G1 X44.463 Y60.741 Z16.942 F1999.800
G0 Z23.000
G0 X43.063 Y58.814 Z23.000
G0 X43.063 Y58.814 Z21.000
G1 X43.063 Y58.814 Z16.942 F999.600
G1 X38.775 Y61.930 Z16.942 F1999.800
G1 X67.342 Y101.248 Z16.942 F1999.800
G1 X75.483 Y95.333 Z16.942 F1999.800
G1 X46.916 Y56.015 Z16.942 F1999.800
G1 X43.063 Y58.814 Z16.942 F1999.800
G0 Z23.000
G0 X41.664 Y56.888 Z23.000
G0 X41.664 Y56.888 Z21.000
G1 X41.664 Y56.888 Z16.942 F999.600
G1 X35.449 Y61.403 Z16.942 F1999.800
G1 X66.815 Y104.574 Z16.942 F1999.800
G1 X78.809 Y95.860 Z16.942 F1999.800
G1 X47.443 Y52.689 Z16.942 F1999.800
G1 X41.664 Y56.888 Z16.942 F1999.800
G1 X41.664 Y56.888 Z16.413 F999.600
G1 X35.449 Y61.403 Z16.413 F1999.800
G1 X66.815 Y104.574 Z16.413 F1999.800
G1 X78.809 Y95.860 Z16.413 F1999.800
G1 X47.443 Y52.689 Z16.413 F1999.800
G1 X41.664 Y56.888 Z16.413 F1999.800
G0 Z23.000
G0 X43.063 Y58.814 Z23.000
G0 X43.063 Y58.814 Z21.000
G1 X43.063 Y58.814 Z16.413 F999.600
G1 X38.775 Y61.930 Z16.413 F1999.800
G1 X67.342 Y101.248 Z16.413 F1999.800
G1 X75.483 Y95.333 Z16.413 F1999.800
G1 X46.916 Y56.015 Z16.413 F1999.800
G1 X43.063 Y58.814 Z16.413 F1999.800
G0 Z23.000
G0 X44.463 Y60.741 Z23.000
G0 X44.463 Y60.741 Z21.000
G1 X44.463 Y60.741 Z16.413 F999.600
G1 X42.102 Y62.456 Z16.413 F1999.800
G1 X67.869 Y97.922 Z16.413 F1999.800
G1 X72.156 Y94.806 Z16.413 F1999.800
G1 X46.389 Y59.341 Z16.413 F1999.800
G1 X44.463 Y60.741 Z16.413 F1999.800
G0 Z23.000
G0 X45.863 Y62.667 Z23.000
G0 X45.863 Y62.667 Z21.000
G1 X45.863 Y62.667 Z16.413 F999.600
G1 X45.428 Y62.983 Z16.413 F1999.800
G1 X68.395 Y94.596 Z16.413 F1999.800
G1 X68.830 Y94.280 Z16.413 F1999.800
G1 X45.863 Y62.667 Z16.413 F1999.800
G1 X45.863 Y62.667 Z15.883 F999.600
G1 X45.428 Y62.983 Z15.883 F1999.800
G1 X68.395 Y94.596 Z15.883 F1999.800
G1 X68.830 Y94.280 Z15.883 F1999.800
G1 X45.863 Y62.667 Z15.883 F1999.800
G0 Z23.000
G0 X44.463 Y60.741 Z23.000
G0 X44.463 Y60.741 Z21.000
G1 X44.463 Y60.741 Z15.883 F999.600
G1 X42.102 Y62.456 Z15.883 F1999.800
G1 X67.869 Y97.922 Z15.883 F1999.800
G1 X72.156 Y94.806 Z15.883 F1999.800
G1 X46.389 Y59.341 Z15.883 F1999.800
G1 X44.463 Y60.741 Z15.883 F1999.800
G0 Z23.000
G0 X43.063 Y58.814 Z23.000
G0 X43.063 Y58.814 Z21.000
G1 X43.063 Y58.814 Z15.883 F999.600
G1 X38.775 Y61.930 Z15.883 F1999.800
G1 X67.342 Y101.248 Z15.883 F1999.800
G1 X75.483 Y95.333 Z15.883 F1999.800
G1 X46.916 Y56.015 Z15.883 F1999.800
G1 X43.063 Y58.814 Z15.883 F1999.800
G0 Z23.000
G0 X41.664 Y56.888 Z23.000
G0 X41.664 Y56.888 Z21.000
G1 X41.664 Y56.888 Z15.883 F999.600
G1 X35.449 Y61.403 Z15.883 F1999.800
G1 X66.815 Y104.574 Z15.883 F1999.800
G1 X78.809 Y95.860 Z15.883 F1999.800
G1 X47.443 Y52.689 Z15.883 F1999.800
G1 X41.664 Y56.888 Z15.883 F1999.800
G1 X41.664 Y56.888 Z15.354 F999.600
G1 X35.449 Y61.403 Z15.354 F1999.800
G1 X66.815 Y104.574 Z15.354 F1999.800
G1 X78.809 Y95.860 Z15.354 F1999.800
G1 X47.443 Y52.689 Z15.354 F1999.800
G1 X41.664 Y56.888 Z15.354 F1999.800
G0 Z23.000
G0 X43.063 Y58.814 Z23.000
G0 X43.063 Y58.814 Z21.000
G1 X43.063 Y58.814 Z15.354 F999.600
G1 X38.775 Y61.930 Z15.354 F1999.800
G1 X67.342 Y101.248 Z15.354 F1999.800
G1 X75.483 Y95.333 Z15.354 F1999.800
G1 X46.916 Y56.015 Z15.354 F1999.800
G1 X43.063 Y58.814 Z15.354 F1999.800
G0 Z23.000
G0 X44.463 Y60.741 Z23.000
G0 X44.463 Y60.741 Z21.000
G1 X44.463 Y60.741 Z15.354 F999.600
G1 X42.102 Y62.456 Z15.354 F1999.800
G1 X67.869 Y97.922 Z15.354 F1999.800
G1 X72.156 Y94.806 Z15.354 F1999.800
G1 X46.389 Y59.341 Z15.354 F1999.800
G1 X44.463 Y60.741 Z15.354 F1999.800
G0 Z23.000
G0 X45.863 Y62.667 Z23.000
G0 X45.863 Y62.667 Z21.000
G1 X45.863 Y62.667 Z15.354 F999.600
G1 X45.428 Y62.983 Z15.354 F1999.800
G1 X68.395 Y94.596 Z15.354 F1999.800
G1 X68.830 Y94.280 Z15.354 F1999.800
G1 X45.863 Y62.667 Z15.354 F1999.800
G1 X45.863 Y62.667 Z14.825 F999.600
G1 X45.428 Y62.983 Z14.825 F1999.800
G1 X68.395 Y94.596 Z14.825 F1999.800
G1 X68.830 Y94.280 Z14.825 F1999.800
G1 X45.863 Y62.667 Z14.825 F1999.800
G0 Z23.000
G0 X44.463 Y60.741 Z23.000
G0 X44.463 Y60.741 Z21.000
G1 X44.463 Y60.741 Z14.825 F999.600
G1 X42.102 Y62.456 Z14.825 F1999.800
G1 X67.869 Y97.922 Z14.825 F1999.800
G1 X72.156 Y94.806 Z14.825 F1999.800
G1 X46.389 Y59.341 Z14.825 F1999.800
G1 X44.463 Y60.741 Z14.825 F1999.800
G0 Z23.000
G0 X43.063 Y58.814 Z23.000
G0 X43.063 Y58.814 Z21.000
G1 X43.063 Y58.814 Z14.825 F999.600
G1 X38.775 Y61.930 Z14.825 F1999.800
G1 X67.342 Y101.248 Z14.825 F1999.800
G1 X75.483 Y95.333 Z14.825 F1999.800
G1 X46.916 Y56.015 Z14.825 F1999.800
G1 X43.063 Y58.814 Z14.825 F1999.800
G0 Z23.000
G0 X41.664 Y56.888 Z23.000
G0 X41.664 Y56.888 Z21.000
G1 X41.664 Y56.888 Z14.825 F999.600
G1 X35.449 Y61.403 Z14.825 F1999.800
G1 X66.815 Y104.574 Z14.825 F1999.800
G1 X78.809 Y95.860 Z14.825 F1999.800
G1 X47.443 Y52.689 Z14.825 F1999.800
G1 X41.664 Y56.888 Z14.825 F1999.800
G1 X41.664 Y56.888 Z14.296 F999.600
G1 X35.449 Y61.403 Z14.296 F1999.800
G1 X66.815 Y104.574 Z14.296 F1999.800
G1 X78.809 Y95.860 Z14.296 F1999.800
G1 X47.443 Y52.689 Z14.296 F1999.800
G1 X41.664 Y56.888 Z14.296 F1999.800
G0 Z23.000
G0 X43.063 Y58.814 Z23.000
G0 X43.063 Y58.814 Z21.000
G1 X43.063 Y58.814 Z14.296 F999.600
G1 X38.775 Y61.930 Z14.296 F1999.800
G1 X67.342 Y101.248 Z14.296 F1999.800
G1 X75.483 Y95.333 Z14.296 F1999.800
G1 X46.916 Y56.015 Z14.296 F1999.800
G1 X43.063 Y58.814 Z14.296 F1999.800
G0 Z23.000
G0 X44.463 Y60.741 Z23.000
G0 X44.463 Y60.741 Z21.000
G1 X44.463 Y60.741 Z14.296 F999.600
G1 X42.102 Y62.456 Z14.296 F1999.800
G1 X67.869 Y97.922 Z14.296 F1999.800
G1 X72.156 Y94.806 Z14.296 F1999.800
G1 X46.389 Y59.341 Z14.296 F1999.800
G1 X44.463 Y60.741 Z14.296 F1999.800
G0 Z23.000
G0 X45.863 Y62.667 Z23.000
G0 X45.863 Y62.667 Z21.000
G1 X45.863 Y62.667 Z14.296 F999.600
G1 X45.428 Y62.983 Z14.296 F1999.800
G1 X68.395 Y94.596 Z14.296 F1999.800
G1 X68.830 Y94.280 Z14.296 F1999.800
G1 X45.863 Y62.667 Z14.296 F1999.800
G1 X45.863 Y62.667 Z13.767 F999.600
G1 X45.428 Y62.983 Z13.767 F1999.800
G1 X68.395 Y94.596 Z13.767 F1999.800
G1 X68.830 Y94.280 Z13.767 F1999.800
G1 X45.863 Y62.667 Z13.767 F1999.800
G0 Z23.000
G0 X44.463 Y60.741 Z23.000
G0 X44.463 Y60.741 Z21.000
G1 X44.463 Y60.741 Z13.767 F999.600
G1 X42.102 Y62.456 Z13.767 F1999.800
G1 X67.869 Y97.922 Z13.767 F1999.800
