(Exported by FreeCAD)
(Post Processor: grbl_post)
(Output Time:2020-05-22 20:27:40.445887)
(Begin preamble)
G17 G90
G21
(Begin operation: Fixture)
(Path: Fixture)
G54
(Finish operation: Fixture)
(Begin operation: T6: 2FluteWoodMill002)
(Path: T6: 2FluteWoodMill002)
(T6: 2FluteWoodMill002)
(Begin toolchange)
(M6 T6.0)
M3 S12000.0
(Finish operation: T6: 2FluteWoodMill002)
(Begin operation: Foot_Mount_Passthrough_Holes)
(Path: Foot_Mount_Passthrough_Holes)
(Foot_Mount_Passthrough_Holes)
(helix cut operation)
G0 Z23.000
G0 X1.189 Y-57.983
G0 Z21.000
G1 Z18.000 F399.600
G2 X-1.189 Y-57.983 Z17.804 I-1.189 J0.000 F1999.800
G2 X1.189 Y-57.983 Z17.609 I1.189 J0.000 F1999.800
G2 X-1.189 Y-57.983 Z17.413 I-1.189 J0.000 F1999.800
G2 X1.189 Y-57.983 Z17.217 I1.189 J0.000 F1999.800
G2 X-1.189 Y-57.983 Z17.022 I-1.189 J0.000 F1999.800
G2 X1.189 Y-57.983 Z16.826 I1.189 J0.000 F1999.800
G2 X-1.189 Y-57.983 Z16.630 I-1.189 J0.000 F1999.800
G2 X1.189 Y-57.983 Z16.435 I1.189 J0.000 F1999.800
G2 X-1.189 Y-57.983 Z16.239 I-1.189 J0.000 F1999.800
G2 X1.189 Y-57.983 Z16.043 I1.189 J0.000 F1999.800
G2 X-1.189 Y-57.983 Z15.848 I-1.189 J0.000 F1999.800
G2 X1.189 Y-57.983 Z15.652 I1.189 J0.000 F1999.800
G2 X-1.189 Y-57.983 Z15.457 I-1.189 J0.000 F1999.800
G2 X1.189 Y-57.983 Z15.261 I1.189 J0.000 F1999.800
G2 X-1.189 Y-57.983 Z15.065 I-1.189 J0.000 F1999.800
G2 X1.189 Y-57.983 Z14.870 I1.189 J0.000 F1999.800
G2 X-1.189 Y-57.983 Z14.674 I-1.189 J0.000 F1999.800
G2 X1.189 Y-57.983 Z14.478 I1.189 J0.000 F1999.800
G2 X-1.189 Y-57.983 Z14.283 I-1.189 J0.000 F1999.800
G2 X1.189 Y-57.983 Z14.087 I1.189 J0.000 F1999.800
G2 X-1.189 Y-57.983 Z13.891 I-1.189 J0.000 F1999.800
G2 X1.189 Y-57.983 Z13.696 I1.189 J0.000 F1999.800
G2 X-1.189 Y-57.983 Z13.500 I-1.189 J0.000 F1999.800
G2 X1.189 Y-57.983 Z13.304 I1.189 J0.000 F1999.800
G2 X-1.189 Y-57.983 Z13.109 I-1.189 J0.000 F1999.800
G2 X1.189 Y-57.983 Z12.913 I1.189 J0.000 F1999.800
G2 X-1.189 Y-57.983 Z12.717 I-1.189 J0.000 F1999.800
G2 X1.189 Y-57.983 Z12.522 I1.189 J0.000 F1999.800
G2 X-1.189 Y-57.983 Z12.326 I-1.189 J0.000 F1999.800
G2 X1.189 Y-57.983 Z12.130 I1.189 J0.000 F1999.800
G2 X-1.189 Y-57.983 Z11.935 I-1.189 J0.000 F1999.800
G2 X1.189 Y-57.983 Z11.739 I1.189 J0.000 F1999.800
G2 X-1.189 Y-57.983 Z11.543 I-1.189 J0.000 F1999.800
G2 X1.189 Y-57.983 Z11.348 I1.189 J0.000 F1999.800
G2 X-1.189 Y-57.983 Z11.152 I-1.189 J0.000 F1999.800
G2 X1.189 Y-57.983 Z10.957 I1.189 J0.000 F1999.800
G2 X-1.189 Y-57.983 Z10.761 I-1.189 J0.000 F1999.800
G2 X1.189 Y-57.983 Z10.565 I1.189 J0.000 F1999.800
G2 X-1.189 Y-57.983 Z10.370 I-1.189 J0.000 F1999.800
G2 X1.189 Y-57.983 Z10.174 I1.189 J0.000 F1999.800
G2 X-1.189 Y-57.983 Z9.978 I-1.189 J0.000 F1999.800
G2 X1.189 Y-57.983 Z9.783 I1.189 J0.000 F1999.800
G2 X-1.189 Y-57.983 Z9.587 I-1.189 J0.000 F1999.800
G2 X1.189 Y-57.983 Z9.391 I1.189 J0.000 F1999.800
G2 X-1.189 Y-57.983 Z9.196 I-1.189 J0.000 F1999.800
G2 X1.189 Y-57.983 Z9.000 I1.189 J0.000 F1999.800
G2 X-1.189 Y-57.983 Z8.804 I-1.189 J0.000 F1999.800
G2 X1.189 Y-57.983 Z8.609 I1.189 J0.000 F1999.800
G2 X-1.189 Y-57.983 Z8.413 I-1.189 J0.000 F1999.800
G2 X1.189 Y-57.983 Z8.217 I1.189 J0.000 F1999.800
G2 X-1.189 Y-57.983 Z8.022 I-1.189 J0.000 F1999.800
G2 X1.189 Y-57.983 Z7.826 I1.189 J0.000 F1999.800
G2 X-1.189 Y-57.983 Z7.630 I-1.189 J0.000 F1999.800
G2 X1.189 Y-57.983 Z7.435 I1.189 J0.000 F1999.800
G2 X-1.189 Y-57.983 Z7.239 I-1.189 J0.000 F1999.800
G2 X1.189 Y-57.983 Z7.043 I1.189 J0.000 F1999.800
G2 X-1.189 Y-57.983 Z6.848 I-1.189 J0.000 F1999.800
G2 X1.189 Y-57.983 Z6.652 I1.189 J0.000 F1999.800
G2 X-1.189 Y-57.983 Z6.457 I-1.189 J0.000 F1999.800
G2 X1.189 Y-57.983 Z6.261 I1.189 J0.000 F1999.800
G2 X-1.189 Y-57.983 Z6.065 I-1.189 J0.000 F1999.800
G2 X1.189 Y-57.983 Z5.870 I1.189 J0.000 F1999.800
G2 X-1.189 Y-57.983 Z5.674 I-1.189 J0.000 F1999.800
G2 X1.189 Y-57.983 Z5.478 I1.189 J0.000 F1999.800
G2 X-1.189 Y-57.983 Z5.283 I-1.189 J0.000 F1999.800
G2 X1.189 Y-57.983 Z5.087 I1.189 J0.000 F1999.800
G2 X-1.189 Y-57.983 Z4.891 I-1.189 J0.000 F1999.800
G2 X1.189 Y-57.983 Z4.696 I1.189 J0.000 F1999.800
G2 X-1.189 Y-57.983 Z4.500 I-1.189 J0.000 F1999.800
G2 X1.189 Y-57.983 Z4.304 I1.189 J0.000 F1999.800
G2 X-1.189 Y-57.983 Z4.109 I-1.189 J0.000 F1999.800
G2 X1.189 Y-57.983 Z3.913 I1.189 J0.000 F1999.800
G2 X-1.189 Y-57.983 Z3.717 I-1.189 J0.000 F1999.800
G2 X1.189 Y-57.983 Z3.522 I1.189 J0.000 F1999.800
G2 X-1.189 Y-57.983 Z3.326 I-1.189 J0.000 F1999.800
G2 X1.189 Y-57.983 Z3.130 I1.189 J0.000 F1999.800
G2 X-1.189 Y-57.983 Z2.935 I-1.189 J0.000 F1999.800
G2 X1.189 Y-57.983 Z2.739 I1.189 J0.000 F1999.800
G2 X-1.189 Y-57.983 Z2.543 I-1.189 J0.000 F1999.800
G2 X1.189 Y-57.983 Z2.348 I1.189 J0.000 F1999.800
G2 X-1.189 Y-57.983 Z2.152 I-1.189 J0.000 F1999.800
G2 X1.189 Y-57.983 Z1.957 I1.189 J0.000 F1999.800
G2 X-1.189 Y-57.983 Z1.761 I-1.189 J0.000 F1999.800
G2 X1.189 Y-57.983 Z1.565 I1.189 J0.000 F1999.800
G2 X-1.189 Y-57.983 Z1.370 I-1.189 J0.000 F1999.800
G2 X1.189 Y-57.983 Z1.174 I1.189 J0.000 F1999.800
G2 X-1.189 Y-57.983 Z0.978 I-1.189 J0.000 F1999.800
G2 X1.189 Y-57.983 Z0.783 I1.189 J0.000 F1999.800
G2 X-1.189 Y-57.983 Z0.587 I-1.189 J0.000 F1999.800
G2 X1.189 Y-57.983 Z0.391 I1.189 J0.000 F1999.800
G2 X-1.189 Y-57.983 Z0.196 I-1.189 J0.000 F1999.800
G2 X1.189 Y-57.983 Z0.000 I1.189 J0.000 F1999.800
G2 X-1.189 Y-57.983 Z0.000 I-1.189 J0.000 F1999.800
G2 X1.189 Y-57.983 Z0.000 I1.189 J0.000 F1999.800
G0 Z21.000
G0 X3.415 Y-57.983
G0 Z21.000
G1 Z18.000 F399.600
G2 X-3.415 Y-57.983 Z17.804 I-3.415 J0.000 F1999.800
G2 X3.415 Y-57.983 Z17.609 I3.415 J0.000 F1999.800
G2 X-3.415 Y-57.983 Z17.413 I-3.415 J0.000 F1999.800
G2 X3.415 Y-57.983 Z17.217 I3.415 J0.000 F1999.800
G2 X-3.415 Y-57.983 Z17.022 I-3.415 J0.000 F1999.800
G2 X3.415 Y-57.983 Z16.826 I3.415 J0.000 F1999.800
G2 X-3.415 Y-57.983 Z16.630 I-3.415 J0.000 F1999.800
G2 X3.415 Y-57.983 Z16.435 I3.415 J0.000 F1999.800
G2 X-3.415 Y-57.983 Z16.239 I-3.415 J0.000 F1999.800
G2 X3.415 Y-57.983 Z16.043 I3.415 J0.000 F1999.800
G2 X-3.415 Y-57.983 Z15.848 I-3.415 J0.000 F1999.800
G2 X3.415 Y-57.983 Z15.652 I3.415 J0.000 F1999.800
G2 X-3.415 Y-57.983 Z15.457 I-3.415 J0.000 F1999.800
G2 X3.415 Y-57.983 Z15.261 I3.415 J0.000 F1999.800
G2 X-3.415 Y-57.983 Z15.065 I-3.415 J0.000 F1999.800
G2 X3.415 Y-57.983 Z14.870 I3.415 J0.000 F1999.800
G2 X-3.415 Y-57.983 Z14.674 I-3.415 J0.000 F1999.800
G2 X3.415 Y-57.983 Z14.478 I3.415 J0.000 F1999.800
G2 X-3.415 Y-57.983 Z14.283 I-3.415 J0.000 F1999.800
G2 X3.415 Y-57.983 Z14.087 I3.415 J0.000 F1999.800
G2 X-3.415 Y-57.983 Z13.891 I-3.415 J0.000 F1999.800
G2 X3.415 Y-57.983 Z13.696 I3.415 J0.000 F1999.800
G2 X-3.415 Y-57.983 Z13.500 I-3.415 J0.000 F1999.800
G2 X3.415 Y-57.983 Z13.304 I3.415 J0.000 F1999.800
G2 X-3.415 Y-57.983 Z13.109 I-3.415 J0.000 F1999.800
G2 X3.415 Y-57.983 Z12.913 I3.415 J0.000 F1999.800
G2 X-3.415 Y-57.983 Z12.717 I-3.415 J0.000 F1999.800
G2 X3.415 Y-57.983 Z12.522 I3.415 J0.000 F1999.800
G2 X-3.415 Y-57.983 Z12.326 I-3.415 J0.000 F1999.800
G2 X3.415 Y-57.983 Z12.130 I3.415 J0.000 F1999.800
G2 X-3.415 Y-57.983 Z11.935 I-3.415 J0.000 F1999.800
G2 X3.415 Y-57.983 Z11.739 I3.415 J0.000 F1999.800
G2 X-3.415 Y-57.983 Z11.543 I-3.415 J0.000 F1999.800
G2 X3.415 Y-57.983 Z11.348 I3.415 J0.000 F1999.800
G2 X-3.415 Y-57.983 Z11.152 I-3.415 J0.000 F1999.800
G2 X3.415 Y-57.983 Z10.957 I3.415 J0.000 F1999.800
G2 X-3.415 Y-57.983 Z10.761 I-3.415 J0.000 F1999.800
G2 X3.415 Y-57.983 Z10.565 I3.415 J0.000 F1999.800
G2 X-3.415 Y-57.983 Z10.370 I-3.415 J0.000 F1999.800
G2 X3.415 Y-57.983 Z10.174 I3.415 J0.000 F1999.800
G2 X-3.415 Y-57.983 Z9.978 I-3.415 J0.000 F1999.800
G2 X3.415 Y-57.983 Z9.783 I3.415 J0.000 F1999.800
G2 X-3.415 Y-57.983 Z9.587 I-3.415 J0.000 F1999.800
G2 X3.415 Y-57.983 Z9.391 I3.415 J0.000 F1999.800
G2 X-3.415 Y-57.983 Z9.196 I-3.415 J0.000 F1999.800
G2 X3.415 Y-57.983 Z9.000 I3.415 J0.000 F1999.800
G2 X-3.415 Y-57.983 Z8.804 I-3.415 J0.000 F1999.800
G2 X3.415 Y-57.983 Z8.609 I3.415 J0.000 F1999.800
G2 X-3.415 Y-57.983 Z8.413 I-3.415 J0.000 F1999.800
G2 X3.415 Y-57.983 Z8.217 I3.415 J0.000 F1999.800
G2 X-3.415 Y-57.983 Z8.022 I-3.415 J0.000 F1999.800
G2 X3.415 Y-57.983 Z7.826 I3.415 J0.000 F1999.800
G2 X-3.415 Y-57.983 Z7.630 I-3.415 J0.000 F1999.800
G2 X3.415 Y-57.983 Z7.435 I3.415 J0.000 F1999.800
G2 X-3.415 Y-57.983 Z7.239 I-3.415 J0.000 F1999.800
G2 X3.415 Y-57.983 Z7.043 I3.415 J0.000 F1999.800
G2 X-3.415 Y-57.983 Z6.848 I-3.415 J0.000 F1999.800
G2 X3.415 Y-57.983 Z6.652 I3.415 J0.000 F1999.800
G2 X-3.415 Y-57.983 Z6.457 I-3.415 J0.000 F1999.800
G2 X3.415 Y-57.983 Z6.261 I3.415 J0.000 F1999.800
G2 X-3.415 Y-57.983 Z6.065 I-3.415 J0.000 F1999.800
G2 X3.415 Y-57.983 Z5.870 I3.415 J0.000 F1999.800
G2 X-3.415 Y-57.983 Z5.674 I-3.415 J0.000 F1999.800
G2 X3.415 Y-57.983 Z5.478 I3.415 J0.000 F1999.800
G2 X-3.415 Y-57.983 Z5.283 I-3.415 J0.000 F1999.800
G2 X3.415 Y-57.983 Z5.087 I3.415 J0.000 F1999.800
G2 X-3.415 Y-57.983 Z4.891 I-3.415 J0.000 F1999.800
G2 X3.415 Y-57.983 Z4.696 I3.415 J0.000 F1999.800
G2 X-3.415 Y-57.983 Z4.500 I-3.415 J0.000 F1999.800
G2 X3.415 Y-57.983 Z4.304 I3.415 J0.000 F1999.800
G2 X-3.415 Y-57.983 Z4.109 I-3.415 J0.000 F1999.800
G2 X3.415 Y-57.983 Z3.913 I3.415 J0.000 F1999.800
G2 X-3.415 Y-57.983 Z3.717 I-3.415 J0.000 F1999.800
G2 X3.415 Y-57.983 Z3.522 I3.415 J0.000 F1999.800
G2 X-3.415 Y-57.983 Z3.326 I-3.415 J0.000 F1999.800
G2 X3.415 Y-57.983 Z3.130 I3.415 J0.000 F1999.800
G2 X-3.415 Y-57.983 Z2.935 I-3.415 J0.000 F1999.800
G2 X3.415 Y-57.983 Z2.739 I3.415 J0.000 F1999.800
G2 X-3.415 Y-57.983 Z2.543 I-3.415 J0.000 F1999.800
G2 X3.415 Y-57.983 Z2.348 I3.415 J0.000 F1999.800
G2 X-3.415 Y-57.983 Z2.152 I-3.415 J0.000 F1999.800
G2 X3.415 Y-57.983 Z1.957 I3.415 J0.000 F1999.800
G2 X-3.415 Y-57.983 Z1.761 I-3.415 J0.000 F1999.800
G2 X3.415 Y-57.983 Z1.565 I3.415 J0.000 F1999.800
G2 X-3.415 Y-57.983 Z1.370 I-3.415 J0.000 F1999.800
G2 X3.415 Y-57.983 Z1.174 I3.415 J0.000 F1999.800
G2 X-3.415 Y-57.983 Z0.978 I-3.415 J0.000 F1999.800
G2 X3.415 Y-57.983 Z0.783 I3.415 J0.000 F1999.800
G2 X-3.415 Y-57.983 Z0.587 I-3.415 J0.000 F1999.800
G2 X3.415 Y-57.983 Z0.391 I3.415 J0.000 F1999.800
G2 X-3.415 Y-57.983 Z0.196 I-3.415 J0.000 F1999.800
G2 X3.415 Y-57.983 Z0.000 I3.415 J0.000 F1999.800
G2 X-3.415 Y-57.983 Z0.000 I-3.415 J0.000 F1999.800
G2 X3.415 Y-57.983 Z0.000 I3.415 J0.000 F1999.800
G0 Z21.000
G0 X-56.794 Y0.000
G0 Z21.000
G1 Z18.000 F399.600
G2 X-59.172 Y0.000 Z17.804 I-1.189 J0.000 F1999.800
G2 X-56.794 Y0.000 Z17.609 I1.189 J0.000 F1999.800
G2 X-59.172 Y0.000 Z17.413 I-1.189 J0.000 F1999.800
G2 X-56.794 Y0.000 Z17.217 I1.189 J0.000 F1999.800
G2 X-59.172 Y0.000 Z17.022 I-1.189 J0.000 F1999.800
G2 X-56.794 Y0.000 Z16.826 I1.189 J0.000 F1999.800
G2 X-59.172 Y0.000 Z16.630 I-1.189 J0.000 F1999.800
G2 X-56.794 Y0.000 Z16.435 I1.189 J0.000 F1999.800
G2 X-59.172 Y0.000 Z16.239 I-1.189 J0.000 F1999.800
G2 X-56.794 Y0.000 Z16.043 I1.189 J0.000 F1999.800
G2 X-59.172 Y0.000 Z15.848 I-1.189 J0.000 F1999.800
G2 X-56.794 Y0.000 Z15.652 I1.189 J0.000 F1999.800
G2 X-59.172 Y0.000 Z15.457 I-1.189 J0.000 F1999.800
G2 X-56.794 Y0.000 Z15.261 I1.189 J0.000 F1999.800
G2 X-59.172 Y0.000 Z15.065 I-1.189 J0.000 F1999.800
G2 X-56.794 Y0.000 Z14.870 I1.189 J0.000 F1999.800
G2 X-59.172 Y0.000 Z14.674 I-1.189 J0.000 F1999.800
G2 X-56.794 Y0.000 Z14.478 I1.189 J0.000 F1999.800
G2 X-59.172 Y0.000 Z14.283 I-1.189 J0.000 F1999.800
G2 X-56.794 Y0.000 Z14.087 I1.189 J0.000 F1999.800
G2 X-59.172 Y0.000 Z13.891 I-1.189 J0.000 F1999.800
G2 X-56.794 Y0.000 Z13.696 I1.189 J0.000 F1999.800
G2 X-59.172 Y0.000 Z13.500 I-1.189 J0.000 F1999.800
G2 X-56.794 Y0.000 Z13.304 I1.189 J0.000 F1999.800
G2 X-59.172 Y0.000 Z13.109 I-1.189 J0.000 F1999.800
G2 X-56.794 Y0.000 Z12.913 I1.189 J0.000 F1999.800
G2 X-59.172 Y0.000 Z12.717 I-1.189 J0.000 F1999.800
G2 X-56.794 Y0.000 Z12.522 I1.189 J0.000 F1999.800
G2 X-59.172 Y0.000 Z12.326 I-1.189 J0.000 F1999.800
G2 X-56.794 Y0.000 Z12.130 I1.189 J0.000 F1999.800
G2 X-59.172 Y0.000 Z11.935 I-1.189 J0.000 F1999.800
G2 X-56.794 Y0.000 Z11.739 I1.189 J0.000 F1999.800
G2 X-59.172 Y0.000 Z11.543 I-1.189 J0.000 F1999.800
G2 X-56.794 Y0.000 Z11.348 I1.189 J0.000 F1999.800
G2 X-59.172 Y0.000 Z11.152 I-1.189 J0.000 F1999.800
G2 X-56.794 Y0.000 Z10.957 I1.189 J0.000 F1999.800
G2 X-59.172 Y0.000 Z10.761 I-1.189 J0.000 F1999.800
G2 X-56.794 Y0.000 Z10.565 I1.189 J0.000 F1999.800
G2 X-59.172 Y0.000 Z10.370 I-1.189 J0.000 F1999.800
G2 X-56.794 Y0.000 Z10.174 I1.189 J0.000 F1999.800
G2 X-59.172 Y0.000 Z9.978 I-1.189 J0.000 F1999.800
G2 X-56.794 Y0.000 Z9.783 I1.189 J0.000 F1999.800
G2 X-59.172 Y0.000 Z9.587 I-1.189 J0.000 F1999.800
G2 X-56.794 Y0.000 Z9.391 I1.189 J0.000 F1999.800
G2 X-59.172 Y0.000 Z9.196 I-1.189 J0.000 F1999.800
G2 X-56.794 Y0.000 Z9.000 I1.189 J0.000 F1999.800
G2 X-59.172 Y0.000 Z8.804 I-1.189 J0.000 F1999.800
G2 X-56.794 Y0.000 Z8.609 I1.189 J0.000 F1999.800
G2 X-59.172 Y0.000 Z8.413 I-1.189 J0.000 F1999.800
G2 X-56.794 Y0.000 Z8.217 I1.189 J0.000 F1999.800
G2 X-59.172 Y0.000 Z8.022 I-1.189 J0.000 F1999.800
G2 X-56.794 Y0.000 Z7.826 I1.189 J0.000 F1999.800
G2 X-59.172 Y0.000 Z7.630 I-1.189 J0.000 F1999.800
G2 X-56.794 Y0.000 Z7.435 I1.189 J0.000 F1999.800
G2 X-59.172 Y0.000 Z7.239 I-1.189 J0.000 F1999.800
G2 X-56.794 Y0.000 Z7.043 I1.189 J0.000 F1999.800
G2 X-59.172 Y0.000 Z6.848 I-1.189 J0.000 F1999.800
G2 X-56.794 Y0.000 Z6.652 I1.189 J0.000 F1999.800
G2 X-59.172 Y0.000 Z6.457 I-1.189 J0.000 F1999.800
G2 X-56.794 Y0.000 Z6.261 I1.189 J0.000 F1999.800
G2 X-59.172 Y0.000 Z6.065 I-1.189 J0.000 F1999.800
G2 X-56.794 Y0.000 Z5.870 I1.189 J0.000 F1999.800
G2 X-59.172 Y0.000 Z5.674 I-1.189 J0.000 F1999.800
G2 X-56.794 Y0.000 Z5.478 I1.189 J0.000 F1999.800
G2 X-59.172 Y0.000 Z5.283 I-1.189 J0.000 F1999.800
G2 X-56.794 Y0.000 Z5.087 I1.189 J0.000 F1999.800
G2 X-59.172 Y0.000 Z4.891 I-1.189 J0.000 F1999.800
G2 X-56.794 Y0.000 Z4.696 I1.189 J0.000 F1999.800
G2 X-59.172 Y0.000 Z4.500 I-1.189 J0.000 F1999.800
G2 X-56.794 Y0.000 Z4.304 I1.189 J0.000 F1999.800
G2 X-59.172 Y0.000 Z4.109 I-1.189 J0.000 F1999.800
G2 X-56.794 Y0.000 Z3.913 I1.189 J0.000 F1999.800
G2 X-59.172 Y0.000 Z3.717 I-1.189 J0.000 F1999.800
G2 X-56.794 Y0.000 Z3.522 I1.189 J0.000 F1999.800
G2 X-59.172 Y0.000 Z3.326 I-1.189 J0.000 F1999.800
G2 X-56.794 Y0.000 Z3.130 I1.189 J0.000 F1999.800
G2 X-59.172 Y0.000 Z2.935 I-1.189 J0.000 F1999.800
G2 X-56.794 Y0.000 Z2.739 I1.189 J0.000 F1999.800
G2 X-59.172 Y0.000 Z2.543 I-1.189 J0.000 F1999.800
G2 X-56.794 Y0.000 Z2.348 I1.189 J0.000 F1999.800
G2 X-59.172 Y0.000 Z2.152 I-1.189 J0.000 F1999.800
G2 X-56.794 Y0.000 Z1.957 I1.189 J0.000 F1999.800
G2 X-59.172 Y0.000 Z1.761 I-1.189 J0.000 F1999.800
G2 X-56.794 Y0.000 Z1.565 I1.189 J0.000 F1999.800
G2 X-59.172 Y0.000 Z1.370 I-1.189 J0.000 F1999.800
G2 X-56.794 Y0.000 Z1.174 I1.189 J0.000 F1999.800
G2 X-59.172 Y0.000 Z0.978 I-1.189 J0.000 F1999.800
G2 X-56.794 Y0.000 Z0.783 I1.189 J0.000 F1999.800
G2 X-59.172 Y0.000 Z0.587 I-1.189 J0.000 F1999.800
G2 X-56.794 Y0.000 Z0.391 I1.189 J0.000 F1999.800
G2 X-59.172 Y0.000 Z0.196 I-1.189 J0.000 F1999.800
G2 X-56.794 Y0.000 Z0.000 I1.189 J0.000 F1999.800
G2 X-59.172 Y0.000 Z0.000 I-1.189 J0.000 F1999.800
G2 X-56.794 Y0.000 Z0.000 I1.189 J0.000 F1999.800
G0 Z21.000
G0 X-54.568 Y0.000
G0 Z21.000
G1 Z18.000 F399.600
G2 X-61.398 Y0.000 Z17.804 I-3.415 J0.000 F1999.800
G2 X-54.568 Y0.000 Z17.609 I3.415 J0.000 F1999.800
G2 X-61.398 Y0.000 Z17.413 I-3.415 J0.000 F1999.800
G2 X-54.568 Y0.000 Z17.217 I3.415 J0.000 F1999.800
G2 X-61.398 Y0.000 Z17.022 I-3.415 J0.000 F1999.800
G2 X-54.568 Y0.000 Z16.826 I3.415 J0.000 F1999.800
G2 X-61.398 Y0.000 Z16.630 I-3.415 J0.000 F1999.800
G2 X-54.568 Y0.000 Z16.435 I3.415 J0.000 F1999.800
G2 X-61.398 Y0.000 Z16.239 I-3.415 J0.000 F1999.800
G2 X-54.568 Y0.000 Z16.043 I3.415 J0.000 F1999.800
G2 X-61.398 Y0.000 Z15.848 I-3.415 J0.000 F1999.800
G2 X-54.568 Y0.000 Z15.652 I3.415 J0.000 F1999.800
G2 X-61.398 Y0.000 Z15.457 I-3.415 J0.000 F1999.800
G2 X-54.568 Y0.000 Z15.261 I3.415 J0.000 F1999.800
G2 X-61.398 Y0.000 Z15.065 I-3.415 J0.000 F1999.800
G2 X-54.568 Y0.000 Z14.870 I3.415 J0.000 F1999.800
G2 X-61.398 Y0.000 Z14.674 I-3.415 J0.000 F1999.800
G2 X-54.568 Y0.000 Z14.478 I3.415 J0.000 F1999.800
G2 X-61.398 Y0.000 Z14.283 I-3.415 J0.000 F1999.800
G2 X-54.568 Y0.000 Z14.087 I3.415 J0.000 F1999.800
G2 X-61.398 Y0.000 Z13.891 I-3.415 J0.000 F1999.800
G2 X-54.568 Y0.000 Z13.696 I3.415 J0.000 F1999.800
G2 X-61.398 Y0.000 Z13.500 I-3.415 J0.000 F1999.800
G2 X-54.568 Y0.000 Z13.304 I3.415 J0.000 F1999.800
G2 X-61.398 Y0.000 Z13.109 I-3.415 J0.000 F1999.800
G2 X-54.568 Y0.000 Z12.913 I3.415 J0.000 F1999.800
G2 X-61.398 Y0.000 Z12.717 I-3.415 J0.000 F1999.800
G2 X-54.568 Y0.000 Z12.522 I3.415 J0.000 F1999.800
G2 X-61.398 Y0.000 Z12.326 I-3.415 J0.000 F1999.800
G2 X-54.568 Y0.000 Z12.130 I3.415 J0.000 F1999.800
G2 X-61.398 Y0.000 Z11.935 I-3.415 J0.000 F1999.800
G2 X-54.568 Y0.000 Z11.739 I3.415 J0.000 F1999.800
G2 X-61.398 Y0.000 Z11.543 I-3.415 J0.000 F1999.800
G2 X-54.568 Y0.000 Z11.348 I3.415 J0.000 F1999.800
G2 X-61.398 Y0.000 Z11.152 I-3.415 J0.000 F1999.800
G2 X-54.568 Y0.000 Z10.957 I3.415 J0.000 F1999.800
G2 X-61.398 Y0.000 Z10.761 I-3.415 J0.000 F1999.800
G2 X-54.568 Y0.000 Z10.565 I3.415 J0.000 F1999.800
G2 X-61.398 Y0.000 Z10.370 I-3.415 J0.000 F1999.800
G2 X-54.568 Y0.000 Z10.174 I3.415 J0.000 F1999.800
G2 X-61.398 Y0.000 Z9.978 I-3.415 J0.000 F1999.800
G2 X-54.568 Y0.000 Z9.783 I3.415 J0.000 F1999.800
G2 X-61.398 Y0.000 Z9.587 I-3.415 J0.000 F1999.800
G2 X-54.568 Y0.000 Z9.391 I3.415 J0.000 F1999.800
G2 X-61.398 Y0.000 Z9.196 I-3.415 J0.000 F1999.800
G2 X-54.568 Y0.000 Z9.000 I3.415 J0.000 F1999.800
G2 X-61.398 Y0.000 Z8.804 I-3.415 J0.000 F1999.800
G2 X-54.568 Y0.000 Z8.609 I3.415 J0.000 F1999.800
G2 X-61.398 Y0.000 Z8.413 I-3.415 J0.000 F1999.800
G2 X-54.568 Y0.000 Z8.217 I3.415 J0.000 F1999.800
G2 X-61.398 Y0.000 Z8.022 I-3.415 J0.000 F1999.800
G2 X-54.568 Y0.000 Z7.826 I3.415 J0.000 F1999.800
G2 X-61.398 Y0.000 Z7.630 I-3.415 J0.000 F1999.800
G2 X-54.568 Y0.000 Z7.435 I3.415 J0.000 F1999.800
G2 X-61.398 Y0.000 Z7.239 I-3.415 J0.000 F1999.800
G2 X-54.568 Y0.000 Z7.043 I3.415 J0.000 F1999.800
G2 X-61.398 Y0.000 Z6.848 I-3.415 J0.000 F1999.800
G2 X-54.568 Y0.000 Z6.652 I3.415 J0.000 F1999.800
G2 X-61.398 Y0.000 Z6.457 I-3.415 J0.000 F1999.800
G2 X-54.568 Y0.000 Z6.261 I3.415 J0.000 F1999.800
G2 X-61.398 Y0.000 Z6.065 I-3.415 J0.000 F1999.800
G2 X-54.568 Y0.000 Z5.870 I3.415 J0.000 F1999.800
G2 X-61.398 Y0.000 Z5.674 I-3.415 J0.000 F1999.800
G2 X-54.568 Y0.000 Z5.478 I3.415 J0.000 F1999.800
G2 X-61.398 Y0.000 Z5.283 I-3.415 J0.000 F1999.800
G2 X-54.568 Y0.000 Z5.087 I3.415 J0.000 F1999.800
G2 X-61.398 Y0.000 Z4.891 I-3.415 J0.000 F1999.800
G2 X-54.568 Y0.000 Z4.696 I3.415 J0.000 F1999.800
G2 X-61.398 Y0.000 Z4.500 I-3.415 J0.000 F1999.800
G2 X-54.568 Y0.000 Z4.304 I3.415 J0.000 F1999.800
G2 X-61.398 Y0.000 Z4.109 I-3.415 J0.000 F1999.800
G2 X-54.568 Y0.000 Z3.913 I3.415 J0.000 F1999.800
G2 X-61.398 Y0.000 Z3.717 I-3.415 J0.000 F1999.800
G2 X-54.568 Y0.000 Z3.522 I3.415 J0.000 F1999.800
G2 X-61.398 Y0.000 Z3.326 I-3.415 J0.000 F1999.800
G2 X-54.568 Y0.000 Z3.130 I3.415 J0.000 F1999.800
G2 X-61.398 Y0.000 Z2.935 I-3.415 J0.000 F1999.800
G2 X-54.568 Y0.000 Z2.739 I3.415 J0.000 F1999.800
G2 X-61.398 Y0.000 Z2.543 I-3.415 J0.000 F1999.800
G2 X-54.568 Y0.000 Z2.348 I3.415 J0.000 F1999.800
G2 X-61.398 Y0.000 Z2.152 I-3.415 J0.000 F1999.800
G2 X-54.568 Y0.000 Z1.957 I3.415 J0.000 F1999.800
G2 X-61.398 Y0.000 Z1.761 I-3.415 J0.000 F1999.800
G2 X-54.568 Y0.000 Z1.565 I3.415 J0.000 F1999.800
G2 X-61.398 Y0.000 Z1.370 I-3.415 J0.000 F1999.800
G2 X-54.568 Y0.000 Z1.174 I3.415 J0.000 F1999.800
G2 X-61.398 Y0.000 Z0.978 I-3.415 J0.000 F1999.800
G2 X-54.568 Y0.000 Z0.783 I3.415 J0.000 F1999.800
G2 X-61.398 Y0.000 Z0.587 I-3.415 J0.000 F1999.800
G2 X-54.568 Y0.000 Z0.391 I3.415 J0.000 F1999.800
G2 X-61.398 Y0.000 Z0.196 I-3.415 J0.000 F1999.800
G2 X-54.568 Y0.000 Z0.000 I3.415 J0.000 F1999.800
G2 X-61.398 Y0.000 Z0.000 I-3.415 J0.000 F1999.800
G2 X-54.568 Y0.000 Z0.000 I3.415 J0.000 F1999.800
G0 Z21.000
G0 X1.189 Y57.983
G0 Z21.000
G1 Z18.000 F399.600
G2 X-1.189 Y57.983 Z17.804 I-1.189 J0.000 F1999.800
G2 X1.189 Y57.983 Z17.609 I1.189 J0.000 F1999.800
G2 X-1.189 Y57.983 Z17.413 I-1.189 J0.000 F1999.800
G2 X1.189 Y57.983 Z17.217 I1.189 J0.000 F1999.800
G2 X-1.189 Y57.983 Z17.022 I-1.189 J0.000 F1999.800
G2 X1.189 Y57.983 Z16.826 I1.189 J0.000 F1999.800
G2 X-1.189 Y57.983 Z16.630 I-1.189 J0.000 F1999.800
G2 X1.189 Y57.983 Z16.435 I1.189 J0.000 F1999.800
G2 X-1.189 Y57.983 Z16.239 I-1.189 J0.000 F1999.800
G2 X1.189 Y57.983 Z16.043 I1.189 J0.000 F1999.800
G2 X-1.189 Y57.983 Z15.848 I-1.189 J0.000 F1999.800
G2 X1.189 Y57.983 Z15.652 I1.189 J0.000 F1999.800
G2 X-1.189 Y57.983 Z15.457 I-1.189 J0.000 F1999.800
G2 X1.189 Y57.983 Z15.261 I1.189 J0.000 F1999.800
G2 X-1.189 Y57.983 Z15.065 I-1.189 J0.000 F1999.800
G2 X1.189 Y57.983 Z14.870 I1.189 J0.000 F1999.800
G2 X-1.189 Y57.983 Z14.674 I-1.189 J0.000 F1999.800
G2 X1.189 Y57.983 Z14.478 I1.189 J0.000 F1999.800
G2 X-1.189 Y57.983 Z14.283 I-1.189 J0.000 F1999.800
G2 X1.189 Y57.983 Z14.087 I1.189 J0.000 F1999.800
G2 X-1.189 Y57.983 Z13.891 I-1.189 J0.000 F1999.800
G2 X1.189 Y57.983 Z13.696 I1.189 J0.000 F1999.800
G2 X-1.189 Y57.983 Z13.500 I-1.189 J0.000 F1999.800
G2 X1.189 Y57.983 Z13.304 I1.189 J0.000 F1999.800
G2 X-1.189 Y57.983 Z13.109 I-1.189 J0.000 F1999.800
G2 X1.189 Y57.983 Z12.913 I1.189 J0.000 F1999.800
G2 X-1.189 Y57.983 Z12.717 I-1.189 J0.000 F1999.800
G2 X1.189 Y57.983 Z12.522 I1.189 J0.000 F1999.800
G2 X-1.189 Y57.983 Z12.326 I-1.189 J0.000 F1999.800
G2 X1.189 Y57.983 Z12.130 I1.189 J0.000 F1999.800
G2 X-1.189 Y57.983 Z11.935 I-1.189 J0.000 F1999.800
G2 X1.189 Y57.983 Z11.739 I1.189 J0.000 F1999.800
G2 X-1.189 Y57.983 Z11.543 I-1.189 J0.000 F1999.800
G2 X1.189 Y57.983 Z11.348 I1.189 J0.000 F1999.800
G2 X-1.189 Y57.983 Z11.152 I-1.189 J0.000 F1999.800
G2 X1.189 Y57.983 Z10.957 I1.189 J0.000 F1999.800
G2 X-1.189 Y57.983 Z10.761 I-1.189 J0.000 F1999.800
G2 X1.189 Y57.983 Z10.565 I1.189 J0.000 F1999.800
G2 X-1.189 Y57.983 Z10.370 I-1.189 J0.000 F1999.800
G2 X1.189 Y57.983 Z10.174 I1.189 J0.000 F1999.800
G2 X-1.189 Y57.983 Z9.978 I-1.189 J0.000 F1999.800
G2 X1.189 Y57.983 Z9.783 I1.189 J0.000 F1999.800
G2 X-1.189 Y57.983 Z9.587 I-1.189 J0.000 F1999.800
G2 X1.189 Y57.983 Z9.391 I1.189 J0.000 F1999.800
G2 X-1.189 Y57.983 Z9.196 I-1.189 J0.000 F1999.800
G2 X1.189 Y57.983 Z9.000 I1.189 J0.000 F1999.800
G2 X-1.189 Y57.983 Z8.804 I-1.189 J0.000 F1999.800
G2 X1.189 Y57.983 Z8.609 I1.189 J0.000 F1999.800
G2 X-1.189 Y57.983 Z8.413 I-1.189 J0.000 F1999.800
G2 X1.189 Y57.983 Z8.217 I1.189 J0.000 F1999.800
G2 X-1.189 Y57.983 Z8.022 I-1.189 J0.000 F1999.800
G2 X1.189 Y57.983 Z7.826 I1.189 J0.000 F1999.800
G2 X-1.189 Y57.983 Z7.630 I-1.189 J0.000 F1999.800
G2 X1.189 Y57.983 Z7.435 I1.189 J0.000 F1999.800
G2 X-1.189 Y57.983 Z7.239 I-1.189 J0.000 F1999.800
G2 X1.189 Y57.983 Z7.043 I1.189 J0.000 F1999.800
G2 X-1.189 Y57.983 Z6.848 I-1.189 J0.000 F1999.800
G2 X1.189 Y57.983 Z6.652 I1.189 J0.000 F1999.800
G2 X-1.189 Y57.983 Z6.457 I-1.189 J0.000 F1999.800
G2 X1.189 Y57.983 Z6.261 I1.189 J0.000 F1999.800
G2 X-1.189 Y57.983 Z6.065 I-1.189 J0.000 F1999.800
G2 X1.189 Y57.983 Z5.870 I1.189 J0.000 F1999.800
G2 X-1.189 Y57.983 Z5.674 I-1.189 J0.000 F1999.800
G2 X1.189 Y57.983 Z5.478 I1.189 J0.000 F1999.800
G2 X-1.189 Y57.983 Z5.283 I-1.189 J0.000 F1999.800
G2 X1.189 Y57.983 Z5.087 I1.189 J0.000 F1999.800
G2 X-1.189 Y57.983 Z4.891 I-1.189 J0.000 F1999.800
G2 X1.189 Y57.983 Z4.696 I1.189 J0.000 F1999.800
G2 X-1.189 Y57.983 Z4.500 I-1.189 J0.000 F1999.800
G2 X1.189 Y57.983 Z4.304 I1.189 J0.000 F1999.800
G2 X-1.189 Y57.983 Z4.109 I-1.189 J0.000 F1999.800
G2 X1.189 Y57.983 Z3.913 I1.189 J0.000 F1999.800
G2 X-1.189 Y57.983 Z3.717 I-1.189 J0.000 F1999.800
G2 X1.189 Y57.983 Z3.522 I1.189 J0.000 F1999.800
G2 X-1.189 Y57.983 Z3.326 I-1.189 J0.000 F1999.800
G2 X1.189 Y57.983 Z3.130 I1.189 J0.000 F1999.800
G2 X-1.189 Y57.983 Z2.935 I-1.189 J0.000 F1999.800
G2 X1.189 Y57.983 Z2.739 I1.189 J0.000 F1999.800
G2 X-1.189 Y57.983 Z2.543 I-1.189 J0.000 F1999.800
G2 X1.189 Y57.983 Z2.348 I1.189 J0.000 F1999.800
G2 X-1.189 Y57.983 Z2.152 I-1.189 J0.000 F1999.800
G2 X1.189 Y57.983 Z1.957 I1.189 J0.000 F1999.800
G2 X-1.189 Y57.983 Z1.761 I-1.189 J0.000 F1999.800
G2 X1.189 Y57.983 Z1.565 I1.189 J0.000 F1999.800
G2 X-1.189 Y57.983 Z1.370 I-1.189 J0.000 F1999.800
G2 X1.189 Y57.983 Z1.174 I1.189 J0.000 F1999.800
G2 X-1.189 Y57.983 Z0.978 I-1.189 J0.000 F1999.800
G2 X1.189 Y57.983 Z0.783 I1.189 J0.000 F1999.800
G2 X-1.189 Y57.983 Z0.587 I-1.189 J0.000 F1999.800
G2 X1.189 Y57.983 Z0.391 I1.189 J0.000 F1999.800
G2 X-1.189 Y57.983 Z0.196 I-1.189 J0.000 F1999.800
G2 X1.189 Y57.983 Z0.000 I1.189 J0.000 F1999.800
G2 X-1.189 Y57.983 Z0.000 I-1.189 J0.000 F1999.800
G2 X1.189 Y57.983 Z0.000 I1.189 J0.000 F1999.800
G0 Z21.000
G0 X3.415 Y57.983
G0 Z21.000
G1 Z18.000 F399.600
G2 X-3.415 Y57.983 Z17.804 I-3.415 J0.000 F1999.800
G2 X3.415 Y57.983 Z17.609 I3.415 J0.000 F1999.800
G2 X-3.415 Y57.983 Z17.413 I-3.415 J0.000 F1999.800
G2 X3.415 Y57.983 Z17.217 I3.415 J0.000 F1999.800
G2 X-3.415 Y57.983 Z17.022 I-3.415 J0.000 F1999.800
G2 X3.415 Y57.983 Z16.826 I3.415 J0.000 F1999.800
G2 X-3.415 Y57.983 Z16.630 I-3.415 J0.000 F1999.800
G2 X3.415 Y57.983 Z16.435 I3.415 J0.000 F1999.800
G2 X-3.415 Y57.983 Z16.239 I-3.415 J0.000 F1999.800
G2 X3.415 Y57.983 Z16.043 I3.415 J0.000 F1999.800
G2 X-3.415 Y57.983 Z15.848 I-3.415 J0.000 F1999.800
G2 X3.415 Y57.983 Z15.652 I3.415 J0.000 F1999.800
G2 X-3.415 Y57.983 Z15.457 I-3.415 J0.000 F1999.800
G2 X3.415 Y57.983 Z15.261 I3.415 J0.000 F1999.800
G2 X-3.415 Y57.983 Z15.065 I-3.415 J0.000 F1999.800
G2 X3.415 Y57.983 Z14.870 I3.415 J0.000 F1999.800
G2 X-3.415 Y57.983 Z14.674 I-3.415 J0.000 F1999.800
G2 X3.415 Y57.983 Z14.478 I3.415 J0.000 F1999.800
G2 X-3.415 Y57.983 Z14.283 I-3.415 J0.000 F1999.800
G2 X3.415 Y57.983 Z14.087 I3.415 J0.000 F1999.800
G2 X-3.415 Y57.983 Z13.891 I-3.415 J0.000 F1999.800
G2 X3.415 Y57.983 Z13.696 I3.415 J0.000 F1999.800
G2 X-3.415 Y57.983 Z13.500 I-3.415 J0.000 F1999.800
G2 X3.415 Y57.983 Z13.304 I3.415 J0.000 F1999.800
G2 X-3.415 Y57.983 Z13.109 I-3.415 J0.000 F1999.800
G2 X3.415 Y57.983 Z12.913 I3.415 J0.000 F1999.800
G2 X-3.415 Y57.983 Z12.717 I-3.415 J0.000 F1999.800
G2 X3.415 Y57.983 Z12.522 I3.415 J0.000 F1999.800
G2 X-3.415 Y57.983 Z12.326 I-3.415 J0.000 F1999.800
G2 X3.415 Y57.983 Z12.130 I3.415 J0.000 F1999.800
G2 X-3.415 Y57.983 Z11.935 I-3.415 J0.000 F1999.800
G2 X3.415 Y57.983 Z11.739 I3.415 J0.000 F1999.800
G2 X-3.415 Y57.983 Z11.543 I-3.415 J0.000 F1999.800
G2 X3.415 Y57.983 Z11.348 I3.415 J0.000 F1999.800
G2 X-3.415 Y57.983 Z11.152 I-3.415 J0.000 F1999.800
G2 X3.415 Y57.983 Z10.957 I3.415 J0.000 F1999.800
G2 X-3.415 Y57.983 Z10.761 I-3.415 J0.000 F1999.800
G2 X3.415 Y57.983 Z10.565 I3.415 J0.000 F1999.800
G2 X-3.415 Y57.983 Z10.370 I-3.415 J0.000 F1999.800
G2 X3.415 Y57.983 Z10.174 I3.415 J0.000 F1999.800
G2 X-3.415 Y57.983 Z9.978 I-3.415 J0.000 F1999.800
G2 X3.415 Y57.983 Z9.783 I3.415 J0.000 F1999.800
G2 X-3.415 Y57.983 Z9.587 I-3.415 J0.000 F1999.800
G2 X3.415 Y57.983 Z9.391 I3.415 J0.000 F1999.800
G2 X-3.415 Y57.983 Z9.196 I-3.415 J0.000 F1999.800
G2 X3.415 Y57.983 Z9.000 I3.415 J0.000 F1999.800
G2 X-3.415 Y57.983 Z8.804 I-3.415 J0.000 F1999.800
G2 X3.415 Y57.983 Z8.609 I3.415 J0.000 F1999.800
G2 X-3.415 Y57.983 Z8.413 I-3.415 J0.000 F1999.800
G2 X3.415 Y57.983 Z8.217 I3.415 J0.000 F1999.800
G2 X-3.415 Y57.983 Z8.022 I-3.415 J0.000 F1999.800
G2 X3.415 Y57.983 Z7.826 I3.415 J0.000 F1999.800
G2 X-3.415 Y57.983 Z7.630 I-3.415 J0.000 F1999.800
G2 X3.415 Y57.983 Z7.435 I3.415 J0.000 F1999.800
G2 X-3.415 Y57.983 Z7.239 I-3.415 J0.000 F1999.800
G2 X3.415 Y57.983 Z7.043 I3.415 J0.000 F1999.800
G2 X-3.415 Y57.983 Z6.848 I-3.415 J0.000 F1999.800
G2 X3.415 Y57.983 Z6.652 I3.415 J0.000 F1999.800
G2 X-3.415 Y57.983 Z6.457 I-3.415 J0.000 F1999.800
G2 X3.415 Y57.983 Z6.261 I3.415 J0.000 F1999.800
G2 X-3.415 Y57.983 Z6.065 I-3.415 J0.000 F1999.800
G2 X3.415 Y57.983 Z5.870 I3.415 J0.000 F1999.800
G2 X-3.415 Y57.983 Z5.674 I-3.415 J0.000 F1999.800
G2 X3.415 Y57.983 Z5.478 I3.415 J0.000 F1999.800
G2 X-3.415 Y57.983 Z5.283 I-3.415 J0.000 F1999.800
G2 X3.415 Y57.983 Z5.087 I3.415 J0.000 F1999.800
G2 X-3.415 Y57.983 Z4.891 I-3.415 J0.000 F1999.800
G2 X3.415 Y57.983 Z4.696 I3.415 J0.000 F1999.800
G2 X-3.415 Y57.983 Z4.500 I-3.415 J0.000 F1999.800
G2 X3.415 Y57.983 Z4.304 I3.415 J0.000 F1999.800
G2 X-3.415 Y57.983 Z4.109 I-3.415 J0.000 F1999.800
G2 X3.415 Y57.983 Z3.913 I3.415 J0.000 F1999.800
G2 X-3.415 Y57.983 Z3.717 I-3.415 J0.000 F1999.800
G2 X3.415 Y57.983 Z3.522 I3.415 J0.000 F1999.800
G2 X-3.415 Y57.983 Z3.326 I-3.415 J0.000 F1999.800
G2 X3.415 Y57.983 Z3.130 I3.415 J0.000 F1999.800
G2 X-3.415 Y57.983 Z2.935 I-3.415 J0.000 F1999.800
G2 X3.415 Y57.983 Z2.739 I3.415 J0.000 F1999.800
G2 X-3.415 Y57.983 Z2.543 I-3.415 J0.000 F1999.800
G2 X3.415 Y57.983 Z2.348 I3.415 J0.000 F1999.800
G2 X-3.415 Y57.983 Z2.152 I-3.415 J0.000 F1999.800
G2 X3.415 Y57.983 Z1.957 I3.415 J0.000 F1999.800
G2 X-3.415 Y57.983 Z1.761 I-3.415 J0.000 F1999.800
G2 X3.415 Y57.983 Z1.565 I3.415 J0.000 F1999.800
G2 X-3.415 Y57.983 Z1.370 I-3.415 J0.000 F1999.800
G2 X3.415 Y57.983 Z1.174 I3.415 J0.000 F1999.800
G2 X-3.415 Y57.983 Z0.978 I-3.415 J0.000 F1999.800
G2 X3.415 Y57.983 Z0.783 I3.415 J0.000 F1999.800
G2 X-3.415 Y57.983 Z0.587 I-3.415 J0.000 F1999.800
G2 X3.415 Y57.983 Z0.391 I3.415 J0.000 F1999.800
G2 X-3.415 Y57.983 Z0.196 I-3.415 J0.000 F1999.800
G2 X3.415 Y57.983 Z0.000 I3.415 J0.000 F1999.800
G2 X-3.415 Y57.983 Z0.000 I-3.415 J0.000 F1999.800
G2 X3.415 Y57.983 Z0.000 I3.415 J0.000 F1999.800
G0 Z21.000
G0 X59.172 Y0.000
G0 Z21.000
G1 Z18.000 F399.600
G2 X56.794 Y0.000 Z17.804 I-1.189 J0.000 F1999.800
G2 X59.172 Y0.000 Z17.609 I1.189 J0.000 F1999.800
G2 X56.794 Y0.000 Z17.413 I-1.189 J0.000 F1999.800
G2 X59.172 Y0.000 Z17.217 I1.189 J0.000 F1999.800
G2 X56.794 Y0.000 Z17.022 I-1.189 J0.000 F1999.800
G2 X59.172 Y0.000 Z16.826 I1.189 J0.000 F1999.800
G2 X56.794 Y0.000 Z16.630 I-1.189 J0.000 F1999.800
G2 X59.172 Y0.000 Z16.435 I1.189 J0.000 F1999.800
G2 X56.794 Y0.000 Z16.239 I-1.189 J0.000 F1999.800
G2 X59.172 Y0.000 Z16.043 I1.189 J0.000 F1999.800
G2 X56.794 Y0.000 Z15.848 I-1.189 J0.000 F1999.800
G2 X59.172 Y0.000 Z15.652 I1.189 J0.000 F1999.800
G2 X56.794 Y0.000 Z15.457 I-1.189 J0.000 F1999.800
G2 X59.172 Y0.000 Z15.261 I1.189 J0.000 F1999.800
G2 X56.794 Y0.000 Z15.065 I-1.189 J0.000 F1999.800
G2 X59.172 Y0.000 Z14.870 I1.189 J0.000 F1999.800
G2 X56.794 Y0.000 Z14.674 I-1.189 J0.000 F1999.800
G2 X59.172 Y0.000 Z14.478 I1.189 J0.000 F1999.800
G2 X56.794 Y0.000 Z14.283 I-1.189 J0.000 F1999.800
G2 X59.172 Y0.000 Z14.087 I1.189 J0.000 F1999.800
G2 X56.794 Y0.000 Z13.891 I-1.189 J0.000 F1999.800
G2 X59.172 Y0.000 Z13.696 I1.189 J0.000 F1999.800
G2 X56.794 Y0.000 Z13.500 I-1.189 J0.000 F1999.800
G2 X59.172 Y0.000 Z13.304 I1.189 J0.000 F1999.800
G2 X56.794 Y0.000 Z13.109 I-1.189 J0.000 F1999.800
G2 X59.172 Y0.000 Z12.913 I1.189 J0.000 F1999.800
G2 X56.794 Y0.000 Z12.717 I-1.189 J0.000 F1999.800
G2 X59.172 Y0.000 Z12.522 I1.189 J0.000 F1999.800
G2 X56.794 Y0.000 Z12.326 I-1.189 J0.000 F1999.800
G2 X59.172 Y0.000 Z12.130 I1.189 J0.000 F1999.800
G2 X56.794 Y0.000 Z11.935 I-1.189 J0.000 F1999.800
G2 X59.172 Y0.000 Z11.739 I1.189 J0.000 F1999.800
G2 X56.794 Y0.000 Z11.543 I-1.189 J0.000 F1999.800
G2 X59.172 Y0.000 Z11.348 I1.189 J0.000 F1999.800
G2 X56.794 Y0.000 Z11.152 I-1.189 J0.000 F1999.800
G2 X59.172 Y0.000 Z10.957 I1.189 J0.000 F1999.800
G2 X56.794 Y0.000 Z10.761 I-1.189 J0.000 F1999.800
G2 X59.172 Y0.000 Z10.565 I1.189 J0.000 F1999.800
G2 X56.794 Y0.000 Z10.370 I-1.189 J0.000 F1999.800
G2 X59.172 Y0.000 Z10.174 I1.189 J0.000 F1999.800
G2 X56.794 Y0.000 Z9.978 I-1.189 J0.000 F1999.800
G2 X59.172 Y0.000 Z9.783 I1.189 J0.000 F1999.800
G2 X56.794 Y0.000 Z9.587 I-1.189 J0.000 F1999.800
G2 X59.172 Y0.000 Z9.391 I1.189 J0.000 F1999.800
G2 X56.794 Y0.000 Z9.196 I-1.189 J0.000 F1999.800
G2 X59.172 Y0.000 Z9.000 I1.189 J0.000 F1999.800
G2 X56.794 Y0.000 Z8.804 I-1.189 J0.000 F1999.800
G2 X59.172 Y0.000 Z8.609 I1.189 J0.000 F1999.800
G2 X56.794 Y0.000 Z8.413 I-1.189 J0.000 F1999.800
G2 X59.172 Y0.000 Z8.217 I1.189 J0.000 F1999.800
G2 X56.794 Y0.000 Z8.022 I-1.189 J0.000 F1999.800
G2 X59.172 Y0.000 Z7.826 I1.189 J0.000 F1999.800
G2 X56.794 Y0.000 Z7.630 I-1.189 J0.000 F1999.800
G2 X59.172 Y0.000 Z7.435 I1.189 J0.000 F1999.800
G2 X56.794 Y0.000 Z7.239 I-1.189 J0.000 F1999.800
G2 X59.172 Y0.000 Z7.043 I1.189 J0.000 F1999.800
G2 X56.794 Y0.000 Z6.848 I-1.189 J0.000 F1999.800
G2 X59.172 Y0.000 Z6.652 I1.189 J0.000 F1999.800
G2 X56.794 Y0.000 Z6.457 I-1.189 J0.000 F1999.800
G2 X59.172 Y0.000 Z6.261 I1.189 J0.000 F1999.800
G2 X56.794 Y0.000 Z6.065 I-1.189 J0.000 F1999.800
G2 X59.172 Y0.000 Z5.870 I1.189 J0.000 F1999.800
G2 X56.794 Y0.000 Z5.674 I-1.189 J0.000 F1999.800
G2 X59.172 Y0.000 Z5.478 I1.189 J0.000 F1999.800
G2 X56.794 Y0.000 Z5.283 I-1.189 J0.000 F1999.800
G2 X59.172 Y0.000 Z5.087 I1.189 J0.000 F1999.800
G2 X56.794 Y0.000 Z4.891 I-1.189 J0.000 F1999.800
G2 X59.172 Y0.000 Z4.696 I1.189 J0.000 F1999.800
G2 X56.794 Y0.000 Z4.500 I-1.189 J0.000 F1999.800
G2 X59.172 Y0.000 Z4.304 I1.189 J0.000 F1999.800
G2 X56.794 Y0.000 Z4.109 I-1.189 J0.000 F1999.800
G2 X59.172 Y0.000 Z3.913 I1.189 J0.000 F1999.800
G2 X56.794 Y0.000 Z3.717 I-1.189 J0.000 F1999.800
G2 X59.172 Y0.000 Z3.522 I1.189 J0.000 F1999.800
G2 X56.794 Y0.000 Z3.326 I-1.189 J0.000 F1999.800
G2 X59.172 Y0.000 Z3.130 I1.189 J0.000 F1999.800
G2 X56.794 Y0.000 Z2.935 I-1.189 J0.000 F1999.800
G2 X59.172 Y0.000 Z2.739 I1.189 J0.000 F1999.800
G2 X56.794 Y0.000 Z2.543 I-1.189 J0.000 F1999.800
G2 X59.172 Y0.000 Z2.348 I1.189 J0.000 F1999.800
G2 X56.794 Y0.000 Z2.152 I-1.189 J0.000 F1999.800
G2 X59.172 Y0.000 Z1.957 I1.189 J0.000 F1999.800
G2 X56.794 Y0.000 Z1.761 I-1.189 J0.000 F1999.800
G2 X59.172 Y0.000 Z1.565 I1.189 J0.000 F1999.800
G2 X56.794 Y0.000 Z1.370 I-1.189 J0.000 F1999.800
G2 X59.172 Y0.000 Z1.174 I1.189 J0.000 F1999.800
G2 X56.794 Y0.000 Z0.978 I-1.189 J0.000 F1999.800
G2 X59.172 Y0.000 Z0.783 I1.189 J0.000 F1999.800
G2 X56.794 Y0.000 Z0.587 I-1.189 J0.000 F1999.800
G2 X59.172 Y0.000 Z0.391 I1.189 J0.000 F1999.800
G2 X56.794 Y0.000 Z0.196 I-1.189 J0.000 F1999.800
G2 X59.172 Y0.000 Z0.000 I1.189 J0.000 F1999.800
G2 X56.794 Y0.000 Z0.000 I-1.189 J0.000 F1999.800
G2 X59.172 Y0.000 Z0.000 I1.189 J0.000 F1999.800
G0 Z21.000
G0 X61.398 Y0.000
G0 Z21.000
G1 Z18.000 F399.600
G2 X54.568 Y0.000 Z17.804 I-3.415 J0.000 F1999.800
G2 X61.398 Y0.000 Z17.609 I3.415 J0.000 F1999.800
G2 X54.568 Y0.000 Z17.413 I-3.415 J0.000 F1999.800
G2 X61.398 Y0.000 Z17.217 I3.415 J0.000 F1999.800
G2 X54.568 Y0.000 Z17.022 I-3.415 J0.000 F1999.800
G2 X61.398 Y0.000 Z16.826 I3.415 J0.000 F1999.800
G2 X54.568 Y0.000 Z16.630 I-3.415 J0.000 F1999.800
G2 X61.398 Y0.000 Z16.435 I3.415 J0.000 F1999.800
G2 X54.568 Y0.000 Z16.239 I-3.415 J0.000 F1999.800
G2 X61.398 Y0.000 Z16.043 I3.415 J0.000 F1999.800
G2 X54.568 Y0.000 Z15.848 I-3.415 J0.000 F1999.800
G2 X61.398 Y0.000 Z15.652 I3.415 J0.000 F1999.800
G2 X54.568 Y0.000 Z15.457 I-3.415 J0.000 F1999.800
G2 X61.398 Y0.000 Z15.261 I3.415 J0.000 F1999.800
G2 X54.568 Y0.000 Z15.065 I-3.415 J0.000 F1999.800
G2 X61.398 Y0.000 Z14.870 I3.415 J0.000 F1999.800
G2 X54.568 Y0.000 Z14.674 I-3.415 J0.000 F1999.800
G2 X61.398 Y0.000 Z14.478 I3.415 J0.000 F1999.800
G2 X54.568 Y0.000 Z14.283 I-3.415 J0.000 F1999.800
G2 X61.398 Y0.000 Z14.087 I3.415 J0.000 F1999.800
G2 X54.568 Y0.000 Z13.891 I-3.415 J0.000 F1999.800
G2 X61.398 Y0.000 Z13.696 I3.415 J0.000 F1999.800
G2 X54.568 Y0.000 Z13.500 I-3.415 J0.000 F1999.800
G2 X61.398 Y0.000 Z13.304 I3.415 J0.000 F1999.800
G2 X54.568 Y0.000 Z13.109 I-3.415 J0.000 F1999.800
G2 X61.398 Y0.000 Z12.913 I3.415 J0.000 F1999.800
G2 X54.568 Y0.000 Z12.717 I-3.415 J0.000 F1999.800
G2 X61.398 Y0.000 Z12.522 I3.415 J0.000 F1999.800
G2 X54.568 Y0.000 Z12.326 I-3.415 J0.000 F1999.800
G2 X61.398 Y0.000 Z12.130 I3.415 J0.000 F1999.800
G2 X54.568 Y0.000 Z11.935 I-3.415 J0.000 F1999.800
G2 X61.398 Y0.000 Z11.739 I3.415 J0.000 F1999.800
G2 X54.568 Y0.000 Z11.543 I-3.415 J0.000 F1999.800
G2 X61.398 Y0.000 Z11.348 I3.415 J0.000 F1999.800
G2 X54.568 Y0.000 Z11.152 I-3.415 J0.000 F1999.800
G2 X61.398 Y0.000 Z10.957 I3.415 J0.000 F1999.800
G2 X54.568 Y0.000 Z10.761 I-3.415 J0.000 F1999.800
G2 X61.398 Y0.000 Z10.565 I3.415 J0.000 F1999.800
G2 X54.568 Y0.000 Z10.370 I-3.415 J0.000 F1999.800
G2 X61.398 Y0.000 Z10.174 I3.415 J0.000 F1999.800
G2 X54.568 Y0.000 Z9.978 I-3.415 J0.000 F1999.800
G2 X61.398 Y0.000 Z9.783 I3.415 J0.000 F1999.800
G2 X54.568 Y0.000 Z9.587 I-3.415 J0.000 F1999.800
G2 X61.398 Y0.000 Z9.391 I3.415 J0.000 F1999.800
G2 X54.568 Y0.000 Z9.196 I-3.415 J0.000 F1999.800
G2 X61.398 Y0.000 Z9.000 I3.415 J0.000 F1999.800
G2 X54.568 Y0.000 Z8.804 I-3.415 J0.000 F1999.800
G2 X61.398 Y0.000 Z8.609 I3.415 J0.000 F1999.800
G2 X54.568 Y0.000 Z8.413 I-3.415 J0.000 F1999.800
G2 X61.398 Y0.000 Z8.217 I3.415 J0.000 F1999.800
G2 X54.568 Y0.000 Z8.022 I-3.415 J0.000 F1999.800
G2 X61.398 Y0.000 Z7.826 I3.415 J0.000 F1999.800
G2 X54.568 Y0.000 Z7.630 I-3.415 J0.000 F1999.800
G2 X61.398 Y0.000 Z7.435 I3.415 J0.000 F1999.800
G2 X54.568 Y0.000 Z7.239 I-3.415 J0.000 F1999.800
G2 X61.398 Y0.000 Z7.043 I3.415 J0.000 F1999.800
G2 X54.568 Y0.000 Z6.848 I-3.415 J0.000 F1999.800
G2 X61.398 Y0.000 Z6.652 I3.415 J0.000 F1999.800
G2 X54.568 Y0.000 Z6.457 I-3.415 J0.000 F1999.800
G2 X61.398 Y0.000 Z6.261 I3.415 J0.000 F1999.800
G2 X54.568 Y0.000 Z6.065 I-3.415 J0.000 F1999.800
G2 X61.398 Y0.000 Z5.870 I3.415 J0.000 F1999.800
G2 X54.568 Y0.000 Z5.674 I-3.415 J0.000 F1999.800
G2 X61.398 Y0.000 Z5.478 I3.415 J0.000 F1999.800
G2 X54.568 Y0.000 Z5.283 I-3.415 J0.000 F1999.800
G2 X61.398 Y0.000 Z5.087 I3.415 J0.000 F1999.800
G2 X54.568 Y0.000 Z4.891 I-3.415 J0.000 F1999.800
G2 X61.398 Y0.000 Z4.696 I3.415 J0.000 F1999.800
G2 X54.568 Y0.000 Z4.500 I-3.415 J0.000 F1999.800
G2 X61.398 Y0.000 Z4.304 I3.415 J0.000 F1999.800
G2 X54.568 Y0.000 Z4.109 I-3.415 J0.000 F1999.800
G2 X61.398 Y0.000 Z3.913 I3.415 J0.000 F1999.800
G2 X54.568 Y0.000 Z3.717 I-3.415 J0.000 F1999.800
G2 X61.398 Y0.000 Z3.522 I3.415 J0.000 F1999.800
G2 X54.568 Y0.000 Z3.326 I-3.415 J0.000 F1999.800
G2 X61.398 Y0.000 Z3.130 I3.415 J0.000 F1999.800
G2 X54.568 Y0.000 Z2.935 I-3.415 J0.000 F1999.800
G2 X61.398 Y0.000 Z2.739 I3.415 J0.000 F1999.800
G2 X54.568 Y0.000 Z2.543 I-3.415 J0.000 F1999.800
G2 X61.398 Y0.000 Z2.348 I3.415 J0.000 F1999.800
G2 X54.568 Y0.000 Z2.152 I-3.415 J0.000 F1999.800
G2 X61.398 Y0.000 Z1.957 I3.415 J0.000 F1999.800
G2 X54.568 Y0.000 Z1.761 I-3.415 J0.000 F1999.800
G2 X61.398 Y0.000 Z1.565 I3.415 J0.000 F1999.800
G2 X54.568 Y0.000 Z1.370 I-3.415 J0.000 F1999.800
G2 X61.398 Y0.000 Z1.174 I3.415 J0.000 F1999.800
G2 X54.568 Y0.000 Z0.978 I-3.415 J0.000 F1999.800
G2 X61.398 Y0.000 Z0.783 I3.415 J0.000 F1999.800
G2 X54.568 Y0.000 Z0.587 I-3.415 J0.000 F1999.800
G2 X61.398 Y0.000 Z0.391 I3.415 J0.000 F1999.800
G2 X54.568 Y0.000 Z0.196 I-3.415 J0.000 F1999.800
G2 X61.398 Y0.000 Z0.000 I3.415 J0.000 F1999.800
G2 X54.568 Y0.000 Z0.000 I-3.415 J0.000 F1999.800
G2 X61.398 Y0.000 Z0.000 I3.415 J0.000 F1999.800
G0 Z21.000
G0 Z23.000
(Finish operation: Foot_Mount_Passthrough_Holes)
(Begin postamble)
M5
G17 G90
M2
