(Exported by FreeCAD)
(Post Processor: grbl_post)
(Output Time:2020-05-22 19:12:52.512390)
(Begin preamble)
G17 G90
G21
(Begin operation: Fixture)
(Path: Fixture)
G54
(Finish operation: Fixture)
(Begin operation: T6: 2FluteWoodMill002)
(Path: T6: 2FluteWoodMill002)
(T6: 2FluteWoodMill002)
(Begin toolchange)
(M6 T6.0)
M3 S12000.0
(Finish operation: T6: 2FluteWoodMill002)
(Begin operation: Foot_Pocket)
(Path: Foot_Pocket)
(Foot_Pocket)
G0 Z23.000
G0 X45.415 Y45.415
G0 Z21.000
G1 X45.415 Y45.415 Z17.500 F999.600
G1 X-45.415 Y45.415 Z17.500 F1999.800
G1 X-45.415 Y-45.415 Z17.500 F1999.800
G1 X45.415 Y-45.415 Z17.500 F1999.800
G1 X45.415 Y45.415 Z17.500 F1999.800
G0 X45.415 Y45.415 Z23.000
G0 X43.038 Y43.038 Z23.000
G1 X43.038 Y43.038 Z17.500 F999.600
G1 X-43.038 Y43.038 Z17.500 F1999.800
G1 X-43.038 Y-43.038 Z17.500 F1999.800
G1 X43.038 Y-43.038 Z17.500 F1999.800
G1 X43.038 Y43.038 Z17.500 F1999.800
G0 X43.038 Y43.038 Z23.000
G0 X40.660 Y40.660 Z23.000
G1 X40.660 Y40.660 Z17.500 F999.600
G1 X-40.660 Y40.660 Z17.500 F1999.800
G1 X-40.660 Y-40.660 Z17.500 F1999.800
G1 X40.660 Y-40.660 Z17.500 F1999.800
G1 X40.660 Y40.660 Z17.500 F1999.800
G0 X40.660 Y40.660 Z23.000
G0 X38.282 Y38.282 Z23.000
G1 X38.282 Y38.282 Z17.500 F999.600
G1 X-38.282 Y38.282 Z17.500 F1999.800
G1 X-38.282 Y-38.282 Z17.500 F1999.800
G1 X38.282 Y-38.282 Z17.500 F1999.800
G1 X38.282 Y38.282 Z17.500 F1999.800
G0 X38.282 Y38.282 Z23.000
G0 X35.905 Y35.905 Z23.000
G1 X35.905 Y35.905 Z17.500 F999.600
G1 X-35.905 Y35.905 Z17.500 F1999.800
G1 X-35.905 Y-35.905 Z17.500 F1999.800
G1 X35.905 Y-35.905 Z17.500 F1999.800
G1 X35.905 Y35.905 Z17.500 F1999.800
G0 X35.905 Y35.905 Z23.000
G0 X33.528 Y33.528 Z23.000
G1 X33.528 Y33.528 Z17.500 F999.600
G1 X-33.528 Y33.528 Z17.500 F1999.800
G1 X-33.528 Y-33.528 Z17.500 F1999.800
G1 X33.528 Y-33.528 Z17.500 F1999.800
G1 X33.528 Y33.528 Z17.500 F1999.800
G0 X33.528 Y33.528 Z23.000
G0 X31.150 Y31.150 Z23.000
G1 X31.150 Y31.150 Z17.500 F999.600
G1 X-31.150 Y31.150 Z17.500 F1999.800
G1 X-31.150 Y-31.150 Z17.500 F1999.800
G1 X31.150 Y-31.150 Z17.500 F1999.800
G1 X31.150 Y31.150 Z17.500 F1999.800
G0 X31.150 Y31.150 Z23.000
G0 X28.773 Y28.773 Z23.000
G1 X28.773 Y28.773 Z17.500 F999.600
G1 X-28.773 Y28.773 Z17.500 F1999.800
G1 X-28.773 Y-28.773 Z17.500 F1999.800
G1 X28.773 Y-28.773 Z17.500 F1999.800
G1 X28.773 Y28.773 Z17.500 F1999.800
G0 X28.773 Y28.773 Z23.000
G0 X26.395 Y26.395 Z23.000
G1 X26.395 Y26.395 Z17.500 F999.600
G1 X-26.395 Y26.395 Z17.500 F1999.800
G1 X-26.395 Y-26.395 Z17.500 F1999.800
G1 X26.395 Y-26.395 Z17.500 F1999.800
G1 X26.395 Y26.395 Z17.500 F1999.800
G0 X26.395 Y26.395 Z23.000
G0 X24.017 Y24.017 Z23.000
G1 X24.017 Y24.017 Z17.500 F999.600
G1 X-24.017 Y24.017 Z17.500 F1999.800
G1 X-24.017 Y-24.017 Z17.500 F1999.800
G1 X24.017 Y-24.017 Z17.500 F1999.800
G1 X24.017 Y24.017 Z17.500 F1999.800
G0 X24.017 Y24.017 Z23.000
G0 X21.640 Y21.640 Z23.000
G1 X21.640 Y21.640 Z17.500 F999.600
G1 X-21.640 Y21.640 Z17.500 F1999.800
G1 X-21.640 Y-21.640 Z17.500 F1999.800
G1 X21.640 Y-21.640 Z17.500 F1999.800
G1 X21.640 Y21.640 Z17.500 F1999.800
G0 X21.640 Y21.640 Z23.000
G0 X19.262 Y19.262 Z23.000
G1 X19.262 Y19.262 Z17.500 F999.600
G1 X-19.262 Y19.262 Z17.500 F1999.800
G1 X-19.262 Y-19.262 Z17.500 F1999.800
G1 X19.262 Y-19.262 Z17.500 F1999.800
G1 X19.262 Y19.262 Z17.500 F1999.800
G0 X19.262 Y19.262 Z23.000
G0 X16.885 Y16.885 Z23.000
G1 X16.885 Y16.885 Z17.500 F999.600
G1 X-16.885 Y16.885 Z17.500 F1999.800
G1 X-16.885 Y-16.885 Z17.500 F1999.800
G1 X16.885 Y-16.885 Z17.500 F1999.800
G1 X16.885 Y16.885 Z17.500 F1999.800
G0 X16.885 Y16.885 Z23.000
G0 X14.508 Y14.508 Z23.000
G1 X14.508 Y14.508 Z17.500 F999.600
G1 X-14.508 Y14.508 Z17.500 F1999.800
G1 X-14.508 Y-14.508 Z17.500 F1999.800
G1 X14.508 Y-14.508 Z17.500 F1999.800
G1 X14.508 Y14.508 Z17.500 F1999.800
G0 X14.508 Y14.508 Z23.000
G0 X12.130 Y12.130 Z23.000
G1 X12.130 Y12.130 Z17.500 F999.600
G1 X-12.130 Y12.130 Z17.500 F1999.800
G1 X-12.130 Y-12.130 Z17.500 F1999.800
G1 X12.130 Y-12.130 Z17.500 F1999.800
G1 X12.130 Y12.130 Z17.500 F1999.800
G0 X12.130 Y12.130 Z23.000
G0 X9.752 Y9.752 Z23.000
G1 X9.752 Y9.752 Z17.500 F999.600
G1 X-9.752 Y9.752 Z17.500 F1999.800
G1 X-9.752 Y-9.752 Z17.500 F1999.800
G1 X9.752 Y-9.752 Z17.500 F1999.800
G1 X9.752 Y9.752 Z17.500 F1999.800
G0 X9.752 Y9.752 Z23.000
G0 X7.375 Y7.375 Z23.000
G1 X7.375 Y7.375 Z17.500 F999.600
G1 X-7.375 Y7.375 Z17.500 F1999.800
G1 X-7.375 Y-7.375 Z17.500 F1999.800
G1 X7.375 Y-7.375 Z17.500 F1999.800
G1 X7.375 Y7.375 Z17.500 F1999.800
G0 X7.375 Y7.375 Z23.000
G0 X4.997 Y4.998 Z23.000
G1 X4.997 Y4.998 Z17.500 F999.600
G1 X-4.998 Y4.998 Z17.500 F1999.800
G1 X-4.998 Y-4.997 Z17.500 F1999.800
G1 X4.997 Y-4.997 Z17.500 F1999.800
G1 X4.997 Y4.998 Z17.500 F1999.800
G0 X4.997 Y4.998 Z23.000
G0 X2.620 Y2.620 Z23.000
G1 X2.620 Y2.620 Z17.500 F999.600
G1 X-2.620 Y2.620 Z17.500 F1999.800
G1 X-2.620 Y-2.620 Z17.500 F1999.800
G1 X2.620 Y-2.620 Z17.500 F1999.800
G1 X2.620 Y2.620 Z17.500 F1999.800
G0 X2.620 Y2.620 Z23.000
G0 X0.243 Y0.243 Z23.000
G1 X0.243 Y0.243 Z17.500 F999.600
G1 X-0.243 Y0.243 Z17.500 F1999.800
G1 X-0.243 Y-0.243 Z17.500 F1999.800
G1 X0.243 Y-0.243 Z17.500 F1999.800
G1 X0.243 Y0.243 Z17.500 F1999.800
G1 X0.243 Y0.243 Z17.000 F999.600
G1 X-0.243 Y0.243 Z17.000 F1999.800
G1 X-0.243 Y-0.243 Z17.000 F1999.800
G1 X0.243 Y-0.243 Z17.000 F1999.800
G1 X0.243 Y0.243 Z17.000 F1999.800
G0 X0.243 Y0.243 Z23.000
G0 X2.620 Y0.243 Z23.000
G1 X2.620 Y0.243 Z17.000 F999.600
G1 X2.620 Y2.620 Z17.000 F1999.800
G1 X-2.620 Y2.620 Z17.000 F1999.800
G1 X-2.620 Y-2.620 Z17.000 F1999.800
G1 X2.620 Y-2.620 Z17.000 F1999.800
G1 X2.620 Y0.243 Z17.000 F1999.800
G0 X2.620 Y0.243 Z23.000
G0 X4.997 Y0.243 Z23.000
G1 X4.997 Y0.243 Z17.000 F999.600
G1 X4.997 Y4.998 Z17.000 F1999.800
G1 X-4.998 Y4.998 Z17.000 F1999.800
G1 X-4.998 Y-4.997 Z17.000 F1999.800
G1 X4.997 Y-4.997 Z17.000 F1999.800
G1 X4.997 Y0.243 Z17.000 F1999.800
G0 X4.997 Y0.243 Z23.000
G0 X7.375 Y0.243 Z23.000
G1 X7.375 Y0.243 Z17.000 F999.600
G1 X7.375 Y7.375 Z17.000 F1999.800
G1 X-7.375 Y7.375 Z17.000 F1999.800
G1 X-7.375 Y-7.375 Z17.000 F1999.800
G1 X7.375 Y-7.375 Z17.000 F1999.800
G1 X7.375 Y0.243 Z17.000 F1999.800
G0 X7.375 Y0.243 Z23.000
G0 X9.752 Y0.243 Z23.000
G1 X9.752 Y0.243 Z17.000 F999.600
G1 X9.752 Y9.752 Z17.000 F1999.800
G1 X-9.752 Y9.752 Z17.000 F1999.800
G1 X-9.752 Y-9.752 Z17.000 F1999.800
G1 X9.752 Y-9.752 Z17.000 F1999.800
G1 X9.752 Y0.243 Z17.000 F1999.800
G0 X9.752 Y0.243 Z23.000
G0 X12.130 Y0.243 Z23.000
G1 X12.130 Y0.243 Z17.000 F999.600
G1 X12.130 Y12.130 Z17.000 F1999.800
G1 X-12.130 Y12.130 Z17.000 F1999.800
G1 X-12.130 Y-12.130 Z17.000 F1999.800
G1 X12.130 Y-12.130 Z17.000 F1999.800
G1 X12.130 Y0.243 Z17.000 F1999.800
G0 X12.130 Y0.243 Z23.000
G0 X14.508 Y0.243 Z23.000
G1 X14.508 Y0.243 Z17.000 F999.600
G1 X14.508 Y14.508 Z17.000 F1999.800
G1 X-14.508 Y14.508 Z17.000 F1999.800
G1 X-14.508 Y-14.508 Z17.000 F1999.800
G1 X14.508 Y-14.508 Z17.000 F1999.800
G1 X14.508 Y0.243 Z17.000 F1999.800
G0 X14.508 Y0.243 Z23.000
G0 X16.885 Y0.243 Z23.000
G1 X16.885 Y0.243 Z17.000 F999.600
G1 X16.885 Y16.885 Z17.000 F1999.800
G1 X-16.885 Y16.885 Z17.000 F1999.800
G1 X-16.885 Y-16.885 Z17.000 F1999.800
G1 X16.885 Y-16.885 Z17.000 F1999.800
G1 X16.885 Y0.243 Z17.000 F1999.800
G0 X16.885 Y0.243 Z23.000
G0 X19.262 Y0.243 Z23.000
G1 X19.262 Y0.243 Z17.000 F999.600
G1 X19.262 Y19.262 Z17.000 F1999.800
G1 X-19.262 Y19.262 Z17.000 F1999.800
G1 X-19.262 Y-19.262 Z17.000 F1999.800
G1 X19.262 Y-19.262 Z17.000 F1999.800
G1 X19.262 Y0.243 Z17.000 F1999.800
G0 X19.262 Y0.243 Z23.000
G0 X21.640 Y0.243 Z23.000
G1 X21.640 Y0.243 Z17.000 F999.600
G1 X21.640 Y21.640 Z17.000 F1999.800
G1 X-21.640 Y21.640 Z17.000 F1999.800
G1 X-21.640 Y-21.640 Z17.000 F1999.800
G1 X21.640 Y-21.640 Z17.000 F1999.800
G1 X21.640 Y0.243 Z17.000 F1999.800
G0 X21.640 Y0.243 Z23.000
G0 X24.017 Y0.243 Z23.000
G1 X24.017 Y0.243 Z17.000 F999.600
G1 X24.017 Y24.017 Z17.000 F1999.800
G1 X-24.017 Y24.017 Z17.000 F1999.800
G1 X-24.017 Y-24.017 Z17.000 F1999.800
G1 X24.017 Y-24.017 Z17.000 F1999.800
G1 X24.017 Y0.243 Z17.000 F1999.800
G0 X24.017 Y0.243 Z23.000
G0 X26.395 Y0.243 Z23.000
G1 X26.395 Y0.243 Z17.000 F999.600
G1 X26.395 Y26.395 Z17.000 F1999.800
G1 X-26.395 Y26.395 Z17.000 F1999.800
G1 X-26.395 Y-26.395 Z17.000 F1999.800
G1 X26.395 Y-26.395 Z17.000 F1999.800
G1 X26.395 Y0.243 Z17.000 F1999.800
G0 X26.395 Y0.243 Z23.000
G0 X28.773 Y0.243 Z23.000
G1 X28.773 Y0.243 Z17.000 F999.600
G1 X28.773 Y28.773 Z17.000 F1999.800
G1 X-28.773 Y28.773 Z17.000 F1999.800
G1 X-28.773 Y-28.773 Z17.000 F1999.800
G1 X28.773 Y-28.773 Z17.000 F1999.800
G1 X28.773 Y0.243 Z17.000 F1999.800
G0 X28.773 Y0.243 Z23.000
G0 X31.150 Y0.243 Z23.000
G1 X31.150 Y0.243 Z17.000 F999.600
G1 X31.150 Y31.150 Z17.000 F1999.800
G1 X-31.150 Y31.150 Z17.000 F1999.800
G1 X-31.150 Y-31.150 Z17.000 F1999.800
G1 X31.150 Y-31.150 Z17.000 F1999.800
G1 X31.150 Y0.243 Z17.000 F1999.800
G0 X31.150 Y0.243 Z23.000
G0 X33.528 Y0.243 Z23.000
G1 X33.528 Y0.243 Z17.000 F999.600
G1 X33.528 Y33.528 Z17.000 F1999.800
G1 X-33.528 Y33.528 Z17.000 F1999.800
G1 X-33.528 Y-33.528 Z17.000 F1999.800
G1 X33.528 Y-33.528 Z17.000 F1999.800
G1 X33.528 Y0.243 Z17.000 F1999.800
G0 X33.528 Y0.243 Z23.000
G0 X35.905 Y0.243 Z23.000
G1 X35.905 Y0.243 Z17.000 F999.600
G1 X35.905 Y35.905 Z17.000 F1999.800
G1 X-35.905 Y35.905 Z17.000 F1999.800
G1 X-35.905 Y-35.905 Z17.000 F1999.800
G1 X35.905 Y-35.905 Z17.000 F1999.800
G1 X35.905 Y0.243 Z17.000 F1999.800
G0 X35.905 Y0.243 Z23.000
G0 X38.282 Y0.243 Z23.000
G1 X38.282 Y0.243 Z17.000 F999.600
G1 X38.282 Y38.282 Z17.000 F1999.800
G1 X-38.282 Y38.282 Z17.000 F1999.800
G1 X-38.282 Y-38.282 Z17.000 F1999.800
G1 X38.282 Y-38.282 Z17.000 F1999.800
G1 X38.282 Y0.243 Z17.000 F1999.800
G0 X38.282 Y0.243 Z23.000
G0 X40.660 Y0.243 Z23.000
G1 X40.660 Y0.243 Z17.000 F999.600
G1 X40.660 Y40.660 Z17.000 F1999.800
G1 X-40.660 Y40.660 Z17.000 F1999.800
G1 X-40.660 Y-40.660 Z17.000 F1999.800
G1 X40.660 Y-40.660 Z17.000 F1999.800
G1 X40.660 Y0.243 Z17.000 F1999.800
G0 X40.660 Y0.243 Z23.000
G0 X43.038 Y0.243 Z23.000
G1 X43.038 Y0.243 Z17.000 F999.600
G1 X43.038 Y43.038 Z17.000 F1999.800
G1 X-43.038 Y43.038 Z17.000 F1999.800
G1 X-43.038 Y-43.038 Z17.000 F1999.800
G1 X43.038 Y-43.038 Z17.000 F1999.800
G1 X43.038 Y0.243 Z17.000 F1999.800
G0 X43.038 Y0.243 Z23.000
G0 X45.415 Y0.243 Z23.000
G1 X45.415 Y0.243 Z17.000 F999.600
G1 X45.415 Y45.415 Z17.000 F1999.800
G1 X-45.415 Y45.415 Z17.000 F1999.800
G1 X-45.415 Y-45.415 Z17.000 F1999.800
G1 X45.415 Y-45.415 Z17.000 F1999.800
G1 X45.415 Y0.243 Z17.000 F1999.800
G0 Z23.000
(Finish operation: Foot_Pocket)
(Begin operation: Foot_Mount_Passthrough_Holes)
(Path: Foot_Mount_Passthrough_Holes)
(Foot_Mount_Passthrough_Holes)
(helix cut operation)
G0 Z23.000
G0 X1.189 Y-57.983
G0 Z21.000
G1 Z18.000 F999.600
G2 X-1.189 Y-57.983 Z17.743 I-1.189 J0.000 F1999.800
G2 X1.189 Y-57.983 Z17.486 I1.189 J0.000 F1999.800
G2 X-1.189 Y-57.983 Z17.229 I-1.189 J0.000 F1999.800
G2 X1.189 Y-57.983 Z16.971 I1.189 J0.000 F1999.800
G2 X-1.189 Y-57.983 Z16.714 I-1.189 J0.000 F1999.800
G2 X1.189 Y-57.983 Z16.457 I1.189 J0.000 F1999.800
G2 X-1.189 Y-57.983 Z16.200 I-1.189 J0.000 F1999.800
G2 X1.189 Y-57.983 Z15.943 I1.189 J0.000 F1999.800
G2 X-1.189 Y-57.983 Z15.686 I-1.189 J0.000 F1999.800
G2 X1.189 Y-57.983 Z15.429 I1.189 J0.000 F1999.800
G2 X-1.189 Y-57.983 Z15.171 I-1.189 J0.000 F1999.800
G2 X1.189 Y-57.983 Z14.914 I1.189 J0.000 F1999.800
G2 X-1.189 Y-57.983 Z14.657 I-1.189 J0.000 F1999.800
G2 X1.189 Y-57.983 Z14.400 I1.189 J0.000 F1999.800
G2 X-1.189 Y-57.983 Z14.143 I-1.189 J0.000 F1999.800
G2 X1.189 Y-57.983 Z13.886 I1.189 J0.000 F1999.800
G2 X-1.189 Y-57.983 Z13.629 I-1.189 J0.000 F1999.800
G2 X1.189 Y-57.983 Z13.371 I1.189 J0.000 F1999.800
G2 X-1.189 Y-57.983 Z13.114 I-1.189 J0.000 F1999.800
G2 X1.189 Y-57.983 Z12.857 I1.189 J0.000 F1999.800
G2 X-1.189 Y-57.983 Z12.600 I-1.189 J0.000 F1999.800
G2 X1.189 Y-57.983 Z12.343 I1.189 J0.000 F1999.800
G2 X-1.189 Y-57.983 Z12.086 I-1.189 J0.000 F1999.800
G2 X1.189 Y-57.983 Z11.829 I1.189 J0.000 F1999.800
G2 X-1.189 Y-57.983 Z11.571 I-1.189 J0.000 F1999.800
G2 X1.189 Y-57.983 Z11.314 I1.189 J0.000 F1999.800
G2 X-1.189 Y-57.983 Z11.057 I-1.189 J0.000 F1999.800
G2 X1.189 Y-57.983 Z10.800 I1.189 J0.000 F1999.800
G2 X-1.189 Y-57.983 Z10.543 I-1.189 J0.000 F1999.800
G2 X1.189 Y-57.983 Z10.286 I1.189 J0.000 F1999.800
G2 X-1.189 Y-57.983 Z10.029 I-1.189 J0.000 F1999.800
G2 X1.189 Y-57.983 Z9.771 I1.189 J0.000 F1999.800
G2 X-1.189 Y-57.983 Z9.514 I-1.189 J0.000 F1999.800
G2 X1.189 Y-57.983 Z9.257 I1.189 J0.000 F1999.800
G2 X-1.189 Y-57.983 Z9.000 I-1.189 J0.000 F1999.800
G2 X1.189 Y-57.983 Z8.743 I1.189 J0.000 F1999.800
G2 X-1.189 Y-57.983 Z8.486 I-1.189 J0.000 F1999.800
G2 X1.189 Y-57.983 Z8.229 I1.189 J0.000 F1999.800
G2 X-1.189 Y-57.983 Z7.971 I-1.189 J0.000 F1999.800
G2 X1.189 Y-57.983 Z7.714 I1.189 J0.000 F1999.800
G2 X-1.189 Y-57.983 Z7.457 I-1.189 J0.000 F1999.800
G2 X1.189 Y-57.983 Z7.200 I1.189 J0.000 F1999.800
G2 X-1.189 Y-57.983 Z6.943 I-1.189 J0.000 F1999.800
G2 X1.189 Y-57.983 Z6.686 I1.189 J0.000 F1999.800
G2 X-1.189 Y-57.983 Z6.429 I-1.189 J0.000 F1999.800
G2 X1.189 Y-57.983 Z6.171 I1.189 J0.000 F1999.800
G2 X-1.189 Y-57.983 Z5.914 I-1.189 J0.000 F1999.800
G2 X1.189 Y-57.983 Z5.657 I1.189 J0.000 F1999.800
G2 X-1.189 Y-57.983 Z5.400 I-1.189 J0.000 F1999.800
G2 X1.189 Y-57.983 Z5.143 I1.189 J0.000 F1999.800
G2 X-1.189 Y-57.983 Z4.886 I-1.189 J0.000 F1999.800
G2 X1.189 Y-57.983 Z4.629 I1.189 J0.000 F1999.800
G2 X-1.189 Y-57.983 Z4.371 I-1.189 J0.000 F1999.800
G2 X1.189 Y-57.983 Z4.114 I1.189 J0.000 F1999.800
G2 X-1.189 Y-57.983 Z3.857 I-1.189 J0.000 F1999.800
G2 X1.189 Y-57.983 Z3.600 I1.189 J0.000 F1999.800
G2 X-1.189 Y-57.983 Z3.343 I-1.189 J0.000 F1999.800
G2 X1.189 Y-57.983 Z3.086 I1.189 J0.000 F1999.800
G2 X-1.189 Y-57.983 Z2.829 I-1.189 J0.000 F1999.800
G2 X1.189 Y-57.983 Z2.571 I1.189 J0.000 F1999.800
G2 X-1.189 Y-57.983 Z2.314 I-1.189 J0.000 F1999.800
G2 X1.189 Y-57.983 Z2.057 I1.189 J0.000 F1999.800
G2 X-1.189 Y-57.983 Z1.800 I-1.189 J0.000 F1999.800
G2 X1.189 Y-57.983 Z1.543 I1.189 J0.000 F1999.800
G2 X-1.189 Y-57.983 Z1.286 I-1.189 J0.000 F1999.800
G2 X1.189 Y-57.983 Z1.029 I1.189 J0.000 F1999.800
G2 X-1.189 Y-57.983 Z0.771 I-1.189 J0.000 F1999.800
G2 X1.189 Y-57.983 Z0.514 I1.189 J0.000 F1999.800
G2 X-1.189 Y-57.983 Z0.257 I-1.189 J0.000 F1999.800
G2 X1.189 Y-57.983 Z0.000 I1.189 J0.000 F1999.800
G2 X-1.189 Y-57.983 Z0.000 I-1.189 J0.000 F1999.800
G2 X1.189 Y-57.983 Z0.000 I1.189 J0.000 F1999.800
G0 Z21.000
G0 X3.415 Y-57.983
G0 Z21.000
G1 Z18.000 F999.600
G2 X-3.415 Y-57.983 Z17.743 I-3.415 J0.000 F1999.800
G2 X3.415 Y-57.983 Z17.486 I3.415 J0.000 F1999.800
G2 X-3.415 Y-57.983 Z17.229 I-3.415 J0.000 F1999.800
G2 X3.415 Y-57.983 Z16.971 I3.415 J0.000 F1999.800
G2 X-3.415 Y-57.983 Z16.714 I-3.415 J0.000 F1999.800
G2 X3.415 Y-57.983 Z16.457 I3.415 J0.000 F1999.800
G2 X-3.415 Y-57.983 Z16.200 I-3.415 J0.000 F1999.800
G2 X3.415 Y-57.983 Z15.943 I3.415 J0.000 F1999.800
G2 X-3.415 Y-57.983 Z15.686 I-3.415 J0.000 F1999.800
G2 X3.415 Y-57.983 Z15.429 I3.415 J0.000 F1999.800
G2 X-3.415 Y-57.983 Z15.171 I-3.415 J0.000 F1999.800
G2 X3.415 Y-57.983 Z14.914 I3.415 J0.000 F1999.800
G2 X-3.415 Y-57.983 Z14.657 I-3.415 J0.000 F1999.800
G2 X3.415 Y-57.983 Z14.400 I3.415 J0.000 F1999.800
G2 X-3.415 Y-57.983 Z14.143 I-3.415 J0.000 F1999.800
G2 X3.415 Y-57.983 Z13.886 I3.415 J0.000 F1999.800
G2 X-3.415 Y-57.983 Z13.629 I-3.415 J0.000 F1999.800
G2 X3.415 Y-57.983 Z13.371 I3.415 J0.000 F1999.800
G2 X-3.415 Y-57.983 Z13.114 I-3.415 J0.000 F1999.800
G2 X3.415 Y-57.983 Z12.857 I3.415 J0.000 F1999.800
G2 X-3.415 Y-57.983 Z12.600 I-3.415 J0.000 F1999.800
G2 X3.415 Y-57.983 Z12.343 I3.415 J0.000 F1999.800
G2 X-3.415 Y-57.983 Z12.086 I-3.415 J0.000 F1999.800
G2 X3.415 Y-57.983 Z11.829 I3.415 J0.000 F1999.800
G2 X-3.415 Y-57.983 Z11.571 I-3.415 J0.000 F1999.800
G2 X3.415 Y-57.983 Z11.314 I3.415 J0.000 F1999.800
G2 X-3.415 Y-57.983 Z11.057 I-3.415 J0.000 F1999.800
G2 X3.415 Y-57.983 Z10.800 I3.415 J0.000 F1999.800
G2 X-3.415 Y-57.983 Z10.543 I-3.415 J0.000 F1999.800
G2 X3.415 Y-57.983 Z10.286 I3.415 J0.000 F1999.800
G2 X-3.415 Y-57.983 Z10.029 I-3.415 J0.000 F1999.800
G2 X3.415 Y-57.983 Z9.771 I3.415 J0.000 F1999.800
G2 X-3.415 Y-57.983 Z9.514 I-3.415 J0.000 F1999.800
G2 X3.415 Y-57.983 Z9.257 I3.415 J0.000 F1999.800
G2 X-3.415 Y-57.983 Z9.000 I-3.415 J0.000 F1999.800
G2 X3.415 Y-57.983 Z8.743 I3.415 J0.000 F1999.800
G2 X-3.415 Y-57.983 Z8.486 I-3.415 J0.000 F1999.800
G2 X3.415 Y-57.983 Z8.229 I3.415 J0.000 F1999.800
G2 X-3.415 Y-57.983 Z7.971 I-3.415 J0.000 F1999.800
G2 X3.415 Y-57.983 Z7.714 I3.415 J0.000 F1999.800
G2 X-3.415 Y-57.983 Z7.457 I-3.415 J0.000 F1999.800
G2 X3.415 Y-57.983 Z7.200 I3.415 J0.000 F1999.800
G2 X-3.415 Y-57.983 Z6.943 I-3.415 J0.000 F1999.800
G2 X3.415 Y-57.983 Z6.686 I3.415 J0.000 F1999.800
G2 X-3.415 Y-57.983 Z6.429 I-3.415 J0.000 F1999.800
G2 X3.415 Y-57.983 Z6.171 I3.415 J0.000 F1999.800
G2 X-3.415 Y-57.983 Z5.914 I-3.415 J0.000 F1999.800
G2 X3.415 Y-57.983 Z5.657 I3.415 J0.000 F1999.800
G2 X-3.415 Y-57.983 Z5.400 I-3.415 J0.000 F1999.800
G2 X3.415 Y-57.983 Z5.143 I3.415 J0.000 F1999.800
G2 X-3.415 Y-57.983 Z4.886 I-3.415 J0.000 F1999.800
G2 X3.415 Y-57.983 Z4.629 I3.415 J0.000 F1999.800
G2 X-3.415 Y-57.983 Z4.371 I-3.415 J0.000 F1999.800
G2 X3.415 Y-57.983 Z4.114 I3.415 J0.000 F1999.800
G2 X-3.415 Y-57.983 Z3.857 I-3.415 J0.000 F1999.800
G2 X3.415 Y-57.983 Z3.600 I3.415 J0.000 F1999.800
G2 X-3.415 Y-57.983 Z3.343 I-3.415 J0.000 F1999.800
G2 X3.415 Y-57.983 Z3.086 I3.415 J0.000 F1999.800
G2 X-3.415 Y-57.983 Z2.829 I-3.415 J0.000 F1999.800
G2 X3.415 Y-57.983 Z2.571 I3.415 J0.000 F1999.800
G2 X-3.415 Y-57.983 Z2.314 I-3.415 J0.000 F1999.800
G2 X3.415 Y-57.983 Z2.057 I3.415 J0.000 F1999.800
G2 X-3.415 Y-57.983 Z1.800 I-3.415 J0.000 F1999.800
G2 X3.415 Y-57.983 Z1.543 I3.415 J0.000 F1999.800
G2 X-3.415 Y-57.983 Z1.286 I-3.415 J0.000 F1999.800
G2 X3.415 Y-57.983 Z1.029 I3.415 J0.000 F1999.800
G2 X-3.415 Y-57.983 Z0.771 I-3.415 J0.000 F1999.800
G2 X3.415 Y-57.983 Z0.514 I3.415 J0.000 F1999.800
G2 X-3.415 Y-57.983 Z0.257 I-3.415 J0.000 F1999.800
G2 X3.415 Y-57.983 Z0.000 I3.415 J0.000 F1999.800
G2 X-3.415 Y-57.983 Z0.000 I-3.415 J0.000 F1999.800
G2 X3.415 Y-57.983 Z0.000 I3.415 J0.000 F1999.800
G0 Z21.000
G0 X-56.794 Y0.000
G0 Z21.000
G1 Z18.000 F999.600
G2 X-59.172 Y0.000 Z17.743 I-1.189 J0.000 F1999.800
G2 X-56.794 Y0.000 Z17.486 I1.189 J0.000 F1999.800
G2 X-59.172 Y0.000 Z17.229 I-1.189 J0.000 F1999.800
G2 X-56.794 Y0.000 Z16.971 I1.189 J0.000 F1999.800
G2 X-59.172 Y0.000 Z16.714 I-1.189 J0.000 F1999.800
G2 X-56.794 Y0.000 Z16.457 I1.189 J0.000 F1999.800
G2 X-59.172 Y0.000 Z16.200 I-1.189 J0.000 F1999.800
G2 X-56.794 Y0.000 Z15.943 I1.189 J0.000 F1999.800
G2 X-59.172 Y0.000 Z15.686 I-1.189 J0.000 F1999.800
G2 X-56.794 Y0.000 Z15.429 I1.189 J0.000 F1999.800
G2 X-59.172 Y0.000 Z15.171 I-1.189 J0.000 F1999.800
G2 X-56.794 Y0.000 Z14.914 I1.189 J0.000 F1999.800
G2 X-59.172 Y0.000 Z14.657 I-1.189 J0.000 F1999.800
G2 X-56.794 Y0.000 Z14.400 I1.189 J0.000 F1999.800
G2 X-59.172 Y0.000 Z14.143 I-1.189 J0.000 F1999.800
G2 X-56.794 Y0.000 Z13.886 I1.189 J0.000 F1999.800
G2 X-59.172 Y0.000 Z13.629 I-1.189 J0.000 F1999.800
G2 X-56.794 Y0.000 Z13.371 I1.189 J0.000 F1999.800
G2 X-59.172 Y0.000 Z13.114 I-1.189 J0.000 F1999.800
G2 X-56.794 Y0.000 Z12.857 I1.189 J0.000 F1999.800
G2 X-59.172 Y0.000 Z12.600 I-1.189 J0.000 F1999.800
G2 X-56.794 Y0.000 Z12.343 I1.189 J0.000 F1999.800
G2 X-59.172 Y0.000 Z12.086 I-1.189 J0.000 F1999.800
G2 X-56.794 Y0.000 Z11.829 I1.189 J0.000 F1999.800
G2 X-59.172 Y0.000 Z11.571 I-1.189 J0.000 F1999.800
G2 X-56.794 Y0.000 Z11.314 I1.189 J0.000 F1999.800
G2 X-59.172 Y0.000 Z11.057 I-1.189 J0.000 F1999.800
G2 X-56.794 Y0.000 Z10.800 I1.189 J0.000 F1999.800
G2 X-59.172 Y0.000 Z10.543 I-1.189 J0.000 F1999.800
G2 X-56.794 Y0.000 Z10.286 I1.189 J0.000 F1999.800
G2 X-59.172 Y0.000 Z10.029 I-1.189 J0.000 F1999.800
G2 X-56.794 Y0.000 Z9.771 I1.189 J0.000 F1999.800
G2 X-59.172 Y0.000 Z9.514 I-1.189 J0.000 F1999.800
G2 X-56.794 Y0.000 Z9.257 I1.189 J0.000 F1999.800
G2 X-59.172 Y0.000 Z9.000 I-1.189 J0.000 F1999.800
G2 X-56.794 Y0.000 Z8.743 I1.189 J0.000 F1999.800
G2 X-59.172 Y0.000 Z8.486 I-1.189 J0.000 F1999.800
G2 X-56.794 Y0.000 Z8.229 I1.189 J0.000 F1999.800
G2 X-59.172 Y0.000 Z7.971 I-1.189 J0.000 F1999.800
G2 X-56.794 Y0.000 Z7.714 I1.189 J0.000 F1999.800
G2 X-59.172 Y0.000 Z7.457 I-1.189 J0.000 F1999.800
G2 X-56.794 Y0.000 Z7.200 I1.189 J0.000 F1999.800
G2 X-59.172 Y0.000 Z6.943 I-1.189 J0.000 F1999.800
G2 X-56.794 Y0.000 Z6.686 I1.189 J0.000 F1999.800
G2 X-59.172 Y0.000 Z6.429 I-1.189 J0.000 F1999.800
G2 X-56.794 Y0.000 Z6.171 I1.189 J0.000 F1999.800
G2 X-59.172 Y0.000 Z5.914 I-1.189 J0.000 F1999.800
G2 X-56.794 Y0.000 Z5.657 I1.189 J0.000 F1999.800
G2 X-59.172 Y0.000 Z5.400 I-1.189 J0.000 F1999.800
G2 X-56.794 Y0.000 Z5.143 I1.189 J0.000 F1999.800
G2 X-59.172 Y0.000 Z4.886 I-1.189 J0.000 F1999.800
G2 X-56.794 Y0.000 Z4.629 I1.189 J0.000 F1999.800
G2 X-59.172 Y0.000 Z4.371 I-1.189 J0.000 F1999.800
G2 X-56.794 Y0.000 Z4.114 I1.189 J0.000 F1999.800
G2 X-59.172 Y0.000 Z3.857 I-1.189 J0.000 F1999.800
G2 X-56.794 Y0.000 Z3.600 I1.189 J0.000 F1999.800
G2 X-59.172 Y0.000 Z3.343 I-1.189 J0.000 F1999.800
G2 X-56.794 Y0.000 Z3.086 I1.189 J0.000 F1999.800
G2 X-59.172 Y0.000 Z2.829 I-1.189 J0.000 F1999.800
G2 X-56.794 Y0.000 Z2.571 I1.189 J0.000 F1999.800
G2 X-59.172 Y0.000 Z2.314 I-1.189 J0.000 F1999.800
G2 X-56.794 Y0.000 Z2.057 I1.189 J0.000 F1999.800
G2 X-59.172 Y0.000 Z1.800 I-1.189 J0.000 F1999.800
G2 X-56.794 Y0.000 Z1.543 I1.189 J0.000 F1999.800
G2 X-59.172 Y0.000 Z1.286 I-1.189 J0.000 F1999.800
G2 X-56.794 Y0.000 Z1.029 I1.189 J0.000 F1999.800
G2 X-59.172 Y0.000 Z0.771 I-1.189 J0.000 F1999.800
G2 X-56.794 Y0.000 Z0.514 I1.189 J0.000 F1999.800
G2 X-59.172 Y0.000 Z0.257 I-1.189 J0.000 F1999.800
G2 X-56.794 Y0.000 Z0.000 I1.189 J0.000 F1999.800
G2 X-59.172 Y0.000 Z0.000 I-1.189 J0.000 F1999.800
G2 X-56.794 Y0.000 Z0.000 I1.189 J0.000 F1999.800
G0 Z21.000
G0 X-54.568 Y0.000
G0 Z21.000
G1 Z18.000 F999.600
G2 X-61.398 Y0.000 Z17.743 I-3.415 J0.000 F1999.800
G2 X-54.568 Y0.000 Z17.486 I3.415 J0.000 F1999.800
G2 X-61.398 Y0.000 Z17.229 I-3.415 J0.000 F1999.800
G2 X-54.568 Y0.000 Z16.971 I3.415 J0.000 F1999.800
G2 X-61.398 Y0.000 Z16.714 I-3.415 J0.000 F1999.800
G2 X-54.568 Y0.000 Z16.457 I3.415 J0.000 F1999.800
G2 X-61.398 Y0.000 Z16.200 I-3.415 J0.000 F1999.800
G2 X-54.568 Y0.000 Z15.943 I3.415 J0.000 F1999.800
G2 X-61.398 Y0.000 Z15.686 I-3.415 J0.000 F1999.800
G2 X-54.568 Y0.000 Z15.429 I3.415 J0.000 F1999.800
G2 X-61.398 Y0.000 Z15.171 I-3.415 J0.000 F1999.800
G2 X-54.568 Y0.000 Z14.914 I3.415 J0.000 F1999.800
G2 X-61.398 Y0.000 Z14.657 I-3.415 J0.000 F1999.800
G2 X-54.568 Y0.000 Z14.400 I3.415 J0.000 F1999.800
G2 X-61.398 Y0.000 Z14.143 I-3.415 J0.000 F1999.800
G2 X-54.568 Y0.000 Z13.886 I3.415 J0.000 F1999.800
G2 X-61.398 Y0.000 Z13.629 I-3.415 J0.000 F1999.800
G2 X-54.568 Y0.000 Z13.371 I3.415 J0.000 F1999.800
G2 X-61.398 Y0.000 Z13.114 I-3.415 J0.000 F1999.800
G2 X-54.568 Y0.000 Z12.857 I3.415 J0.000 F1999.800
G2 X-61.398 Y0.000 Z12.600 I-3.415 J0.000 F1999.800
G2 X-54.568 Y0.000 Z12.343 I3.415 J0.000 F1999.800
G2 X-61.398 Y0.000 Z12.086 I-3.415 J0.000 F1999.800
G2 X-54.568 Y0.000 Z11.829 I3.415 J0.000 F1999.800
G2 X-61.398 Y0.000 Z11.571 I-3.415 J0.000 F1999.800
G2 X-54.568 Y0.000 Z11.314 I3.415 J0.000 F1999.800
G2 X-61.398 Y0.000 Z11.057 I-3.415 J0.000 F1999.800
G2 X-54.568 Y0.000 Z10.800 I3.415 J0.000 F1999.800
G2 X-61.398 Y0.000 Z10.543 I-3.415 J0.000 F1999.800
G2 X-54.568 Y0.000 Z10.286 I3.415 J0.000 F1999.800
G2 X-61.398 Y0.000 Z10.029 I-3.415 J0.000 F1999.800
G2 X-54.568 Y0.000 Z9.771 I3.415 J0.000 F1999.800
G2 X-61.398 Y0.000 Z9.514 I-3.415 J0.000 F1999.800
G2 X-54.568 Y0.000 Z9.257 I3.415 J0.000 F1999.800
G2 X-61.398 Y0.000 Z9.000 I-3.415 J0.000 F1999.800
G2 X-54.568 Y0.000 Z8.743 I3.415 J0.000 F1999.800
G2 X-61.398 Y0.000 Z8.486 I-3.415 J0.000 F1999.800
G2 X-54.568 Y0.000 Z8.229 I3.415 J0.000 F1999.800
G2 X-61.398 Y0.000 Z7.971 I-3.415 J0.000 F1999.800
G2 X-54.568 Y0.000 Z7.714 I3.415 J0.000 F1999.800
G2 X-61.398 Y0.000 Z7.457 I-3.415 J0.000 F1999.800
G2 X-54.568 Y0.000 Z7.200 I3.415 J0.000 F1999.800
G2 X-61.398 Y0.000 Z6.943 I-3.415 J0.000 F1999.800
G2 X-54.568 Y0.000 Z6.686 I3.415 J0.000 F1999.800
G2 X-61.398 Y0.000 Z6.429 I-3.415 J0.000 F1999.800
G2 X-54.568 Y0.000 Z6.171 I3.415 J0.000 F1999.800
G2 X-61.398 Y0.000 Z5.914 I-3.415 J0.000 F1999.800
G2 X-54.568 Y0.000 Z5.657 I3.415 J0.000 F1999.800
G2 X-61.398 Y0.000 Z5.400 I-3.415 J0.000 F1999.800
G2 X-54.568 Y0.000 Z5.143 I3.415 J0.000 F1999.800
G2 X-61.398 Y0.000 Z4.886 I-3.415 J0.000 F1999.800
G2 X-54.568 Y0.000 Z4.629 I3.415 J0.000 F1999.800
G2 X-61.398 Y0.000 Z4.371 I-3.415 J0.000 F1999.800
G2 X-54.568 Y0.000 Z4.114 I3.415 J0.000 F1999.800
G2 X-61.398 Y0.000 Z3.857 I-3.415 J0.000 F1999.800
G2 X-54.568 Y0.000 Z3.600 I3.415 J0.000 F1999.800
G2 X-61.398 Y0.000 Z3.343 I-3.415 J0.000 F1999.800
G2 X-54.568 Y0.000 Z3.086 I3.415 J0.000 F1999.800
G2 X-61.398 Y0.000 Z2.829 I-3.415 J0.000 F1999.800
G2 X-54.568 Y0.000 Z2.571 I3.415 J0.000 F1999.800
G2 X-61.398 Y0.000 Z2.314 I-3.415 J0.000 F1999.800
G2 X-54.568 Y0.000 Z2.057 I3.415 J0.000 F1999.800
G2 X-61.398 Y0.000 Z1.800 I-3.415 J0.000 F1999.800
G2 X-54.568 Y0.000 Z1.543 I3.415 J0.000 F1999.800
G2 X-61.398 Y0.000 Z1.286 I-3.415 J0.000 F1999.800
G2 X-54.568 Y0.000 Z1.029 I3.415 J0.000 F1999.800
G2 X-61.398 Y0.000 Z0.771 I-3.415 J0.000 F1999.800
G2 X-54.568 Y0.000 Z0.514 I3.415 J0.000 F1999.800
G2 X-61.398 Y0.000 Z0.257 I-3.415 J0.000 F1999.800
G2 X-54.568 Y0.000 Z0.000 I3.415 J0.000 F1999.800
G2 X-61.398 Y0.000 Z0.000 I-3.415 J0.000 F1999.800
G2 X-54.568 Y0.000 Z0.000 I3.415 J0.000 F1999.800
G0 Z21.000
G0 X1.189 Y57.983
G0 Z21.000
G1 Z18.000 F999.600
G2 X-1.189 Y57.983 Z17.743 I-1.189 J0.000 F1999.800
G2 X1.189 Y57.983 Z17.486 I1.189 J0.000 F1999.800
G2 X-1.189 Y57.983 Z17.229 I-1.189 J0.000 F1999.800
G2 X1.189 Y57.983 Z16.971 I1.189 J0.000 F1999.800
G2 X-1.189 Y57.983 Z16.714 I-1.189 J0.000 F1999.800
G2 X1.189 Y57.983 Z16.457 I1.189 J0.000 F1999.800
G2 X-1.189 Y57.983 Z16.200 I-1.189 J0.000 F1999.800
G2 X1.189 Y57.983 Z15.943 I1.189 J0.000 F1999.800
G2 X-1.189 Y57.983 Z15.686 I-1.189 J0.000 F1999.800
G2 X1.189 Y57.983 Z15.429 I1.189 J0.000 F1999.800
G2 X-1.189 Y57.983 Z15.171 I-1.189 J0.000 F1999.800
G2 X1.189 Y57.983 Z14.914 I1.189 J0.000 F1999.800
G2 X-1.189 Y57.983 Z14.657 I-1.189 J0.000 F1999.800
G2 X1.189 Y57.983 Z14.400 I1.189 J0.000 F1999.800
G2 X-1.189 Y57.983 Z14.143 I-1.189 J0.000 F1999.800
G2 X1.189 Y57.983 Z13.886 I1.189 J0.000 F1999.800
G2 X-1.189 Y57.983 Z13.629 I-1.189 J0.000 F1999.800
G2 X1.189 Y57.983 Z13.371 I1.189 J0.000 F1999.800
G2 X-1.189 Y57.983 Z13.114 I-1.189 J0.000 F1999.800
G2 X1.189 Y57.983 Z12.857 I1.189 J0.000 F1999.800
G2 X-1.189 Y57.983 Z12.600 I-1.189 J0.000 F1999.800
G2 X1.189 Y57.983 Z12.343 I1.189 J0.000 F1999.800
G2 X-1.189 Y57.983 Z12.086 I-1.189 J0.000 F1999.800
G2 X1.189 Y57.983 Z11.829 I1.189 J0.000 F1999.800
G2 X-1.189 Y57.983 Z11.571 I-1.189 J0.000 F1999.800
G2 X1.189 Y57.983 Z11.314 I1.189 J0.000 F1999.800
G2 X-1.189 Y57.983 Z11.057 I-1.189 J0.000 F1999.800
G2 X1.189 Y57.983 Z10.800 I1.189 J0.000 F1999.800
G2 X-1.189 Y57.983 Z10.543 I-1.189 J0.000 F1999.800
G2 X1.189 Y57.983 Z10.286 I1.189 J0.000 F1999.800
G2 X-1.189 Y57.983 Z10.029 I-1.189 J0.000 F1999.800
G2 X1.189 Y57.983 Z9.771 I1.189 J0.000 F1999.800
G2 X-1.189 Y57.983 Z9.514 I-1.189 J0.000 F1999.800
G2 X1.189 Y57.983 Z9.257 I1.189 J0.000 F1999.800
G2 X-1.189 Y57.983 Z9.000 I-1.189 J0.000 F1999.800
G2 X1.189 Y57.983 Z8.743 I1.189 J0.000 F1999.800
G2 X-1.189 Y57.983 Z8.486 I-1.189 J0.000 F1999.800
G2 X1.189 Y57.983 Z8.229 I1.189 J0.000 F1999.800
G2 X-1.189 Y57.983 Z7.971 I-1.189 J0.000 F1999.800
G2 X1.189 Y57.983 Z7.714 I1.189 J0.000 F1999.800
G2 X-1.189 Y57.983 Z7.457 I-1.189 J0.000 F1999.800
G2 X1.189 Y57.983 Z7.200 I1.189 J0.000 F1999.800
G2 X-1.189 Y57.983 Z6.943 I-1.189 J0.000 F1999.800
G2 X1.189 Y57.983 Z6.686 I1.189 J0.000 F1999.800
G2 X-1.189 Y57.983 Z6.429 I-1.189 J0.000 F1999.800
G2 X1.189 Y57.983 Z6.171 I1.189 J0.000 F1999.800
G2 X-1.189 Y57.983 Z5.914 I-1.189 J0.000 F1999.800
G2 X1.189 Y57.983 Z5.657 I1.189 J0.000 F1999.800
G2 X-1.189 Y57.983 Z5.400 I-1.189 J0.000 F1999.800
G2 X1.189 Y57.983 Z5.143 I1.189 J0.000 F1999.800
G2 X-1.189 Y57.983 Z4.886 I-1.189 J0.000 F1999.800
G2 X1.189 Y57.983 Z4.629 I1.189 J0.000 F1999.800
G2 X-1.189 Y57.983 Z4.371 I-1.189 J0.000 F1999.800
G2 X1.189 Y57.983 Z4.114 I1.189 J0.000 F1999.800
G2 X-1.189 Y57.983 Z3.857 I-1.189 J0.000 F1999.800
G2 X1.189 Y57.983 Z3.600 I1.189 J0.000 F1999.800
G2 X-1.189 Y57.983 Z3.343 I-1.189 J0.000 F1999.800
G2 X1.189 Y57.983 Z3.086 I1.189 J0.000 F1999.800
G2 X-1.189 Y57.983 Z2.829 I-1.189 J0.000 F1999.800
G2 X1.189 Y57.983 Z2.571 I1.189 J0.000 F1999.800
G2 X-1.189 Y57.983 Z2.314 I-1.189 J0.000 F1999.800
G2 X1.189 Y57.983 Z2.057 I1.189 J0.000 F1999.800
G2 X-1.189 Y57.983 Z1.800 I-1.189 J0.000 F1999.800
G2 X1.189 Y57.983 Z1.543 I1.189 J0.000 F1999.800
G2 X-1.189 Y57.983 Z1.286 I-1.189 J0.000 F1999.800
G2 X1.189 Y57.983 Z1.029 I1.189 J0.000 F1999.800
G2 X-1.189 Y57.983 Z0.771 I-1.189 J0.000 F1999.800
G2 X1.189 Y57.983 Z0.514 I1.189 J0.000 F1999.800
G2 X-1.189 Y57.983 Z0.257 I-1.189 J0.000 F1999.800
G2 X1.189 Y57.983 Z0.000 I1.189 J0.000 F1999.800
G2 X-1.189 Y57.983 Z0.000 I-1.189 J0.000 F1999.800
G2 X1.189 Y57.983 Z0.000 I1.189 J0.000 F1999.800
G0 Z21.000
G0 X3.415 Y57.983
G0 Z21.000
G1 Z18.000 F999.600
G2 X-3.415 Y57.983 Z17.743 I-3.415 J0.000 F1999.800
G2 X3.415 Y57.983 Z17.486 I3.415 J0.000 F1999.800
G2 X-3.415 Y57.983 Z17.229 I-3.415 J0.000 F1999.800
G2 X3.415 Y57.983 Z16.971 I3.415 J0.000 F1999.800
G2 X-3.415 Y57.983 Z16.714 I-3.415 J0.000 F1999.800
G2 X3.415 Y57.983 Z16.457 I3.415 J0.000 F1999.800
G2 X-3.415 Y57.983 Z16.200 I-3.415 J0.000 F1999.800
G2 X3.415 Y57.983 Z15.943 I3.415 J0.000 F1999.800
G2 X-3.415 Y57.983 Z15.686 I-3.415 J0.000 F1999.800
G2 X3.415 Y57.983 Z15.429 I3.415 J0.000 F1999.800
G2 X-3.415 Y57.983 Z15.171 I-3.415 J0.000 F1999.800
G2 X3.415 Y57.983 Z14.914 I3.415 J0.000 F1999.800
G2 X-3.415 Y57.983 Z14.657 I-3.415 J0.000 F1999.800
G2 X3.415 Y57.983 Z14.400 I3.415 J0.000 F1999.800
G2 X-3.415 Y57.983 Z14.143 I-3.415 J0.000 F1999.800
G2 X3.415 Y57.983 Z13.886 I3.415 J0.000 F1999.800
G2 X-3.415 Y57.983 Z13.629 I-3.415 J0.000 F1999.800
G2 X3.415 Y57.983 Z13.371 I3.415 J0.000 F1999.800
G2 X-3.415 Y57.983 Z13.114 I-3.415 J0.000 F1999.800
G2 X3.415 Y57.983 Z12.857 I3.415 J0.000 F1999.800
G2 X-3.415 Y57.983 Z12.600 I-3.415 J0.000 F1999.800
G2 X3.415 Y57.983 Z12.343 I3.415 J0.000 F1999.800
G2 X-3.415 Y57.983 Z12.086 I-3.415 J0.000 F1999.800
G2 X3.415 Y57.983 Z11.829 I3.415 J0.000 F1999.800
G2 X-3.415 Y57.983 Z11.571 I-3.415 J0.000 F1999.800
G2 X3.415 Y57.983 Z11.314 I3.415 J0.000 F1999.800
G2 X-3.415 Y57.983 Z11.057 I-3.415 J0.000 F1999.800
G2 X3.415 Y57.983 Z10.800 I3.415 J0.000 F1999.800
G2 X-3.415 Y57.983 Z10.543 I-3.415 J0.000 F1999.800
G2 X3.415 Y57.983 Z10.286 I3.415 J0.000 F1999.800
G2 X-3.415 Y57.983 Z10.029 I-3.415 J0.000 F1999.800
G2 X3.415 Y57.983 Z9.771 I3.415 J0.000 F1999.800
G2 X-3.415 Y57.983 Z9.514 I-3.415 J0.000 F1999.800
G2 X3.415 Y57.983 Z9.257 I3.415 J0.000 F1999.800
G2 X-3.415 Y57.983 Z9.000 I-3.415 J0.000 F1999.800
G2 X3.415 Y57.983 Z8.743 I3.415 J0.000 F1999.800
G2 X-3.415 Y57.983 Z8.486 I-3.415 J0.000 F1999.800
G2 X3.415 Y57.983 Z8.229 I3.415 J0.000 F1999.800
G2 X-3.415 Y57.983 Z7.971 I-3.415 J0.000 F1999.800
G2 X3.415 Y57.983 Z7.714 I3.415 J0.000 F1999.800
G2 X-3.415 Y57.983 Z7.457 I-3.415 J0.000 F1999.800
G2 X3.415 Y57.983 Z7.200 I3.415 J0.000 F1999.800
G2 X-3.415 Y57.983 Z6.943 I-3.415 J0.000 F1999.800
G2 X3.415 Y57.983 Z6.686 I3.415 J0.000 F1999.800
G2 X-3.415 Y57.983 Z6.429 I-3.415 J0.000 F1999.800
G2 X3.415 Y57.983 Z6.171 I3.415 J0.000 F1999.800
G2 X-3.415 Y57.983 Z5.914 I-3.415 J0.000 F1999.800
G2 X3.415 Y57.983 Z5.657 I3.415 J0.000 F1999.800
G2 X-3.415 Y57.983 Z5.400 I-3.415 J0.000 F1999.800
G2 X3.415 Y57.983 Z5.143 I3.415 J0.000 F1999.800
G2 X-3.415 Y57.983 Z4.886 I-3.415 J0.000 F1999.800
G2 X3.415 Y57.983 Z4.629 I3.415 J0.000 F1999.800
G2 X-3.415 Y57.983 Z4.371 I-3.415 J0.000 F1999.800
G2 X3.415 Y57.983 Z4.114 I3.415 J0.000 F1999.800
G2 X-3.415 Y57.983 Z3.857 I-3.415 J0.000 F1999.800
G2 X3.415 Y57.983 Z3.600 I3.415 J0.000 F1999.800
G2 X-3.415 Y57.983 Z3.343 I-3.415 J0.000 F1999.800
G2 X3.415 Y57.983 Z3.086 I3.415 J0.000 F1999.800
G2 X-3.415 Y57.983 Z2.829 I-3.415 J0.000 F1999.800
G2 X3.415 Y57.983 Z2.571 I3.415 J0.000 F1999.800
G2 X-3.415 Y57.983 Z2.314 I-3.415 J0.000 F1999.800
G2 X3.415 Y57.983 Z2.057 I3.415 J0.000 F1999.800
G2 X-3.415 Y57.983 Z1.800 I-3.415 J0.000 F1999.800
G2 X3.415 Y57.983 Z1.543 I3.415 J0.000 F1999.800
G2 X-3.415 Y57.983 Z1.286 I-3.415 J0.000 F1999.800
G2 X3.415 Y57.983 Z1.029 I3.415 J0.000 F1999.800
G2 X-3.415 Y57.983 Z0.771 I-3.415 J0.000 F1999.800
G2 X3.415 Y57.983 Z0.514 I3.415 J0.000 F1999.800
G2 X-3.415 Y57.983 Z0.257 I-3.415 J0.000 F1999.800
G2 X3.415 Y57.983 Z0.000 I3.415 J0.000 F1999.800
G2 X-3.415 Y57.983 Z0.000 I-3.415 J0.000 F1999.800
G2 X3.415 Y57.983 Z0.000 I3.415 J0.000 F1999.800
G0 Z21.000
G0 X59.172 Y0.000
G0 Z21.000
G1 Z18.000 F999.600
G2 X56.794 Y0.000 Z17.743 I-1.189 J0.000 F1999.800
G2 X59.172 Y0.000 Z17.486 I1.189 J0.000 F1999.800
G2 X56.794 Y0.000 Z17.229 I-1.189 J0.000 F1999.800
G2 X59.172 Y0.000 Z16.971 I1.189 J0.000 F1999.800
G2 X56.794 Y0.000 Z16.714 I-1.189 J0.000 F1999.800
G2 X59.172 Y0.000 Z16.457 I1.189 J0.000 F1999.800
G2 X56.794 Y0.000 Z16.200 I-1.189 J0.000 F1999.800
G2 X59.172 Y0.000 Z15.943 I1.189 J0.000 F1999.800
G2 X56.794 Y0.000 Z15.686 I-1.189 J0.000 F1999.800
G2 X59.172 Y0.000 Z15.429 I1.189 J0.000 F1999.800
G2 X56.794 Y0.000 Z15.171 I-1.189 J0.000 F1999.800
G2 X59.172 Y0.000 Z14.914 I1.189 J0.000 F1999.800
G2 X56.794 Y0.000 Z14.657 I-1.189 J0.000 F1999.800
G2 X59.172 Y0.000 Z14.400 I1.189 J0.000 F1999.800
G2 X56.794 Y0.000 Z14.143 I-1.189 J0.000 F1999.800
G2 X59.172 Y0.000 Z13.886 I1.189 J0.000 F1999.800
G2 X56.794 Y0.000 Z13.629 I-1.189 J0.000 F1999.800
G2 X59.172 Y0.000 Z13.371 I1.189 J0.000 F1999.800
G2 X56.794 Y0.000 Z13.114 I-1.189 J0.000 F1999.800
G2 X59.172 Y0.000 Z12.857 I1.189 J0.000 F1999.800
G2 X56.794 Y0.000 Z12.600 I-1.189 J0.000 F1999.800
G2 X59.172 Y0.000 Z12.343 I1.189 J0.000 F1999.800
G2 X56.794 Y0.000 Z12.086 I-1.189 J0.000 F1999.800
G2 X59.172 Y0.000 Z11.829 I1.189 J0.000 F1999.800
G2 X56.794 Y0.000 Z11.571 I-1.189 J0.000 F1999.800
G2 X59.172 Y0.000 Z11.314 I1.189 J0.000 F1999.800
G2 X56.794 Y0.000 Z11.057 I-1.189 J0.000 F1999.800
G2 X59.172 Y0.000 Z10.800 I1.189 J0.000 F1999.800
G2 X56.794 Y0.000 Z10.543 I-1.189 J0.000 F1999.800
G2 X59.172 Y0.000 Z10.286 I1.189 J0.000 F1999.800
G2 X56.794 Y0.000 Z10.029 I-1.189 J0.000 F1999.800
G2 X59.172 Y0.000 Z9.771 I1.189 J0.000 F1999.800
G2 X56.794 Y0.000 Z9.514 I-1.189 J0.000 F1999.800
G2 X59.172 Y0.000 Z9.257 I1.189 J0.000 F1999.800
G2 X56.794 Y0.000 Z9.000 I-1.189 J0.000 F1999.800
G2 X59.172 Y0.000 Z8.743 I1.189 J0.000 F1999.800
G2 X56.794 Y0.000 Z8.486 I-1.189 J0.000 F1999.800
G2 X59.172 Y0.000 Z8.229 I1.189 J0.000 F1999.800
G2 X56.794 Y0.000 Z7.971 I-1.189 J0.000 F1999.800
G2 X59.172 Y0.000 Z7.714 I1.189 J0.000 F1999.800
G2 X56.794 Y0.000 Z7.457 I-1.189 J0.000 F1999.800
G2 X59.172 Y0.000 Z7.200 I1.189 J0.000 F1999.800
G2 X56.794 Y0.000 Z6.943 I-1.189 J0.000 F1999.800
G2 X59.172 Y0.000 Z6.686 I1.189 J0.000 F1999.800
G2 X56.794 Y0.000 Z6.429 I-1.189 J0.000 F1999.800
G2 X59.172 Y0.000 Z6.171 I1.189 J0.000 F1999.800
G2 X56.794 Y0.000 Z5.914 I-1.189 J0.000 F1999.800
G2 X59.172 Y0.000 Z5.657 I1.189 J0.000 F1999.800
G2 X56.794 Y0.000 Z5.400 I-1.189 J0.000 F1999.800
G2 X59.172 Y0.000 Z5.143 I1.189 J0.000 F1999.800
G2 X56.794 Y0.000 Z4.886 I-1.189 J0.000 F1999.800
G2 X59.172 Y0.000 Z4.629 I1.189 J0.000 F1999.800
G2 X56.794 Y0.000 Z4.371 I-1.189 J0.000 F1999.800
G2 X59.172 Y0.000 Z4.114 I1.189 J0.000 F1999.800
G2 X56.794 Y0.000 Z3.857 I-1.189 J0.000 F1999.800
G2 X59.172 Y0.000 Z3.600 I1.189 J0.000 F1999.800
G2 X56.794 Y0.000 Z3.343 I-1.189 J0.000 F1999.800
G2 X59.172 Y0.000 Z3.086 I1.189 J0.000 F1999.800
G2 X56.794 Y0.000 Z2.829 I-1.189 J0.000 F1999.800
G2 X59.172 Y0.000 Z2.571 I1.189 J0.000 F1999.800
G2 X56.794 Y0.000 Z2.314 I-1.189 J0.000 F1999.800
G2 X59.172 Y0.000 Z2.057 I1.189 J0.000 F1999.800
G2 X56.794 Y0.000 Z1.800 I-1.189 J0.000 F1999.800
G2 X59.172 Y0.000 Z1.543 I1.189 J0.000 F1999.800
G2 X56.794 Y0.000 Z1.286 I-1.189 J0.000 F1999.800
G2 X59.172 Y0.000 Z1.029 I1.189 J0.000 F1999.800
G2 X56.794 Y0.000 Z0.771 I-1.189 J0.000 F1999.800
G2 X59.172 Y0.000 Z0.514 I1.189 J0.000 F1999.800
G2 X56.794 Y0.000 Z0.257 I-1.189 J0.000 F1999.800
G2 X59.172 Y0.000 Z0.000 I1.189 J0.000 F1999.800
G2 X56.794 Y0.000 Z0.000 I-1.189 J0.000 F1999.800
G2 X59.172 Y0.000 Z0.000 I1.189 J0.000 F1999.800
G0 Z21.000
G0 X61.398 Y0.000
G0 Z21.000
G1 Z18.000 F999.600
G2 X54.568 Y0.000 Z17.743 I-3.415 J0.000 F1999.800
G2 X61.398 Y0.000 Z17.486 I3.415 J0.000 F1999.800
G2 X54.568 Y0.000 Z17.229 I-3.415 J0.000 F1999.800
G2 X61.398 Y0.000 Z16.971 I3.415 J0.000 F1999.800
G2 X54.568 Y0.000 Z16.714 I-3.415 J0.000 F1999.800
G2 X61.398 Y0.000 Z16.457 I3.415 J0.000 F1999.800
G2 X54.568 Y0.000 Z16.200 I-3.415 J0.000 F1999.800
G2 X61.398 Y0.000 Z15.943 I3.415 J0.000 F1999.800
G2 X54.568 Y0.000 Z15.686 I-3.415 J0.000 F1999.800
G2 X61.398 Y0.000 Z15.429 I3.415 J0.000 F1999.800
G2 X54.568 Y0.000 Z15.171 I-3.415 J0.000 F1999.800
G2 X61.398 Y0.000 Z14.914 I3.415 J0.000 F1999.800
G2 X54.568 Y0.000 Z14.657 I-3.415 J0.000 F1999.800
G2 X61.398 Y0.000 Z14.400 I3.415 J0.000 F1999.800
G2 X54.568 Y0.000 Z14.143 I-3.415 J0.000 F1999.800
G2 X61.398 Y0.000 Z13.886 I3.415 J0.000 F1999.800
G2 X54.568 Y0.000 Z13.629 I-3.415 J0.000 F1999.800
G2 X61.398 Y0.000 Z13.371 I3.415 J0.000 F1999.800
G2 X54.568 Y0.000 Z13.114 I-3.415 J0.000 F1999.800
G2 X61.398 Y0.000 Z12.857 I3.415 J0.000 F1999.800
G2 X54.568 Y0.000 Z12.600 I-3.415 J0.000 F1999.800
G2 X61.398 Y0.000 Z12.343 I3.415 J0.000 F1999.800
G2 X54.568 Y0.000 Z12.086 I-3.415 J0.000 F1999.800
G2 X61.398 Y0.000 Z11.829 I3.415 J0.000 F1999.800
G2 X54.568 Y0.000 Z11.571 I-3.415 J0.000 F1999.800
G2 X61.398 Y0.000 Z11.314 I3.415 J0.000 F1999.800
G2 X54.568 Y0.000 Z11.057 I-3.415 J0.000 F1999.800
G2 X61.398 Y0.000 Z10.800 I3.415 J0.000 F1999.800
G2 X54.568 Y0.000 Z10.543 I-3.415 J0.000 F1999.800
G2 X61.398 Y0.000 Z10.286 I3.415 J0.000 F1999.800
G2 X54.568 Y0.000 Z10.029 I-3.415 J0.000 F1999.800
G2 X61.398 Y0.000 Z9.771 I3.415 J0.000 F1999.800
G2 X54.568 Y0.000 Z9.514 I-3.415 J0.000 F1999.800
G2 X61.398 Y0.000 Z9.257 I3.415 J0.000 F1999.800
G2 X54.568 Y0.000 Z9.000 I-3.415 J0.000 F1999.800
G2 X61.398 Y0.000 Z8.743 I3.415 J0.000 F1999.800
G2 X54.568 Y0.000 Z8.486 I-3.415 J0.000 F1999.800
G2 X61.398 Y0.000 Z8.229 I3.415 J0.000 F1999.800
G2 X54.568 Y0.000 Z7.971 I-3.415 J0.000 F1999.800
G2 X61.398 Y0.000 Z7.714 I3.415 J0.000 F1999.800
G2 X54.568 Y0.000 Z7.457 I-3.415 J0.000 F1999.800
G2 X61.398 Y0.000 Z7.200 I3.415 J0.000 F1999.800
G2 X54.568 Y0.000 Z6.943 I-3.415 J0.000 F1999.800
G2 X61.398 Y0.000 Z6.686 I3.415 J0.000 F1999.800
G2 X54.568 Y0.000 Z6.429 I-3.415 J0.000 F1999.800
G2 X61.398 Y0.000 Z6.171 I3.415 J0.000 F1999.800
G2 X54.568 Y0.000 Z5.914 I-3.415 J0.000 F1999.800
G2 X61.398 Y0.000 Z5.657 I3.415 J0.000 F1999.800
G2 X54.568 Y0.000 Z5.400 I-3.415 J0.000 F1999.800
G2 X61.398 Y0.000 Z5.143 I3.415 J0.000 F1999.800
G2 X54.568 Y0.000 Z4.886 I-3.415 J0.000 F1999.800
G2 X61.398 Y0.000 Z4.629 I3.415 J0.000 F1999.800
G2 X54.568 Y0.000 Z4.371 I-3.415 J0.000 F1999.800
G2 X61.398 Y0.000 Z4.114 I3.415 J0.000 F1999.800
G2 X54.568 Y0.000 Z3.857 I-3.415 J0.000 F1999.800
G2 X61.398 Y0.000 Z3.600 I3.415 J0.000 F1999.800
G2 X54.568 Y0.000 Z3.343 I-3.415 J0.000 F1999.800
G2 X61.398 Y0.000 Z3.086 I3.415 J0.000 F1999.800
G2 X54.568 Y0.000 Z2.829 I-3.415 J0.000 F1999.800
G2 X61.398 Y0.000 Z2.571 I3.415 J0.000 F1999.800
G2 X54.568 Y0.000 Z2.314 I-3.415 J0.000 F1999.800
G2 X61.398 Y0.000 Z2.057 I3.415 J0.000 F1999.800
G2 X54.568 Y0.000 Z1.800 I-3.415 J0.000 F1999.800
G2 X61.398 Y0.000 Z1.543 I3.415 J0.000 F1999.800
G2 X54.568 Y0.000 Z1.286 I-3.415 J0.000 F1999.800
G2 X61.398 Y0.000 Z1.029 I3.415 J0.000 F1999.800
G2 X54.568 Y0.000 Z0.771 I-3.415 J0.000 F1999.800
G2 X61.398 Y0.000 Z0.514 I3.415 J0.000 F1999.800
G2 X54.568 Y0.000 Z0.257 I-3.415 J0.000 F1999.800
G2 X61.398 Y0.000 Z0.000 I3.415 J0.000 F1999.800
G2 X54.568 Y0.000 Z0.000 I-3.415 J0.000 F1999.800
G2 X61.398 Y0.000 Z0.000 I3.415 J0.000 F1999.800
G0 Z21.000
G0 Z23.000
(Finish operation: Foot_Mount_Passthrough_Holes)
(Begin operation: Foot_Insert_Holes)
(Path: Foot_Insert_Holes)
(Foot_Insert_Holes)
(helix cut operation)
G0 Z23.000
G0 X41.915 Y-41.000
G0 Z21.000
G1 Z18.000 F999.600
G2 X40.085 Y-41.000 Z17.738 I-0.915 J0.000 F1999.800
G2 X41.915 Y-41.000 Z17.476 I0.915 J0.000 F1999.800
G2 X40.085 Y-41.000 Z17.214 I-0.915 J0.000 F1999.800
G2 X41.915 Y-41.000 Z16.952 I0.915 J0.000 F1999.800
G2 X40.085 Y-41.000 Z16.690 I-0.915 J0.000 F1999.800
G2 X41.915 Y-41.000 Z16.429 I0.915 J0.000 F1999.800
G2 X40.085 Y-41.000 Z16.167 I-0.915 J0.000 F1999.800
G2 X41.915 Y-41.000 Z15.905 I0.915 J0.000 F1999.800
G2 X40.085 Y-41.000 Z15.643 I-0.915 J0.000 F1999.800
G2 X41.915 Y-41.000 Z15.381 I0.915 J0.000 F1999.800
G2 X40.085 Y-41.000 Z15.119 I-0.915 J0.000 F1999.800
G2 X41.915 Y-41.000 Z14.857 I0.915 J0.000 F1999.800
G2 X40.085 Y-41.000 Z14.595 I-0.915 J0.000 F1999.800
G2 X41.915 Y-41.000 Z14.333 I0.915 J0.000 F1999.800
G2 X40.085 Y-41.000 Z14.071 I-0.915 J0.000 F1999.800
G2 X41.915 Y-41.000 Z13.810 I0.915 J0.000 F1999.800
G2 X40.085 Y-41.000 Z13.548 I-0.915 J0.000 F1999.800
G2 X41.915 Y-41.000 Z13.286 I0.915 J0.000 F1999.800
G2 X40.085 Y-41.000 Z13.024 I-0.915 J0.000 F1999.800
G2 X41.915 Y-41.000 Z12.762 I0.915 J0.000 F1999.800
G2 X40.085 Y-41.000 Z12.500 I-0.915 J0.000 F1999.800
G2 X41.915 Y-41.000 Z12.238 I0.915 J0.000 F1999.800
G2 X40.085 Y-41.000 Z11.976 I-0.915 J0.000 F1999.800
G2 X41.915 Y-41.000 Z11.714 I0.915 J0.000 F1999.800
G2 X40.085 Y-41.000 Z11.452 I-0.915 J0.000 F1999.800
G2 X41.915 Y-41.000 Z11.190 I0.915 J0.000 F1999.800
G2 X40.085 Y-41.000 Z10.929 I-0.915 J0.000 F1999.800
G2 X41.915 Y-41.000 Z10.667 I0.915 J0.000 F1999.800
G2 X40.085 Y-41.000 Z10.405 I-0.915 J0.000 F1999.800
G2 X41.915 Y-41.000 Z10.143 I0.915 J0.000 F1999.800
G2 X40.085 Y-41.000 Z9.881 I-0.915 J0.000 F1999.800
G2 X41.915 Y-41.000 Z9.619 I0.915 J0.000 F1999.800
G2 X40.085 Y-41.000 Z9.357 I-0.915 J0.000 F1999.800
G2 X41.915 Y-41.000 Z9.095 I0.915 J0.000 F1999.800
G2 X40.085 Y-41.000 Z8.833 I-0.915 J0.000 F1999.800
G2 X41.915 Y-41.000 Z8.571 I0.915 J0.000 F1999.800
G2 X40.085 Y-41.000 Z8.310 I-0.915 J0.000 F1999.800
G2 X41.915 Y-41.000 Z8.048 I0.915 J0.000 F1999.800
G2 X40.085 Y-41.000 Z7.786 I-0.915 J0.000 F1999.800
G2 X41.915 Y-41.000 Z7.524 I0.915 J0.000 F1999.800
G2 X40.085 Y-41.000 Z7.262 I-0.915 J0.000 F1999.800
G2 X41.915 Y-41.000 Z7.000 I0.915 J0.000 F1999.800
G2 X40.085 Y-41.000 Z7.000 I-0.915 J0.000 F1999.800
G2 X41.915 Y-41.000 Z7.000 I0.915 J0.000 F1999.800
G0 Z21.000
G0 X-40.085 Y-41.000
G0 Z21.000
G1 Z18.000 F999.600
G2 X-41.915 Y-41.000 Z17.738 I-0.915 J0.000 F1999.800
G2 X-40.085 Y-41.000 Z17.476 I0.915 J0.000 F1999.800
G2 X-41.915 Y-41.000 Z17.214 I-0.915 J0.000 F1999.800
G2 X-40.085 Y-41.000 Z16.952 I0.915 J0.000 F1999.800
G2 X-41.915 Y-41.000 Z16.690 I-0.915 J0.000 F1999.800
G2 X-40.085 Y-41.000 Z16.429 I0.915 J0.000 F1999.800
G2 X-41.915 Y-41.000 Z16.167 I-0.915 J0.000 F1999.800
G2 X-40.085 Y-41.000 Z15.905 I0.915 J0.000 F1999.800
G2 X-41.915 Y-41.000 Z15.643 I-0.915 J0.000 F1999.800
G2 X-40.085 Y-41.000 Z15.381 I0.915 J0.000 F1999.800
G2 X-41.915 Y-41.000 Z15.119 I-0.915 J0.000 F1999.800
G2 X-40.085 Y-41.000 Z14.857 I0.915 J0.000 F1999.800
G2 X-41.915 Y-41.000 Z14.595 I-0.915 J0.000 F1999.800
G2 X-40.085 Y-41.000 Z14.333 I0.915 J0.000 F1999.800
G2 X-41.915 Y-41.000 Z14.071 I-0.915 J0.000 F1999.800
G2 X-40.085 Y-41.000 Z13.810 I0.915 J0.000 F1999.800
G2 X-41.915 Y-41.000 Z13.548 I-0.915 J0.000 F1999.800
G2 X-40.085 Y-41.000 Z13.286 I0.915 J0.000 F1999.800
G2 X-41.915 Y-41.000 Z13.024 I-0.915 J0.000 F1999.800
G2 X-40.085 Y-41.000 Z12.762 I0.915 J0.000 F1999.800
G2 X-41.915 Y-41.000 Z12.500 I-0.915 J0.000 F1999.800
G2 X-40.085 Y-41.000 Z12.238 I0.915 J0.000 F1999.800
G2 X-41.915 Y-41.000 Z11.976 I-0.915 J0.000 F1999.800
G2 X-40.085 Y-41.000 Z11.714 I0.915 J0.000 F1999.800
G2 X-41.915 Y-41.000 Z11.452 I-0.915 J0.000 F1999.800
G2 X-40.085 Y-41.000 Z11.190 I0.915 J0.000 F1999.800
G2 X-41.915 Y-41.000 Z10.929 I-0.915 J0.000 F1999.800
G2 X-40.085 Y-41.000 Z10.667 I0.915 J0.000 F1999.800
G2 X-41.915 Y-41.000 Z10.405 I-0.915 J0.000 F1999.800
G2 X-40.085 Y-41.000 Z10.143 I0.915 J0.000 F1999.800
G2 X-41.915 Y-41.000 Z9.881 I-0.915 J0.000 F1999.800
G2 X-40.085 Y-41.000 Z9.619 I0.915 J0.000 F1999.800
G2 X-41.915 Y-41.000 Z9.357 I-0.915 J0.000 F1999.800
G2 X-40.085 Y-41.000 Z9.095 I0.915 J0.000 F1999.800
G2 X-41.915 Y-41.000 Z8.833 I-0.915 J0.000 F1999.800
G2 X-40.085 Y-41.000 Z8.571 I0.915 J0.000 F1999.800
G2 X-41.915 Y-41.000 Z8.310 I-0.915 J0.000 F1999.800
G2 X-40.085 Y-41.000 Z8.048 I0.915 J0.000 F1999.800
G2 X-41.915 Y-41.000 Z7.786 I-0.915 J0.000 F1999.800
G2 X-40.085 Y-41.000 Z7.524 I0.915 J0.000 F1999.800
G2 X-41.915 Y-41.000 Z7.262 I-0.915 J0.000 F1999.800
G2 X-40.085 Y-41.000 Z7.000 I0.915 J0.000 F1999.800
G2 X-41.915 Y-41.000 Z7.000 I-0.915 J0.000 F1999.800
G2 X-40.085 Y-41.000 Z7.000 I0.915 J0.000 F1999.800
G0 Z21.000
G0 X-40.085 Y41.000
G0 Z21.000
G1 Z18.000 F999.600
G2 X-41.915 Y41.000 Z17.738 I-0.915 J0.000 F1999.800
G2 X-40.085 Y41.000 Z17.476 I0.915 J0.000 F1999.800
G2 X-41.915 Y41.000 Z17.214 I-0.915 J0.000 F1999.800
G2 X-40.085 Y41.000 Z16.952 I0.915 J0.000 F1999.800
G2 X-41.915 Y41.000 Z16.690 I-0.915 J0.000 F1999.800
G2 X-40.085 Y41.000 Z16.429 I0.915 J0.000 F1999.800
G2 X-41.915 Y41.000 Z16.167 I-0.915 J0.000 F1999.800
G2 X-40.085 Y41.000 Z15.905 I0.915 J0.000 F1999.800
G2 X-41.915 Y41.000 Z15.643 I-0.915 J0.000 F1999.800
G2 X-40.085 Y41.000 Z15.381 I0.915 J0.000 F1999.800
G2 X-41.915 Y41.000 Z15.119 I-0.915 J0.000 F1999.800
G2 X-40.085 Y41.000 Z14.857 I0.915 J0.000 F1999.800
G2 X-41.915 Y41.000 Z14.595 I-0.915 J0.000 F1999.800
G2 X-40.085 Y41.000 Z14.333 I0.915 J0.000 F1999.800
G2 X-41.915 Y41.000 Z14.071 I-0.915 J0.000 F1999.800
G2 X-40.085 Y41.000 Z13.810 I0.915 J0.000 F1999.800
G2 X-41.915 Y41.000 Z13.548 I-0.915 J0.000 F1999.800
G2 X-40.085 Y41.000 Z13.286 I0.915 J0.000 F1999.800
G2 X-41.915 Y41.000 Z13.024 I-0.915 J0.000 F1999.800
G2 X-40.085 Y41.000 Z12.762 I0.915 J0.000 F1999.800
G2 X-41.915 Y41.000 Z12.500 I-0.915 J0.000 F1999.800
G2 X-40.085 Y41.000 Z12.238 I0.915 J0.000 F1999.800
G2 X-41.915 Y41.000 Z11.976 I-0.915 J0.000 F1999.800
G2 X-40.085 Y41.000 Z11.714 I0.915 J0.000 F1999.800
G2 X-41.915 Y41.000 Z11.452 I-0.915 J0.000 F1999.800
G2 X-40.085 Y41.000 Z11.190 I0.915 J0.000 F1999.800
G2 X-41.915 Y41.000 Z10.929 I-0.915 J0.000 F1999.800
G2 X-40.085 Y41.000 Z10.667 I0.915 J0.000 F1999.800
G2 X-41.915 Y41.000 Z10.405 I-0.915 J0.000 F1999.800
G2 X-40.085 Y41.000 Z10.143 I0.915 J0.000 F1999.800
G2 X-41.915 Y41.000 Z9.881 I-0.915 J0.000 F1999.800
G2 X-40.085 Y41.000 Z9.619 I0.915 J0.000 F1999.800
G2 X-41.915 Y41.000 Z9.357 I-0.915 J0.000 F1999.800
G2 X-40.085 Y41.000 Z9.095 I0.915 J0.000 F1999.800
G2 X-41.915 Y41.000 Z8.833 I-0.915 J0.000 F1999.800
G2 X-40.085 Y41.000 Z8.571 I0.915 J0.000 F1999.800
G2 X-41.915 Y41.000 Z8.310 I-0.915 J0.000 F1999.800
G2 X-40.085 Y41.000 Z8.048 I0.915 J0.000 F1999.800
G2 X-41.915 Y41.000 Z7.786 I-0.915 J0.000 F1999.800
G2 X-40.085 Y41.000 Z7.524 I0.915 J0.000 F1999.800
G2 X-41.915 Y41.000 Z7.262 I-0.915 J0.000 F1999.800
G2 X-40.085 Y41.000 Z7.000 I0.915 J0.000 F1999.800
G2 X-41.915 Y41.000 Z7.000 I-0.915 J0.000 F1999.800
G2 X-40.085 Y41.000 Z7.000 I0.915 J0.000 F1999.800
G0 Z21.000
G0 X41.915 Y41.000
G0 Z21.000
G1 Z18.000 F999.600
G2 X40.085 Y41.000 Z17.738 I-0.915 J0.000 F1999.800
G2 X41.915 Y41.000 Z17.476 I0.915 J0.000 F1999.800
G2 X40.085 Y41.000 Z17.214 I-0.915 J0.000 F1999.800
G2 X41.915 Y41.000 Z16.952 I0.915 J0.000 F1999.800
G2 X40.085 Y41.000 Z16.690 I-0.915 J0.000 F1999.800
G2 X41.915 Y41.000 Z16.429 I0.915 J0.000 F1999.800
G2 X40.085 Y41.000 Z16.167 I-0.915 J0.000 F1999.800
G2 X41.915 Y41.000 Z15.905 I0.915 J0.000 F1999.800
G2 X40.085 Y41.000 Z15.643 I-0.915 J0.000 F1999.800
G2 X41.915 Y41.000 Z15.381 I0.915 J0.000 F1999.800
G2 X40.085 Y41.000 Z15.119 I-0.915 J0.000 F1999.800
G2 X41.915 Y41.000 Z14.857 I0.915 J0.000 F1999.800
G2 X40.085 Y41.000 Z14.595 I-0.915 J0.000 F1999.800
G2 X41.915 Y41.000 Z14.333 I0.915 J0.000 F1999.800
G2 X40.085 Y41.000 Z14.071 I-0.915 J0.000 F1999.800
G2 X41.915 Y41.000 Z13.810 I0.915 J0.000 F1999.800
G2 X40.085 Y41.000 Z13.548 I-0.915 J0.000 F1999.800
G2 X41.915 Y41.000 Z13.286 I0.915 J0.000 F1999.800
G2 X40.085 Y41.000 Z13.024 I-0.915 J0.000 F1999.800
G2 X41.915 Y41.000 Z12.762 I0.915 J0.000 F1999.800
G2 X40.085 Y41.000 Z12.500 I-0.915 J0.000 F1999.800
G2 X41.915 Y41.000 Z12.238 I0.915 J0.000 F1999.800
G2 X40.085 Y41.000 Z11.976 I-0.915 J0.000 F1999.800
G2 X41.915 Y41.000 Z11.714 I0.915 J0.000 F1999.800
G2 X40.085 Y41.000 Z11.452 I-0.915 J0.000 F1999.800
G2 X41.915 Y41.000 Z11.190 I0.915 J0.000 F1999.800
G2 X40.085 Y41.000 Z10.929 I-0.915 J0.000 F1999.800
G2 X41.915 Y41.000 Z10.667 I0.915 J0.000 F1999.800
G2 X40.085 Y41.000 Z10.405 I-0.915 J0.000 F1999.800
G2 X41.915 Y41.000 Z10.143 I0.915 J0.000 F1999.800
G2 X40.085 Y41.000 Z9.881 I-0.915 J0.000 F1999.800
G2 X41.915 Y41.000 Z9.619 I0.915 J0.000 F1999.800
G2 X40.085 Y41.000 Z9.357 I-0.915 J0.000 F1999.800
G2 X41.915 Y41.000 Z9.095 I0.915 J0.000 F1999.800
G2 X40.085 Y41.000 Z8.833 I-0.915 J0.000 F1999.800
G2 X41.915 Y41.000 Z8.571 I0.915 J0.000 F1999.800
G2 X40.085 Y41.000 Z8.310 I-0.915 J0.000 F1999.800
G2 X41.915 Y41.000 Z8.048 I0.915 J0.000 F1999.800
G2 X40.085 Y41.000 Z7.786 I-0.915 J0.000 F1999.800
G2 X41.915 Y41.000 Z7.524 I0.915 J0.000 F1999.800
G2 X40.085 Y41.000 Z7.262 I-0.915 J0.000 F1999.800
G2 X41.915 Y41.000 Z7.000 I0.915 J0.000 F1999.800
G2 X40.085 Y41.000 Z7.000 I-0.915 J0.000 F1999.800
G2 X41.915 Y41.000 Z7.000 I0.915 J0.000 F1999.800
G0 Z21.000
G0 Z23.000
(Finish operation: Foot_Insert_Holes)
(Begin operation: Foot_Insert_Counterbore)
(Path: Foot_Insert_Counterbore)
(Foot_Insert_Counterbore)
(helix cut operation)
G0 Z23.000
G0 X43.415 Y-41.000
G0 Z21.000
G1 Z18.000 F999.600
G2 X38.585 Y-41.000 Z17.750 I-2.415 J0.000 F1999.800
G2 X43.415 Y-41.000 Z17.500 I2.415 J0.000 F1999.800
G2 X38.585 Y-41.000 Z17.250 I-2.415 J0.000 F1999.800
G2 X43.415 Y-41.000 Z17.000 I2.415 J0.000 F1999.800
G2 X38.585 Y-41.000 Z16.750 I-2.415 J0.000 F1999.800
G2 X43.415 Y-41.000 Z16.500 I2.415 J0.000 F1999.800
G2 X38.585 Y-41.000 Z16.250 I-2.415 J0.000 F1999.800
G2 X43.415 Y-41.000 Z16.000 I2.415 J0.000 F1999.800
G2 X38.585 Y-41.000 Z16.000 I-2.415 J0.000 F1999.800
G2 X43.415 Y-41.000 Z16.000 I2.415 J0.000 F1999.800
G0 Z21.000
G0 X-38.585 Y-41.000
G0 Z21.000
G1 Z18.000 F999.600
G2 X-43.415 Y-41.000 Z17.750 I-2.415 J0.000 F1999.800
G2 X-38.585 Y-41.000 Z17.500 I2.415 J0.000 F1999.800
G2 X-43.415 Y-41.000 Z17.250 I-2.415 J0.000 F1999.800
G2 X-38.585 Y-41.000 Z17.000 I2.415 J0.000 F1999.800
G2 X-43.415 Y-41.000 Z16.750 I-2.415 J0.000 F1999.800
G2 X-38.585 Y-41.000 Z16.500 I2.415 J0.000 F1999.800
G2 X-43.415 Y-41.000 Z16.250 I-2.415 J0.000 F1999.800
G2 X-38.585 Y-41.000 Z16.000 I2.415 J0.000 F1999.800
G2 X-43.415 Y-41.000 Z16.000 I-2.415 J0.000 F1999.800
G2 X-38.585 Y-41.000 Z16.000 I2.415 J0.000 F1999.800
G0 Z21.000
G0 X-38.585 Y41.000
G0 Z21.000
G1 Z18.000 F999.600
G2 X-43.415 Y41.000 Z17.750 I-2.415 J0.000 F1999.800
G2 X-38.585 Y41.000 Z17.500 I2.415 J0.000 F1999.800
G2 X-43.415 Y41.000 Z17.250 I-2.415 J0.000 F1999.800
G2 X-38.585 Y41.000 Z17.000 I2.415 J0.000 F1999.800
G2 X-43.415 Y41.000 Z16.750 I-2.415 J0.000 F1999.800
G2 X-38.585 Y41.000 Z16.500 I2.415 J0.000 F1999.800
G2 X-43.415 Y41.000 Z16.250 I-2.415 J0.000 F1999.800
G2 X-38.585 Y41.000 Z16.000 I2.415 J0.000 F1999.800
G2 X-43.415 Y41.000 Z16.000 I-2.415 J0.000 F1999.800
G2 X-38.585 Y41.000 Z16.000 I2.415 J0.000 F1999.800
G0 Z21.000
G0 X43.415 Y41.000
G0 Z21.000
G1 Z18.000 F999.600
G2 X38.585 Y41.000 Z17.750 I-2.415 J0.000 F1999.800
G2 X43.415 Y41.000 Z17.500 I2.415 J0.000 F1999.800
G2 X38.585 Y41.000 Z17.250 I-2.415 J0.000 F1999.800
G2 X43.415 Y41.000 Z17.000 I2.415 J0.000 F1999.800
G2 X38.585 Y41.000 Z16.750 I-2.415 J0.000 F1999.800
G2 X43.415 Y41.000 Z16.500 I2.415 J0.000 F1999.800
G2 X38.585 Y41.000 Z16.250 I-2.415 J0.000 F1999.800
G2 X43.415 Y41.000 Z16.000 I2.415 J0.000 F1999.800
G2 X38.585 Y41.000 Z16.000 I-2.415 J0.000 F1999.800
G2 X43.415 Y41.000 Z16.000 I2.415 J0.000 F1999.800
G0 Z21.000
G0 Z23.000
(Finish operation: Foot_Insert_Counterbore)
(Begin operation: Foot_Contour_With_Tags)
(Path: Foot_Contour_With_Tags)
G0 Z23.000
G0 X115.732 Y115.732 Z23.000
G0 X115.732 Y115.732 Z21.000
G1 X115.732 Y115.732 Z17.472 F999.600
G3 X-7.257 Y163.508 Z17.472 I-115.732 J-115.732 K0.000 F1999.800
G3 X7.257 Y-163.508 Z17.472 I7.257 J-163.508 K0.000 F1999.800
G3 X115.732 Y115.732 Z17.472 I-7.257 J163.508 K0.000 F1999.800
G1 X115.732 Y115.732 Z16.943 F999.600
G3 X-7.257 Y163.508 Z16.943 I-115.732 J-115.732 K0.000 F1999.800
G3 X7.257 Y-163.508 Z16.943 I7.257 J-163.508 K0.000 F1999.800
G3 X115.732 Y115.732 Z16.943 I-7.257 J163.508 K0.000 F1999.800
G1 X115.732 Y115.732 Z16.415 F999.600
G3 X-7.257 Y163.508 Z16.415 I-115.732 J-115.732 K0.000 F1999.800
G3 X7.257 Y-163.508 Z16.415 I7.257 J-163.508 K0.000 F1999.800
G3 X115.732 Y115.732 Z16.415 I-7.257 J163.508 K0.000 F1999.800
G1 X115.732 Y115.732 Z15.887 F999.600
G3 X-7.257 Y163.508 Z15.887 I-115.732 J-115.732 K0.000 F1999.800
G3 X7.257 Y-163.508 Z15.887 I7.257 J-163.508 K0.000 F1999.800
G3 X115.732 Y115.732 Z15.887 I-7.257 J163.508 K0.000 F1999.800
G1 X115.732 Y115.732 Z15.358 F999.600
G3 X-7.257 Y163.508 Z15.358 I-115.732 J-115.732 K0.000 F1999.800
G3 X7.257 Y-163.508 Z15.358 I7.257 J-163.508 K0.000 F1999.800
G3 X115.732 Y115.732 Z15.358 I-7.257 J163.508 K0.000 F1999.800
G1 X115.732 Y115.732 Z14.830 F999.600
G3 X-7.257 Y163.508 Z14.830 I-115.732 J-115.732 K0.000 F1999.800
G3 X7.257 Y-163.508 Z14.830 I7.257 J-163.508 K0.000 F1999.800
G3 X115.732 Y115.732 Z14.830 I-7.257 J163.508 K0.000 F1999.800
G1 X115.732 Y115.732 Z14.302 F999.600
G3 X-7.257 Y163.508 Z14.302 I-115.732 J-115.732 K0.000 F1999.800
G3 X7.257 Y-163.508 Z14.302 I7.257 J-163.508 K0.000 F1999.800
G3 X115.732 Y115.732 Z14.302 I-7.257 J163.508 K0.000 F1999.800
G1 X115.732 Y115.732 Z13.773 F999.600
G3 X-7.257 Y163.508 Z13.773 I-115.732 J-115.732 K0.000 F1999.800
G3 X7.257 Y-163.508 Z13.773 I7.257 J-163.508 K0.000 F1999.800
G3 X115.732 Y115.732 Z13.773 I-7.257 J163.508 K0.000 F1999.800
G1 X115.732 Y115.732 Z13.245 F999.600
G3 X-7.257 Y163.508 Z13.245 I-115.732 J-115.732 K0.000 F1999.800
G3 X7.257 Y-163.508 Z13.245 I7.257 J-163.508 K0.000 F1999.800
G3 X115.732 Y115.732 Z13.245 I-7.257 J163.508 K0.000 F1999.800
G1 X115.732 Y115.732 Z12.717 F999.600
G3 X-7.257 Y163.508 Z12.717 I-115.732 J-115.732 K0.000 F1999.800
G3 X7.257 Y-163.508 Z12.717 I7.257 J-163.508 K0.000 F1999.800
G3 X115.732 Y115.732 Z12.717 I-7.257 J163.508 K0.000 F1999.800
G1 X115.732 Y115.732 Z12.188 F999.600
G3 X-7.257 Y163.508 Z12.188 I-115.732 J-115.732 K0.000 F1999.800
G3 X7.257 Y-163.508 Z12.188 I7.257 J-163.508 K0.000 F1999.800
G3 X115.732 Y115.732 Z12.188 I-7.257 J163.508 K0.000 F1999.800
G1 X115.732 Y115.732 Z11.660 F999.600
G3 X-7.257 Y163.508 Z11.660 I-115.732 J-115.732 K0.000 F1999.800
G3 X7.257 Y-163.508 Z11.660 I7.257 J-163.508 K0.000 F1999.800
G3 X115.732 Y115.732 Z11.660 I-7.257 J163.508 K0.000 F1999.800
G1 X115.732 Y115.732 Z11.132 F999.600
G3 X-7.257 Y163.508 Z11.132 I-115.732 J-115.732 K0.000 F1999.800
G3 X7.257 Y-163.508 Z11.132 I7.257 J-163.508 K0.000 F1999.800
G3 X115.732 Y115.732 Z11.132 I-7.257 J163.508 K0.000 F1999.800
G1 X115.732 Y115.732 Z10.603 F999.600
G3 X-7.257 Y163.508 Z10.603 I-115.732 J-115.732 K0.000 F1999.800
G3 X7.257 Y-163.508 Z10.603 I7.257 J-163.508 K0.000 F1999.800
G3 X115.732 Y115.732 Z10.603 I-7.257 J163.508 K0.000 F1999.800
G1 X115.732 Y115.732 Z10.075 F999.600
G3 X-7.257 Y163.508 Z10.075 I-115.732 J-115.732 K0.000 F1999.800
G3 X7.257 Y-163.508 Z10.075 I7.257 J-163.508 K0.000 F1999.800
G3 X115.732 Y115.732 Z10.075 I-7.257 J163.508 K0.000 F1999.800
G1 X115.732 Y115.732 Z9.547 F999.600
G3 X-7.257 Y163.508 Z9.547 I-115.732 J-115.732 K0.000 F1999.800
G3 X7.257 Y-163.508 Z9.547 I7.257 J-163.508 K0.000 F1999.800
G3 X115.732 Y115.732 Z9.547 I-7.257 J163.508 K0.000 F1999.800
G1 X115.732 Y115.732 Z9.018 F999.600
G3 X-7.257 Y163.508 Z9.018 I-115.732 J-115.732 K0.000 F1999.800
G3 X7.257 Y-163.508 Z9.018 I7.257 J-163.508 K0.000 F1999.800
G3 X115.732 Y115.732 Z9.018 I-7.257 J163.508 K0.000 F1999.800
G1 X115.732 Y115.732 Z8.490 F999.600
G3 X-7.257 Y163.508 Z8.490 I-115.732 J-115.732 K0.000 F1999.800
G3 X7.257 Y-163.508 Z8.490 I7.257 J-163.508 K0.000 F1999.800
G3 X115.732 Y115.732 Z8.490 I-7.257 J163.508 K0.000 F1999.800
G1 X115.732 Y115.732 Z7.962 F999.600
G3 X-7.257 Y163.508 Z7.962 I-115.732 J-115.732 K0.000 F1999.800
G3 X7.257 Y-163.508 Z7.962 I7.257 J-163.508 K0.000 F1999.800
G3 X115.732 Y115.732 Z7.962 I-7.257 J163.508 K0.000 F1999.800
G1 X115.732 Y115.732 Z7.433 F999.600
G3 X-7.257 Y163.508 Z7.433 I-115.732 J-115.732 K0.000 F1999.800
G3 X7.257 Y-163.508 Z7.433 I7.257 J-163.508 K0.000 F1999.800
G3 X115.732 Y115.732 Z7.433 I-7.257 J163.508 K0.000 F1999.800
G1 X115.732 Y115.732 Z6.905 F999.600
G3 X-7.257 Y163.508 Z6.905 I-115.732 J-115.732 K0.000 F1999.800
G3 X7.257 Y-163.508 Z6.905 I7.257 J-163.508 K0.000 F1999.800
G3 X115.732 Y115.732 Z6.905 I-7.257 J163.508 K0.000 F1999.800
G1 X115.732 Y115.732 Z6.377 F999.600
G3 X-7.257 Y163.508 Z6.377 I-115.732 J-115.732 K0.000 F1999.800
G3 X7.257 Y-163.508 Z6.377 I7.257 J-163.508 K0.000 F1999.800
G3 X115.732 Y115.732 Z6.377 I-7.257 J163.508 K0.000 F1999.800
G1 X115.732 Y115.732 Z5.848 F999.600
G3 X-7.257 Y163.508 Z5.848 I-115.732 J-115.732 K0.000 F1999.800
G3 X7.257 Y-163.508 Z5.848 I7.257 J-163.508 K0.000 F1999.800
G3 X115.732 Y115.732 Z5.848 I-7.257 J163.508 K0.000 F1999.800
G1 X115.732 Y115.732 Z5.320 F999.600
G3 X-7.257 Y163.508 Z5.320 I-115.732 J-115.732 K0.000 F1999.800
G3 X7.257 Y-163.508 Z5.320 I7.257 J-163.508 K0.000 F1999.800
G3 X115.732 Y115.732 Z5.320 I-7.257 J163.508 K0.000 F1999.800
G1 X115.732 Y115.732 Z4.792 F999.600
G3 X-7.257 Y163.508 Z4.792 I-115.732 J-115.732 K0.000 F1999.800
G3 X7.257 Y-163.508 Z4.792 I7.257 J-163.508 K0.000 F1999.800
G3 X115.732 Y115.732 Z4.792 I-7.257 J163.508 K0.000 F1999.800
G1 X115.732 Y115.732 Z4.263 F999.600
G3 X-7.257 Y163.508 Z4.263 I-115.732 J-115.732 K0.000 F1999.800
G3 X7.257 Y-163.508 Z4.263 I7.257 J-163.508 K0.000 F1999.800
G3 X115.732 Y115.732 Z4.263 I-7.257 J163.508 K0.000 F1999.800
G1 X115.732 Y115.732 Z3.735 F999.600
G3 X-7.257 Y163.508 Z3.735 I-115.732 J-115.732 K0.000 F1999.800
G3 X7.257 Y-163.508 Z3.735 I7.257 J-163.508 K0.000 F1999.800
G3 X115.732 Y115.732 Z3.735 I-7.257 J163.508 K0.000 F1999.800
G1 X115.732 Y115.732 Z3.207 F999.600
G3 X-7.257 Y163.508 Z3.207 I-115.732 J-115.732 K0.000 F1999.800
G3 X7.257 Y-163.508 Z3.207 I7.257 J-163.508 K0.000 F1999.800
G3 X115.732 Y115.732 Z3.207 I-7.257 J163.508 K0.000 F1999.800
G1 X115.732 Y115.732 Z2.678 F999.600
G3 X-7.257 Y163.508 Z2.678 I-115.732 J-115.732 K0.000 F1999.800
G3 X7.257 Y-163.508 Z2.678 I7.257 J-163.508 K0.000 F1999.800
G3 X115.732 Y115.732 Z2.678 I-7.257 J163.508 K0.000 F1999.800
G1 X115.732 Y115.732 Z2.150 F999.600
G3 X-7.257 Y163.508 Z2.150 I-115.732 J-115.732 K0.000 F1999.800
G3 X7.257 Y-163.508 Z2.150 I7.257 J-163.508 K0.000 F1999.800
G3 X115.732 Y115.732 Z2.150 I-7.257 J163.508 K0.000 F1999.800
G1 X115.732 Y115.732 Z1.622 F999.600
G3 X62.462 Y151.282 Z1.622 I-115.732 J-115.732 K0.000 F1999.800
G1 X62.112 Y151.426 Z2.000
G3 X56.398 Y153.645 Z2.000 I-62.112 J-151.426 K0.000 F1999.800
G1 X56.043 Y153.775 Z1.622
G3 X-7.257 Y163.508 Z1.622 I-56.043 J-153.775 K0.000 F1999.800
G3 X-54.191 Y154.438 Z1.622 I7.257 J-163.508 K0.000 F1999.800
G1 X-54.548 Y154.312 Z2.000
G3 X-60.288 Y152.161 Z2.000 I54.548 J-154.312 K0.000 F1999.800
G1 X-60.639 Y152.021 Z1.622
G3 X-134.618 Y93.090 Z1.622 I60.639 J-152.021 K0.000 F1999.800
G1 X-134.833 Y92.778 Z2.000
G3 X-138.212 Y87.665 Z2.000 I134.833 J-92.778 K0.000 F1999.800
G1 X-138.414 Y87.345 Z1.622
G3 X-163.625 Y-3.815 Z1.622 I138.414 J-87.345 K0.000 F1999.800
G1 X-163.616 Y-4.193 Z2.000
G3 X-163.344 Y-10.316 Z2.000 I163.616 J4.193 K0.000 F1999.800
G1 X-163.320 Y-10.694 Z1.622
G3 X-130.133 Y-99.263 Z1.622 I163.320 J10.694 K0.000 F1999.800
G1 X-129.903 Y-99.563 Z2.000
G3 X-126.084 Y-104.357 Z2.000 I129.903 J99.563 K0.000 F1999.800
G1 X-125.842 Y-104.649 Z1.622
G3 X-46.935 Y-156.795 Z1.622 I125.842 J104.649 K0.000 F1999.800
G1 X-46.572 Y-156.904 Z2.000
G3 X-40.665 Y-158.537 Z2.000 I46.572 J156.904 K0.000 F1999.800
G1 X-40.298 Y-158.631 Z1.622
G3 X7.257 Y-163.508 Z1.622 I40.298 J158.631 K0.000 F1999.800
G3 X92.586 Y-134.964 Z1.622 I-7.257 J163.508 K0.000 F1999.800
G1 X92.898 Y-134.750 Z2.000
G3 X97.878 Y-131.177 Z2.000 I-92.898 J134.750 K0.000 F1999.800
G1 X98.182 Y-130.950 Z1.622
G3 X160.834 Y30.331 Z1.622 I-98.182 J130.950 K0.000 F1999.800
G1 X160.764 Y30.703 Z2.000
G3 X159.501 Y36.701 Z2.000 I-160.764 J-30.703 K0.000 F1999.800
G1 X159.416 Y37.070 Z1.622
G3 X115.732 Y115.732 Z1.622 I-159.416 J-37.070 K0.000 F1999.800
G1 X115.732 Y115.732 Z1.093 F999.600
G3 X62.950 Y151.079 Z1.093 I-115.732 J-115.732 K0.000 F1999.800
G1 X62.112 Y151.426 Z2.000
G3 X56.398 Y153.645 Z2.000 I-62.112 J-151.426 K0.000 F1999.800
G1 X55.546 Y153.955 Z1.093
G3 X-7.257 Y163.508 Z1.093 I-55.546 J-153.955 K0.000 F1999.800
G3 X-53.692 Y154.612 Z1.093 I7.257 J-163.508 K0.000 F1999.800
G1 X-54.548 Y154.312 Z2.000
G3 X-60.288 Y152.161 Z2.000 I54.548 J-154.312 K0.000 F1999.800
G1 X-61.130 Y151.825 Z1.093
G3 X-134.316 Y93.524 Z1.093 I61.130 J-151.825 K0.000 F1999.800
G1 X-134.833 Y92.778 Z2.000
G3 X-138.212 Y87.665 Z2.000 I134.833 J-92.778 K0.000 F1999.800
G1 X-138.696 Y86.897 Z1.093
G3 X-163.636 Y-3.286 Z1.093 I138.696 J-86.897 K0.000 F1999.800
G1 X-163.616 Y-4.193 Z2.000
G3 X-163.344 Y-10.316 Z2.000 I163.616 J4.193 K0.000 F1999.800
G1 X-163.284 Y-11.222 Z1.093
G3 X-130.453 Y-98.842 Z1.093 I163.284 J11.222 K0.000 F1999.800
G1 X-129.903 Y-99.563 Z2.000
G3 X-126.084 Y-104.357 Z2.000 I129.903 J99.563 K0.000 F1999.800
G1 X-125.504 Y-105.055 Z1.093
G3 X-47.441 Y-156.643 Z1.093 I125.504 J105.055 K0.000 F1999.800
G1 X-46.572 Y-156.904 Z2.000
G3 X-40.665 Y-158.537 Z2.000 I46.572 J156.904 K0.000 F1999.800
G1 X-39.785 Y-158.760 Z1.093
G3 X7.257 Y-163.508 Z1.093 I39.785 J158.760 K0.000 F1999.800
G3 X92.150 Y-135.263 Z1.093 I-7.257 J163.508 K0.000 F1999.800
G1 X92.898 Y-134.750 Z2.000
G3 X97.878 Y-131.177 Z2.000 I-92.898 J134.750 K0.000 F1999.800
G1 X98.604 Y-130.633 Z1.093
G3 X160.931 Y29.812 Z1.093 I-98.604 J130.633 K0.000 F1999.800
G1 X160.764 Y30.703 Z2.000
G3 X159.501 Y36.701 Z2.000 I-160.764 J-30.703 K0.000 F1999.800
G1 X159.295 Y37.585 Z1.093
G3 X115.732 Y115.732 Z1.093 I-159.295 J-37.585 K0.000 F1999.800
G1 X115.732 Y115.732 Z0.565 F999.600
G3 X63.438 Y150.875 Z0.565 I-115.732 J-115.732 K0.000 F1999.800
G1 X62.112 Y151.426 Z2.000
G3 X56.398 Y153.645 Z2.000 I-62.112 J-151.426 K0.000 F1999.800
G1 X55.048 Y154.134 Z0.565
G3 X-7.257 Y163.508 Z0.565 I-55.048 J-154.134 K0.000 F1999.800
G3 X-53.192 Y154.784 Z0.565 I7.257 J-163.508 K0.000 F1999.800
G1 X-54.548 Y154.312 Z2.000
G3 X-60.288 Y152.161 Z2.000 I54.548 J-154.312 K0.000 F1999.800
G1 X-61.620 Y151.627 Z0.565
G3 X-134.014 Y93.958 Z0.565 I61.620 J-151.627 K0.000 F1999.800
G1 X-134.833 Y92.778 Z2.000
G3 X-138.212 Y87.665 Z2.000 I134.833 J-92.778 K0.000 F1999.800
G1 X-138.976 Y86.449 Z0.565
G3 X-163.646 Y-2.758 Z0.565 I138.976 J-86.449 K0.000 F1999.800
G1 X-163.616 Y-4.193 Z2.000
G3 X-163.344 Y-10.316 Z2.000 I163.616 J4.193 K0.000 F1999.800
G1 X-163.247 Y-11.749 Z0.565
G3 X-130.771 Y-98.420 Z0.565 I163.247 J11.749 K0.000 F1999.800
G1 X-129.903 Y-99.563 Z2.000
G3 X-126.084 Y-104.357 Z2.000 I129.903 J99.563 K0.000 F1999.800
G1 X-125.164 Y-105.459 Z0.565
G3 X-47.946 Y-156.489 Z0.565 I125.164 J105.459 K0.000 F1999.800
G1 X-46.572 Y-156.904 Z2.000
G3 X-40.665 Y-158.537 Z2.000 I46.572 J156.904 K0.000 F1999.800
G1 X-39.272 Y-158.888 Z0.565
G3 X7.257 Y-163.508 Z0.565 I39.272 J158.888 K0.000 F1999.800
G3 X91.713 Y-135.560 Z0.565 I-7.257 J163.508 K0.000 F1999.800
G1 X92.898 Y-134.750 Z2.000
G3 X97.878 Y-131.177 Z2.000 I-92.898 J134.750 K0.000 F1999.800
G1 X99.025 Y-130.313 Z0.565
G3 X161.027 Y29.292 Z0.565 I-99.025 J130.313 K0.000 F1999.800
G1 X160.764 Y30.703 Z2.000
G3 X159.501 Y36.701 Z2.000 I-160.764 J-30.703 K0.000 F1999.800
G1 X159.173 Y38.099 Z0.565
G3 X115.732 Y115.732 Z0.565 I-159.173 J-38.099 K0.000 F1999.800
G1 X115.732 Y115.732 Z0.037 F999.600
G3 X63.924 Y150.670 Z0.037 I-115.732 J-115.732 K0.000 F1999.800
G1 X62.112 Y151.426 Z2.000
G3 X56.398 Y153.645 Z2.000 I-62.112 J-151.426 K0.000 F1999.800
G1 X54.550 Y154.311 Z0.037
G3 X-7.257 Y163.508 Z0.037 I-54.550 J-154.311 K0.000 F1999.800
G3 X-52.692 Y154.955 Z0.037 I7.257 J-163.508 K0.000 F1999.800
G1 X-54.548 Y154.312 Z2.000
G3 X-60.288 Y152.161 Z2.000 I54.548 J-154.312 K0.000 F1999.800
G1 X-62.109 Y151.427 Z0.037
G3 X-133.709 Y94.390 Z0.037 I62.109 J-151.427 K0.000 F1999.800
G1 X-134.833 Y92.778 Z2.000
G3 X-138.212 Y87.665 Z2.000 I134.833 J-92.778 K0.000 F1999.800
G1 X-139.254 Y86.000 Z0.037
G3 X-163.654 Y-2.229 Z0.037 I139.254 J-86.000 K0.000 F1999.800
G1 X-163.616 Y-4.193 Z2.000
G3 X-163.344 Y-10.316 Z2.000 I163.616 J4.193 K0.000 F1999.800
G1 X-163.208 Y-12.276 Z0.037
G3 X-131.089 Y-97.997 Z0.037 I163.208 J12.276 K0.000 F1999.800
G1 X-129.903 Y-99.563 Z2.000
G3 X-126.084 Y-104.357 Z2.000 I129.903 J99.563 K0.000 F1999.800
G1 X-124.823 Y-105.863 Z0.037
G3 X-48.452 Y-156.333 Z0.037 I124.823 J105.863 K0.000 F1999.800
G1 X-46.572 Y-156.904 Z2.000
G3 X-40.665 Y-158.537 Z2.000 I46.572 J156.904 K0.000 F1999.800
G1 X-38.759 Y-159.014 Z0.037
G3 X7.257 Y-163.508 Z0.037 I38.759 J159.014 K0.000 F1999.800
G3 X91.274 Y-135.855 Z0.037 I-7.257 J163.508 K0.000 F1999.800
G1 X92.898 Y-134.750 Z2.000
G3 X97.878 Y-131.177 Z2.000 I-92.898 J134.750 K0.000 F1999.800
G1 X99.446 Y-129.993 Z0.037
G3 X161.121 Y28.772 Z0.037 I-99.446 J129.993 K0.000 F1999.800
G1 X160.764 Y30.703 Z2.000
G3 X159.501 Y36.701 Z2.000 I-160.764 J-30.703 K0.000 F1999.800
G1 X159.049 Y38.613 Z0.037
G3 X115.732 Y115.732 Z0.037 I-159.049 J-38.613 K0.000 F1999.800
G1 X115.732 Y115.732 Z0.000 F999.600
G3 X63.958 Y150.655 Z0.000 I-115.732 J-115.732 K0.000 F1999.800
G1 X62.112 Y151.426 Z2.000
G3 X56.398 Y153.645 Z2.000 I-62.112 J-151.426 K0.000 F1999.800
G1 X54.516 Y154.323 Z0.000
G3 X-7.257 Y163.508 Z0.000 I-54.516 J-154.323 K0.000 F1999.800
G3 X-52.657 Y154.967 Z0.000 I7.257 J-163.508 K0.000 F1999.800
G1 X-54.548 Y154.312 Z2.000
G3 X-60.288 Y152.161 Z2.000 I54.548 J-154.312 K0.000 F1999.800
G1 X-62.143 Y151.413 Z0.000
G3 X-133.688 Y94.420 Z0.000 I62.143 J-151.413 K0.000 F1999.800
G1 X-134.833 Y92.778 Z2.000
G3 X-138.212 Y87.665 Z2.000 I134.833 J-92.778 K0.000 F1999.800
G1 X-139.273 Y85.969 Z0.000
G3 X-163.655 Y-2.193 Z0.000 I139.273 J-85.969 K0.000 F1999.800
G1 X-163.616 Y-4.193 Z2.000
G3 X-163.344 Y-10.316 Z2.000 I163.616 J4.193 K0.000 F1999.800
G1 X-163.206 Y-12.313 Z0.000
G3 X-131.111 Y-97.968 Z0.000 I163.206 J12.313 K0.000 F1999.800
G1 X-129.903 Y-99.563 Z2.000
G3 X-126.084 Y-104.357 Z2.000 I129.903 J99.563 K0.000 F1999.800
G1 X-124.799 Y-105.891 Z0.000
G3 X-48.487 Y-156.322 Z0.000 I124.799 J105.891 K0.000 F1999.800
G1 X-46.572 Y-156.904 Z2.000
G3 X-40.665 Y-158.537 Z2.000 I46.572 J156.904 K0.000 F1999.800
G1 X-38.723 Y-159.023 Z0.000
G3 X7.257 Y-163.508 Z0.000 I38.723 J159.023 K0.000 F1999.800
G3 X91.244 Y-135.876 Z0.000 I-7.257 J163.508 K0.000 F1999.800
G1 X92.898 Y-134.750 Z2.000
G3 X97.878 Y-131.177 Z2.000 I-92.898 J134.750 K0.000 F1999.800
G1 X99.475 Y-129.971 Z0.000
G3 X161.127 Y28.736 Z0.000 I-99.475 J129.971 K0.000 F1999.800
G1 X160.764 Y30.703 Z2.000
G3 X159.501 Y36.701 Z2.000 I-160.764 J-30.703 K0.000 F1999.800
G1 X159.041 Y38.648 Z0.000
G3 X115.732 Y115.732 Z0.000 I-159.041 J-38.648 K0.000 F1999.800
G0 X115.732 Y115.732 Z23.000
(Finish operation: Foot_Contour_With_Tags)
(Begin postamble)
M5
G17 G90
M2
