(Exported by FreeCAD)
(Post Processor: grbl_post)
(Output Time:2020-05-30 16:02:53.491810)
(Begin preamble)
G17 G90
G21
(Begin operation: Fixture)
(Path: Fixture)
G54
(Finish operation: Fixture)
(Begin operation: T6: 2FluteWoodMill001)
(Path: T6: 2FluteWoodMill001)
(T6: 2FluteWoodMill001)
(Begin toolchange)
(M6 T6.0)
M3 S12000.0
G4 P5
(Finish operation: T6: 2FluteWoodMill001)
(Begin operation: Pockets_Left)
(Path: Pockets_Left)
(Pockets_Left)
G0 Z23.000
G0 X-200.000 Y-61.993
G0 Z21.000
G1 X-200.000 Y-61.993 Z17.472 F999.600
G1 X-200.000 Y-59.918 Z17.472 F1999.800
G1 X-106.194 Y-59.918 Z17.472 F1999.800
G1 X-106.194 Y-61.993 Z17.472 F1999.800
G1 X-200.000 Y-61.993 Z17.472 F1999.800
G1 X-200.000 Y-64.371 Z17.472 F1999.800
G1 X-106.194 Y-64.371 Z17.472 F1999.800
G1 X-106.194 Y-66.748 Z17.472 F1999.800
G1 X-200.000 Y-66.748 Z17.472 F1999.800
G1 X-200.000 Y-66.748 Z16.943 F999.600
G1 X-106.194 Y-66.748 Z16.943 F1999.800
G1 X-106.194 Y-64.371 Z16.943 F1999.800
G1 X-200.000 Y-64.371 Z16.943 F1999.800
G1 X-200.000 Y-61.993 Z16.943 F1999.800
G1 X-106.194 Y-61.993 Z16.943 F1999.800
G1 X-106.194 Y-59.918 Z16.943 F1999.800
G1 X-200.000 Y-59.918 Z16.943 F1999.800
G1 X-200.000 Y-61.993 Z16.943 F1999.800
G1 X-200.000 Y-61.993 Z16.415 F999.600
G1 X-200.000 Y-59.918 Z16.415 F1999.800
G1 X-106.194 Y-59.918 Z16.415 F1999.800
G1 X-106.194 Y-61.993 Z16.415 F1999.800
G1 X-200.000 Y-61.993 Z16.415 F1999.800
G1 X-200.000 Y-64.371 Z16.415 F1999.800
G1 X-106.194 Y-64.371 Z16.415 F1999.800
G1 X-106.194 Y-66.748 Z16.415 F1999.800
G1 X-200.000 Y-66.748 Z16.415 F1999.800
G1 X-200.000 Y-66.748 Z15.887 F999.600
G1 X-106.194 Y-66.748 Z15.887 F1999.800
G1 X-106.194 Y-64.371 Z15.887 F1999.800
G1 X-200.000 Y-64.371 Z15.887 F1999.800
G1 X-200.000 Y-61.993 Z15.887 F1999.800
G1 X-106.194 Y-61.993 Z15.887 F1999.800
G1 X-106.194 Y-59.918 Z15.887 F1999.800
G1 X-200.000 Y-59.918 Z15.887 F1999.800
G1 X-200.000 Y-61.993 Z15.887 F1999.800
G1 X-200.000 Y-61.993 Z15.500 F999.600
G1 X-200.000 Y-59.918 Z15.500 F1999.800
G1 X-106.194 Y-59.918 Z15.500 F1999.800
G1 X-106.194 Y-61.993 Z15.500 F1999.800
G1 X-200.000 Y-61.993 Z15.500 F1999.800
G1 X-200.000 Y-64.371 Z15.500 F1999.800
G1 X-106.194 Y-64.371 Z15.500 F1999.800
G1 X-106.194 Y-66.748 Z15.500 F1999.800
G1 X-200.000 Y-66.748 Z15.500 F1999.800
G0 Z23.000
G0 Z23.000
G0 Y59.918
G0 Y59.918 Z21.000
G1 X-200.000 Y59.918 Z17.472 F999.600
G1 X-106.194 Y59.918 Z17.472 F1999.800
G1 X-106.194 Y62.296 Z17.472 F1999.800
G1 X-200.000 Y62.296 Z17.472 F1999.800
G1 X-200.000 Y64.673 Z17.472 F1999.800
G1 X-200.000 Y66.748 Z17.472 F1999.800
G1 X-106.194 Y66.748 Z17.472 F1999.800
G1 X-106.194 Y64.673 Z17.472 F1999.800
G1 X-200.000 Y64.673 Z17.472 F1999.800
G1 X-200.000 Y64.673 Z16.943 F999.600
G1 X-106.194 Y64.673 Z16.943 F1999.800
G1 X-106.194 Y66.748 Z16.943 F1999.800
G1 X-200.000 Y66.748 Z16.943 F1999.800
G1 X-200.000 Y64.673 Z16.943 F1999.800
G1 X-200.000 Y62.296 Z16.943 F1999.800
G1 X-106.194 Y62.296 Z16.943 F1999.800
G1 X-106.194 Y59.918 Z16.943 F1999.800
G1 X-200.000 Y59.918 Z16.943 F1999.800
G1 X-200.000 Y59.918 Z16.415 F999.600
G1 X-106.194 Y59.918 Z16.415 F1999.800
G1 X-106.194 Y62.296 Z16.415 F1999.800
G1 X-200.000 Y62.296 Z16.415 F1999.800
G1 X-200.000 Y64.673 Z16.415 F1999.800
G1 X-200.000 Y66.748 Z16.415 F1999.800
G1 X-106.194 Y66.748 Z16.415 F1999.800
G1 X-106.194 Y64.673 Z16.415 F1999.800
G1 X-200.000 Y64.673 Z16.415 F1999.800
G1 X-200.000 Y64.673 Z15.887 F999.600
G1 X-106.194 Y64.673 Z15.887 F1999.800
G1 X-106.194 Y66.748 Z15.887 F1999.800
G1 X-200.000 Y66.748 Z15.887 F1999.800
G1 X-200.000 Y64.673 Z15.887 F1999.800
G1 X-200.000 Y62.296 Z15.887 F1999.800
G1 X-106.194 Y62.296 Z15.887 F1999.800
G1 X-106.194 Y59.918 Z15.887 F1999.800
G1 X-200.000 Y59.918 Z15.887 F1999.800
G1 X-200.000 Y59.918 Z15.500 F999.600
G1 X-106.194 Y59.918 Z15.500 F1999.800
G1 X-106.194 Y62.296 Z15.500 F1999.800
G1 X-200.000 Y62.296 Z15.500 F1999.800
G1 X-200.000 Y64.673 Z15.500 F1999.800
G1 X-200.000 Y66.748 Z15.500 F1999.800
G1 X-106.194 Y66.748 Z15.500 F1999.800
G1 X-106.194 Y64.673 Z15.500 F1999.800
G1 X-200.000 Y64.673 Z15.500 F1999.800
G0 Z23.000
G0 Z23.000
(Finish operation: Pockets_Left)
(Begin operation: Fixture)
(Path: Fixture)
G54
G0 Z23.000
(Finish operation: Fixture)
(Begin operation: Pockets_Right)
(Path: Pockets_Right)
(Pockets_Right)
G0 Z23.000
G0 X106.194 Y-61.993
G0 Z21.000
G1 X106.194 Y-61.993 Z17.472 F999.600
G1 X200.000 Y-61.993 Z17.472 F1999.800
G1 X200.000 Y-59.918 Z17.472 F1999.800
G1 X106.194 Y-59.918 Z17.472 F1999.800
G1 X106.194 Y-61.993 Z17.472 F1999.800
G1 X106.194 Y-64.371 Z17.472 F1999.800
G1 X200.000 Y-64.371 Z17.472 F1999.800
G1 X200.000 Y-66.748 Z17.472 F1999.800
G1 X106.194 Y-66.748 Z17.472 F1999.800
G1 X106.194 Y-66.748 Z16.943 F999.600
G1 X200.000 Y-66.748 Z16.943 F1999.800
G1 X200.000 Y-64.371 Z16.943 F1999.800
G1 X106.194 Y-64.371 Z16.943 F1999.800
G1 X106.194 Y-61.993 Z16.943 F1999.800
G1 X106.194 Y-59.918 Z16.943 F1999.800
G1 X200.000 Y-59.918 Z16.943 F1999.800
G1 X200.000 Y-61.993 Z16.943 F1999.800
G1 X106.194 Y-61.993 Z16.943 F1999.800
G1 X106.194 Y-61.993 Z16.415 F999.600
G1 X200.000 Y-61.993 Z16.415 F1999.800
G1 X200.000 Y-59.918 Z16.415 F1999.800
G1 X106.194 Y-59.918 Z16.415 F1999.800
G1 X106.194 Y-61.993 Z16.415 F1999.800
G1 X106.194 Y-64.371 Z16.415 F1999.800
G1 X200.000 Y-64.371 Z16.415 F1999.800
G1 X200.000 Y-66.748 Z16.415 F1999.800
G1 X106.194 Y-66.748 Z16.415 F1999.800
G1 X106.194 Y-66.748 Z15.887 F999.600
G1 X200.000 Y-66.748 Z15.887 F1999.800
G1 X200.000 Y-64.371 Z15.887 F1999.800
G1 X106.194 Y-64.371 Z15.887 F1999.800
G1 X106.194 Y-61.993 Z15.887 F1999.800
G1 X106.194 Y-59.918 Z15.887 F1999.800
G1 X200.000 Y-59.918 Z15.887 F1999.800
G1 X200.000 Y-61.993 Z15.887 F1999.800
G1 X106.194 Y-61.993 Z15.887 F1999.800
G1 X106.194 Y-61.993 Z15.500 F999.600
G1 X200.000 Y-61.993 Z15.500 F1999.800
G1 X200.000 Y-59.918 Z15.500 F1999.800
G1 X106.194 Y-59.918 Z15.500 F1999.800
G1 X106.194 Y-61.993 Z15.500 F1999.800
G1 X106.194 Y-64.371 Z15.500 F1999.800
G1 X200.000 Y-64.371 Z15.500 F1999.800
G1 X200.000 Y-66.748 Z15.500 F1999.800
G1 X106.194 Y-66.748 Z15.500 F1999.800
G0 Z23.000
G0 Z23.000
G0 Y59.918
G0 Y59.918 Z21.000
G1 X106.194 Y59.918 Z17.472 F999.600
G1 X200.000 Y59.918 Z17.472 F1999.800
G1 X200.000 Y62.296 Z17.472 F1999.800
G1 X106.194 Y62.296 Z17.472 F1999.800
G1 X106.194 Y64.673 Z17.472 F1999.800
G1 X200.000 Y64.673 Z17.472 F1999.800
G1 X200.000 Y66.748 Z17.472 F1999.800
G1 X106.194 Y66.748 Z17.472 F1999.800
G1 X106.194 Y64.673 Z17.472 F1999.800
G1 X106.194 Y64.673 Z16.943 F999.600
G1 X106.194 Y66.748 Z16.943 F1999.800
G1 X200.000 Y66.748 Z16.943 F1999.800
G1 X200.000 Y64.673 Z16.943 F1999.800
G1 X106.194 Y64.673 Z16.943 F1999.800
G1 X106.194 Y62.296 Z16.943 F1999.800
G1 X200.000 Y62.296 Z16.943 F1999.800
G1 X200.000 Y59.918 Z16.943 F1999.800
G1 X106.194 Y59.918 Z16.943 F1999.800
G1 X106.194 Y59.918 Z16.415 F999.600
G1 X200.000 Y59.918 Z16.415 F1999.800
G1 X200.000 Y62.296 Z16.415 F1999.800
G1 X106.194 Y62.296 Z16.415 F1999.800
G1 X106.194 Y64.673 Z16.415 F1999.800
G1 X200.000 Y64.673 Z16.415 F1999.800
G1 X200.000 Y66.748 Z16.415 F1999.800
G1 X106.194 Y66.748 Z16.415 F1999.800
G1 X106.194 Y64.673 Z16.415 F1999.800
G1 X106.194 Y64.673 Z15.887 F999.600
G1 X106.194 Y66.748 Z15.887 F1999.800
G1 X200.000 Y66.748 Z15.887 F1999.800
G1 X200.000 Y64.673 Z15.887 F1999.800
G1 X106.194 Y64.673 Z15.887 F1999.800
G1 X106.194 Y62.296 Z15.887 F1999.800
G1 X200.000 Y62.296 Z15.887 F1999.800
G1 X200.000 Y59.918 Z15.887 F1999.800
G1 X106.194 Y59.918 Z15.887 F1999.800
G1 X106.194 Y59.918 Z15.500 F999.600
G1 X200.000 Y59.918 Z15.500 F1999.800
G1 X200.000 Y62.296 Z15.500 F1999.800
G1 X106.194 Y62.296 Z15.500 F1999.800
G1 X106.194 Y64.673 Z15.500 F1999.800
G1 X200.000 Y64.673 Z15.500 F1999.800
G1 X200.000 Y66.748 Z15.500 F1999.800
G1 X106.194 Y66.748 Z15.500 F1999.800
G1 X106.194 Y64.673 Z15.500 F1999.800
G0 Z23.000
G0 Z23.000
(Finish operation: Pockets_Right)
(Begin operation: Fixture)
(Path: Fixture)
G54
G0 Z23.000
(Finish operation: Fixture)
(Begin operation: Contour_With_Tags001)
(Path: Contour_With_Tags001)
G0 Z23.000
G0 X-12.173 Y191.570 Z23.000
G0 X-12.173 Y191.570 Z21.000
G1 X-12.173 Y191.570 Z17.472 F999.600
G2 X-10.802 Y190.000 Z17.472 I-0.215 J-1.570 K0.000 F1999.800
G1 X-10.802 Y68.333 Z17.472 F1999.800
G2 X-12.387 Y66.748 Z17.472 I-1.585 J-0.000 K0.000 F1999.800
G1 X-104.609 Y66.748 Z17.472 F1999.800
G1 X-105.073 Y67.213 Z17.472 F1999.800
G1 X-104.609 Y66.748 Z17.472 F1999.800
G1 X-104.609 Y59.918 Z17.472 F1999.800
G1 X-105.073 Y59.454 Z17.472 F1999.800
G1 X-104.609 Y59.918 Z17.472 F1999.800
G1 X-12.387 Y59.918 Z17.472 F1999.800
G2 X-10.802 Y58.333 Z17.472 I0.000 J-1.585 K0.000 F1999.800
G1 X-10.802 Y-58.333 Z17.472 F1999.800
G2 X-12.387 Y-59.918 Z17.472 I-1.585 J-0.000 K0.000 F1999.800
G1 X-104.609 Y-59.918 Z17.472 F1999.800
G1 X-105.073 Y-59.454 Z17.472 F1999.800
G1 X-104.609 Y-59.918 Z17.472 F1999.800
G1 X-104.609 Y-66.748 Z17.472 F1999.800
G1 X-105.073 Y-67.213 Z17.472 F1999.800
G1 X-104.609 Y-66.748 Z17.472 F1999.800
G1 X-12.387 Y-66.748 Z17.472 F1999.800
G2 X-10.802 Y-68.333 Z17.472 I0.000 J-1.585 K0.000 F1999.800
G1 X-10.802 Y-190.000 Z17.472 F1999.800
G2 X-12.387 Y-191.585 Z17.472 I-1.585 J0.000 K0.000 F1999.800
G1 X-67.340 Y-191.585 Z17.472 F1999.800
G1 X-67.804 Y-191.121 Z17.472 F1999.800
G1 X-67.340 Y-191.585 Z17.472 F1999.800
G1 X-67.340 Y-200.000 Z17.472 F1999.800
G2 X-68.925 Y-201.585 Z17.472 I-1.585 J0.000 K0.000 F1999.800
G1 X-125.462 Y-201.585 Z17.472 F1999.800
G2 X-127.047 Y-200.000 Z17.472 I0.000 J1.585 K0.000 F1999.800
G1 X-127.047 Y-191.585 Z17.472 F1999.800
G1 X-126.583 Y-191.121 Z17.472 F1999.800
G1 X-127.047 Y-191.585 Z17.472 F1999.800
G1 X-182.000 Y-191.585 Z17.472 F1999.800
G2 X-183.585 Y-190.000 Z17.472 I0.000 J1.585 K0.000 F1999.800
G1 X-183.585 Y-186.585 Z17.472 F1999.800
G1 X-183.121 Y-186.121 Z17.472 F1999.800
G1 X-183.585 Y-186.585 Z17.472 F1999.800
G1 X-200.000 Y-186.585 Z17.472 F1999.800
G2 X-201.585 Y-185.000 Z17.472 I0.000 J1.585 K0.000 F1999.800
G1 X-201.585 Y185.000 Z17.472 F1999.800
G2 X-200.000 Y186.585 Z17.472 I1.585 J-0.000 K0.000 F1999.800
G1 X-183.585 Y186.585 Z17.472 F1999.800
G1 X-183.121 Y186.121 Z17.472 F1999.800
G1 X-183.585 Y186.585 Z17.472 F1999.800
G1 X-183.585 Y190.000 Z17.472 F1999.800
G2 X-182.000 Y191.585 Z17.472 I1.585 J-0.000 K0.000 F1999.800
G1 X-127.047 Y191.585 Z17.472 F1999.800
G1 X-126.583 Y191.121 Z17.472 F1999.800
G1 X-127.047 Y191.585 Z17.472 F1999.800
G1 X-127.047 Y200.000 Z17.472 F1999.800
G2 X-125.462 Y201.585 Z17.472 I1.585 J-0.000 K0.000 F1999.800
G1 X-68.925 Y201.585 Z17.472 F1999.800
G2 X-67.340 Y200.000 Z17.472 I-0.000 J-1.585 K0.000 F1999.800
G1 X-67.340 Y191.585 Z17.472 F1999.800
G1 X-67.804 Y191.121 Z17.472 F1999.800
G1 X-67.340 Y191.585 Z17.472 F1999.800
G1 X-12.387 Y191.585 Z17.472 F1999.800
G2 X-12.173 Y191.570 Z17.472 I-0.000 J-1.585 K0.000 F1999.800
G1 X-12.173 Y191.570 Z16.943 F999.600
G2 X-10.802 Y190.000 Z16.943 I-0.215 J-1.570 K0.000 F1999.800
G1 X-10.802 Y68.333 Z16.943 F1999.800
G2 X-12.387 Y66.748 Z16.943 I-1.585 J-0.000 K0.000 F1999.800
G1 X-104.609 Y66.748 Z16.943 F1999.800
G1 X-105.073 Y67.213 Z16.943 F1999.800
G1 X-104.609 Y66.748 Z16.943 F1999.800
G1 X-104.609 Y59.918 Z16.943 F1999.800
G1 X-105.073 Y59.454 Z16.943 F1999.800
G1 X-104.609 Y59.918 Z16.943 F1999.800
G1 X-12.387 Y59.918 Z16.943 F1999.800
G2 X-10.802 Y58.333 Z16.943 I0.000 J-1.585 K0.000 F1999.800
G1 X-10.802 Y-58.333 Z16.943 F1999.800
G2 X-12.387 Y-59.918 Z16.943 I-1.585 J-0.000 K0.000 F1999.800
G1 X-104.609 Y-59.918 Z16.943 F1999.800
G1 X-105.073 Y-59.454 Z16.943 F1999.800
G1 X-104.609 Y-59.918 Z16.943 F1999.800
G1 X-104.609 Y-66.748 Z16.943 F1999.800
G1 X-105.073 Y-67.213 Z16.943 F1999.800
G1 X-104.609 Y-66.748 Z16.943 F1999.800
G1 X-12.387 Y-66.748 Z16.943 F1999.800
G2 X-10.802 Y-68.333 Z16.943 I0.000 J-1.585 K0.000 F1999.800
G1 X-10.802 Y-190.000 Z16.943 F1999.800
G2 X-12.387 Y-191.585 Z16.943 I-1.585 J0.000 K0.000 F1999.800
G1 X-67.340 Y-191.585 Z16.943 F1999.800
G1 X-67.804 Y-191.121 Z16.943 F1999.800
G1 X-67.340 Y-191.585 Z16.943 F1999.800
G1 X-67.340 Y-200.000 Z16.943 F1999.800
G2 X-68.925 Y-201.585 Z16.943 I-1.585 J0.000 K0.000 F1999.800
G1 X-125.462 Y-201.585 Z16.943 F1999.800
G2 X-127.047 Y-200.000 Z16.943 I0.000 J1.585 K0.000 F1999.800
G1 X-127.047 Y-191.585 Z16.943 F1999.800
G1 X-126.583 Y-191.121 Z16.943 F1999.800
G1 X-127.047 Y-191.585 Z16.943 F1999.800
G1 X-182.000 Y-191.585 Z16.943 F1999.800
G2 X-183.585 Y-190.000 Z16.943 I0.000 J1.585 K0.000 F1999.800
G1 X-183.585 Y-186.585 Z16.943 F1999.800
G1 X-183.121 Y-186.121 Z16.943 F1999.800
G1 X-183.585 Y-186.585 Z16.943 F1999.800
G1 X-200.000 Y-186.585 Z16.943 F1999.800
G2 X-201.585 Y-185.000 Z16.943 I0.000 J1.585 K0.000 F1999.800
G1 X-201.585 Y185.000 Z16.943 F1999.800
G2 X-200.000 Y186.585 Z16.943 I1.585 J-0.000 K0.000 F1999.800
G1 X-183.585 Y186.585 Z16.943 F1999.800
G1 X-183.121 Y186.121 Z16.943 F1999.800
G1 X-183.585 Y186.585 Z16.943 F1999.800
G1 X-183.585 Y190.000 Z16.943 F1999.800
G2 X-182.000 Y191.585 Z16.943 I1.585 J-0.000 K0.000 F1999.800
G1 X-127.047 Y191.585 Z16.943 F1999.800
G1 X-126.583 Y191.121 Z16.943 F1999.800
G1 X-127.047 Y191.585 Z16.943 F1999.800
G1 X-127.047 Y200.000 Z16.943 F1999.800
G2 X-125.462 Y201.585 Z16.943 I1.585 J-0.000 K0.000 F1999.800
G1 X-68.925 Y201.585 Z16.943 F1999.800
G2 X-67.340 Y200.000 Z16.943 I-0.000 J-1.585 K0.000 F1999.800
G1 X-67.340 Y191.585 Z16.943 F1999.800
G1 X-67.804 Y191.121 Z16.943 F1999.800
G1 X-67.340 Y191.585 Z16.943 F1999.800
G1 X-12.387 Y191.585 Z16.943 F1999.800
G2 X-12.173 Y191.570 Z16.943 I-0.000 J-1.585 K0.000 F1999.800
G1 X-12.173 Y191.570 Z16.415 F999.600
G2 X-10.802 Y190.000 Z16.415 I-0.215 J-1.570 K0.000 F1999.800
G1 X-10.802 Y68.333 Z16.415 F1999.800
G2 X-12.387 Y66.748 Z16.415 I-1.585 J-0.000 K0.000 F1999.800
G1 X-104.609 Y66.748 Z16.415 F1999.800
G1 X-105.073 Y67.213 Z16.415 F1999.800
G1 X-104.609 Y66.748 Z16.415 F1999.800
G1 X-104.609 Y59.918 Z16.415 F1999.800
G1 X-105.073 Y59.454 Z16.415 F1999.800
G1 X-104.609 Y59.918 Z16.415 F1999.800
G1 X-12.387 Y59.918 Z16.415 F1999.800
G2 X-10.802 Y58.333 Z16.415 I0.000 J-1.585 K0.000 F1999.800
G1 X-10.802 Y-58.333 Z16.415 F1999.800
G2 X-12.387 Y-59.918 Z16.415 I-1.585 J-0.000 K0.000 F1999.800
G1 X-104.609 Y-59.918 Z16.415 F1999.800
G1 X-105.073 Y-59.454 Z16.415 F1999.800
G1 X-104.609 Y-59.918 Z16.415 F1999.800
G1 X-104.609 Y-66.748 Z16.415 F1999.800
G1 X-105.073 Y-67.213 Z16.415 F1999.800
G1 X-104.609 Y-66.748 Z16.415 F1999.800
G1 X-12.387 Y-66.748 Z16.415 F1999.800
G2 X-10.802 Y-68.333 Z16.415 I0.000 J-1.585 K0.000 F1999.800
G1 X-10.802 Y-190.000 Z16.415 F1999.800
G2 X-12.387 Y-191.585 Z16.415 I-1.585 J0.000 K0.000 F1999.800
G1 X-67.340 Y-191.585 Z16.415 F1999.800
G1 X-67.804 Y-191.121 Z16.415 F1999.800
G1 X-67.340 Y-191.585 Z16.415 F1999.800
G1 X-67.340 Y-200.000 Z16.415 F1999.800
G2 X-68.925 Y-201.585 Z16.415 I-1.585 J0.000 K0.000 F1999.800
G1 X-125.462 Y-201.585 Z16.415 F1999.800
G2 X-127.047 Y-200.000 Z16.415 I0.000 J1.585 K0.000 F1999.800
G1 X-127.047 Y-191.585 Z16.415 F1999.800
G1 X-126.583 Y-191.121 Z16.415 F1999.800
G1 X-127.047 Y-191.585 Z16.415 F1999.800
G1 X-182.000 Y-191.585 Z16.415 F1999.800
G2 X-183.585 Y-190.000 Z16.415 I0.000 J1.585 K0.000 F1999.800
G1 X-183.585 Y-186.585 Z16.415 F1999.800
G1 X-183.121 Y-186.121 Z16.415 F1999.800
G1 X-183.585 Y-186.585 Z16.415 F1999.800
G1 X-200.000 Y-186.585 Z16.415 F1999.800
G2 X-201.585 Y-185.000 Z16.415 I0.000 J1.585 K0.000 F1999.800
G1 X-201.585 Y185.000 Z16.415 F1999.800
G2 X-200.000 Y186.585 Z16.415 I1.585 J-0.000 K0.000 F1999.800
G1 X-183.585 Y186.585 Z16.415 F1999.800
G1 X-183.121 Y186.121 Z16.415 F1999.800
G1 X-183.585 Y186.585 Z16.415 F1999.800
G1 X-183.585 Y190.000 Z16.415 F1999.800
G2 X-182.000 Y191.585 Z16.415 I1.585 J-0.000 K0.000 F1999.800
G1 X-127.047 Y191.585 Z16.415 F1999.800
G1 X-126.583 Y191.121 Z16.415 F1999.800
G1 X-127.047 Y191.585 Z16.415 F1999.800
G1 X-127.047 Y200.000 Z16.415 F1999.800
G2 X-125.462 Y201.585 Z16.415 I1.585 J-0.000 K0.000 F1999.800
G1 X-68.925 Y201.585 Z16.415 F1999.800
G2 X-67.340 Y200.000 Z16.415 I-0.000 J-1.585 K0.000 F1999.800
G1 X-67.340 Y191.585 Z16.415 F1999.800
G1 X-67.804 Y191.121 Z16.415 F1999.800
G1 X-67.340 Y191.585 Z16.415 F1999.800
G1 X-12.387 Y191.585 Z16.415 F1999.800
G2 X-12.173 Y191.570 Z16.415 I-0.000 J-1.585 K0.000 F1999.800
G1 X-12.173 Y191.570 Z15.887 F999.600
G2 X-10.802 Y190.000 Z15.887 I-0.215 J-1.570 K0.000 F1999.800
G1 X-10.802 Y68.333 Z15.887 F1999.800
G2 X-12.387 Y66.748 Z15.887 I-1.585 J-0.000 K0.000 F1999.800
G1 X-104.609 Y66.748 Z15.887 F1999.800
G1 X-105.073 Y67.213 Z15.887 F1999.800
G1 X-104.609 Y66.748 Z15.887 F1999.800
G1 X-104.609 Y59.918 Z15.887 F1999.800
G1 X-105.073 Y59.454 Z15.887 F1999.800
G1 X-104.609 Y59.918 Z15.887 F1999.800
G1 X-12.387 Y59.918 Z15.887 F1999.800
G2 X-10.802 Y58.333 Z15.887 I0.000 J-1.585 K0.000 F1999.800
G1 X-10.802 Y-58.333 Z15.887 F1999.800
G2 X-12.387 Y-59.918 Z15.887 I-1.585 J-0.000 K0.000 F1999.800
G1 X-104.609 Y-59.918 Z15.887 F1999.800
G1 X-105.073 Y-59.454 Z15.887 F1999.800
G1 X-104.609 Y-59.918 Z15.887 F1999.800
G1 X-104.609 Y-66.748 Z15.887 F1999.800
G1 X-105.073 Y-67.213 Z15.887 F1999.800
G1 X-104.609 Y-66.748 Z15.887 F1999.800
G1 X-12.387 Y-66.748 Z15.887 F1999.800
G2 X-10.802 Y-68.333 Z15.887 I0.000 J-1.585 K0.000 F1999.800
G1 X-10.802 Y-190.000 Z15.887 F1999.800
G2 X-12.387 Y-191.585 Z15.887 I-1.585 J0.000 K0.000 F1999.800
G1 X-67.340 Y-191.585 Z15.887 F1999.800
G1 X-67.804 Y-191.121 Z15.887 F1999.800
G1 X-67.340 Y-191.585 Z15.887 F1999.800
G1 X-67.340 Y-200.000 Z15.887 F1999.800
G2 X-68.925 Y-201.585 Z15.887 I-1.585 J0.000 K0.000 F1999.800
G1 X-125.462 Y-201.585 Z15.887 F1999.800
G2 X-127.047 Y-200.000 Z15.887 I0.000 J1.585 K0.000 F1999.800
G1 X-127.047 Y-191.585 Z15.887 F1999.800
G1 X-126.583 Y-191.121 Z15.887 F1999.800
G1 X-127.047 Y-191.585 Z15.887 F1999.800
G1 X-182.000 Y-191.585 Z15.887 F1999.800
G2 X-183.585 Y-190.000 Z15.887 I0.000 J1.585 K0.000 F1999.800
G1 X-183.585 Y-186.585 Z15.887 F1999.800
G1 X-183.121 Y-186.121 Z15.887 F1999.800
G1 X-183.585 Y-186.585 Z15.887 F1999.800
G1 X-200.000 Y-186.585 Z15.887 F1999.800
G2 X-201.585 Y-185.000 Z15.887 I0.000 J1.585 K0.000 F1999.800
G1 X-201.585 Y185.000 Z15.887 F1999.800
G2 X-200.000 Y186.585 Z15.887 I1.585 J-0.000 K0.000 F1999.800
G1 X-183.585 Y186.585 Z15.887 F1999.800
G1 X-183.121 Y186.121 Z15.887 F1999.800
G1 X-183.585 Y186.585 Z15.887 F1999.800
G1 X-183.585 Y190.000 Z15.887 F1999.800
G2 X-182.000 Y191.585 Z15.887 I1.585 J-0.000 K0.000 F1999.800
G1 X-127.047 Y191.585 Z15.887 F1999.800
G1 X-126.583 Y191.121 Z15.887 F1999.800
G1 X-127.047 Y191.585 Z15.887 F1999.800
G1 X-127.047 Y200.000 Z15.887 F1999.800
G2 X-125.462 Y201.585 Z15.887 I1.585 J-0.000 K0.000 F1999.800
G1 X-68.925 Y201.585 Z15.887 F1999.800
G2 X-67.340 Y200.000 Z15.887 I-0.000 J-1.585 K0.000 F1999.800
G1 X-67.340 Y191.585 Z15.887 F1999.800
G1 X-67.804 Y191.121 Z15.887 F1999.800
G1 X-67.340 Y191.585 Z15.887 F1999.800
G1 X-12.387 Y191.585 Z15.887 F1999.800
G2 X-12.173 Y191.570 Z15.887 I-0.000 J-1.585 K0.000 F1999.800
G1 X-12.173 Y191.570 Z15.358 F999.600
G2 X-10.802 Y190.000 Z15.358 I-0.215 J-1.570 K0.000 F1999.800
G1 X-10.802 Y68.333 Z15.358 F1999.800
G2 X-12.387 Y66.748 Z15.358 I-1.585 J-0.000 K0.000 F1999.800
G1 X-104.609 Y66.748 Z15.358 F1999.800
G1 X-105.073 Y67.213 Z15.358 F1999.800
G1 X-104.609 Y66.748 Z15.358 F1999.800
G1 X-104.609 Y59.918 Z15.358 F1999.800
G1 X-105.073 Y59.454 Z15.358 F1999.800
G1 X-104.609 Y59.918 Z15.358 F1999.800
G1 X-12.387 Y59.918 Z15.358 F1999.800
G2 X-10.802 Y58.333 Z15.358 I0.000 J-1.585 K0.000 F1999.800
G1 X-10.802 Y-58.333 Z15.358 F1999.800
G2 X-12.387 Y-59.918 Z15.358 I-1.585 J-0.000 K0.000 F1999.800
G1 X-104.609 Y-59.918 Z15.358 F1999.800
G1 X-105.073 Y-59.454 Z15.358 F1999.800
G1 X-104.609 Y-59.918 Z15.358 F1999.800
G1 X-104.609 Y-66.748 Z15.358 F1999.800
G1 X-105.073 Y-67.213 Z15.358 F1999.800
G1 X-104.609 Y-66.748 Z15.358 F1999.800
G1 X-12.387 Y-66.748 Z15.358 F1999.800
G2 X-10.802 Y-68.333 Z15.358 I0.000 J-1.585 K0.000 F1999.800
G1 X-10.802 Y-190.000 Z15.358 F1999.800
G2 X-12.387 Y-191.585 Z15.358 I-1.585 J0.000 K0.000 F1999.800
G1 X-67.340 Y-191.585 Z15.358 F1999.800
G1 X-67.804 Y-191.121 Z15.358 F1999.800
G1 X-67.340 Y-191.585 Z15.358 F1999.800
G1 X-67.340 Y-200.000 Z15.358 F1999.800
G2 X-68.925 Y-201.585 Z15.358 I-1.585 J0.000 K0.000 F1999.800
G1 X-125.462 Y-201.585 Z15.358 F1999.800
G2 X-127.047 Y-200.000 Z15.358 I0.000 J1.585 K0.000 F1999.800
G1 X-127.047 Y-191.585 Z15.358 F1999.800
G1 X-126.583 Y-191.121 Z15.358 F1999.800
G1 X-127.047 Y-191.585 Z15.358 F1999.800
G1 X-182.000 Y-191.585 Z15.358 F1999.800
G2 X-183.585 Y-190.000 Z15.358 I0.000 J1.585 K0.000 F1999.800
G1 X-183.585 Y-186.585 Z15.358 F1999.800
G1 X-183.121 Y-186.121 Z15.358 F1999.800
G1 X-183.585 Y-186.585 Z15.358 F1999.800
G1 X-200.000 Y-186.585 Z15.358 F1999.800
G2 X-201.585 Y-185.000 Z15.358 I0.000 J1.585 K0.000 F1999.800
G1 X-201.585 Y185.000 Z15.358 F1999.800
G2 X-200.000 Y186.585 Z15.358 I1.585 J-0.000 K0.000 F1999.800
G1 X-183.585 Y186.585 Z15.358 F1999.800
G1 X-183.121 Y186.121 Z15.358 F1999.800
G1 X-183.585 Y186.585 Z15.358 F1999.800
G1 X-183.585 Y190.000 Z15.358 F1999.800
G2 X-182.000 Y191.585 Z15.358 I1.585 J-0.000 K0.000 F1999.800
G1 X-127.047 Y191.585 Z15.358 F1999.800
G1 X-126.583 Y191.121 Z15.358 F1999.800
G1 X-127.047 Y191.585 Z15.358 F1999.800
G1 X-127.047 Y200.000 Z15.358 F1999.800
G2 X-125.462 Y201.585 Z15.358 I1.585 J-0.000 K0.000 F1999.800
G1 X-68.925 Y201.585 Z15.358 F1999.800
G2 X-67.340 Y200.000 Z15.358 I-0.000 J-1.585 K0.000 F1999.800
G1 X-67.340 Y191.585 Z15.358 F1999.800
G1 X-67.804 Y191.121 Z15.358 F1999.800
G1 X-67.340 Y191.585 Z15.358 F1999.800
G1 X-12.387 Y191.585 Z15.358 F1999.800
G2 X-12.173 Y191.570 Z15.358 I-0.000 J-1.585 K0.000 F1999.800
G1 X-12.173 Y191.570 Z14.830 F999.600
G2 X-10.802 Y190.000 Z14.830 I-0.215 J-1.570 K0.000 F1999.800
G1 X-10.802 Y68.333 Z14.830 F1999.800
G2 X-12.387 Y66.748 Z14.830 I-1.585 J-0.000 K0.000 F1999.800
G1 X-104.609 Y66.748 Z14.830 F1999.800
G1 X-105.073 Y67.213 Z14.830 F1999.800
G1 X-104.609 Y66.748 Z14.830 F1999.800
G1 X-104.609 Y59.918 Z14.830 F1999.800
G1 X-105.073 Y59.454 Z14.830 F1999.800
G1 X-104.609 Y59.918 Z14.830 F1999.800
G1 X-12.387 Y59.918 Z14.830 F1999.800
G2 X-10.802 Y58.333 Z14.830 I0.000 J-1.585 K0.000 F1999.800
G1 X-10.802 Y-58.333 Z14.830 F1999.800
G2 X-12.387 Y-59.918 Z14.830 I-1.585 J-0.000 K0.000 F1999.800
G1 X-104.609 Y-59.918 Z14.830 F1999.800
G1 X-105.073 Y-59.454 Z14.830 F1999.800
G1 X-104.609 Y-59.918 Z14.830 F1999.800
G1 X-104.609 Y-66.748 Z14.830 F1999.800
G1 X-105.073 Y-67.213 Z14.830 F1999.800
G1 X-104.609 Y-66.748 Z14.830 F1999.800
G1 X-12.387 Y-66.748 Z14.830 F1999.800
G2 X-10.802 Y-68.333 Z14.830 I0.000 J-1.585 K0.000 F1999.800
G1 X-10.802 Y-190.000 Z14.830 F1999.800
G2 X-12.387 Y-191.585 Z14.830 I-1.585 J0.000 K0.000 F1999.800
G1 X-67.340 Y-191.585 Z14.830 F1999.800
G1 X-67.804 Y-191.121 Z14.830 F1999.800
G1 X-67.340 Y-191.585 Z14.830 F1999.800
G1 X-67.340 Y-200.000 Z14.830 F1999.800
G2 X-68.925 Y-201.585 Z14.830 I-1.585 J0.000 K0.000 F1999.800
G1 X-125.462 Y-201.585 Z14.830 F1999.800
G2 X-127.047 Y-200.000 Z14.830 I0.000 J1.585 K0.000 F1999.800
G1 X-127.047 Y-191.585 Z14.830 F1999.800
G1 X-126.583 Y-191.121 Z14.830 F1999.800
G1 X-127.047 Y-191.585 Z14.830 F1999.800
G1 X-182.000 Y-191.585 Z14.830 F1999.800
G2 X-183.585 Y-190.000 Z14.830 I0.000 J1.585 K0.000 F1999.800
G1 X-183.585 Y-186.585 Z14.830 F1999.800
G1 X-183.121 Y-186.121 Z14.830 F1999.800
G1 X-183.585 Y-186.585 Z14.830 F1999.800
G1 X-200.000 Y-186.585 Z14.830 F1999.800
G2 X-201.585 Y-185.000 Z14.830 I0.000 J1.585 K0.000 F1999.800
G1 X-201.585 Y185.000 Z14.830 F1999.800
G2 X-200.000 Y186.585 Z14.830 I1.585 J-0.000 K0.000 F1999.800
G1 X-183.585 Y186.585 Z14.830 F1999.800
G1 X-183.121 Y186.121 Z14.830 F1999.800
G1 X-183.585 Y186.585 Z14.830 F1999.800
G1 X-183.585 Y190.000 Z14.830 F1999.800
G2 X-182.000 Y191.585 Z14.830 I1.585 J-0.000 K0.000 F1999.800
G1 X-127.047 Y191.585 Z14.830 F1999.800
G1 X-126.583 Y191.121 Z14.830 F1999.800
G1 X-127.047 Y191.585 Z14.830 F1999.800
G1 X-127.047 Y200.000 Z14.830 F1999.800
G2 X-125.462 Y201.585 Z14.830 I1.585 J-0.000 K0.000 F1999.800
G1 X-68.925 Y201.585 Z14.830 F1999.800
G2 X-67.340 Y200.000 Z14.830 I-0.000 J-1.585 K0.000 F1999.800
G1 X-67.340 Y191.585 Z14.830 F1999.800
G1 X-67.804 Y191.121 Z14.830 F1999.800
G1 X-67.340 Y191.585 Z14.830 F1999.800
G1 X-12.387 Y191.585 Z14.830 F1999.800
G2 X-12.173 Y191.570 Z14.830 I-0.000 J-1.585 K0.000 F1999.800
G1 X-12.173 Y191.570 Z14.302 F999.600
G2 X-10.802 Y190.000 Z14.302 I-0.215 J-1.570 K0.000 F1999.800
G1 X-10.802 Y68.333 Z14.302 F1999.800
G2 X-12.387 Y66.748 Z14.302 I-1.585 J-0.000 K0.000 F1999.800
G1 X-104.609 Y66.748 Z14.302 F1999.800
G1 X-105.073 Y67.213 Z14.302 F1999.800
G1 X-104.609 Y66.748 Z14.302 F1999.800
G1 X-104.609 Y59.918 Z14.302 F1999.800
G1 X-105.073 Y59.454 Z14.302 F1999.800
G1 X-104.609 Y59.918 Z14.302 F1999.800
G1 X-12.387 Y59.918 Z14.302 F1999.800
G2 X-10.802 Y58.333 Z14.302 I0.000 J-1.585 K0.000 F1999.800
G1 X-10.802 Y-58.333 Z14.302 F1999.800
G2 X-12.387 Y-59.918 Z14.302 I-1.585 J-0.000 K0.000 F1999.800
G1 X-104.609 Y-59.918 Z14.302 F1999.800
G1 X-105.073 Y-59.454 Z14.302 F1999.800
G1 X-104.609 Y-59.918 Z14.302 F1999.800
G1 X-104.609 Y-66.748 Z14.302 F1999.800
G1 X-105.073 Y-67.213 Z14.302 F1999.800
G1 X-104.609 Y-66.748 Z14.302 F1999.800
G1 X-12.387 Y-66.748 Z14.302 F1999.800
G2 X-10.802 Y-68.333 Z14.302 I0.000 J-1.585 K0.000 F1999.800
G1 X-10.802 Y-190.000 Z14.302 F1999.800
G2 X-12.387 Y-191.585 Z14.302 I-1.585 J0.000 K0.000 F1999.800
G1 X-67.340 Y-191.585 Z14.302 F1999.800
G1 X-67.804 Y-191.121 Z14.302 F1999.800
G1 X-67.340 Y-191.585 Z14.302 F1999.800
G1 X-67.340 Y-200.000 Z14.302 F1999.800
G2 X-68.925 Y-201.585 Z14.302 I-1.585 J0.000 K0.000 F1999.800
G1 X-125.462 Y-201.585 Z14.302 F1999.800
G2 X-127.047 Y-200.000 Z14.302 I0.000 J1.585 K0.000 F1999.800
G1 X-127.047 Y-191.585 Z14.302 F1999.800
G1 X-126.583 Y-191.121 Z14.302 F1999.800
G1 X-127.047 Y-191.585 Z14.302 F1999.800
G1 X-182.000 Y-191.585 Z14.302 F1999.800
G2 X-183.585 Y-190.000 Z14.302 I0.000 J1.585 K0.000 F1999.800
G1 X-183.585 Y-186.585 Z14.302 F1999.800
G1 X-183.121 Y-186.121 Z14.302 F1999.800
G1 X-183.585 Y-186.585 Z14.302 F1999.800
G1 X-200.000 Y-186.585 Z14.302 F1999.800
G2 X-201.585 Y-185.000 Z14.302 I0.000 J1.585 K0.000 F1999.800
G1 X-201.585 Y185.000 Z14.302 F1999.800
G2 X-200.000 Y186.585 Z14.302 I1.585 J-0.000 K0.000 F1999.800
G1 X-183.585 Y186.585 Z14.302 F1999.800
G1 X-183.121 Y186.121 Z14.302 F1999.800
G1 X-183.585 Y186.585 Z14.302 F1999.800
G1 X-183.585 Y190.000 Z14.302 F1999.800
G2 X-182.000 Y191.585 Z14.302 I1.585 J-0.000 K0.000 F1999.800
G1 X-127.047 Y191.585 Z14.302 F1999.800
G1 X-126.583 Y191.121 Z14.302 F1999.800
G1 X-127.047 Y191.585 Z14.302 F1999.800
G1 X-127.047 Y200.000 Z14.302 F1999.800
G2 X-125.462 Y201.585 Z14.302 I1.585 J-0.000 K0.000 F1999.800
G1 X-68.925 Y201.585 Z14.302 F1999.800
G2 X-67.340 Y200.000 Z14.302 I-0.000 J-1.585 K0.000 F1999.800
G1 X-67.340 Y191.585 Z14.302 F1999.800
G1 X-67.804 Y191.121 Z14.302 F1999.800
G1 X-67.340 Y191.585 Z14.302 F1999.800
G1 X-12.387 Y191.585 Z14.302 F1999.800
G2 X-12.173 Y191.570 Z14.302 I-0.000 J-1.585 K0.000 F1999.800
G1 X-12.173 Y191.570 Z13.773 F999.600
G2 X-10.802 Y190.000 Z13.773 I-0.215 J-1.570 K0.000 F1999.800
G1 X-10.802 Y68.333 Z13.773 F1999.800
G2 X-12.387 Y66.748 Z13.773 I-1.585 J-0.000 K0.000 F1999.800
G1 X-104.609 Y66.748 Z13.773 F1999.800
G1 X-105.073 Y67.213 Z13.773 F1999.800
G1 X-104.609 Y66.748 Z13.773 F1999.800
G1 X-104.609 Y59.918 Z13.773 F1999.800
G1 X-105.073 Y59.454 Z13.773 F1999.800
G1 X-104.609 Y59.918 Z13.773 F1999.800
G1 X-12.387 Y59.918 Z13.773 F1999.800
G2 X-10.802 Y58.333 Z13.773 I0.000 J-1.585 K0.000 F1999.800
G1 X-10.802 Y-58.333 Z13.773 F1999.800
G2 X-12.387 Y-59.918 Z13.773 I-1.585 J-0.000 K0.000 F1999.800
G1 X-104.609 Y-59.918 Z13.773 F1999.800
G1 X-105.073 Y-59.454 Z13.773 F1999.800
G1 X-104.609 Y-59.918 Z13.773 F1999.800
G1 X-104.609 Y-66.748 Z13.773 F1999.800
G1 X-105.073 Y-67.213 Z13.773 F1999.800
G1 X-104.609 Y-66.748 Z13.773 F1999.800
G1 X-12.387 Y-66.748 Z13.773 F1999.800
G2 X-10.802 Y-68.333 Z13.773 I0.000 J-1.585 K0.000 F1999.800
G1 X-10.802 Y-190.000 Z13.773 F1999.800
G2 X-12.387 Y-191.585 Z13.773 I-1.585 J0.000 K0.000 F1999.800
G1 X-67.340 Y-191.585 Z13.773 F1999.800
G1 X-67.804 Y-191.121 Z13.773 F1999.800
G1 X-67.340 Y-191.585 Z13.773 F1999.800
G1 X-67.340 Y-200.000 Z13.773 F1999.800
G2 X-68.925 Y-201.585 Z13.773 I-1.585 J0.000 K0.000 F1999.800
G1 X-125.462 Y-201.585 Z13.773 F1999.800
G2 X-127.047 Y-200.000 Z13.773 I0.000 J1.585 K0.000 F1999.800
G1 X-127.047 Y-191.585 Z13.773 F1999.800
G1 X-126.583 Y-191.121 Z13.773 F1999.800
G1 X-127.047 Y-191.585 Z13.773 F1999.800
G1 X-182.000 Y-191.585 Z13.773 F1999.800
G2 X-183.585 Y-190.000 Z13.773 I0.000 J1.585 K0.000 F1999.800
G1 X-183.585 Y-186.585 Z13.773 F1999.800
G1 X-183.121 Y-186.121 Z13.773 F1999.800
G1 X-183.585 Y-186.585 Z13.773 F1999.800
G1 X-200.000 Y-186.585 Z13.773 F1999.800
G2 X-201.585 Y-185.000 Z13.773 I0.000 J1.585 K0.000 F1999.800
G1 X-201.585 Y185.000 Z13.773 F1999.800
G2 X-200.000 Y186.585 Z13.773 I1.585 J-0.000 K0.000 F1999.800
G1 X-183.585 Y186.585 Z13.773 F1999.800
G1 X-183.121 Y186.121 Z13.773 F1999.800
G1 X-183.585 Y186.585 Z13.773 F1999.800
G1 X-183.585 Y190.000 Z13.773 F1999.800
G2 X-182.000 Y191.585 Z13.773 I1.585 J-0.000 K0.000 F1999.800
G1 X-127.047 Y191.585 Z13.773 F1999.800
G1 X-126.583 Y191.121 Z13.773 F1999.800
G1 X-127.047 Y191.585 Z13.773 F1999.800
G1 X-127.047 Y200.000 Z13.773 F1999.800
G2 X-125.462 Y201.585 Z13.773 I1.585 J-0.000 K0.000 F1999.800
G1 X-68.925 Y201.585 Z13.773 F1999.800
G2 X-67.340 Y200.000 Z13.773 I-0.000 J-1.585 K0.000 F1999.800
G1 X-67.340 Y191.585 Z13.773 F1999.800
G1 X-67.804 Y191.121 Z13.773 F1999.800
G1 X-67.340 Y191.585 Z13.773 F1999.800
G1 X-12.387 Y191.585 Z13.773 F1999.800
G2 X-12.173 Y191.570 Z13.773 I-0.000 J-1.585 K0.000 F1999.800
G1 X-12.173 Y191.570 Z13.245 F999.600
G2 X-10.802 Y190.000 Z13.245 I-0.215 J-1.570 K0.000 F1999.800
G1 X-10.802 Y68.333 Z13.245 F1999.800
G2 X-12.387 Y66.748 Z13.245 I-1.585 J-0.000 K0.000 F1999.800
G1 X-104.609 Y66.748 Z13.245 F1999.800
G1 X-105.073 Y67.213 Z13.245 F1999.800
G1 X-104.609 Y66.748 Z13.245 F1999.800
G1 X-104.609 Y59.918 Z13.245 F1999.800
G1 X-105.073 Y59.454 Z13.245 F1999.800
G1 X-104.609 Y59.918 Z13.245 F1999.800
G1 X-12.387 Y59.918 Z13.245 F1999.800
G2 X-10.802 Y58.333 Z13.245 I0.000 J-1.585 K0.000 F1999.800
G1 X-10.802 Y-58.333 Z13.245 F1999.800
G2 X-12.387 Y-59.918 Z13.245 I-1.585 J-0.000 K0.000 F1999.800
G1 X-104.609 Y-59.918 Z13.245 F1999.800
G1 X-105.073 Y-59.454 Z13.245 F1999.800
G1 X-104.609 Y-59.918 Z13.245 F1999.800
G1 X-104.609 Y-66.748 Z13.245 F1999.800
G1 X-105.073 Y-67.213 Z13.245 F1999.800
G1 X-104.609 Y-66.748 Z13.245 F1999.800
G1 X-12.387 Y-66.748 Z13.245 F1999.800
G2 X-10.802 Y-68.333 Z13.245 I0.000 J-1.585 K0.000 F1999.800
G1 X-10.802 Y-190.000 Z13.245 F1999.800
G2 X-12.387 Y-191.585 Z13.245 I-1.585 J0.000 K0.000 F1999.800
G1 X-67.340 Y-191.585 Z13.245 F1999.800
G1 X-67.804 Y-191.121 Z13.245 F1999.800
G1 X-67.340 Y-191.585 Z13.245 F1999.800
G1 X-67.340 Y-200.000 Z13.245 F1999.800
G2 X-68.925 Y-201.585 Z13.245 I-1.585 J0.000 K0.000 F1999.800
G1 X-125.462 Y-201.585 Z13.245 F1999.800
G2 X-127.047 Y-200.000 Z13.245 I0.000 J1.585 K0.000 F1999.800
G1 X-127.047 Y-191.585 Z13.245 F1999.800
G1 X-126.583 Y-191.121 Z13.245 F1999.800
G1 X-127.047 Y-191.585 Z13.245 F1999.800
G1 X-182.000 Y-191.585 Z13.245 F1999.800
G2 X-183.585 Y-190.000 Z13.245 I0.000 J1.585 K0.000 F1999.800
G1 X-183.585 Y-186.585 Z13.245 F1999.800
G1 X-183.121 Y-186.121 Z13.245 F1999.800
G1 X-183.585 Y-186.585 Z13.245 F1999.800
G1 X-200.000 Y-186.585 Z13.245 F1999.800
G2 X-201.585 Y-185.000 Z13.245 I0.000 J1.585 K0.000 F1999.800
G1 X-201.585 Y185.000 Z13.245 F1999.800
G2 X-200.000 Y186.585 Z13.245 I1.585 J-0.000 K0.000 F1999.800
G1 X-183.585 Y186.585 Z13.245 F1999.800
G1 X-183.121 Y186.121 Z13.245 F1999.800
G1 X-183.585 Y186.585 Z13.245 F1999.800
G1 X-183.585 Y190.000 Z13.245 F1999.800
G2 X-182.000 Y191.585 Z13.245 I1.585 J-0.000 K0.000 F1999.800
G1 X-127.047 Y191.585 Z13.245 F1999.800
G1 X-126.583 Y191.121 Z13.245 F1999.800
G1 X-127.047 Y191.585 Z13.245 F1999.800
G1 X-127.047 Y200.000 Z13.245 F1999.800
G2 X-125.462 Y201.585 Z13.245 I1.585 J-0.000 K0.000 F1999.800
G1 X-68.925 Y201.585 Z13.245 F1999.800
G2 X-67.340 Y200.000 Z13.245 I-0.000 J-1.585 K0.000 F1999.800
G1 X-67.340 Y191.585 Z13.245 F1999.800
G1 X-67.804 Y191.121 Z13.245 F1999.800
G1 X-67.340 Y191.585 Z13.245 F1999.800
G1 X-12.387 Y191.585 Z13.245 F1999.800
G2 X-12.173 Y191.570 Z13.245 I-0.000 J-1.585 K0.000 F1999.800
G1 X-12.173 Y191.570 Z12.717 F999.600
G2 X-10.802 Y190.000 Z12.717 I-0.215 J-1.570 K0.000 F1999.800
G1 X-10.802 Y68.333 Z12.717 F1999.800
G2 X-12.387 Y66.748 Z12.717 I-1.585 J-0.000 K0.000 F1999.800
G1 X-104.609 Y66.748 Z12.717 F1999.800
G1 X-105.073 Y67.213 Z12.717 F1999.800
G1 X-104.609 Y66.748 Z12.717 F1999.800
G1 X-104.609 Y59.918 Z12.717 F1999.800
G1 X-105.073 Y59.454 Z12.717 F1999.800
G1 X-104.609 Y59.918 Z12.717 F1999.800
G1 X-12.387 Y59.918 Z12.717 F1999.800
G2 X-10.802 Y58.333 Z12.717 I0.000 J-1.585 K0.000 F1999.800
G1 X-10.802 Y-58.333 Z12.717 F1999.800
G2 X-12.387 Y-59.918 Z12.717 I-1.585 J-0.000 K0.000 F1999.800
G1 X-104.609 Y-59.918 Z12.717 F1999.800
G1 X-105.073 Y-59.454 Z12.717 F1999.800
G1 X-104.609 Y-59.918 Z12.717 F1999.800
G1 X-104.609 Y-66.748 Z12.717 F1999.800
G1 X-105.073 Y-67.213 Z12.717 F1999.800
G1 X-104.609 Y-66.748 Z12.717 F1999.800
G1 X-12.387 Y-66.748 Z12.717 F1999.800
G2 X-10.802 Y-68.333 Z12.717 I0.000 J-1.585 K0.000 F1999.800
G1 X-10.802 Y-190.000 Z12.717 F1999.800
G2 X-12.387 Y-191.585 Z12.717 I-1.585 J0.000 K0.000 F1999.800
G1 X-67.340 Y-191.585 Z12.717 F1999.800
G1 X-67.804 Y-191.121 Z12.717 F1999.800
G1 X-67.340 Y-191.585 Z12.717 F1999.800
G1 X-67.340 Y-200.000 Z12.717 F1999.800
G2 X-68.925 Y-201.585 Z12.717 I-1.585 J0.000 K0.000 F1999.800
G1 X-125.462 Y-201.585 Z12.717 F1999.800
G2 X-127.047 Y-200.000 Z12.717 I0.000 J1.585 K0.000 F1999.800
G1 X-127.047 Y-191.585 Z12.717 F1999.800
G1 X-126.583 Y-191.121 Z12.717 F1999.800
G1 X-127.047 Y-191.585 Z12.717 F1999.800
G1 X-182.000 Y-191.585 Z12.717 F1999.800
G2 X-183.585 Y-190.000 Z12.717 I0.000 J1.585 K0.000 F1999.800
G1 X-183.585 Y-186.585 Z12.717 F1999.800
G1 X-183.121 Y-186.121 Z12.717 F1999.800
G1 X-183.585 Y-186.585 Z12.717 F1999.800
G1 X-200.000 Y-186.585 Z12.717 F1999.800
G2 X-201.585 Y-185.000 Z12.717 I0.000 J1.585 K0.000 F1999.800
G1 X-201.585 Y185.000 Z12.717 F1999.800
G2 X-200.000 Y186.585 Z12.717 I1.585 J-0.000 K0.000 F1999.800
G1 X-183.585 Y186.585 Z12.717 F1999.800
G1 X-183.121 Y186.121 Z12.717 F1999.800
G1 X-183.585 Y186.585 Z12.717 F1999.800
G1 X-183.585 Y190.000 Z12.717 F1999.800
G2 X-182.000 Y191.585 Z12.717 I1.585 J-0.000 K0.000 F1999.800
G1 X-127.047 Y191.585 Z12.717 F1999.800
G1 X-126.583 Y191.121 Z12.717 F1999.800
G1 X-127.047 Y191.585 Z12.717 F1999.800
G1 X-127.047 Y200.000 Z12.717 F1999.800
G2 X-125.462 Y201.585 Z12.717 I1.585 J-0.000 K0.000 F1999.800
G1 X-68.925 Y201.585 Z12.717 F1999.800
G2 X-67.340 Y200.000 Z12.717 I-0.000 J-1.585 K0.000 F1999.800
G1 X-67.340 Y191.585 Z12.717 F1999.800
G1 X-67.804 Y191.121 Z12.717 F1999.800
G1 X-67.340 Y191.585 Z12.717 F1999.800
G1 X-12.387 Y191.585 Z12.717 F1999.800
G2 X-12.173 Y191.570 Z12.717 I-0.000 J-1.585 K0.000 F1999.800
G1 X-12.173 Y191.570 Z12.188 F999.600
G2 X-10.802 Y190.000 Z12.188 I-0.215 J-1.570 K0.000 F1999.800
G1 X-10.802 Y68.333 Z12.188 F1999.800
G2 X-12.387 Y66.748 Z12.188 I-1.585 J-0.000 K0.000 F1999.800
G1 X-104.609 Y66.748 Z12.188 F1999.800
G1 X-105.073 Y67.213 Z12.188 F1999.800
G1 X-104.609 Y66.748 Z12.188 F1999.800
G1 X-104.609 Y59.918 Z12.188 F1999.800
G1 X-105.073 Y59.454 Z12.188 F1999.800
G1 X-104.609 Y59.918 Z12.188 F1999.800
G1 X-12.387 Y59.918 Z12.188 F1999.800
G2 X-10.802 Y58.333 Z12.188 I0.000 J-1.585 K0.000 F1999.800
G1 X-10.802 Y-58.333 Z12.188 F1999.800
G2 X-12.387 Y-59.918 Z12.188 I-1.585 J-0.000 K0.000 F1999.800
G1 X-104.609 Y-59.918 Z12.188 F1999.800
G1 X-105.073 Y-59.454 Z12.188 F1999.800
G1 X-104.609 Y-59.918 Z12.188 F1999.800
G1 X-104.609 Y-66.748 Z12.188 F1999.800
G1 X-105.073 Y-67.213 Z12.188 F1999.800
G1 X-104.609 Y-66.748 Z12.188 F1999.800
G1 X-12.387 Y-66.748 Z12.188 F1999.800
G2 X-10.802 Y-68.333 Z12.188 I0.000 J-1.585 K0.000 F1999.800
G1 X-10.802 Y-190.000 Z12.188 F1999.800
G2 X-12.387 Y-191.585 Z12.188 I-1.585 J0.000 K0.000 F1999.800
G1 X-67.340 Y-191.585 Z12.188 F1999.800
G1 X-67.804 Y-191.121 Z12.188 F1999.800
G1 X-67.340 Y-191.585 Z12.188 F1999.800
G1 X-67.340 Y-200.000 Z12.188 F1999.800
G2 X-68.925 Y-201.585 Z12.188 I-1.585 J0.000 K0.000 F1999.800
G1 X-125.462 Y-201.585 Z12.188 F1999.800
G2 X-127.047 Y-200.000 Z12.188 I0.000 J1.585 K0.000 F1999.800
G1 X-127.047 Y-191.585 Z12.188 F1999.800
G1 X-126.583 Y-191.121 Z12.188 F1999.800
G1 X-127.047 Y-191.585 Z12.188 F1999.800
G1 X-182.000 Y-191.585 Z12.188 F1999.800
G2 X-183.585 Y-190.000 Z12.188 I0.000 J1.585 K0.000 F1999.800
G1 X-183.585 Y-186.585 Z12.188 F1999.800
G1 X-183.121 Y-186.121 Z12.188 F1999.800
G1 X-183.585 Y-186.585 Z12.188 F1999.800
G1 X-200.000 Y-186.585 Z12.188 F1999.800
G2 X-201.585 Y-185.000 Z12.188 I0.000 J1.585 K0.000 F1999.800
G1 X-201.585 Y185.000 Z12.188 F1999.800
G2 X-200.000 Y186.585 Z12.188 I1.585 J-0.000 K0.000 F1999.800
G1 X-183.585 Y186.585 Z12.188 F1999.800
G1 X-183.121 Y186.121 Z12.188 F1999.800
G1 X-183.585 Y186.585 Z12.188 F1999.800
G1 X-183.585 Y190.000 Z12.188 F1999.800
G2 X-182.000 Y191.585 Z12.188 I1.585 J-0.000 K0.000 F1999.800
G1 X-127.047 Y191.585 Z12.188 F1999.800
G1 X-126.583 Y191.121 Z12.188 F1999.800
G1 X-127.047 Y191.585 Z12.188 F1999.800
G1 X-127.047 Y200.000 Z12.188 F1999.800
G2 X-125.462 Y201.585 Z12.188 I1.585 J-0.000 K0.000 F1999.800
G1 X-68.925 Y201.585 Z12.188 F1999.800
G2 X-67.340 Y200.000 Z12.188 I-0.000 J-1.585 K0.000 F1999.800
G1 X-67.340 Y191.585 Z12.188 F1999.800
G1 X-67.804 Y191.121 Z12.188 F1999.800
G1 X-67.340 Y191.585 Z12.188 F1999.800
G1 X-12.387 Y191.585 Z12.188 F1999.800
G2 X-12.173 Y191.570 Z12.188 I-0.000 J-1.585 K0.000 F1999.800
G1 X-12.173 Y191.570 Z11.660 F999.600
G2 X-10.802 Y190.000 Z11.660 I-0.215 J-1.570 K0.000 F1999.800
G1 X-10.802 Y68.333 Z11.660 F1999.800
G2 X-12.387 Y66.748 Z11.660 I-1.585 J-0.000 K0.000 F1999.800
G1 X-104.609 Y66.748 Z11.660 F1999.800
G1 X-105.073 Y67.213 Z11.660 F1999.800
G1 X-104.609 Y66.748 Z11.660 F1999.800
G1 X-104.609 Y59.918 Z11.660 F1999.800
G1 X-105.073 Y59.454 Z11.660 F1999.800
G1 X-104.609 Y59.918 Z11.660 F1999.800
G1 X-12.387 Y59.918 Z11.660 F1999.800
G2 X-10.802 Y58.333 Z11.660 I0.000 J-1.585 K0.000 F1999.800
G1 X-10.802 Y-58.333 Z11.660 F1999.800
G2 X-12.387 Y-59.918 Z11.660 I-1.585 J-0.000 K0.000 F1999.800
G1 X-104.609 Y-59.918 Z11.660 F1999.800
G1 X-105.073 Y-59.454 Z11.660 F1999.800
G1 X-104.609 Y-59.918 Z11.660 F1999.800
G1 X-104.609 Y-66.748 Z11.660 F1999.800
G1 X-105.073 Y-67.213 Z11.660 F1999.800
G1 X-104.609 Y-66.748 Z11.660 F1999.800
G1 X-12.387 Y-66.748 Z11.660 F1999.800
G2 X-10.802 Y-68.333 Z11.660 I0.000 J-1.585 K0.000 F1999.800
G1 X-10.802 Y-190.000 Z11.660 F1999.800
G2 X-12.387 Y-191.585 Z11.660 I-1.585 J0.000 K0.000 F1999.800
G1 X-67.340 Y-191.585 Z11.660 F1999.800
G1 X-67.804 Y-191.121 Z11.660 F1999.800
G1 X-67.340 Y-191.585 Z11.660 F1999.800
G1 X-67.340 Y-200.000 Z11.660 F1999.800
G2 X-68.925 Y-201.585 Z11.660 I-1.585 J0.000 K0.000 F1999.800
G1 X-125.462 Y-201.585 Z11.660 F1999.800
G2 X-127.047 Y-200.000 Z11.660 I0.000 J1.585 K0.000 F1999.800
G1 X-127.047 Y-191.585 Z11.660 F1999.800
G1 X-126.583 Y-191.121 Z11.660 F1999.800
G1 X-127.047 Y-191.585 Z11.660 F1999.800
G1 X-182.000 Y-191.585 Z11.660 F1999.800
G2 X-183.585 Y-190.000 Z11.660 I0.000 J1.585 K0.000 F1999.800
G1 X-183.585 Y-186.585 Z11.660 F1999.800
G1 X-183.121 Y-186.121 Z11.660 F1999.800
G1 X-183.585 Y-186.585 Z11.660 F1999.800
G1 X-200.000 Y-186.585 Z11.660 F1999.800
G2 X-201.585 Y-185.000 Z11.660 I0.000 J1.585 K0.000 F1999.800
G1 X-201.585 Y185.000 Z11.660 F1999.800
G2 X-200.000 Y186.585 Z11.660 I1.585 J-0.000 K0.000 F1999.800
G1 X-183.585 Y186.585 Z11.660 F1999.800
G1 X-183.121 Y186.121 Z11.660 F1999.800
G1 X-183.585 Y186.585 Z11.660 F1999.800
G1 X-183.585 Y190.000 Z11.660 F1999.800
G2 X-182.000 Y191.585 Z11.660 I1.585 J-0.000 K0.000 F1999.800
G1 X-127.047 Y191.585 Z11.660 F1999.800
G1 X-126.583 Y191.121 Z11.660 F1999.800
G1 X-127.047 Y191.585 Z11.660 F1999.800
G1 X-127.047 Y200.000 Z11.660 F1999.800
G2 X-125.462 Y201.585 Z11.660 I1.585 J-0.000 K0.000 F1999.800
G1 X-68.925 Y201.585 Z11.660 F1999.800
G2 X-67.340 Y200.000 Z11.660 I-0.000 J-1.585 K0.000 F1999.800
G1 X-67.340 Y191.585 Z11.660 F1999.800
G1 X-67.804 Y191.121 Z11.660 F1999.800
G1 X-67.340 Y191.585 Z11.660 F1999.800
G1 X-12.387 Y191.585 Z11.660 F1999.800
G2 X-12.173 Y191.570 Z11.660 I-0.000 J-1.585 K0.000 F1999.800
G1 X-12.173 Y191.570 Z11.132 F999.600
G2 X-10.802 Y190.000 Z11.132 I-0.215 J-1.570 K0.000 F1999.800
G1 X-10.802 Y68.333 Z11.132 F1999.800
G2 X-12.387 Y66.748 Z11.132 I-1.585 J-0.000 K0.000 F1999.800
G1 X-104.609 Y66.748 Z11.132 F1999.800
G1 X-105.073 Y67.213 Z11.132 F1999.800
G1 X-104.609 Y66.748 Z11.132 F1999.800
G1 X-104.609 Y59.918 Z11.132 F1999.800
G1 X-105.073 Y59.454 Z11.132 F1999.800
G1 X-104.609 Y59.918 Z11.132 F1999.800
G1 X-12.387 Y59.918 Z11.132 F1999.800
G2 X-10.802 Y58.333 Z11.132 I0.000 J-1.585 K0.000 F1999.800
G1 X-10.802 Y-58.333 Z11.132 F1999.800
G2 X-12.387 Y-59.918 Z11.132 I-1.585 J-0.000 K0.000 F1999.800
G1 X-104.609 Y-59.918 Z11.132 F1999.800
G1 X-105.073 Y-59.454 Z11.132 F1999.800
G1 X-104.609 Y-59.918 Z11.132 F1999.800
G1 X-104.609 Y-66.748 Z11.132 F1999.800
G1 X-105.073 Y-67.213 Z11.132 F1999.800
G1 X-104.609 Y-66.748 Z11.132 F1999.800
G1 X-12.387 Y-66.748 Z11.132 F1999.800
G2 X-10.802 Y-68.333 Z11.132 I0.000 J-1.585 K0.000 F1999.800
G1 X-10.802 Y-190.000 Z11.132 F1999.800
G2 X-12.387 Y-191.585 Z11.132 I-1.585 J0.000 K0.000 F1999.800
G1 X-67.340 Y-191.585 Z11.132 F1999.800
G1 X-67.804 Y-191.121 Z11.132 F1999.800
G1 X-67.340 Y-191.585 Z11.132 F1999.800
G1 X-67.340 Y-200.000 Z11.132 F1999.800
G2 X-68.925 Y-201.585 Z11.132 I-1.585 J0.000 K0.000 F1999.800
G1 X-125.462 Y-201.585 Z11.132 F1999.800
G2 X-127.047 Y-200.000 Z11.132 I0.000 J1.585 K0.000 F1999.800
G1 X-127.047 Y-191.585 Z11.132 F1999.800
G1 X-126.583 Y-191.121 Z11.132 F1999.800
G1 X-127.047 Y-191.585 Z11.132 F1999.800
G1 X-182.000 Y-191.585 Z11.132 F1999.800
G2 X-183.585 Y-190.000 Z11.132 I0.000 J1.585 K0.000 F1999.800
G1 X-183.585 Y-186.585 Z11.132 F1999.800
G1 X-183.121 Y-186.121 Z11.132 F1999.800
G1 X-183.585 Y-186.585 Z11.132 F1999.800
G1 X-200.000 Y-186.585 Z11.132 F1999.800
G2 X-201.585 Y-185.000 Z11.132 I0.000 J1.585 K0.000 F1999.800
G1 X-201.585 Y185.000 Z11.132 F1999.800
G2 X-200.000 Y186.585 Z11.132 I1.585 J-0.000 K0.000 F1999.800
G1 X-183.585 Y186.585 Z11.132 F1999.800
G1 X-183.121 Y186.121 Z11.132 F1999.800
G1 X-183.585 Y186.585 Z11.132 F1999.800
G1 X-183.585 Y190.000 Z11.132 F1999.800
G2 X-182.000 Y191.585 Z11.132 I1.585 J-0.000 K0.000 F1999.800
G1 X-127.047 Y191.585 Z11.132 F1999.800
G1 X-126.583 Y191.121 Z11.132 F1999.800
G1 X-127.047 Y191.585 Z11.132 F1999.800
G1 X-127.047 Y200.000 Z11.132 F1999.800
G2 X-125.462 Y201.585 Z11.132 I1.585 J-0.000 K0.000 F1999.800
G1 X-68.925 Y201.585 Z11.132 F1999.800
G2 X-67.340 Y200.000 Z11.132 I-0.000 J-1.585 K0.000 F1999.800
G1 X-67.340 Y191.585 Z11.132 F1999.800
G1 X-67.804 Y191.121 Z11.132 F1999.800
G1 X-67.340 Y191.585 Z11.132 F1999.800
G1 X-12.387 Y191.585 Z11.132 F1999.800
G2 X-12.173 Y191.570 Z11.132 I-0.000 J-1.585 K0.000 F1999.800
G1 X-12.173 Y191.570 Z10.603 F999.600
G2 X-10.802 Y190.000 Z10.603 I-0.215 J-1.570 K0.000 F1999.800
G1 X-10.802 Y68.333 Z10.603 F1999.800
G2 X-12.387 Y66.748 Z10.603 I-1.585 J-0.000 K0.000 F1999.800
G1 X-104.609 Y66.748 Z10.603 F1999.800
G1 X-105.073 Y67.213 Z10.603 F1999.800
G1 X-104.609 Y66.748 Z10.603 F1999.800
G1 X-104.609 Y59.918 Z10.603 F1999.800
G1 X-105.073 Y59.454 Z10.603 F1999.800
G1 X-104.609 Y59.918 Z10.603 F1999.800
G1 X-12.387 Y59.918 Z10.603 F1999.800
G2 X-10.802 Y58.333 Z10.603 I0.000 J-1.585 K0.000 F1999.800
G1 X-10.802 Y-58.333 Z10.603 F1999.800
G2 X-12.387 Y-59.918 Z10.603 I-1.585 J-0.000 K0.000 F1999.800
G1 X-104.609 Y-59.918 Z10.603 F1999.800
G1 X-105.073 Y-59.454 Z10.603 F1999.800
G1 X-104.609 Y-59.918 Z10.603 F1999.800
G1 X-104.609 Y-66.748 Z10.603 F1999.800
G1 X-105.073 Y-67.213 Z10.603 F1999.800
G1 X-104.609 Y-66.748 Z10.603 F1999.800
G1 X-12.387 Y-66.748 Z10.603 F1999.800
G2 X-10.802 Y-68.333 Z10.603 I0.000 J-1.585 K0.000 F1999.800
G1 X-10.802 Y-190.000 Z10.603 F1999.800
G2 X-12.387 Y-191.585 Z10.603 I-1.585 J0.000 K0.000 F1999.800
G1 X-67.340 Y-191.585 Z10.603 F1999.800
G1 X-67.804 Y-191.121 Z10.603 F1999.800
G1 X-67.340 Y-191.585 Z10.603 F1999.800
G1 X-67.340 Y-200.000 Z10.603 F1999.800
G2 X-68.925 Y-201.585 Z10.603 I-1.585 J0.000 K0.000 F1999.800
G1 X-125.462 Y-201.585 Z10.603 F1999.800
G2 X-127.047 Y-200.000 Z10.603 I0.000 J1.585 K0.000 F1999.800
G1 X-127.047 Y-191.585 Z10.603 F1999.800
G1 X-126.583 Y-191.121 Z10.603 F1999.800
G1 X-127.047 Y-191.585 Z10.603 F1999.800
G1 X-182.000 Y-191.585 Z10.603 F1999.800
G2 X-183.585 Y-190.000 Z10.603 I0.000 J1.585 K0.000 F1999.800
G1 X-183.585 Y-186.585 Z10.603 F1999.800
G1 X-183.121 Y-186.121 Z10.603 F1999.800
G1 X-183.585 Y-186.585 Z10.603 F1999.800
G1 X-200.000 Y-186.585 Z10.603 F1999.800
G2 X-201.585 Y-185.000 Z10.603 I0.000 J1.585 K0.000 F1999.800
G1 X-201.585 Y185.000 Z10.603 F1999.800
G2 X-200.000 Y186.585 Z10.603 I1.585 J-0.000 K0.000 F1999.800
G1 X-183.585 Y186.585 Z10.603 F1999.800
G1 X-183.121 Y186.121 Z10.603 F1999.800
G1 X-183.585 Y186.585 Z10.603 F1999.800
G1 X-183.585 Y190.000 Z10.603 F1999.800
G2 X-182.000 Y191.585 Z10.603 I1.585 J-0.000 K0.000 F1999.800
G1 X-127.047 Y191.585 Z10.603 F1999.800
G1 X-126.583 Y191.121 Z10.603 F1999.800
G1 X-127.047 Y191.585 Z10.603 F1999.800
G1 X-127.047 Y200.000 Z10.603 F1999.800
G2 X-125.462 Y201.585 Z10.603 I1.585 J-0.000 K0.000 F1999.800
G1 X-68.925 Y201.585 Z10.603 F1999.800
G2 X-67.340 Y200.000 Z10.603 I-0.000 J-1.585 K0.000 F1999.800
G1 X-67.340 Y191.585 Z10.603 F1999.800
G1 X-67.804 Y191.121 Z10.603 F1999.800
G1 X-67.340 Y191.585 Z10.603 F1999.800
G1 X-12.387 Y191.585 Z10.603 F1999.800
G2 X-12.173 Y191.570 Z10.603 I-0.000 J-1.585 K0.000 F1999.800
G1 X-12.173 Y191.570 Z10.075 F999.600
G2 X-10.802 Y190.000 Z10.075 I-0.215 J-1.570 K0.000 F1999.800
G1 X-10.802 Y68.333 Z10.075 F1999.800
G2 X-12.387 Y66.748 Z10.075 I-1.585 J-0.000 K0.000 F1999.800
G1 X-104.609 Y66.748 Z10.075 F1999.800
G1 X-105.073 Y67.213 Z10.075 F1999.800
G1 X-104.609 Y66.748 Z10.075 F1999.800
G1 X-104.609 Y59.918 Z10.075 F1999.800
G1 X-105.073 Y59.454 Z10.075 F1999.800
G1 X-104.609 Y59.918 Z10.075 F1999.800
G1 X-12.387 Y59.918 Z10.075 F1999.800
G2 X-10.802 Y58.333 Z10.075 I0.000 J-1.585 K0.000 F1999.800
G1 X-10.802 Y-58.333 Z10.075 F1999.800
G2 X-12.387 Y-59.918 Z10.075 I-1.585 J-0.000 K0.000 F1999.800
G1 X-104.609 Y-59.918 Z10.075 F1999.800
G1 X-105.073 Y-59.454 Z10.075 F1999.800
G1 X-104.609 Y-59.918 Z10.075 F1999.800
G1 X-104.609 Y-66.748 Z10.075 F1999.800
G1 X-105.073 Y-67.213 Z10.075 F1999.800
G1 X-104.609 Y-66.748 Z10.075 F1999.800
G1 X-12.387 Y-66.748 Z10.075 F1999.800
G2 X-10.802 Y-68.333 Z10.075 I0.000 J-1.585 K0.000 F1999.800
G1 X-10.802 Y-190.000 Z10.075 F1999.800
G2 X-12.387 Y-191.585 Z10.075 I-1.585 J0.000 K0.000 F1999.800
G1 X-67.340 Y-191.585 Z10.075 F1999.800
G1 X-67.804 Y-191.121 Z10.075 F1999.800
G1 X-67.340 Y-191.585 Z10.075 F1999.800
G1 X-67.340 Y-200.000 Z10.075 F1999.800
G2 X-68.925 Y-201.585 Z10.075 I-1.585 J0.000 K0.000 F1999.800
G1 X-125.462 Y-201.585 Z10.075 F1999.800
G2 X-127.047 Y-200.000 Z10.075 I0.000 J1.585 K0.000 F1999.800
G1 X-127.047 Y-191.585 Z10.075 F1999.800
G1 X-126.583 Y-191.121 Z10.075 F1999.800
G1 X-127.047 Y-191.585 Z10.075 F1999.800
G1 X-182.000 Y-191.585 Z10.075 F1999.800
G2 X-183.585 Y-190.000 Z10.075 I0.000 J1.585 K0.000 F1999.800
G1 X-183.585 Y-186.585 Z10.075 F1999.800
G1 X-183.121 Y-186.121 Z10.075 F1999.800
G1 X-183.585 Y-186.585 Z10.075 F1999.800
G1 X-200.000 Y-186.585 Z10.075 F1999.800
G2 X-201.585 Y-185.000 Z10.075 I0.000 J1.585 K0.000 F1999.800
G1 X-201.585 Y185.000 Z10.075 F1999.800
G2 X-200.000 Y186.585 Z10.075 I1.585 J-0.000 K0.000 F1999.800
G1 X-183.585 Y186.585 Z10.075 F1999.800
G1 X-183.121 Y186.121 Z10.075 F1999.800
G1 X-183.585 Y186.585 Z10.075 F1999.800
G1 X-183.585 Y190.000 Z10.075 F1999.800
G2 X-182.000 Y191.585 Z10.075 I1.585 J-0.000 K0.000 F1999.800
G1 X-127.047 Y191.585 Z10.075 F1999.800
G1 X-126.583 Y191.121 Z10.075 F1999.800
G1 X-127.047 Y191.585 Z10.075 F1999.800
G1 X-127.047 Y200.000 Z10.075 F1999.800
G2 X-125.462 Y201.585 Z10.075 I1.585 J-0.000 K0.000 F1999.800
G1 X-68.925 Y201.585 Z10.075 F1999.800
G2 X-67.340 Y200.000 Z10.075 I-0.000 J-1.585 K0.000 F1999.800
G1 X-67.340 Y191.585 Z10.075 F1999.800
G1 X-67.804 Y191.121 Z10.075 F1999.800
G1 X-67.340 Y191.585 Z10.075 F1999.800
G1 X-12.387 Y191.585 Z10.075 F1999.800
G2 X-12.173 Y191.570 Z10.075 I-0.000 J-1.585 K0.000 F1999.800
G1 X-12.173 Y191.570 Z9.547 F999.600
G2 X-10.802 Y190.000 Z9.547 I-0.215 J-1.570 K0.000 F1999.800
G1 X-10.802 Y68.333 Z9.547 F1999.800
G2 X-12.387 Y66.748 Z9.547 I-1.585 J-0.000 K0.000 F1999.800
G1 X-104.609 Y66.748 Z9.547 F1999.800
G1 X-105.073 Y67.213 Z9.547 F1999.800
G1 X-104.609 Y66.748 Z9.547 F1999.800
G1 X-104.609 Y59.918 Z9.547 F1999.800
G1 X-105.073 Y59.454 Z9.547 F1999.800
G1 X-104.609 Y59.918 Z9.547 F1999.800
G1 X-12.387 Y59.918 Z9.547 F1999.800
G2 X-10.802 Y58.333 Z9.547 I0.000 J-1.585 K0.000 F1999.800
G1 X-10.802 Y-58.333 Z9.547 F1999.800
G2 X-12.387 Y-59.918 Z9.547 I-1.585 J-0.000 K0.000 F1999.800
G1 X-104.609 Y-59.918 Z9.547 F1999.800
G1 X-105.073 Y-59.454 Z9.547 F1999.800
G1 X-104.609 Y-59.918 Z9.547 F1999.800
G1 X-104.609 Y-66.748 Z9.547 F1999.800
G1 X-105.073 Y-67.213 Z9.547 F1999.800
G1 X-104.609 Y-66.748 Z9.547 F1999.800
G1 X-12.387 Y-66.748 Z9.547 F1999.800
G2 X-10.802 Y-68.333 Z9.547 I0.000 J-1.585 K0.000 F1999.800
G1 X-10.802 Y-190.000 Z9.547 F1999.800
G2 X-12.387 Y-191.585 Z9.547 I-1.585 J0.000 K0.000 F1999.800
G1 X-67.340 Y-191.585 Z9.547 F1999.800
G1 X-67.804 Y-191.121 Z9.547 F1999.800
G1 X-67.340 Y-191.585 Z9.547 F1999.800
G1 X-67.340 Y-200.000 Z9.547 F1999.800
G2 X-68.925 Y-201.585 Z9.547 I-1.585 J0.000 K0.000 F1999.800
G1 X-125.462 Y-201.585 Z9.547 F1999.800
G2 X-127.047 Y-200.000 Z9.547 I0.000 J1.585 K0.000 F1999.800
G1 X-127.047 Y-191.585 Z9.547 F1999.800
G1 X-126.583 Y-191.121 Z9.547 F1999.800
G1 X-127.047 Y-191.585 Z9.547 F1999.800
G1 X-182.000 Y-191.585 Z9.547 F1999.800
G2 X-183.585 Y-190.000 Z9.547 I0.000 J1.585 K0.000 F1999.800
G1 X-183.585 Y-186.585 Z9.547 F1999.800
G1 X-183.121 Y-186.121 Z9.547 F1999.800
G1 X-183.585 Y-186.585 Z9.547 F1999.800
G1 X-200.000 Y-186.585 Z9.547 F1999.800
G2 X-201.585 Y-185.000 Z9.547 I0.000 J1.585 K0.000 F1999.800
G1 X-201.585 Y185.000 Z9.547 F1999.800
G2 X-200.000 Y186.585 Z9.547 I1.585 J-0.000 K0.000 F1999.800
G1 X-183.585 Y186.585 Z9.547 F1999.800
G1 X-183.121 Y186.121 Z9.547 F1999.800
G1 X-183.585 Y186.585 Z9.547 F1999.800
G1 X-183.585 Y190.000 Z9.547 F1999.800
G2 X-182.000 Y191.585 Z9.547 I1.585 J-0.000 K0.000 F1999.800
G1 X-127.047 Y191.585 Z9.547 F1999.800
G1 X-126.583 Y191.121 Z9.547 F1999.800
G1 X-127.047 Y191.585 Z9.547 F1999.800
G1 X-127.047 Y200.000 Z9.547 F1999.800
G2 X-125.462 Y201.585 Z9.547 I1.585 J-0.000 K0.000 F1999.800
G1 X-68.925 Y201.585 Z9.547 F1999.800
G2 X-67.340 Y200.000 Z9.547 I-0.000 J-1.585 K0.000 F1999.800
G1 X-67.340 Y191.585 Z9.547 F1999.800
G1 X-67.804 Y191.121 Z9.547 F1999.800
G1 X-67.340 Y191.585 Z9.547 F1999.800
G1 X-12.387 Y191.585 Z9.547 F1999.800
G2 X-12.173 Y191.570 Z9.547 I-0.000 J-1.585 K0.000 F1999.800
G1 X-12.173 Y191.570 Z9.018 F999.600
G2 X-10.802 Y190.000 Z9.018 I-0.215 J-1.570 K0.000 F1999.800
G1 X-10.802 Y68.333 Z9.018 F1999.800
G2 X-12.387 Y66.748 Z9.018 I-1.585 J-0.000 K0.000 F1999.800
G1 X-104.609 Y66.748 Z9.018 F1999.800
G1 X-105.073 Y67.213 Z9.018 F1999.800
G1 X-104.609 Y66.748 Z9.018 F1999.800
G1 X-104.609 Y59.918 Z9.018 F1999.800
G1 X-105.073 Y59.454 Z9.018 F1999.800
G1 X-104.609 Y59.918 Z9.018 F1999.800
G1 X-12.387 Y59.918 Z9.018 F1999.800
G2 X-10.802 Y58.333 Z9.018 I0.000 J-1.585 K0.000 F1999.800
G1 X-10.802 Y-58.333 Z9.018 F1999.800
G2 X-12.387 Y-59.918 Z9.018 I-1.585 J-0.000 K0.000 F1999.800
G1 X-104.609 Y-59.918 Z9.018 F1999.800
G1 X-105.073 Y-59.454 Z9.018 F1999.800
G1 X-104.609 Y-59.918 Z9.018 F1999.800
G1 X-104.609 Y-66.748 Z9.018 F1999.800
G1 X-105.073 Y-67.213 Z9.018 F1999.800
G1 X-104.609 Y-66.748 Z9.018 F1999.800
G1 X-12.387 Y-66.748 Z9.018 F1999.800
G2 X-10.802 Y-68.333 Z9.018 I0.000 J-1.585 K0.000 F1999.800
G1 X-10.802 Y-190.000 Z9.018 F1999.800
G2 X-12.387 Y-191.585 Z9.018 I-1.585 J0.000 K0.000 F1999.800
G1 X-67.340 Y-191.585 Z9.018 F1999.800
G1 X-67.804 Y-191.121 Z9.018 F1999.800
G1 X-67.340 Y-191.585 Z9.018 F1999.800
G1 X-67.340 Y-200.000 Z9.018 F1999.800
G2 X-68.925 Y-201.585 Z9.018 I-1.585 J0.000 K0.000 F1999.800
G1 X-125.462 Y-201.585 Z9.018 F1999.800
G2 X-127.047 Y-200.000 Z9.018 I0.000 J1.585 K0.000 F1999.800
G1 X-127.047 Y-191.585 Z9.018 F1999.800
G1 X-126.583 Y-191.121 Z9.018 F1999.800
G1 X-127.047 Y-191.585 Z9.018 F1999.800
G1 X-182.000 Y-191.585 Z9.018 F1999.800
G2 X-183.585 Y-190.000 Z9.018 I0.000 J1.585 K0.000 F1999.800
G1 X-183.585 Y-186.585 Z9.018 F1999.800
G1 X-183.121 Y-186.121 Z9.018 F1999.800
G1 X-183.585 Y-186.585 Z9.018 F1999.800
G1 X-200.000 Y-186.585 Z9.018 F1999.800
G2 X-201.585 Y-185.000 Z9.018 I0.000 J1.585 K0.000 F1999.800
G1 X-201.585 Y185.000 Z9.018 F1999.800
G2 X-200.000 Y186.585 Z9.018 I1.585 J-0.000 K0.000 F1999.800
G1 X-183.585 Y186.585 Z9.018 F1999.800
G1 X-183.121 Y186.121 Z9.018 F1999.800
G1 X-183.585 Y186.585 Z9.018 F1999.800
G1 X-183.585 Y190.000 Z9.018 F1999.800
G2 X-182.000 Y191.585 Z9.018 I1.585 J-0.000 K0.000 F1999.800
G1 X-127.047 Y191.585 Z9.018 F1999.800
G1 X-126.583 Y191.121 Z9.018 F1999.800
G1 X-127.047 Y191.585 Z9.018 F1999.800
G1 X-127.047 Y200.000 Z9.018 F1999.800
G2 X-125.462 Y201.585 Z9.018 I1.585 J-0.000 K0.000 F1999.800
G1 X-68.925 Y201.585 Z9.018 F1999.800
G2 X-67.340 Y200.000 Z9.018 I-0.000 J-1.585 K0.000 F1999.800
G1 X-67.340 Y191.585 Z9.018 F1999.800
G1 X-67.804 Y191.121 Z9.018 F1999.800
G1 X-67.340 Y191.585 Z9.018 F1999.800
G1 X-12.387 Y191.585 Z9.018 F1999.800
G2 X-12.173 Y191.570 Z9.018 I-0.000 J-1.585 K0.000 F1999.800
G1 X-12.173 Y191.570 Z8.490 F999.600
G2 X-10.802 Y190.000 Z8.490 I-0.215 J-1.570 K0.000 F1999.800
G1 X-10.802 Y68.333 Z8.490 F1999.800
G2 X-12.387 Y66.748 Z8.490 I-1.585 J-0.000 K0.000 F1999.800
G1 X-104.609 Y66.748 Z8.490 F1999.800
G1 X-105.073 Y67.213 Z8.490 F1999.800
G1 X-104.609 Y66.748 Z8.490 F1999.800
G1 X-104.609 Y59.918 Z8.490 F1999.800
G1 X-105.073 Y59.454 Z8.490 F1999.800
G1 X-104.609 Y59.918 Z8.490 F1999.800
G1 X-12.387 Y59.918 Z8.490 F1999.800
G2 X-10.802 Y58.333 Z8.490 I0.000 J-1.585 K0.000 F1999.800
G1 X-10.802 Y-58.333 Z8.490 F1999.800
G2 X-12.387 Y-59.918 Z8.490 I-1.585 J-0.000 K0.000 F1999.800
G1 X-104.609 Y-59.918 Z8.490 F1999.800
G1 X-105.073 Y-59.454 Z8.490 F1999.800
G1 X-104.609 Y-59.918 Z8.490 F1999.800
G1 X-104.609 Y-66.748 Z8.490 F1999.800
G1 X-105.073 Y-67.213 Z8.490 F1999.800
G1 X-104.609 Y-66.748 Z8.490 F1999.800
G1 X-12.387 Y-66.748 Z8.490 F1999.800
G2 X-10.802 Y-68.333 Z8.490 I0.000 J-1.585 K0.000 F1999.800
G1 X-10.802 Y-190.000 Z8.490 F1999.800
G2 X-12.387 Y-191.585 Z8.490 I-1.585 J0.000 K0.000 F1999.800
G1 X-67.340 Y-191.585 Z8.490 F1999.800
G1 X-67.804 Y-191.121 Z8.490 F1999.800
G1 X-67.340 Y-191.585 Z8.490 F1999.800
G1 X-67.340 Y-200.000 Z8.490 F1999.800
G2 X-68.925 Y-201.585 Z8.490 I-1.585 J0.000 K0.000 F1999.800
G1 X-125.462 Y-201.585 Z8.490 F1999.800
G2 X-127.047 Y-200.000 Z8.490 I0.000 J1.585 K0.000 F1999.800
G1 X-127.047 Y-191.585 Z8.490 F1999.800
G1 X-126.583 Y-191.121 Z8.490 F1999.800
G1 X-127.047 Y-191.585 Z8.490 F1999.800
G1 X-182.000 Y-191.585 Z8.490 F1999.800
G2 X-183.585 Y-190.000 Z8.490 I0.000 J1.585 K0.000 F1999.800
G1 X-183.585 Y-186.585 Z8.490 F1999.800
G1 X-183.121 Y-186.121 Z8.490 F1999.800
G1 X-183.585 Y-186.585 Z8.490 F1999.800
G1 X-200.000 Y-186.585 Z8.490 F1999.800
G2 X-201.585 Y-185.000 Z8.490 I0.000 J1.585 K0.000 F1999.800
G1 X-201.585 Y185.000 Z8.490 F1999.800
G2 X-200.000 Y186.585 Z8.490 I1.585 J-0.000 K0.000 F1999.800
G1 X-183.585 Y186.585 Z8.490 F1999.800
G1 X-183.121 Y186.121 Z8.490 F1999.800
G1 X-183.585 Y186.585 Z8.490 F1999.800
G1 X-183.585 Y190.000 Z8.490 F1999.800
G2 X-182.000 Y191.585 Z8.490 I1.585 J-0.000 K0.000 F1999.800
G1 X-127.047 Y191.585 Z8.490 F1999.800
G1 X-126.583 Y191.121 Z8.490 F1999.800
G1 X-127.047 Y191.585 Z8.490 F1999.800
G1 X-127.047 Y200.000 Z8.490 F1999.800
G2 X-125.462 Y201.585 Z8.490 I1.585 J-0.000 K0.000 F1999.800
G1 X-68.925 Y201.585 Z8.490 F1999.800
G2 X-67.340 Y200.000 Z8.490 I-0.000 J-1.585 K0.000 F1999.800
G1 X-67.340 Y191.585 Z8.490 F1999.800
G1 X-67.804 Y191.121 Z8.490 F1999.800
G1 X-67.340 Y191.585 Z8.490 F1999.800
G1 X-12.387 Y191.585 Z8.490 F1999.800
G2 X-12.173 Y191.570 Z8.490 I-0.000 J-1.585 K0.000 F1999.800
G1 X-12.173 Y191.570 Z7.962 F999.600
G2 X-10.802 Y190.000 Z7.962 I-0.215 J-1.570 K0.000 F1999.800
G1 X-10.802 Y68.333 Z7.962 F1999.800
G2 X-12.387 Y66.748 Z7.962 I-1.585 J-0.000 K0.000 F1999.800
G1 X-104.609 Y66.748 Z7.962 F1999.800
G1 X-105.073 Y67.213 Z7.962 F1999.800
G1 X-104.609 Y66.748 Z7.962 F1999.800
G1 X-104.609 Y59.918 Z7.962 F1999.800
G1 X-105.073 Y59.454 Z7.962 F1999.800
G1 X-104.609 Y59.918 Z7.962 F1999.800
G1 X-12.387 Y59.918 Z7.962 F1999.800
G2 X-10.802 Y58.333 Z7.962 I0.000 J-1.585 K0.000 F1999.800
G1 X-10.802 Y-58.333 Z7.962 F1999.800
G2 X-12.387 Y-59.918 Z7.962 I-1.585 J-0.000 K0.000 F1999.800
G1 X-104.609 Y-59.918 Z7.962 F1999.800
G1 X-105.073 Y-59.454 Z7.962 F1999.800
G1 X-104.609 Y-59.918 Z7.962 F1999.800
G1 X-104.609 Y-66.748 Z7.962 F1999.800
G1 X-105.073 Y-67.213 Z7.962 F1999.800
G1 X-104.609 Y-66.748 Z7.962 F1999.800
G1 X-12.387 Y-66.748 Z7.962 F1999.800
G2 X-10.802 Y-68.333 Z7.962 I0.000 J-1.585 K0.000 F1999.800
G1 X-10.802 Y-190.000 Z7.962 F1999.800
G2 X-12.387 Y-191.585 Z7.962 I-1.585 J0.000 K0.000 F1999.800
G1 X-67.340 Y-191.585 Z7.962 F1999.800
G1 X-67.804 Y-191.121 Z7.962 F1999.800
G1 X-67.340 Y-191.585 Z7.962 F1999.800
G1 X-67.340 Y-200.000 Z7.962 F1999.800
G2 X-68.925 Y-201.585 Z7.962 I-1.585 J0.000 K0.000 F1999.800
G1 X-125.462 Y-201.585 Z7.962 F1999.800
G2 X-127.047 Y-200.000 Z7.962 I0.000 J1.585 K0.000 F1999.800
G1 X-127.047 Y-191.585 Z7.962 F1999.800
G1 X-126.583 Y-191.121 Z7.962 F1999.800
G1 X-127.047 Y-191.585 Z7.962 F1999.800
G1 X-182.000 Y-191.585 Z7.962 F1999.800
G2 X-183.585 Y-190.000 Z7.962 I0.000 J1.585 K0.000 F1999.800
G1 X-183.585 Y-186.585 Z7.962 F1999.800
G1 X-183.121 Y-186.121 Z7.962 F1999.800
G1 X-183.585 Y-186.585 Z7.962 F1999.800
G1 X-200.000 Y-186.585 Z7.962 F1999.800
G2 X-201.585 Y-185.000 Z7.962 I0.000 J1.585 K0.000 F1999.800
G1 X-201.585 Y185.000 Z7.962 F1999.800
G2 X-200.000 Y186.585 Z7.962 I1.585 J-0.000 K0.000 F1999.800
G1 X-183.585 Y186.585 Z7.962 F1999.800
G1 X-183.121 Y186.121 Z7.962 F1999.800
G1 X-183.585 Y186.585 Z7.962 F1999.800
G1 X-183.585 Y190.000 Z7.962 F1999.800
G2 X-182.000 Y191.585 Z7.962 I1.585 J-0.000 K0.000 F1999.800
G1 X-127.047 Y191.585 Z7.962 F1999.800
G1 X-126.583 Y191.121 Z7.962 F1999.800
G1 X-127.047 Y191.585 Z7.962 F1999.800
G1 X-127.047 Y200.000 Z7.962 F1999.800
G2 X-125.462 Y201.585 Z7.962 I1.585 J-0.000 K0.000 F1999.800
G1 X-68.925 Y201.585 Z7.962 F1999.800
G2 X-67.340 Y200.000 Z7.962 I-0.000 J-1.585 K0.000 F1999.800
G1 X-67.340 Y191.585 Z7.962 F1999.800
G1 X-67.804 Y191.121 Z7.962 F1999.800
G1 X-67.340 Y191.585 Z7.962 F1999.800
G1 X-12.387 Y191.585 Z7.962 F1999.800
G2 X-12.173 Y191.570 Z7.962 I-0.000 J-1.585 K0.000 F1999.800
G1 X-12.173 Y191.570 Z7.433 F999.600
G2 X-10.802 Y190.000 Z7.433 I-0.215 J-1.570 K0.000 F1999.800
G1 X-10.802 Y68.333 Z7.433 F1999.800
G2 X-12.387 Y66.748 Z7.433 I-1.585 J-0.000 K0.000 F1999.800
G1 X-104.609 Y66.748 Z7.433 F1999.800
G1 X-105.073 Y67.213 Z7.433 F1999.800
G1 X-104.609 Y66.748 Z7.433 F1999.800
G1 X-104.609 Y59.918 Z7.433 F1999.800
G1 X-105.073 Y59.454 Z7.433 F1999.800
G1 X-104.609 Y59.918 Z7.433 F1999.800
G1 X-12.387 Y59.918 Z7.433 F1999.800
G2 X-10.802 Y58.333 Z7.433 I0.000 J-1.585 K0.000 F1999.800
G1 X-10.802 Y-58.333 Z7.433 F1999.800
G2 X-12.387 Y-59.918 Z7.433 I-1.585 J-0.000 K0.000 F1999.800
G1 X-104.609 Y-59.918 Z7.433 F1999.800
G1 X-105.073 Y-59.454 Z7.433 F1999.800
G1 X-104.609 Y-59.918 Z7.433 F1999.800
G1 X-104.609 Y-66.748 Z7.433 F1999.800
G1 X-105.073 Y-67.213 Z7.433 F1999.800
G1 X-104.609 Y-66.748 Z7.433 F1999.800
G1 X-12.387 Y-66.748 Z7.433 F1999.800
G2 X-10.802 Y-68.333 Z7.433 I0.000 J-1.585 K0.000 F1999.800
G1 X-10.802 Y-190.000 Z7.433 F1999.800
G2 X-12.387 Y-191.585 Z7.433 I-1.585 J0.000 K0.000 F1999.800
G1 X-67.340 Y-191.585 Z7.433 F1999.800
G1 X-67.804 Y-191.121 Z7.433 F1999.800
G1 X-67.340 Y-191.585 Z7.433 F1999.800
G1 X-67.340 Y-200.000 Z7.433 F1999.800
G2 X-68.925 Y-201.585 Z7.433 I-1.585 J0.000 K0.000 F1999.800
G1 X-125.462 Y-201.585 Z7.433 F1999.800
G2 X-127.047 Y-200.000 Z7.433 I0.000 J1.585 K0.000 F1999.800
G1 X-127.047 Y-191.585 Z7.433 F1999.800
G1 X-126.583 Y-191.121 Z7.433 F1999.800
G1 X-127.047 Y-191.585 Z7.433 F1999.800
G1 X-182.000 Y-191.585 Z7.433 F1999.800
G2 X-183.585 Y-190.000 Z7.433 I0.000 J1.585 K0.000 F1999.800
G1 X-183.585 Y-186.585 Z7.433 F1999.800
G1 X-183.121 Y-186.121 Z7.433 F1999.800
G1 X-183.585 Y-186.585 Z7.433 F1999.800
G1 X-200.000 Y-186.585 Z7.433 F1999.800
G2 X-201.585 Y-185.000 Z7.433 I0.000 J1.585 K0.000 F1999.800
G1 X-201.585 Y185.000 Z7.433 F1999.800
G2 X-200.000 Y186.585 Z7.433 I1.585 J-0.000 K0.000 F1999.800
G1 X-183.585 Y186.585 Z7.433 F1999.800
G1 X-183.121 Y186.121 Z7.433 F1999.800
G1 X-183.585 Y186.585 Z7.433 F1999.800
G1 X-183.585 Y190.000 Z7.433 F1999.800
G2 X-182.000 Y191.585 Z7.433 I1.585 J-0.000 K0.000 F1999.800
G1 X-127.047 Y191.585 Z7.433 F1999.800
G1 X-126.583 Y191.121 Z7.433 F1999.800
G1 X-127.047 Y191.585 Z7.433 F1999.800
G1 X-127.047 Y200.000 Z7.433 F1999.800
G2 X-125.462 Y201.585 Z7.433 I1.585 J-0.000 K0.000 F1999.800
G1 X-68.925 Y201.585 Z7.433 F1999.800
G2 X-67.340 Y200.000 Z7.433 I-0.000 J-1.585 K0.000 F1999.800
G1 X-67.340 Y191.585 Z7.433 F1999.800
G1 X-67.804 Y191.121 Z7.433 F1999.800
G1 X-67.340 Y191.585 Z7.433 F1999.800
G1 X-12.387 Y191.585 Z7.433 F1999.800
G2 X-12.173 Y191.570 Z7.433 I-0.000 J-1.585 K0.000 F1999.800
G1 X-12.173 Y191.570 Z6.905 F999.600
G2 X-10.802 Y190.000 Z6.905 I-0.215 J-1.570 K0.000 F1999.800
G1 X-10.802 Y68.333 Z6.905 F1999.800
G2 X-12.387 Y66.748 Z6.905 I-1.585 J-0.000 K0.000 F1999.800
G1 X-104.609 Y66.748 Z6.905 F1999.800
G1 X-105.073 Y67.213 Z6.905 F1999.800
G1 X-104.609 Y66.748 Z6.905 F1999.800
G1 X-104.609 Y59.918 Z6.905 F1999.800
G1 X-105.073 Y59.454 Z6.905 F1999.800
G1 X-104.609 Y59.918 Z6.905 F1999.800
G1 X-12.387 Y59.918 Z6.905 F1999.800
G2 X-10.802 Y58.333 Z6.905 I0.000 J-1.585 K0.000 F1999.800
G1 X-10.802 Y-58.333 Z6.905 F1999.800
G2 X-12.387 Y-59.918 Z6.905 I-1.585 J-0.000 K0.000 F1999.800
G1 X-104.609 Y-59.918 Z6.905 F1999.800
G1 X-105.073 Y-59.454 Z6.905 F1999.800
G1 X-104.609 Y-59.918 Z6.905 F1999.800
G1 X-104.609 Y-66.748 Z6.905 F1999.800
G1 X-105.073 Y-67.213 Z6.905 F1999.800
G1 X-104.609 Y-66.748 Z6.905 F1999.800
G1 X-12.387 Y-66.748 Z6.905 F1999.800
G2 X-10.802 Y-68.333 Z6.905 I0.000 J-1.585 K0.000 F1999.800
G1 X-10.802 Y-190.000 Z6.905 F1999.800
G2 X-12.387 Y-191.585 Z6.905 I-1.585 J0.000 K0.000 F1999.800
G1 X-67.340 Y-191.585 Z6.905 F1999.800
G1 X-67.804 Y-191.121 Z6.905 F1999.800
G1 X-67.340 Y-191.585 Z6.905 F1999.800
G1 X-67.340 Y-200.000 Z6.905 F1999.800
G2 X-68.925 Y-201.585 Z6.905 I-1.585 J0.000 K0.000 F1999.800
G1 X-125.462 Y-201.585 Z6.905 F1999.800
G2 X-127.047 Y-200.000 Z6.905 I0.000 J1.585 K0.000 F1999.800
G1 X-127.047 Y-191.585 Z6.905 F1999.800
G1 X-126.583 Y-191.121 Z6.905 F1999.800
G1 X-127.047 Y-191.585 Z6.905 F1999.800
G1 X-182.000 Y-191.585 Z6.905 F1999.800
G2 X-183.585 Y-190.000 Z6.905 I0.000 J1.585 K0.000 F1999.800
G1 X-183.585 Y-186.585 Z6.905 F1999.800
G1 X-183.121 Y-186.121 Z6.905 F1999.800
G1 X-183.585 Y-186.585 Z6.905 F1999.800
G1 X-200.000 Y-186.585 Z6.905 F1999.800
G2 X-201.585 Y-185.000 Z6.905 I0.000 J1.585 K0.000 F1999.800
G1 X-201.585 Y185.000 Z6.905 F1999.800
G2 X-200.000 Y186.585 Z6.905 I1.585 J-0.000 K0.000 F1999.800
G1 X-183.585 Y186.585 Z6.905 F1999.800
G1 X-183.121 Y186.121 Z6.905 F1999.800
G1 X-183.585 Y186.585 Z6.905 F1999.800
G1 X-183.585 Y190.000 Z6.905 F1999.800
G2 X-182.000 Y191.585 Z6.905 I1.585 J-0.000 K0.000 F1999.800
G1 X-127.047 Y191.585 Z6.905 F1999.800
G1 X-126.583 Y191.121 Z6.905 F1999.800
G1 X-127.047 Y191.585 Z6.905 F1999.800
G1 X-127.047 Y200.000 Z6.905 F1999.800
G2 X-125.462 Y201.585 Z6.905 I1.585 J-0.000 K0.000 F1999.800
G1 X-68.925 Y201.585 Z6.905 F1999.800
G2 X-67.340 Y200.000 Z6.905 I-0.000 J-1.585 K0.000 F1999.800
G1 X-67.340 Y191.585 Z6.905 F1999.800
G1 X-67.804 Y191.121 Z6.905 F1999.800
G1 X-67.340 Y191.585 Z6.905 F1999.800
G1 X-12.387 Y191.585 Z6.905 F1999.800
G2 X-12.173 Y191.570 Z6.905 I-0.000 J-1.585 K0.000 F1999.800
G1 X-12.173 Y191.570 Z6.377 F999.600
G2 X-10.802 Y190.000 Z6.377 I-0.215 J-1.570 K0.000 F1999.800
G1 X-10.802 Y68.333 Z6.377 F1999.800
G2 X-12.387 Y66.748 Z6.377 I-1.585 J-0.000 K0.000 F1999.800
G1 X-104.609 Y66.748 Z6.377 F1999.800
G1 X-105.073 Y67.213 Z6.377 F1999.800
G1 X-104.609 Y66.748 Z6.377 F1999.800
G1 X-104.609 Y59.918 Z6.377 F1999.800
G1 X-105.073 Y59.454 Z6.377 F1999.800
G1 X-104.609 Y59.918 Z6.377 F1999.800
G1 X-12.387 Y59.918 Z6.377 F1999.800
G2 X-10.802 Y58.333 Z6.377 I0.000 J-1.585 K0.000 F1999.800
G1 X-10.802 Y-58.333 Z6.377 F1999.800
G2 X-12.387 Y-59.918 Z6.377 I-1.585 J-0.000 K0.000 F1999.800
G1 X-104.609 Y-59.918 Z6.377 F1999.800
G1 X-105.073 Y-59.454 Z6.377 F1999.800
G1 X-104.609 Y-59.918 Z6.377 F1999.800
G1 X-104.609 Y-66.748 Z6.377 F1999.800
G1 X-105.073 Y-67.213 Z6.377 F1999.800
G1 X-104.609 Y-66.748 Z6.377 F1999.800
G1 X-12.387 Y-66.748 Z6.377 F1999.800
G2 X-10.802 Y-68.333 Z6.377 I0.000 J-1.585 K0.000 F1999.800
G1 X-10.802 Y-190.000 Z6.377 F1999.800
G2 X-12.387 Y-191.585 Z6.377 I-1.585 J0.000 K0.000 F1999.800
G1 X-67.340 Y-191.585 Z6.377 F1999.800
G1 X-67.804 Y-191.121 Z6.377 F1999.800
G1 X-67.340 Y-191.585 Z6.377 F1999.800
G1 X-67.340 Y-200.000 Z6.377 F1999.800
G2 X-68.925 Y-201.585 Z6.377 I-1.585 J0.000 K0.000 F1999.800
G1 X-125.462 Y-201.585 Z6.377 F1999.800
G2 X-127.047 Y-200.000 Z6.377 I0.000 J1.585 K0.000 F1999.800
G1 X-127.047 Y-191.585 Z6.377 F1999.800
G1 X-126.583 Y-191.121 Z6.377 F1999.800
G1 X-127.047 Y-191.585 Z6.377 F1999.800
G1 X-182.000 Y-191.585 Z6.377 F1999.800
G2 X-183.585 Y-190.000 Z6.377 I0.000 J1.585 K0.000 F1999.800
G1 X-183.585 Y-186.585 Z6.377 F1999.800
G1 X-183.121 Y-186.121 Z6.377 F1999.800
G1 X-183.585 Y-186.585 Z6.377 F1999.800
G1 X-200.000 Y-186.585 Z6.377 F1999.800
G2 X-201.585 Y-185.000 Z6.377 I0.000 J1.585 K0.000 F1999.800
G1 X-201.585 Y185.000 Z6.377 F1999.800
G2 X-200.000 Y186.585 Z6.377 I1.585 J-0.000 K0.000 F1999.800
G1 X-183.585 Y186.585 Z6.377 F1999.800
G1 X-183.121 Y186.121 Z6.377 F1999.800
G1 X-183.585 Y186.585 Z6.377 F1999.800
G1 X-183.585 Y190.000 Z6.377 F1999.800
G2 X-182.000 Y191.585 Z6.377 I1.585 J-0.000 K0.000 F1999.800
G1 X-127.047 Y191.585 Z6.377 F1999.800
G1 X-126.583 Y191.121 Z6.377 F1999.800
G1 X-127.047 Y191.585 Z6.377 F1999.800
G1 X-127.047 Y200.000 Z6.377 F1999.800
G2 X-125.462 Y201.585 Z6.377 I1.585 J-0.000 K0.000 F1999.800
G1 X-68.925 Y201.585 Z6.377 F1999.800
G2 X-67.340 Y200.000 Z6.377 I-0.000 J-1.585 K0.000 F1999.800
G1 X-67.340 Y191.585 Z6.377 F1999.800
G1 X-67.804 Y191.121 Z6.377 F1999.800
G1 X-67.340 Y191.585 Z6.377 F1999.800
G1 X-12.387 Y191.585 Z6.377 F1999.800
G2 X-12.173 Y191.570 Z6.377 I-0.000 J-1.585 K0.000 F1999.800
G1 X-12.173 Y191.570 Z5.848 F999.600
G2 X-10.802 Y190.000 Z5.848 I-0.215 J-1.570 K0.000 F1999.800
G1 X-10.802 Y68.333 Z5.848 F1999.800
G2 X-12.387 Y66.748 Z5.848 I-1.585 J-0.000 K0.000 F1999.800
G1 X-104.609 Y66.748 Z5.848 F1999.800
G1 X-105.073 Y67.213 Z5.848 F1999.800
G1 X-104.609 Y66.748 Z5.848 F1999.800
G1 X-104.609 Y59.918 Z5.848 F1999.800
G1 X-105.073 Y59.454 Z5.848 F1999.800
G1 X-104.609 Y59.918 Z5.848 F1999.800
G1 X-12.387 Y59.918 Z5.848 F1999.800
G2 X-10.802 Y58.333 Z5.848 I0.000 J-1.585 K0.000 F1999.800
G1 X-10.802 Y-58.333 Z5.848 F1999.800
G2 X-12.387 Y-59.918 Z5.848 I-1.585 J-0.000 K0.000 F1999.800
G1 X-104.609 Y-59.918 Z5.848 F1999.800
G1 X-105.073 Y-59.454 Z5.848 F1999.800
G1 X-104.609 Y-59.918 Z5.848 F1999.800
G1 X-104.609 Y-66.748 Z5.848 F1999.800
G1 X-105.073 Y-67.213 Z5.848 F1999.800
G1 X-104.609 Y-66.748 Z5.848 F1999.800
G1 X-12.387 Y-66.748 Z5.848 F1999.800
G2 X-10.802 Y-68.333 Z5.848 I0.000 J-1.585 K0.000 F1999.800
G1 X-10.802 Y-190.000 Z5.848 F1999.800
G2 X-12.387 Y-191.585 Z5.848 I-1.585 J0.000 K0.000 F1999.800
G1 X-67.340 Y-191.585 Z5.848 F1999.800
G1 X-67.804 Y-191.121 Z5.848 F1999.800
G1 X-67.340 Y-191.585 Z5.848 F1999.800
G1 X-67.340 Y-200.000 Z5.848 F1999.800
G2 X-68.925 Y-201.585 Z5.848 I-1.585 J0.000 K0.000 F1999.800
G1 X-125.462 Y-201.585 Z5.848 F1999.800
G2 X-127.047 Y-200.000 Z5.848 I0.000 J1.585 K0.000 F1999.800
G1 X-127.047 Y-191.585 Z5.848 F1999.800
G1 X-126.583 Y-191.121 Z5.848 F1999.800
G1 X-127.047 Y-191.585 Z5.848 F1999.800
G1 X-182.000 Y-191.585 Z5.848 F1999.800
G2 X-183.585 Y-190.000 Z5.848 I0.000 J1.585 K0.000 F1999.800
G1 X-183.585 Y-186.585 Z5.848 F1999.800
G1 X-183.121 Y-186.121 Z5.848 F1999.800
G1 X-183.585 Y-186.585 Z5.848 F1999.800
G1 X-200.000 Y-186.585 Z5.848 F1999.800
G2 X-201.585 Y-185.000 Z5.848 I0.000 J1.585 K0.000 F1999.800
G1 X-201.585 Y185.000 Z5.848 F1999.800
G2 X-200.000 Y186.585 Z5.848 I1.585 J-0.000 K0.000 F1999.800
G1 X-183.585 Y186.585 Z5.848 F1999.800
G1 X-183.121 Y186.121 Z5.848 F1999.800
G1 X-183.585 Y186.585 Z5.848 F1999.800
G1 X-183.585 Y190.000 Z5.848 F1999.800
G2 X-182.000 Y191.585 Z5.848 I1.585 J-0.000 K0.000 F1999.800
G1 X-127.047 Y191.585 Z5.848 F1999.800
G1 X-126.583 Y191.121 Z5.848 F1999.800
G1 X-127.047 Y191.585 Z5.848 F1999.800
G1 X-127.047 Y200.000 Z5.848 F1999.800
G2 X-125.462 Y201.585 Z5.848 I1.585 J-0.000 K0.000 F1999.800
G1 X-68.925 Y201.585 Z5.848 F1999.800
G2 X-67.340 Y200.000 Z5.848 I-0.000 J-1.585 K0.000 F1999.800
G1 X-67.340 Y191.585 Z5.848 F1999.800
G1 X-67.804 Y191.121 Z5.848 F1999.800
G1 X-67.340 Y191.585 Z5.848 F1999.800
G1 X-12.387 Y191.585 Z5.848 F1999.800
G2 X-12.173 Y191.570 Z5.848 I-0.000 J-1.585 K0.000 F1999.800
G1 X-12.173 Y191.570 Z5.320 F999.600
G2 X-10.802 Y190.000 Z5.320 I-0.215 J-1.570 K0.000 F1999.800
G1 X-10.802 Y68.333 Z5.320 F1999.800
G2 X-12.387 Y66.748 Z5.320 I-1.585 J-0.000 K0.000 F1999.800
G1 X-104.609 Y66.748 Z5.320 F1999.800
G1 X-105.073 Y67.213 Z5.320 F1999.800
G1 X-104.609 Y66.748 Z5.320 F1999.800
G1 X-104.609 Y59.918 Z5.320 F1999.800
G1 X-105.073 Y59.454 Z5.320 F1999.800
G1 X-104.609 Y59.918 Z5.320 F1999.800
G1 X-12.387 Y59.918 Z5.320 F1999.800
G2 X-10.802 Y58.333 Z5.320 I0.000 J-1.585 K0.000 F1999.800
G1 X-10.802 Y-58.333 Z5.320 F1999.800
G2 X-12.387 Y-59.918 Z5.320 I-1.585 J-0.000 K0.000 F1999.800
G1 X-104.609 Y-59.918 Z5.320 F1999.800
G1 X-105.073 Y-59.454 Z5.320 F1999.800
G1 X-104.609 Y-59.918 Z5.320 F1999.800
G1 X-104.609 Y-66.748 Z5.320 F1999.800
G1 X-105.073 Y-67.213 Z5.320 F1999.800
G1 X-104.609 Y-66.748 Z5.320 F1999.800
G1 X-12.387 Y-66.748 Z5.320 F1999.800
G2 X-10.802 Y-68.333 Z5.320 I0.000 J-1.585 K0.000 F1999.800
G1 X-10.802 Y-190.000 Z5.320 F1999.800
G2 X-12.387 Y-191.585 Z5.320 I-1.585 J0.000 K0.000 F1999.800
G1 X-67.340 Y-191.585 Z5.320 F1999.800
G1 X-67.804 Y-191.121 Z5.320 F1999.800
G1 X-67.340 Y-191.585 Z5.320 F1999.800
G1 X-67.340 Y-200.000 Z5.320 F1999.800
G2 X-68.925 Y-201.585 Z5.320 I-1.585 J0.000 K0.000 F1999.800
G1 X-125.462 Y-201.585 Z5.320 F1999.800
G2 X-127.047 Y-200.000 Z5.320 I0.000 J1.585 K0.000 F1999.800
G1 X-127.047 Y-191.585 Z5.320 F1999.800
G1 X-126.583 Y-191.121 Z5.320 F1999.800
G1 X-127.047 Y-191.585 Z5.320 F1999.800
G1 X-182.000 Y-191.585 Z5.320 F1999.800
G2 X-183.585 Y-190.000 Z5.320 I0.000 J1.585 K0.000 F1999.800
G1 X-183.585 Y-186.585 Z5.320 F1999.800
G1 X-183.121 Y-186.121 Z5.320 F1999.800
G1 X-183.585 Y-186.585 Z5.320 F1999.800
G1 X-200.000 Y-186.585 Z5.320 F1999.800
G2 X-201.585 Y-185.000 Z5.320 I0.000 J1.585 K0.000 F1999.800
G1 X-201.585 Y185.000 Z5.320 F1999.800
G2 X-200.000 Y186.585 Z5.320 I1.585 J-0.000 K0.000 F1999.800
G1 X-183.585 Y186.585 Z5.320 F1999.800
G1 X-183.121 Y186.121 Z5.320 F1999.800
G1 X-183.585 Y186.585 Z5.320 F1999.800
G1 X-183.585 Y190.000 Z5.320 F1999.800
G2 X-182.000 Y191.585 Z5.320 I1.585 J-0.000 K0.000 F1999.800
G1 X-127.047 Y191.585 Z5.320 F1999.800
G1 X-126.583 Y191.121 Z5.320 F1999.800
G1 X-127.047 Y191.585 Z5.320 F1999.800
G1 X-127.047 Y200.000 Z5.320 F1999.800
G2 X-125.462 Y201.585 Z5.320 I1.585 J-0.000 K0.000 F1999.800
G1 X-68.925 Y201.585 Z5.320 F1999.800
G2 X-67.340 Y200.000 Z5.320 I-0.000 J-1.585 K0.000 F1999.800
G1 X-67.340 Y191.585 Z5.320 F1999.800
G1 X-67.804 Y191.121 Z5.320 F1999.800
G1 X-67.340 Y191.585 Z5.320 F1999.800
G1 X-12.387 Y191.585 Z5.320 F1999.800
G2 X-12.173 Y191.570 Z5.320 I-0.000 J-1.585 K0.000 F1999.800
G1 X-12.173 Y191.570 Z4.792 F999.600
G2 X-10.802 Y190.000 Z4.792 I-0.215 J-1.570 K0.000 F1999.800
G1 X-10.802 Y68.333 Z4.792 F1999.800
G2 X-12.387 Y66.748 Z4.792 I-1.585 J-0.000 K0.000 F1999.800
G1 X-104.609 Y66.748 Z4.792 F1999.800
G1 X-105.073 Y67.213 Z4.792 F1999.800
G1 X-104.609 Y66.748 Z4.792 F1999.800
G1 X-104.609 Y59.918 Z4.792 F1999.800
G1 X-105.073 Y59.454 Z4.792 F1999.800
G1 X-104.609 Y59.918 Z4.792 F1999.800
G1 X-12.387 Y59.918 Z4.792 F1999.800
G2 X-10.802 Y58.333 Z4.792 I0.000 J-1.585 K0.000 F1999.800
G1 X-10.802 Y-58.333 Z4.792 F1999.800
G2 X-12.387 Y-59.918 Z4.792 I-1.585 J-0.000 K0.000 F1999.800
G1 X-104.609 Y-59.918 Z4.792 F1999.800
G1 X-105.073 Y-59.454 Z4.792 F1999.800
G1 X-104.609 Y-59.918 Z4.792 F1999.800
G1 X-104.609 Y-66.748 Z4.792 F1999.800
G1 X-105.073 Y-67.213 Z4.792 F1999.800
G1 X-104.609 Y-66.748 Z4.792 F1999.800
G1 X-12.387 Y-66.748 Z4.792 F1999.800
G2 X-10.802 Y-68.333 Z4.792 I0.000 J-1.585 K0.000 F1999.800
G1 X-10.802 Y-190.000 Z4.792 F1999.800
G2 X-12.387 Y-191.585 Z4.792 I-1.585 J0.000 K0.000 F1999.800
G1 X-67.340 Y-191.585 Z4.792 F1999.800
G1 X-67.804 Y-191.121 Z4.792 F1999.800
G1 X-67.340 Y-191.585 Z4.792 F1999.800
G1 X-67.340 Y-200.000 Z4.792 F1999.800
G2 X-68.925 Y-201.585 Z4.792 I-1.585 J0.000 K0.000 F1999.800
G1 X-125.462 Y-201.585 Z4.792 F1999.800
G2 X-127.047 Y-200.000 Z4.792 I0.000 J1.585 K0.000 F1999.800
G1 X-127.047 Y-191.585 Z4.792 F1999.800
G1 X-126.583 Y-191.121 Z4.792 F1999.800
G1 X-127.047 Y-191.585 Z4.792 F1999.800
G1 X-182.000 Y-191.585 Z4.792 F1999.800
G2 X-183.585 Y-190.000 Z4.792 I0.000 J1.585 K0.000 F1999.800
G1 X-183.585 Y-186.585 Z4.792 F1999.800
G1 X-183.121 Y-186.121 Z4.792 F1999.800
G1 X-183.585 Y-186.585 Z4.792 F1999.800
G1 X-200.000 Y-186.585 Z4.792 F1999.800
G2 X-201.585 Y-185.000 Z4.792 I0.000 J1.585 K0.000 F1999.800
G1 X-201.585 Y185.000 Z4.792 F1999.800
G2 X-200.000 Y186.585 Z4.792 I1.585 J-0.000 K0.000 F1999.800
G1 X-183.585 Y186.585 Z4.792 F1999.800
G1 X-183.121 Y186.121 Z4.792 F1999.800
G1 X-183.585 Y186.585 Z4.792 F1999.800
G1 X-183.585 Y190.000 Z4.792 F1999.800
G2 X-182.000 Y191.585 Z4.792 I1.585 J-0.000 K0.000 F1999.800
G1 X-127.047 Y191.585 Z4.792 F1999.800
G1 X-126.583 Y191.121 Z4.792 F1999.800
G1 X-127.047 Y191.585 Z4.792 F1999.800
G1 X-127.047 Y200.000 Z4.792 F1999.800
G2 X-125.462 Y201.585 Z4.792 I1.585 J-0.000 K0.000 F1999.800
G1 X-68.925 Y201.585 Z4.792 F1999.800
G2 X-67.340 Y200.000 Z4.792 I-0.000 J-1.585 K0.000 F1999.800
G1 X-67.340 Y191.585 Z4.792 F1999.800
G1 X-67.804 Y191.121 Z4.792 F1999.800
G1 X-67.340 Y191.585 Z4.792 F1999.800
G1 X-12.387 Y191.585 Z4.792 F1999.800
G2 X-12.173 Y191.570 Z4.792 I-0.000 J-1.585 K0.000 F1999.800
G1 X-12.173 Y191.570 Z4.263 F999.600
G2 X-10.802 Y190.000 Z4.263 I-0.215 J-1.570 K0.000 F1999.800
G1 X-10.802 Y68.333 Z4.263 F1999.800
G2 X-12.387 Y66.748 Z4.263 I-1.585 J-0.000 K0.000 F1999.800
G1 X-104.609 Y66.748 Z4.263 F1999.800
G1 X-105.073 Y67.213 Z4.263 F1999.800
G1 X-104.609 Y66.748 Z4.263 F1999.800
G1 X-104.609 Y59.918 Z4.263 F1999.800
G1 X-105.073 Y59.454 Z4.263 F1999.800
G1 X-104.609 Y59.918 Z4.263 F1999.800
G1 X-12.387 Y59.918 Z4.263 F1999.800
G2 X-10.802 Y58.333 Z4.263 I0.000 J-1.585 K0.000 F1999.800
G1 X-10.802 Y-58.333 Z4.263 F1999.800
G2 X-12.387 Y-59.918 Z4.263 I-1.585 J-0.000 K0.000 F1999.800
G1 X-104.609 Y-59.918 Z4.263 F1999.800
G1 X-105.073 Y-59.454 Z4.263 F1999.800
G1 X-104.609 Y-59.918 Z4.263 F1999.800
G1 X-104.609 Y-66.748 Z4.263 F1999.800
G1 X-105.073 Y-67.213 Z4.263 F1999.800
G1 X-104.609 Y-66.748 Z4.263 F1999.800
G1 X-12.387 Y-66.748 Z4.263 F1999.800
G2 X-10.802 Y-68.333 Z4.263 I0.000 J-1.585 K0.000 F1999.800
G1 X-10.802 Y-190.000 Z4.263 F1999.800
G2 X-12.387 Y-191.585 Z4.263 I-1.585 J0.000 K0.000 F1999.800
G1 X-67.340 Y-191.585 Z4.263 F1999.800
G1 X-67.804 Y-191.121 Z4.263 F1999.800
G1 X-67.340 Y-191.585 Z4.263 F1999.800
G1 X-67.340 Y-200.000 Z4.263 F1999.800
G2 X-68.925 Y-201.585 Z4.263 I-1.585 J0.000 K0.000 F1999.800
G1 X-125.462 Y-201.585 Z4.263 F1999.800
G2 X-127.047 Y-200.000 Z4.263 I0.000 J1.585 K0.000 F1999.800
G1 X-127.047 Y-191.585 Z4.263 F1999.800
G1 X-126.583 Y-191.121 Z4.263 F1999.800
G1 X-127.047 Y-191.585 Z4.263 F1999.800
G1 X-182.000 Y-191.585 Z4.263 F1999.800
G2 X-183.585 Y-190.000 Z4.263 I0.000 J1.585 K0.000 F1999.800
G1 X-183.585 Y-186.585 Z4.263 F1999.800
G1 X-183.121 Y-186.121 Z4.263 F1999.800
G1 X-183.585 Y-186.585 Z4.263 F1999.800
G1 X-200.000 Y-186.585 Z4.263 F1999.800
G2 X-201.585 Y-185.000 Z4.263 I0.000 J1.585 K0.000 F1999.800
G1 X-201.585 Y185.000 Z4.263 F1999.800
G2 X-200.000 Y186.585 Z4.263 I1.585 J-0.000 K0.000 F1999.800
G1 X-183.585 Y186.585 Z4.263 F1999.800
G1 X-183.121 Y186.121 Z4.263 F1999.800
G1 X-183.585 Y186.585 Z4.263 F1999.800
G1 X-183.585 Y190.000 Z4.263 F1999.800
G2 X-182.000 Y191.585 Z4.263 I1.585 J-0.000 K0.000 F1999.800
G1 X-127.047 Y191.585 Z4.263 F1999.800
G1 X-126.583 Y191.121 Z4.263 F1999.800
G1 X-127.047 Y191.585 Z4.263 F1999.800
G1 X-127.047 Y200.000 Z4.263 F1999.800
G2 X-125.462 Y201.585 Z4.263 I1.585 J-0.000 K0.000 F1999.800
G1 X-68.925 Y201.585 Z4.263 F1999.800
G2 X-67.340 Y200.000 Z4.263 I-0.000 J-1.585 K0.000 F1999.800
G1 X-67.340 Y191.585 Z4.263 F1999.800
G1 X-67.804 Y191.121 Z4.263 F1999.800
G1 X-67.340 Y191.585 Z4.263 F1999.800
G1 X-12.387 Y191.585 Z4.263 F1999.800
G2 X-12.173 Y191.570 Z4.263 I-0.000 J-1.585 K0.000 F1999.800
G1 X-12.173 Y191.570 Z3.735 F999.600
G2 X-10.802 Y190.000 Z3.735 I-0.215 J-1.570 K0.000 F1999.800
G1 X-10.802 Y68.333 Z3.735 F1999.800
G2 X-12.387 Y66.748 Z3.735 I-1.585 J-0.000 K0.000 F1999.800
G1 X-104.609 Y66.748 Z3.735 F1999.800
G1 X-105.073 Y67.213 Z3.735 F1999.800
G1 X-104.609 Y66.748 Z3.735 F1999.800
G1 X-104.609 Y59.918 Z3.735 F1999.800
G1 X-105.073 Y59.454 Z3.735 F1999.800
G1 X-104.609 Y59.918 Z3.735 F1999.800
G1 X-12.387 Y59.918 Z3.735 F1999.800
G2 X-10.802 Y58.333 Z3.735 I0.000 J-1.585 K0.000 F1999.800
G1 X-10.802 Y-58.333 Z3.735 F1999.800
G2 X-12.387 Y-59.918 Z3.735 I-1.585 J-0.000 K0.000 F1999.800
G1 X-104.609 Y-59.918 Z3.735 F1999.800
G1 X-105.073 Y-59.454 Z3.735 F1999.800
G1 X-104.609 Y-59.918 Z3.735 F1999.800
G1 X-104.609 Y-66.748 Z3.735 F1999.800
G1 X-105.073 Y-67.213 Z3.735 F1999.800
G1 X-104.609 Y-66.748 Z3.735 F1999.800
G1 X-12.387 Y-66.748 Z3.735 F1999.800
G2 X-10.802 Y-68.333 Z3.735 I0.000 J-1.585 K0.000 F1999.800
G1 X-10.802 Y-190.000 Z3.735 F1999.800
G2 X-12.387 Y-191.585 Z3.735 I-1.585 J0.000 K0.000 F1999.800
G1 X-67.340 Y-191.585 Z3.735 F1999.800
G1 X-67.804 Y-191.121 Z3.735 F1999.800
G1 X-67.340 Y-191.585 Z3.735 F1999.800
G1 X-67.340 Y-200.000 Z3.735 F1999.800
G2 X-68.925 Y-201.585 Z3.735 I-1.585 J0.000 K0.000 F1999.800
G1 X-125.462 Y-201.585 Z3.735 F1999.800
G2 X-127.047 Y-200.000 Z3.735 I0.000 J1.585 K0.000 F1999.800
G1 X-127.047 Y-191.585 Z3.735 F1999.800
G1 X-126.583 Y-191.121 Z3.735 F1999.800
G1 X-127.047 Y-191.585 Z3.735 F1999.800
G1 X-182.000 Y-191.585 Z3.735 F1999.800
G2 X-183.585 Y-190.000 Z3.735 I0.000 J1.585 K0.000 F1999.800
G1 X-183.585 Y-186.585 Z3.735 F1999.800
G1 X-183.121 Y-186.121 Z3.735 F1999.800
G1 X-183.585 Y-186.585 Z3.735 F1999.800
G1 X-200.000 Y-186.585 Z3.735 F1999.800
G2 X-201.585 Y-185.000 Z3.735 I0.000 J1.585 K0.000 F1999.800
G1 X-201.585 Y185.000 Z3.735 F1999.800
G2 X-200.000 Y186.585 Z3.735 I1.585 J-0.000 K0.000 F1999.800
G1 X-183.585 Y186.585 Z3.735 F1999.800
G1 X-183.121 Y186.121 Z3.735 F1999.800
G1 X-183.585 Y186.585 Z3.735 F1999.800
G1 X-183.585 Y190.000 Z3.735 F1999.800
G2 X-182.000 Y191.585 Z3.735 I1.585 J-0.000 K0.000 F1999.800
G1 X-127.047 Y191.585 Z3.735 F1999.800
G1 X-126.583 Y191.121 Z3.735 F1999.800
G1 X-127.047 Y191.585 Z3.735 F1999.800
G1 X-127.047 Y200.000 Z3.735 F1999.800
G2 X-125.462 Y201.585 Z3.735 I1.585 J-0.000 K0.000 F1999.800
G1 X-68.925 Y201.585 Z3.735 F1999.800
G2 X-67.340 Y200.000 Z3.735 I-0.000 J-1.585 K0.000 F1999.800
G1 X-67.340 Y191.585 Z3.735 F1999.800
G1 X-67.804 Y191.121 Z3.735 F1999.800
G1 X-67.340 Y191.585 Z3.735 F1999.800
G1 X-12.387 Y191.585 Z3.735 F1999.800
G2 X-12.173 Y191.570 Z3.735 I-0.000 J-1.585 K0.000 F1999.800
G1 X-12.173 Y191.570 Z3.207 F999.600
G2 X-10.802 Y190.000 Z3.207 I-0.215 J-1.570 K0.000 F1999.800
G1 X-10.802 Y68.333 Z3.207 F1999.800
G2 X-12.387 Y66.748 Z3.207 I-1.585 J-0.000 K0.000 F1999.800
G1 X-104.609 Y66.748 Z3.207 F1999.800
G1 X-105.073 Y67.213 Z3.207 F1999.800
G1 X-104.609 Y66.748 Z3.207 F1999.800
G1 X-104.609 Y59.918 Z3.207 F1999.800
G1 X-105.073 Y59.454 Z3.207 F1999.800
G1 X-104.609 Y59.918 Z3.207 F1999.800
G1 X-12.387 Y59.918 Z3.207 F1999.800
G2 X-10.802 Y58.333 Z3.207 I0.000 J-1.585 K0.000 F1999.800
G1 X-10.802 Y-58.333 Z3.207 F1999.800
G2 X-12.387 Y-59.918 Z3.207 I-1.585 J-0.000 K0.000 F1999.800
G1 X-104.609 Y-59.918 Z3.207 F1999.800
G1 X-105.073 Y-59.454 Z3.207 F1999.800
G1 X-104.609 Y-59.918 Z3.207 F1999.800
G1 X-104.609 Y-66.748 Z3.207 F1999.800
G1 X-105.073 Y-67.213 Z3.207 F1999.800
G1 X-104.609 Y-66.748 Z3.207 F1999.800
G1 X-12.387 Y-66.748 Z3.207 F1999.800
G2 X-10.802 Y-68.333 Z3.207 I0.000 J-1.585 K0.000 F1999.800
G1 X-10.802 Y-190.000 Z3.207 F1999.800
G2 X-12.387 Y-191.585 Z3.207 I-1.585 J0.000 K0.000 F1999.800
G1 X-67.340 Y-191.585 Z3.207 F1999.800
G1 X-67.804 Y-191.121 Z3.207 F1999.800
G1 X-67.340 Y-191.585 Z3.207 F1999.800
G1 X-67.340 Y-200.000 Z3.207 F1999.800
G2 X-68.925 Y-201.585 Z3.207 I-1.585 J0.000 K0.000 F1999.800
G1 X-125.462 Y-201.585 Z3.207 F1999.800
G2 X-127.047 Y-200.000 Z3.207 I0.000 J1.585 K0.000 F1999.800
G1 X-127.047 Y-191.585 Z3.207 F1999.800
G1 X-126.583 Y-191.121 Z3.207 F1999.800
G1 X-127.047 Y-191.585 Z3.207 F1999.800
G1 X-182.000 Y-191.585 Z3.207 F1999.800
G2 X-183.585 Y-190.000 Z3.207 I0.000 J1.585 K0.000 F1999.800
G1 X-183.585 Y-186.585 Z3.207 F1999.800
G1 X-183.121 Y-186.121 Z3.207 F1999.800
G1 X-183.585 Y-186.585 Z3.207 F1999.800
G1 X-200.000 Y-186.585 Z3.207 F1999.800
G2 X-201.585 Y-185.000 Z3.207 I0.000 J1.585 K0.000 F1999.800
G1 X-201.585 Y185.000 Z3.207 F1999.800
G2 X-200.000 Y186.585 Z3.207 I1.585 J-0.000 K0.000 F1999.800
G1 X-183.585 Y186.585 Z3.207 F1999.800
G1 X-183.121 Y186.121 Z3.207 F1999.800
G1 X-183.585 Y186.585 Z3.207 F1999.800
G1 X-183.585 Y190.000 Z3.207 F1999.800
G2 X-182.000 Y191.585 Z3.207 I1.585 J-0.000 K0.000 F1999.800
G1 X-127.047 Y191.585 Z3.207 F1999.800
G1 X-126.583 Y191.121 Z3.207 F1999.800
G1 X-127.047 Y191.585 Z3.207 F1999.800
G1 X-127.047 Y200.000 Z3.207 F1999.800
G2 X-125.462 Y201.585 Z3.207 I1.585 J-0.000 K0.000 F1999.800
G1 X-68.925 Y201.585 Z3.207 F1999.800
G2 X-67.340 Y200.000 Z3.207 I-0.000 J-1.585 K0.000 F1999.800
G1 X-67.340 Y191.585 Z3.207 F1999.800
G1 X-67.804 Y191.121 Z3.207 F1999.800
G1 X-67.340 Y191.585 Z3.207 F1999.800
G1 X-12.387 Y191.585 Z3.207 F1999.800
G2 X-12.173 Y191.570 Z3.207 I-0.000 J-1.585 K0.000 F1999.800
G1 X-12.173 Y191.570 Z2.678 F999.600
G2 X-10.802 Y190.000 Z2.678 I-0.215 J-1.570 K0.000 F1999.800
G1 X-10.802 Y157.376 Z2.678 F1999.800
G1 X-10.802 Y157.306 Z2.800 F1333.000
G1 X-10.802 Y153.634 Z2.800 F1999.800
G1 X-10.802 Y153.564 Z2.678 F1333.000
G1 X-10.802 Y83.546 Z2.678 F1999.800
G1 X-10.802 Y83.476 Z2.800 F1333.000
G1 X-10.802 Y79.804 Z2.800 F1999.800
G1 X-10.802 Y79.734 Z2.678 F1333.000
G1 X-10.802 Y68.333 Z2.678 F1999.800
G2 X-12.387 Y66.748 Z2.678 I-1.585 J-0.000 K0.000 F1999.800
G1 X-43.574 Y66.748 Z2.678 F1999.800
G1 X-43.644 Y66.748 Z2.800 F1333.000
G1 X-47.316 Y66.748 Z2.800 F1999.800
G1 X-47.386 Y66.748 Z2.678 F1333.000
G1 X-104.609 Y66.748 Z2.678 F1999.800
G1 X-105.073 Y67.213 Z2.678 F1999.800
G1 X-104.609 Y66.748 Z2.678 F1999.800
G1 X-104.609 Y65.346 Z2.678 F1999.800
G1 X-104.609 Y65.276 Z2.800 F1333.000
G1 X-104.609 Y61.604 Z2.800 F1999.800
G1 X-104.609 Y61.534 Z2.678 F1333.000
G1 X-104.609 Y59.918 Z2.678 F1999.800
G1 X-105.073 Y59.454 Z2.678 F1999.800
G1 X-104.609 Y59.918 Z2.678 F1999.800
G1 X-47.386 Y59.918 Z2.678 F1999.800
G1 X-47.316 Y59.918 Z2.800 F1333.000
G1 X-43.644 Y59.918 Z2.800 F1999.800
G1 X-43.574 Y59.918 Z2.678 F1333.000
G1 X-12.387 Y59.918 Z2.678 F1999.800
G2 X-10.802 Y58.333 Z2.678 I0.000 J-1.585 K0.000 F1999.800
G1 X-10.802 Y41.336 Z2.678 F1999.800
G1 X-10.802 Y41.266 Z2.800 F1333.000
G1 X-10.802 Y37.594 Z2.800 F1999.800
G1 X-10.802 Y37.524 Z2.678 F1333.000
G1 X-10.802 Y-45.694 Z2.678 F1999.800
G1 X-10.802 Y-45.764 Z2.800 F1333.000
G1 X-10.802 Y-49.436 Z2.800 F1999.800
G1 X-10.802 Y-49.506 Z2.678 F1333.000
G1 X-10.802 Y-58.333 Z2.678 F1999.800
G2 X-12.387 Y-59.918 Z2.678 I-1.585 J-0.000 K0.000 F1999.800
G1 X-77.454 Y-59.918 Z2.678 F1999.800
G1 X-77.524 Y-59.918 Z2.800 F1333.000
G1 X-81.196 Y-59.918 Z2.800 F1999.800
G1 X-81.266 Y-59.918 Z2.678 F1333.000
G1 X-104.609 Y-59.918 Z2.678 F1999.800
G1 X-105.073 Y-59.454 Z2.678 F1999.800
G1 X-104.609 Y-59.918 Z2.678 F1999.800
G1 X-104.609 Y-61.174 Z2.678 F1999.800
G1 X-104.609 Y-61.244 Z2.800 F1333.000
G1 X-104.609 Y-64.916 Z2.800 F1999.800
G1 X-104.609 Y-64.986 Z2.678 F1333.000
G1 X-104.609 Y-66.748 Z2.678 F1999.800
G1 X-105.073 Y-67.213 Z2.678 F1999.800
G1 X-104.609 Y-66.748 Z2.678 F1999.800
G1 X-81.626 Y-66.748 Z2.678 F1999.800
G1 X-81.556 Y-66.748 Z2.800 F1333.000
G1 X-77.884 Y-66.748 Z2.800 F1999.800
G1 X-77.814 Y-66.748 Z2.678 F1333.000
G1 X-12.387 Y-66.748 Z2.678 F1999.800
G2 X-10.802 Y-68.333 Z2.678 I0.000 J-1.585 K0.000 F1999.800
G1 X-10.802 Y-77.894 Z2.678 F1999.800
G1 X-10.802 Y-77.964 Z2.800 F1333.000
G1 X-10.802 Y-81.636 Z2.800 F1999.800
G1 X-10.802 Y-81.706 Z2.678 F1333.000
G1 X-10.802 Y-162.554 Z2.678 F1999.800
G1 X-10.802 Y-162.624 Z2.800 F1333.000
G1 X-10.802 Y-166.296 Z2.800 F1999.800
G1 X-10.802 Y-166.366 Z2.678 F1333.000
G1 X-10.802 Y-190.000 Z2.678 F1999.800
G2 X-12.387 Y-191.585 Z2.678 I-1.585 J0.000 K0.000 F1999.800
G1 X-32.854 Y-191.585 Z2.678 F1999.800
G1 X-32.924 Y-191.585 Z2.800 F1333.001
G1 X-36.596 Y-191.585 Z2.800 F1999.800
G1 X-36.666 Y-191.585 Z2.678 F1333.001
G1 X-67.340 Y-191.585 Z2.678 F1999.800
G1 X-67.804 Y-191.121 Z2.678 F1999.800
G1 X-67.340 Y-191.585 Z2.678 F1999.800
G1 X-67.340 Y-200.000 Z2.678 F1999.800
G2 X-68.925 Y-201.585 Z2.678 I-1.585 J0.000 K0.000 F1999.800
G1 X-90.994 Y-201.585 Z2.678 F1999.800
G1 X-91.064 Y-201.585 Z2.800 F1333.001
G1 X-94.736 Y-201.585 Z2.800 F1999.800
G1 X-94.806 Y-201.585 Z2.678 F1333.001
G1 X-125.462 Y-201.585 Z2.678 F1999.800
G2 X-127.047 Y-200.000 Z2.678 I0.000 J1.585 K0.000 F1999.800
G1 X-127.047 Y-191.585 Z2.678 F1999.800
G1 X-126.583 Y-191.121 Z2.678 F1999.800
G1 X-127.047 Y-191.585 Z2.678 F1999.800
G1 X-154.494 Y-191.585 Z2.678 F1999.800
G1 X-154.564 Y-191.585 Z2.800 F1333.001
G1 X-158.236 Y-191.585 Z2.800 F1999.800
G1 X-158.306 Y-191.585 Z2.678 F1333.001
G1 X-182.000 Y-191.585 Z2.678 F1999.800
G2 X-183.585 Y-190.000 Z2.678 I0.000 J1.585 K0.000 F1999.800
G1 X-183.585 Y-186.585 Z2.678 F1999.800
G1 X-183.121 Y-186.121 Z2.678 F1999.800
G1 X-183.585 Y-186.585 Z2.678 F1999.800
G1 X-200.000 Y-186.585 Z2.678 F1999.800
G2 X-201.585 Y-185.000 Z2.678 I0.000 J1.585 K0.000 F1999.800
G1 X-201.585 Y-137.326 Z2.678 F1999.800
G1 X-201.585 Y-137.256 Z2.800 F1333.001
G1 X-201.585 Y-133.584 Z2.800 F1999.800
G1 X-201.585 Y-133.514 Z2.678 F1333.001
G1 X-201.585 Y-2.606 Z2.678 F1999.800
G1 X-201.585 Y-2.536 Z2.800 F1333.001
G1 X-201.585 Y1.136 Z2.800 F1999.800
G1 X-201.585 Y1.206 Z2.678 F1333.001
G1 X-201.585 Y127.764 Z2.678 F1999.800
G1 X-201.585 Y127.834 Z2.800 F1333.001
G1 X-201.585 Y131.506 Z2.800 F1999.800
G1 X-201.585 Y131.576 Z2.678 F1333.001
G1 X-201.585 Y185.000 Z2.678 F1999.800
G2 X-200.000 Y186.585 Z2.678 I1.585 J-0.000 K0.000 F1999.800
G1 X-183.585 Y186.585 Z2.678 F1999.800
G1 X-183.121 Y186.121 Z2.678 F1999.800
G1 X-183.585 Y186.585 Z2.678 F1999.800
G1 X-183.585 Y190.000 Z2.678 F1999.800
G2 X-182.000 Y191.585 Z2.678 I1.585 J-0.000 K0.000 F1999.800
G1 X-151.606 Y191.585 Z2.678 F1999.800
G1 X-151.536 Y191.585 Z2.800 F1333.001
G1 X-147.864 Y191.585 Z2.800 F1999.800
G1 X-147.794 Y191.585 Z2.678 F1333.001
G1 X-127.047 Y191.585 Z2.678 F1999.800
G1 X-126.583 Y191.121 Z2.678 F1999.800
G1 X-127.047 Y191.585 Z2.678 F1999.800
G1 X-127.047 Y200.000 Z2.678 F1999.800
G2 X-125.462 Y201.585 Z2.678 I1.585 J-0.000 K0.000 F1999.800
G1 X-99.826 Y201.585 Z2.678 F1999.800
G1 X-99.756 Y201.585 Z2.800 F1333.001
G1 X-96.084 Y201.585 Z2.800 F1999.800
G1 X-96.014 Y201.585 Z2.678 F1333.001
G1 X-68.925 Y201.585 Z2.678 F1999.800
G2 X-67.340 Y200.000 Z2.678 I-0.000 J-1.585 K0.000 F1999.800
G1 X-67.340 Y191.585 Z2.678 F1999.800
G1 X-67.804 Y191.121 Z2.678 F1999.800
G1 X-67.340 Y191.585 Z2.678 F1999.800
G1 X-45.606 Y191.585 Z2.678 F1999.800
G1 X-45.536 Y191.585 Z2.800 F1333.001
G1 X-41.864 Y191.585 Z2.800 F1999.800
G1 X-41.794 Y191.585 Z2.678 F1333.001
G1 X-12.387 Y191.585 Z2.678 F1999.800
G2 X-12.173 Y191.570 Z2.678 I-0.000 J-1.585 K0.000 F1999.800
G1 X-12.173 Y191.570 Z2.150 F999.600
G2 X-10.802 Y190.000 Z2.150 I-0.215 J-1.570 K0.000 F1999.800
G1 X-10.802 Y157.681 Z2.150 F1999.800
G1 X-10.802 Y157.306 Z2.800 F1333.000
G1 X-10.802 Y153.634 Z2.800 F1999.800
G1 X-10.802 Y153.259 Z2.150 F1333.000
G1 X-10.802 Y83.851 Z2.150 F1999.800
G1 X-10.802 Y83.476 Z2.800 F1333.000
G1 X-10.802 Y79.804 Z2.800 F1999.800
G1 X-10.802 Y79.429 Z2.150 F1333.000
G1 X-10.802 Y68.333 Z2.150 F1999.800
G2 X-12.387 Y66.748 Z2.150 I-1.585 J-0.000 K0.000 F1999.800
G1 X-43.269 Y66.748 Z2.150 F1999.800
G1 X-43.644 Y66.748 Z2.800 F1333.000
G1 X-47.316 Y66.748 Z2.800 F1999.800
G1 X-47.691 Y66.748 Z2.150 F1333.000
G1 X-104.609 Y66.748 Z2.150 F1999.800
G1 X-105.073 Y67.213 Z2.150 F1999.800
G1 X-104.609 Y66.748 Z2.150 F1999.800
G1 X-104.609 Y65.651 Z2.150 F1999.800
G1 X-104.609 Y65.276 Z2.800 F1333.000
G1 X-104.609 Y61.604 Z2.800 F1999.800
G1 X-104.609 Y61.229 Z2.150 F1333.000
G1 X-104.609 Y59.918 Z2.150 F1999.800
G1 X-105.073 Y59.454 Z2.150 F1999.800
G1 X-104.609 Y59.918 Z2.150 F1999.800
G1 X-47.691 Y59.918 Z2.150 F1999.800
G1 X-47.316 Y59.918 Z2.800 F1333.000
G1 X-43.644 Y59.918 Z2.800 F1999.800
G1 X-43.269 Y59.918 Z2.150 F1333.000
G1 X-12.387 Y59.918 Z2.150 F1999.800
G2 X-10.802 Y58.333 Z2.150 I0.000 J-1.585 K0.000 F1999.800
G1 X-10.802 Y41.641 Z2.150 F1999.800
G1 X-10.802 Y41.266 Z2.800 F1333.000
G1 X-10.802 Y37.594 Z2.800 F1999.800
G1 X-10.802 Y37.219 Z2.150 F1333.000
G1 X-10.802 Y-45.389 Z2.150 F1999.800
G1 X-10.802 Y-45.764 Z2.800 F1333.000
G1 X-10.802 Y-49.436 Z2.800 F1999.800
G1 X-10.802 Y-49.811 Z2.150 F1333.000
G1 X-10.802 Y-58.333 Z2.150 F1999.800
G2 X-12.387 Y-59.918 Z2.150 I-1.585 J-0.000 K0.000 F1999.800
G1 X-77.149 Y-59.918 Z2.150 F1999.800
G1 X-77.524 Y-59.918 Z2.800 F1333.000
G1 X-81.196 Y-59.918 Z2.800 F1999.800
G1 X-81.571 Y-59.918 Z2.150 F1333.000
G1 X-104.609 Y-59.918 Z2.150 F1999.800
G1 X-105.073 Y-59.454 Z2.150 F1999.800
G1 X-104.609 Y-59.918 Z2.150 F1999.800
G1 X-104.609 Y-60.869 Z2.150 F1999.800
G1 X-104.609 Y-61.244 Z2.800 F1333.000
G1 X-104.609 Y-64.916 Z2.800 F1999.800
G1 X-104.609 Y-65.291 Z2.150 F1333.000
G1 X-104.609 Y-66.748 Z2.150 F1999.800
G1 X-105.073 Y-67.213 Z2.150 F1999.800
G1 X-104.609 Y-66.748 Z2.150 F1999.800
G1 X-81.931 Y-66.748 Z2.150 F1999.800
G1 X-81.556 Y-66.748 Z2.800 F1333.000
G1 X-77.884 Y-66.748 Z2.800 F1999.800
G1 X-77.509 Y-66.748 Z2.150 F1333.000
G1 X-12.387 Y-66.748 Z2.150 F1999.800
G2 X-10.802 Y-68.333 Z2.150 I0.000 J-1.585 K0.000 F1999.800
G1 X-10.802 Y-77.589 Z2.150 F1999.800
G1 X-10.802 Y-77.964 Z2.800 F1333.000
G1 X-10.802 Y-81.636 Z2.800 F1999.800
G1 X-10.802 Y-82.011 Z2.150 F1333.000
G1 X-10.802 Y-162.249 Z2.150 F1999.800
G1 X-10.802 Y-162.624 Z2.800 F1333.000
G1 X-10.802 Y-166.296 Z2.800 F1999.800
G1 X-10.802 Y-166.671 Z2.150 F1333.000
G1 X-10.802 Y-190.000 Z2.150 F1999.800
G2 X-12.387 Y-191.585 Z2.150 I-1.585 J0.000 K0.000 F1999.800
G1 X-32.549 Y-191.585 Z2.150 F1999.800
G1 X-32.924 Y-191.585 Z2.800 F1333.001
G1 X-36.596 Y-191.585 Z2.800 F1999.800
G1 X-36.971 Y-191.585 Z2.150 F1333.001
G1 X-67.340 Y-191.585 Z2.150 F1999.800
G1 X-67.804 Y-191.121 Z2.150 F1999.800
G1 X-67.340 Y-191.585 Z2.150 F1999.800
G1 X-67.340 Y-200.000 Z2.150 F1999.800
G2 X-68.925 Y-201.585 Z2.150 I-1.585 J0.000 K0.000 F1999.800
G1 X-90.689 Y-201.585 Z2.150 F1999.800
G1 X-91.064 Y-201.585 Z2.800 F1333.001
G1 X-94.736 Y-201.585 Z2.800 F1999.800
G1 X-95.111 Y-201.585 Z2.150 F1333.001
G1 X-125.462 Y-201.585 Z2.150 F1999.800
G2 X-127.047 Y-200.000 Z2.150 I0.000 J1.585 K0.000 F1999.800
G1 X-127.047 Y-191.585 Z2.150 F1999.800
G1 X-126.583 Y-191.121 Z2.150 F1999.800
G1 X-127.047 Y-191.585 Z2.150 F1999.800
G1 X-154.189 Y-191.585 Z2.150 F1999.800
G1 X-154.564 Y-191.585 Z2.800 F1333.001
G1 X-158.236 Y-191.585 Z2.800 F1999.800
G1 X-158.611 Y-191.585 Z2.150 F1333.001
G1 X-182.000 Y-191.585 Z2.150 F1999.800
G2 X-183.585 Y-190.000 Z2.150 I0.000 J1.585 K0.000 F1999.800
G1 X-183.585 Y-186.585 Z2.150 F1999.800
G1 X-183.121 Y-186.121 Z2.150 F1999.800
G1 X-183.585 Y-186.585 Z2.150 F1999.800
G1 X-200.000 Y-186.585 Z2.150 F1999.800
G2 X-201.585 Y-185.000 Z2.150 I0.000 J1.585 K0.000 F1999.800
G1 X-201.585 Y-137.631 Z2.150 F1999.800
G1 X-201.585 Y-137.256 Z2.800 F1333.001
G1 X-201.585 Y-133.584 Z2.800 F1999.800
G1 X-201.585 Y-133.209 Z2.150 F1333.001
G1 X-201.585 Y-2.911 Z2.150 F1999.800
G1 X-201.585 Y-2.536 Z2.800 F1333.001
G1 X-201.585 Y1.136 Z2.800 F1999.800
G1 X-201.585 Y1.511 Z2.150 F1333.001
G1 X-201.585 Y127.459 Z2.150 F1999.800
G1 X-201.585 Y127.834 Z2.800 F1333.001
G1 X-201.585 Y131.506 Z2.800 F1999.800
G1 X-201.585 Y131.881 Z2.150 F1333.001
G1 X-201.585 Y185.000 Z2.150 F1999.800
G2 X-200.000 Y186.585 Z2.150 I1.585 J-0.000 K0.000 F1999.800
G1 X-183.585 Y186.585 Z2.150 F1999.800
G1 X-183.121 Y186.121 Z2.150 F1999.800
G1 X-183.585 Y186.585 Z2.150 F1999.800
G1 X-183.585 Y190.000 Z2.150 F1999.800
G2 X-182.000 Y191.585 Z2.150 I1.585 J-0.000 K0.000 F1999.800
G1 X-151.911 Y191.585 Z2.150 F1999.800
G1 X-151.536 Y191.585 Z2.800 F1333.001
G1 X-147.864 Y191.585 Z2.800 F1999.800
G1 X-147.489 Y191.585 Z2.150 F1333.001
G1 X-127.047 Y191.585 Z2.150 F1999.800
G1 X-126.583 Y191.121 Z2.150 F1999.800
G1 X-127.047 Y191.585 Z2.150 F1999.800
G1 X-127.047 Y200.000 Z2.150 F1999.800
G2 X-125.462 Y201.585 Z2.150 I1.585 J-0.000 K0.000 F1999.800
G1 X-100.131 Y201.585 Z2.150 F1999.800
G1 X-99.756 Y201.585 Z2.800 F1333.001
G1 X-96.084 Y201.585 Z2.800 F1999.800
G1 X-95.709 Y201.585 Z2.150 F1333.001
G1 X-68.925 Y201.585 Z2.150 F1999.800
G2 X-67.340 Y200.000 Z2.150 I-0.000 J-1.585 K0.000 F1999.800
G1 X-67.340 Y191.585 Z2.150 F1999.800
G1 X-67.804 Y191.121 Z2.150 F1999.800
G1 X-67.340 Y191.585 Z2.150 F1999.800
G1 X-45.911 Y191.585 Z2.150 F1999.800
G1 X-45.536 Y191.585 Z2.800 F1333.001
G1 X-41.864 Y191.585 Z2.800 F1999.800
G1 X-41.489 Y191.585 Z2.150 F1333.001
G1 X-12.387 Y191.585 Z2.150 F1999.800
G2 X-12.173 Y191.570 Z2.150 I-0.000 J-1.585 K0.000 F1999.800
G1 X-12.173 Y191.570 Z1.622 F999.600
G2 X-10.802 Y190.000 Z1.622 I-0.215 J-1.570 K0.000 F1999.800
G1 X-10.802 Y157.986 Z1.622 F1999.800
G1 X-10.802 Y157.306 Z2.800 F1333.000
G1 X-10.802 Y153.634 Z2.800 F1999.800
G1 X-10.802 Y152.954 Z1.622 F1333.000
G1 X-10.802 Y84.156 Z1.622 F1999.800
G1 X-10.802 Y83.476 Z2.800 F1333.000
G1 X-10.802 Y79.804 Z2.800 F1999.800
G1 X-10.802 Y79.124 Z1.622 F1333.000
G1 X-10.802 Y68.333 Z1.622 F1999.800
G2 X-12.387 Y66.748 Z1.622 I-1.585 J-0.000 K0.000 F1999.800
G1 X-42.964 Y66.748 Z1.622 F1999.800
G1 X-43.644 Y66.748 Z2.800 F1333.000
G1 X-47.316 Y66.748 Z2.800 F1999.800
G1 X-47.996 Y66.748 Z1.622 F1333.000
G1 X-104.609 Y66.748 Z1.622 F1999.800
G1 X-105.073 Y67.213 Z1.622 F1999.800
G1 X-104.609 Y66.748 Z1.622 F1999.800
G1 X-104.609 Y65.956 Z1.622 F1999.800
G1 X-104.609 Y65.276 Z2.800 F1333.000
G1 X-104.609 Y61.604 Z2.800 F1999.800
G1 X-104.609 Y60.924 Z1.622 F1333.000
G1 X-104.609 Y59.918 Z1.622 F1999.800
G1 X-105.073 Y59.454 Z1.622 F1999.800
G1 X-104.609 Y59.918 Z1.622 F1999.800
G1 X-47.996 Y59.918 Z1.622 F1999.800
G1 X-47.316 Y59.918 Z2.800 F1333.000
G1 X-43.644 Y59.918 Z2.800 F1999.800
G1 X-42.964 Y59.918 Z1.622 F1333.000
G1 X-12.387 Y59.918 Z1.622 F1999.800
G2 X-10.802 Y58.333 Z1.622 I0.000 J-1.585 K0.000 F1999.800
G1 X-10.802 Y41.946 Z1.622 F1999.800
G1 X-10.802 Y41.266 Z2.800 F1333.000
G1 X-10.802 Y37.594 Z2.800 F1999.800
G1 X-10.802 Y36.914 Z1.622 F1333.000
G1 X-10.802 Y-45.084 Z1.622 F1999.800
G1 X-10.802 Y-45.764 Z2.800 F1333.000
G1 X-10.802 Y-49.436 Z2.800 F1999.800
G1 X-10.802 Y-50.116 Z1.622 F1333.000
G1 X-10.802 Y-58.333 Z1.622 F1999.800
G2 X-12.387 Y-59.918 Z1.622 I-1.585 J-0.000 K0.000 F1999.800
G1 X-76.844 Y-59.918 Z1.622 F1999.800
G1 X-77.524 Y-59.918 Z2.800 F1333.000
G1 X-81.196 Y-59.918 Z2.800 F1999.800
G1 X-81.876 Y-59.918 Z1.622 F1333.000
G1 X-104.609 Y-59.918 Z1.622 F1999.800
G1 X-105.073 Y-59.454 Z1.622 F1999.800
G1 X-104.609 Y-59.918 Z1.622 F1999.800
G1 X-104.609 Y-60.564 Z1.622 F1999.800
G1 X-104.609 Y-61.244 Z2.800 F1333.000
G1 X-104.609 Y-64.916 Z2.800 F1999.800
G1 X-104.609 Y-65.596 Z1.622 F1333.000
G1 X-104.609 Y-66.748 Z1.622 F1999.800
G1 X-105.073 Y-67.213 Z1.622 F1999.800
G1 X-104.609 Y-66.748 Z1.622 F1999.800
G1 X-82.236 Y-66.748 Z1.622 F1999.800
G1 X-81.556 Y-66.748 Z2.800 F1333.000
G1 X-77.884 Y-66.748 Z2.800 F1999.800
G1 X-77.204 Y-66.748 Z1.622 F1333.000
G1 X-12.387 Y-66.748 Z1.622 F1999.800
G2 X-10.802 Y-68.333 Z1.622 I0.000 J-1.585 K0.000 F1999.800
G1 X-10.802 Y-77.284 Z1.622 F1999.800
G1 X-10.802 Y-77.964 Z2.800 F1333.000
G1 X-10.802 Y-81.636 Z2.800 F1999.800
G1 X-10.802 Y-82.316 Z1.622 F1333.000
G1 X-10.802 Y-161.944 Z1.622 F1999.800
G1 X-10.802 Y-162.624 Z2.800 F1333.000
G1 X-10.802 Y-166.296 Z2.800 F1999.800
G1 X-10.802 Y-166.976 Z1.622 F1333.000
G1 X-10.802 Y-190.000 Z1.622 F1999.800
G2 X-12.387 Y-191.585 Z1.622 I-1.585 J0.000 K0.000 F1999.800
G1 X-32.244 Y-191.585 Z1.622 F1999.800
G1 X-32.924 Y-191.585 Z2.800 F1333.001
G1 X-36.596 Y-191.585 Z2.800 F1999.800
G1 X-37.276 Y-191.585 Z1.622 F1333.001
G1 X-67.340 Y-191.585 Z1.622 F1999.800
G1 X-67.804 Y-191.121 Z1.622 F1999.800
G1 X-67.340 Y-191.585 Z1.622 F1999.800
G1 X-67.340 Y-200.000 Z1.622 F1999.800
G2 X-68.925 Y-201.585 Z1.622 I-1.585 J0.000 K0.000 F1999.800
G1 X-90.384 Y-201.585 Z1.622 F1999.800
G1 X-91.064 Y-201.585 Z2.800 F1333.001
G1 X-94.736 Y-201.585 Z2.800 F1999.800
G1 X-95.416 Y-201.585 Z1.622 F1333.001
G1 X-125.462 Y-201.585 Z1.622 F1999.800
G2 X-127.047 Y-200.000 Z1.622 I0.000 J1.585 K0.000 F1999.800
G1 X-127.047 Y-191.585 Z1.622 F1999.800
G1 X-126.583 Y-191.121 Z1.622 F1999.800
G1 X-127.047 Y-191.585 Z1.622 F1999.800
G1 X-153.884 Y-191.585 Z1.622 F1999.800
G1 X-154.564 Y-191.585 Z2.800 F1333.001
G1 X-158.236 Y-191.585 Z2.800 F1999.800
G1 X-158.916 Y-191.585 Z1.622 F1333.001
G1 X-182.000 Y-191.585 Z1.622 F1999.800
G2 X-183.585 Y-190.000 Z1.622 I0.000 J1.585 K0.000 F1999.800
G1 X-183.585 Y-186.585 Z1.622 F1999.800
G1 X-183.121 Y-186.121 Z1.622 F1999.800
G1 X-183.585 Y-186.585 Z1.622 F1999.800
G1 X-200.000 Y-186.585 Z1.622 F1999.800
G2 X-201.585 Y-185.000 Z1.622 I0.000 J1.585 K0.000 F1999.800
G1 X-201.585 Y-137.936 Z1.622 F1999.800
G1 X-201.585 Y-137.256 Z2.800 F1333.001
G1 X-201.585 Y-133.584 Z2.800 F1999.800
G1 X-201.585 Y-132.904 Z1.622 F1333.001
G1 X-201.585 Y-3.216 Z1.622 F1999.800
G1 X-201.585 Y-2.536 Z2.800 F1333.001
G1 X-201.585 Y1.136 Z2.800 F1999.800
G1 X-201.585 Y1.816 Z1.622 F1333.001
G1 X-201.585 Y127.154 Z1.622 F1999.800
G1 X-201.585 Y127.834 Z2.800 F1333.001
G1 X-201.585 Y131.506 Z2.800 F1999.800
G1 X-201.585 Y132.186 Z1.622 F1333.001
G1 X-201.585 Y185.000 Z1.622 F1999.800
G2 X-200.000 Y186.585 Z1.622 I1.585 J-0.000 K0.000 F1999.800
G1 X-183.585 Y186.585 Z1.622 F1999.800
G1 X-183.121 Y186.121 Z1.622 F1999.800
G1 X-183.585 Y186.585 Z1.622 F1999.800
G1 X-183.585 Y190.000 Z1.622 F1999.800
