(Exported by FreeCAD)
(Post Processor: grbl_post)
(Output Time:2020-05-30 16:10:26.696338)
(Begin preamble)
G17 G90
G21
(Begin operation: Fixture)
(Path: Fixture)
G54
(Finish operation: Fixture)
(Begin operation: T6: 2FluteWoodMill001)
(Path: T6: 2FluteWoodMill001)
(T6: 2FluteWoodMill001)
(Begin toolchange)
(M6 T6.0)
M3 S12000.0
G4 P5
(Finish operation: T6: 2FluteWoodMill001)
(Begin operation: Pockets_Left)
(Path: Pockets_Left)
(Pockets_Left)
G0 Z23.000
G0 X-200.000 Y-61.993
G0 Z21.000
G1 X-200.000 Y-61.993 Z17.472 F999.600
G1 X-200.000 Y-59.918 Z17.472 F1999.800
G1 X-106.194 Y-59.918 Z17.472 F1999.800
G1 X-106.194 Y-61.993 Z17.472 F1999.800
G1 X-200.000 Y-61.993 Z17.472 F1999.800
G1 X-200.000 Y-64.371 Z17.472 F1999.800
G1 X-106.194 Y-64.371 Z17.472 F1999.800
G1 X-106.194 Y-66.748 Z17.472 F1999.800
G1 X-200.000 Y-66.748 Z17.472 F1999.800
G1 X-200.000 Y-66.748 Z16.943 F999.600
G1 X-106.194 Y-66.748 Z16.943 F1999.800
G1 X-106.194 Y-64.371 Z16.943 F1999.800
G1 X-200.000 Y-64.371 Z16.943 F1999.800
G1 X-200.000 Y-61.993 Z16.943 F1999.800
G1 X-106.194 Y-61.993 Z16.943 F1999.800
G1 X-106.194 Y-59.918 Z16.943 F1999.800
G1 X-200.000 Y-59.918 Z16.943 F1999.800
G1 X-200.000 Y-61.993 Z16.943 F1999.800
G1 X-200.000 Y-61.993 Z16.415 F999.600
G1 X-200.000 Y-59.918 Z16.415 F1999.800
G1 X-106.194 Y-59.918 Z16.415 F1999.800
G1 X-106.194 Y-61.993 Z16.415 F1999.800
G1 X-200.000 Y-61.993 Z16.415 F1999.800
G1 X-200.000 Y-64.371 Z16.415 F1999.800
G1 X-106.194 Y-64.371 Z16.415 F1999.800
G1 X-106.194 Y-66.748 Z16.415 F1999.800
G1 X-200.000 Y-66.748 Z16.415 F1999.800
G1 X-200.000 Y-66.748 Z15.887 F999.600
G1 X-106.194 Y-66.748 Z15.887 F1999.800
G1 X-106.194 Y-64.371 Z15.887 F1999.800
G1 X-200.000 Y-64.371 Z15.887 F1999.800
G1 X-200.000 Y-61.993 Z15.887 F1999.800
G1 X-106.194 Y-61.993 Z15.887 F1999.800
G1 X-106.194 Y-59.918 Z15.887 F1999.800
G1 X-200.000 Y-59.918 Z15.887 F1999.800
G1 X-200.000 Y-61.993 Z15.887 F1999.800
G1 X-200.000 Y-61.993 Z15.500 F999.600
G1 X-200.000 Y-59.918 Z15.500 F1999.800
G1 X-106.194 Y-59.918 Z15.500 F1999.800
G1 X-106.194 Y-61.993 Z15.500 F1999.800
G1 X-200.000 Y-61.993 Z15.500 F1999.800
G1 X-200.000 Y-64.371 Z15.500 F1999.800
G1 X-106.194 Y-64.371 Z15.500 F1999.800
G1 X-106.194 Y-66.748 Z15.500 F1999.800
G1 X-200.000 Y-66.748 Z15.500 F1999.800
G0 Z23.000
G0 Z23.000
G0 Y59.918
G0 Y59.918 Z21.000
G1 X-200.000 Y59.918 Z17.472 F999.600
G1 X-106.194 Y59.918 Z17.472 F1999.800
G1 X-106.194 Y62.296 Z17.472 F1999.800
G1 X-200.000 Y62.296 Z17.472 F1999.800
G1 X-200.000 Y64.673 Z17.472 F1999.800
G1 X-200.000 Y66.748 Z17.472 F1999.800
G1 X-106.194 Y66.748 Z17.472 F1999.800
G1 X-106.194 Y64.673 Z17.472 F1999.800
G1 X-200.000 Y64.673 Z17.472 F1999.800
G1 X-200.000 Y64.673 Z16.943 F999.600
G1 X-106.194 Y64.673 Z16.943 F1999.800
G1 X-106.194 Y66.748 Z16.943 F1999.800
G1 X-200.000 Y66.748 Z16.943 F1999.800
G1 X-200.000 Y64.673 Z16.943 F1999.800
G1 X-200.000 Y62.296 Z16.943 F1999.800
G1 X-106.194 Y62.296 Z16.943 F1999.800
G1 X-106.194 Y59.918 Z16.943 F1999.800
G1 X-200.000 Y59.918 Z16.943 F1999.800
G1 X-200.000 Y59.918 Z16.415 F999.600
G1 X-106.194 Y59.918 Z16.415 F1999.800
G1 X-106.194 Y62.296 Z16.415 F1999.800
G1 X-200.000 Y62.296 Z16.415 F1999.800
G1 X-200.000 Y64.673 Z16.415 F1999.800
G1 X-200.000 Y66.748 Z16.415 F1999.800
G1 X-106.194 Y66.748 Z16.415 F1999.800
G1 X-106.194 Y64.673 Z16.415 F1999.800
G1 X-200.000 Y64.673 Z16.415 F1999.800
G1 X-200.000 Y64.673 Z15.887 F999.600
G1 X-106.194 Y64.673 Z15.887 F1999.800
G1 X-106.194 Y66.748 Z15.887 F1999.800
G1 X-200.000 Y66.748 Z15.887 F1999.800
G1 X-200.000 Y64.673 Z15.887 F1999.800
G1 X-200.000 Y62.296 Z15.887 F1999.800
G1 X-106.194 Y62.296 Z15.887 F1999.800
G1 X-106.194 Y59.918 Z15.887 F1999.800
G1 X-200.000 Y59.918 Z15.887 F1999.800
G1 X-200.000 Y59.918 Z15.500 F999.600
G1 X-106.194 Y59.918 Z15.500 F1999.800
G1 X-106.194 Y62.296 Z15.500 F1999.800
G1 X-200.000 Y62.296 Z15.500 F1999.800
G1 X-200.000 Y64.673 Z15.500 F1999.800
G1 X-200.000 Y66.748 Z15.500 F1999.800
G1 X-106.194 Y66.748 Z15.500 F1999.800
G1 X-106.194 Y64.673 Z15.500 F1999.800
G1 X-200.000 Y64.673 Z15.500 F1999.800
G0 Z23.000
G0 Z23.000
(Finish operation: Pockets_Left)
(Begin operation: Fixture)
(Path: Fixture)
G54
G0 Z23.000
(Finish operation: Fixture)
(Begin operation: Pockets_Right)
(Path: Pockets_Right)
(Pockets_Right)
G0 Z23.000
G0 X106.194 Y-61.993
G0 Z21.000
G1 X106.194 Y-61.993 Z17.472 F999.600
G1 X200.000 Y-61.993 Z17.472 F1999.800
G1 X200.000 Y-59.918 Z17.472 F1999.800
G1 X106.194 Y-59.918 Z17.472 F1999.800
G1 X106.194 Y-61.993 Z17.472 F1999.800
G1 X106.194 Y-64.371 Z17.472 F1999.800
G1 X200.000 Y-64.371 Z17.472 F1999.800
G1 X200.000 Y-66.748 Z17.472 F1999.800
G1 X106.194 Y-66.748 Z17.472 F1999.800
G1 X106.194 Y-66.748 Z16.943 F999.600
G1 X200.000 Y-66.748 Z16.943 F1999.800
G1 X200.000 Y-64.371 Z16.943 F1999.800
G1 X106.194 Y-64.371 Z16.943 F1999.800
G1 X106.194 Y-61.993 Z16.943 F1999.800
G1 X106.194 Y-59.918 Z16.943 F1999.800
G1 X200.000 Y-59.918 Z16.943 F1999.800
G1 X200.000 Y-61.993 Z16.943 F1999.800
G1 X106.194 Y-61.993 Z16.943 F1999.800
G1 X106.194 Y-61.993 Z16.415 F999.600
G1 X200.000 Y-61.993 Z16.415 F1999.800
G1 X200.000 Y-59.918 Z16.415 F1999.800
G1 X106.194 Y-59.918 Z16.415 F1999.800
G1 X106.194 Y-61.993 Z16.415 F1999.800
G1 X106.194 Y-64.371 Z16.415 F1999.800
G1 X200.000 Y-64.371 Z16.415 F1999.800
G1 X200.000 Y-66.748 Z16.415 F1999.800
G1 X106.194 Y-66.748 Z16.415 F1999.800
G1 X106.194 Y-66.748 Z15.887 F999.600
G1 X200.000 Y-66.748 Z15.887 F1999.800
G1 X200.000 Y-64.371 Z15.887 F1999.800
G1 X106.194 Y-64.371 Z15.887 F1999.800
G1 X106.194 Y-61.993 Z15.887 F1999.800
G1 X106.194 Y-59.918 Z15.887 F1999.800
G1 X200.000 Y-59.918 Z15.887 F1999.800
G1 X200.000 Y-61.993 Z15.887 F1999.800
G1 X106.194 Y-61.993 Z15.887 F1999.800
G1 X106.194 Y-61.993 Z15.500 F999.600
G1 X200.000 Y-61.993 Z15.500 F1999.800
G1 X200.000 Y-59.918 Z15.500 F1999.800
G1 X106.194 Y-59.918 Z15.500 F1999.800
G1 X106.194 Y-61.993 Z15.500 F1999.800
G1 X106.194 Y-64.371 Z15.500 F1999.800
G1 X200.000 Y-64.371 Z15.500 F1999.800
G1 X200.000 Y-66.748 Z15.500 F1999.800
G1 X106.194 Y-66.748 Z15.500 F1999.800
G0 Z23.000
G0 Z23.000
G0 Y59.918
G0 Y59.918 Z21.000
G1 X106.194 Y59.918 Z17.472 F999.600
G1 X200.000 Y59.918 Z17.472 F1999.800
G1 X200.000 Y62.296 Z17.472 F1999.800
G1 X106.194 Y62.296 Z17.472 F1999.800
G1 X106.194 Y64.673 Z17.472 F1999.800
G1 X200.000 Y64.673 Z17.472 F1999.800
G1 X200.000 Y66.748 Z17.472 F1999.800
G1 X106.194 Y66.748 Z17.472 F1999.800
G1 X106.194 Y64.673 Z17.472 F1999.800
G1 X106.194 Y64.673 Z16.943 F999.600
G1 X106.194 Y66.748 Z16.943 F1999.800
G1 X200.000 Y66.748 Z16.943 F1999.800
G1 X200.000 Y64.673 Z16.943 F1999.800
G1 X106.194 Y64.673 Z16.943 F1999.800
G1 X106.194 Y62.296 Z16.943 F1999.800
G1 X200.000 Y62.296 Z16.943 F1999.800
G1 X200.000 Y59.918 Z16.943 F1999.800
G1 X106.194 Y59.918 Z16.943 F1999.800
G1 X106.194 Y59.918 Z16.415 F999.600
G1 X200.000 Y59.918 Z16.415 F1999.800
G1 X200.000 Y62.296 Z16.415 F1999.800
G1 X106.194 Y62.296 Z16.415 F1999.800
G1 X106.194 Y64.673 Z16.415 F1999.800
G1 X200.000 Y64.673 Z16.415 F1999.800
G1 X200.000 Y66.748 Z16.415 F1999.800
G1 X106.194 Y66.748 Z16.415 F1999.800
G1 X106.194 Y64.673 Z16.415 F1999.800
G1 X106.194 Y64.673 Z15.887 F999.600
G1 X106.194 Y66.748 Z15.887 F1999.800
G1 X200.000 Y66.748 Z15.887 F1999.800
G1 X200.000 Y64.673 Z15.887 F1999.800
G1 X106.194 Y64.673 Z15.887 F1999.800
G1 X106.194 Y62.296 Z15.887 F1999.800
G1 X200.000 Y62.296 Z15.887 F1999.800
G1 X200.000 Y59.918 Z15.887 F1999.800
G1 X106.194 Y59.918 Z15.887 F1999.800
G1 X106.194 Y59.918 Z15.500 F999.600
G1 X200.000 Y59.918 Z15.500 F1999.800
G1 X200.000 Y62.296 Z15.500 F1999.800
G1 X106.194 Y62.296 Z15.500 F1999.800
G1 X106.194 Y64.673 Z15.500 F1999.800
G1 X200.000 Y64.673 Z15.500 F1999.800
G1 X200.000 Y66.748 Z15.500 F1999.800
G1 X106.194 Y66.748 Z15.500 F1999.800
G1 X106.194 Y64.673 Z15.500 F1999.800
G0 Z23.000
G0 Z23.000
(Finish operation: Pockets_Right)
(Begin postamble)
M5
G17 G90
M2
