(Exported by FreeCAD)
(Post Processor: grbl_post)
(Output Time:2020-05-24 13:35:13.006249)
(Begin preamble)
G17 G90
G21
(Begin operation: Fixture)
(Path: Fixture)
G54
(Finish operation: Fixture)
(Begin operation: T6: 2FluteWoodMill005)
(Path: T6: 2FluteWoodMill005)
(T6: 2FluteWoodMill005)
(Begin toolchange)
(M6 T6.0)
M3 S14000.0
(Finish operation: T6: 2FluteWoodMill005)
(Begin operation: Outer_Groove_Pocket)
(Path: Outer_Groove_Pocket)
(Outer_Groove_Pocket)
G0 Z23.000
G0 X46.411 Y51.268
G0 Z21.000
G1 X46.411 Y51.268 Z17.471 F999.600
G1 X46.510 Y51.405 Z17.471 F1999.800
G1 X46.411 Y51.476 Z17.471 F1999.800
G1 X46.411 Y51.268 Z17.471 F1999.800
G1 X44.030 Y47.991 Z17.471 F1999.800
G1 X44.030 Y53.207 Z17.471 F1999.800
G1 X41.648 Y54.937 Z17.471 F1999.800
G1 X41.648 Y44.713 Z17.471 F1999.800
G1 X39.267 Y41.436 Z17.471 F1999.800
G1 X39.267 Y56.667 Z17.471 F1999.800
G1 X36.886 Y58.397 Z17.471 F1999.800
G1 X36.886 Y38.158 Z17.471 F1999.800
G1 X34.505 Y34.881 Z17.471 F1999.800
G1 X34.505 Y60.102 Z17.471 F1999.800
G1 X32.123 Y56.825 Z17.471 F1999.800
G1 X32.123 Y31.603 Z17.471 F1999.800
G1 X29.742 Y28.326 Z17.471 F1999.800
G1 X29.742 Y53.547 Z17.471 F1999.800
G1 X27.361 Y50.270 Z17.471 F1999.800
G1 X27.361 Y25.048 Z17.471 F1999.800
G1 X24.980 Y21.771 Z17.471 F1999.800
G1 X24.980 Y46.992 Z17.471 F1999.800
G1 X22.598 Y43.715 Z17.471 F1999.800
G1 X22.598 Y18.493 Z17.471 F1999.800
G1 X20.217 Y15.216 Z17.471 F1999.800
G1 X20.217 Y40.437 Z17.471 F1999.800
G1 X17.836 Y37.160 Z17.471 F1999.800
G1 X17.836 Y11.938 Z17.471 F1999.800
G1 X15.455 Y8.661 Z17.471 F1999.800
G1 X15.455 Y33.882 Z17.471 F1999.800
G1 X13.073 Y30.605 Z17.471 F1999.800
G1 X13.073 Y7.776 Z17.471 F1999.800
G1 X10.692 Y9.506 Z17.471 F1999.800
G1 X10.692 Y27.327 Z17.471 F1999.800
G1 X8.311 Y24.050 Z17.471 F1999.800
G1 X8.311 Y11.236 Z17.471 F1999.800
G1 X5.930 Y12.966 Z17.471 F1999.800
G1 X5.930 Y20.772 Z17.471 F1999.800
G1 X3.548 Y17.495 Z17.471 F1999.800
G1 X2.217 Y15.663 Z17.471 F1999.800
G1 X3.548 Y14.696 Z17.471 F1999.800
G1 X3.548 Y17.495 Z17.471 F1999.800
G0 Z23.000
G0 X-3.595 Y17.560 Z23.000
G0 X-3.595 Y17.560 Z21.000
G1 X-3.595 Y17.560 Z17.471 F999.600
G1 X-2.217 Y15.663 Z17.471 F1999.800
G1 X-3.595 Y14.662 Z17.471 F1999.800
G1 X-3.595 Y17.560 Z17.471 F1999.800
G1 X-5.977 Y20.837 Z17.471 F1999.800
G1 X-5.977 Y12.932 Z17.471 F1999.800
G1 X-8.358 Y11.202 Z17.471 F1999.800
G1 X-8.358 Y24.115 Z17.471 F1999.800
G1 X-10.739 Y27.392 Z17.471 F1999.800
G1 X-10.739 Y9.472 Z17.471 F1999.800
G1 X-13.120 Y7.741 Z17.471 F1999.800
G1 X-13.120 Y30.670 Z17.471 F1999.800
G1 X-15.502 Y33.947 Z17.471 F1999.800
G1 X-15.502 Y8.725 Z17.471 F1999.800
G1 X-17.883 Y12.003 Z17.471 F1999.800
G1 X-17.883 Y37.225 Z17.471 F1999.800
G1 X-20.264 Y40.502 Z17.471 F1999.800
G1 X-20.264 Y15.280 Z17.471 F1999.800
G1 X-22.645 Y18.558 Z17.471 F1999.800
G1 X-22.645 Y43.780 Z17.471 F1999.800
G1 X-25.027 Y47.057 Z17.471 F1999.800
G1 X-25.027 Y21.835 Z17.471 F1999.800
G1 X-27.408 Y25.113 Z17.471 F1999.800
G1 X-27.408 Y50.335 Z17.471 F1999.800
G1 X-29.789 Y53.612 Z17.471 F1999.800
G1 X-29.789 Y28.390 Z17.471 F1999.800
G1 X-32.170 Y31.668 Z17.471 F1999.800
G1 X-32.170 Y56.890 Z17.471 F1999.800
G1 X-34.516 Y60.118 Z17.471 F1999.800
G1 X-34.552 Y60.093 Z17.471 F1999.800
G1 X-34.552 Y34.945 Z17.471 F1999.800
G1 X-36.933 Y38.223 Z17.471 F1999.800
G1 X-36.933 Y58.363 Z17.471 F1999.800
G1 X-39.314 Y56.633 Z17.471 F1999.800
G1 X-39.314 Y41.500 Z17.471 F1999.800
G1 X-41.695 Y44.778 Z17.471 F1999.800
G1 X-41.695 Y54.902 Z17.471 F1999.800
G1 X-44.077 Y53.172 Z17.471 F1999.800
G1 X-44.077 Y48.055 Z17.471 F1999.800
G1 X-46.458 Y51.333 Z17.471 F1999.800
G2 X-46.458 Y51.442 Z17.471 I0.000 J0.055 K0.000 F1999.800
G1 X-46.458 Y51.333 Z17.471 F1999.800
G0 Z23.000
G0 X-13.120 Y-4.843 Z23.000
G0 X-13.120 Y-4.843 Z21.000
G1 X-13.120 Y-4.843 Z17.471 F999.600
G1 X-11.000 Y-11.368 Z17.471 F1999.800
G1 X-13.120 Y-12.057 Z17.471 F1999.800
G1 X-13.120 Y-4.843 Z17.471 F1999.800
G1 X-15.502 Y2.485 Z17.471 F1999.800
G1 X-15.502 Y-12.831 Z17.471 F1999.800
G1 X-17.883 Y-13.604 Z17.471 F1999.800
G1 X-17.883 Y1.983 Z17.471 F1999.800
G1 X-20.264 Y1.210 Z17.471 F1999.800
G1 X-20.264 Y-14.378 Z17.471 F1999.800
G1 X-22.645 Y-15.152 Z17.471 F1999.800
G1 X-22.645 Y0.436 Z17.471 F1999.800
G1 X-25.027 Y-0.338 Z17.471 F1999.800
G1 X-25.027 Y-15.926 Z17.471 F1999.800
G1 X-27.408 Y-16.699 Z17.471 F1999.800
G1 X-27.408 Y-1.111 Z17.471 F1999.800
G1 X-29.789 Y-1.885 Z17.471 F1999.800
G1 X-29.789 Y-17.473 Z17.471 F1999.800
G1 X-32.170 Y-18.247 Z17.471 F1999.800
G1 X-32.170 Y-2.659 Z17.471 F1999.800
G1 X-34.552 Y-3.433 Z17.471 F1999.800
G1 X-34.552 Y-19.020 Z17.471 F1999.800
G1 X-36.933 Y-19.794 Z17.471 F1999.800
G1 X-36.933 Y-4.206 Z17.471 F1999.800
G1 X-39.314 Y-4.980 Z17.471 F1999.800
G1 X-39.314 Y-20.568 Z17.471 F1999.800
G1 X-41.695 Y-21.342 Z17.471 F1999.800
G1 X-41.695 Y-5.754 Z17.471 F1999.800
G1 X-44.077 Y-6.527 Z17.471 F1999.800
G1 X-44.077 Y-22.115 Z17.471 F1999.800
G1 X-46.458 Y-22.889 Z17.471 F1999.800
G1 X-46.458 Y-7.301 Z17.471 F1999.800
G1 X-48.839 Y-8.075 Z17.471 F1999.800
G1 X-48.839 Y-23.663 Z17.471 F1999.800
G1 X-51.220 Y-24.436 Z17.471 F1999.800
G1 X-51.220 Y-8.849 Z17.471 F1999.800
G1 X-53.602 Y-9.622 Z17.471 F1999.800
G1 X-53.602 Y-25.210 Z17.471 F1999.800
G1 X-55.983 Y-25.984 Z17.471 F1999.800
G1 X-55.983 Y-10.396 Z17.471 F1999.800
G1 X-58.364 Y-11.170 Z17.471 F1999.800
G1 X-58.364 Y-26.758 Z17.471 F1999.800
G1 X-60.745 Y-27.531 Z17.471 F1999.800
G1 X-60.745 Y-11.943 Z17.471 F1999.800
G1 X-63.127 Y-12.717 Z17.471 F1999.800
G1 X-63.127 Y-28.305 Z17.471 F1999.800
G1 X-63.261 Y-28.349 Z17.471 F1999.800
G1 X-65.508 Y-21.433 Z17.471 F1999.800
G1 X-65.508 Y-13.491 Z17.471 F1999.800
G1 X-67.842 Y-14.249 Z17.471 F1999.800
G1 X-65.508 Y-21.433 Z17.471 F1999.800
G0 Z23.000
G0 X-5.977 Y-13.975 Z23.000
G0 X-5.977 Y-13.975 Z21.000
G1 X-5.977 Y-13.975 Z17.471 F999.600
G1 X-7.412 Y-13.975 Z17.471 F1999.800
G1 X-7.412 Y-68.925 Z17.471 F1999.800
G1 X-5.977 Y-68.925 Z17.471 F1999.800
G1 X-5.977 Y-13.975 Z17.471 F1999.800
G1 X-3.595 Y-13.975 Z17.471 F1999.800
G1 X-3.595 Y-68.925 Z17.471 F1999.800
G1 X-1.214 Y-68.925 Z17.471 F1999.800
G1 X-1.214 Y-13.975 Z17.471 F1999.800
G1 X1.167 Y-13.975 Z17.471 F1999.800
G1 X1.167 Y-68.925 Z17.471 F1999.800
G1 X3.548 Y-68.925 Z17.471 F1999.800
G1 X3.548 Y-13.975 Z17.471 F1999.800
G1 X5.930 Y-13.975 Z17.471 F1999.800
G1 X5.930 Y-68.925 Z17.471 F1999.800
G1 X7.412 Y-68.925 Z17.471 F1999.800
G1 X7.412 Y-13.975 Z17.471 F1999.800
G1 X5.930 Y-13.975 Z17.471 F1999.800
G0 Z23.000
G0 X13.073 Y-4.988 Z23.000
G0 X13.073 Y-4.988 Z21.000
G1 X13.073 Y-4.988 Z17.471 F999.600
G1 X11.000 Y-11.368 Z17.471 F1999.800
G1 X13.073 Y-12.042 Z17.471 F1999.800
G1 X13.073 Y-4.988 Z17.471 F1999.800
G1 X15.455 Y2.341 Z17.471 F1999.800
G1 X15.455 Y-12.815 Z17.471 F1999.800
G1 X17.836 Y-13.589 Z17.471 F1999.800
G1 X17.836 Y1.999 Z17.471 F1999.800
G1 X20.217 Y1.225 Z17.471 F1999.800
G1 X20.217 Y-14.363 Z17.471 F1999.800
G1 X22.598 Y-15.137 Z17.471 F1999.800
G1 X22.598 Y0.451 Z17.471 F1999.800
G1 X24.980 Y-0.322 Z17.471 F1999.800
G1 X24.980 Y-15.910 Z17.471 F1999.800
G1 X27.361 Y-16.684 Z17.471 F1999.800
G1 X27.361 Y-1.096 Z17.471 F1999.800
G1 X29.742 Y-1.870 Z17.471 F1999.800
G1 X29.742 Y-17.458 Z17.471 F1999.800
G1 X32.123 Y-18.231 Z17.471 F1999.800
G1 X32.123 Y-2.644 Z17.471 F1999.800
G1 X34.505 Y-3.417 Z17.471 F1999.800
G1 X34.505 Y-19.005 Z17.471 F1999.800
G1 X36.886 Y-19.779 Z17.471 F1999.800
G1 X36.886 Y-4.191 Z17.471 F1999.800
G1 X39.267 Y-4.965 Z17.471 F1999.800
G1 X39.267 Y-20.553 Z17.471 F1999.800
G1 X41.648 Y-21.326 Z17.471 F1999.800
G1 X41.648 Y-5.738 Z17.471 F1999.800
G1 X44.030 Y-6.512 Z17.471 F1999.800
G1 X44.030 Y-22.100 Z17.471 F1999.800
G1 X46.411 Y-22.874 Z17.471 F1999.800
G1 X46.411 Y-7.286 Z17.471 F1999.800
G1 X48.792 Y-8.060 Z17.471 F1999.800
G1 X48.792 Y-23.647 Z17.471 F1999.800
G1 X51.173 Y-24.421 Z17.471 F1999.800
G1 X51.173 Y-8.833 Z17.471 F1999.800
G1 X53.555 Y-9.607 Z17.471 F1999.800
G1 X53.555 Y-25.195 Z17.471 F1999.800
G1 X55.936 Y-25.969 Z17.471 F1999.800
G1 X55.936 Y-10.381 Z17.471 F1999.800
G1 X58.317 Y-11.154 Z17.471 F1999.800
G1 X58.317 Y-26.742 Z17.471 F1999.800
G1 X60.698 Y-27.516 Z17.471 F1999.800
G1 X60.698 Y-11.928 Z17.471 F1999.800
G1 X63.080 Y-12.702 Z17.471 F1999.800
G1 X63.080 Y-28.290 Z17.471 F1999.800
G1 X63.261 Y-28.349 Z17.471 F1999.800
G1 X65.461 Y-21.578 Z17.471 F1999.800
G1 X65.461 Y-13.476 Z17.471 F1999.800
G1 X67.842 Y-14.249 Z17.471 F1999.800
G1 X67.842 Y-14.249 Z16.942 F999.600
G1 X65.461 Y-13.476 Z16.942 F1999.800
G1 X65.461 Y-21.578 Z16.942 F1999.800
G1 X63.261 Y-28.349 Z16.942 F1999.800
G1 X63.080 Y-28.290 Z16.942 F1999.800
G1 X63.080 Y-12.702 Z16.942 F1999.800
G1 X60.698 Y-11.928 Z16.942 F1999.800
G1 X60.698 Y-27.516 Z16.942 F1999.800
G1 X58.317 Y-26.742 Z16.942 F1999.800
G1 X58.317 Y-11.154 Z16.942 F1999.800
G1 X55.936 Y-10.381 Z16.942 F1999.800
G1 X55.936 Y-25.969 Z16.942 F1999.800
G1 X53.555 Y-25.195 Z16.942 F1999.800
G1 X53.555 Y-9.607 Z16.942 F1999.800
G1 X51.173 Y-8.833 Z16.942 F1999.800
G1 X51.173 Y-24.421 Z16.942 F1999.800
G1 X48.792 Y-23.647 Z16.942 F1999.800
G1 X48.792 Y-8.060 Z16.942 F1999.800
G1 X46.411 Y-7.286 Z16.942 F1999.800
G1 X46.411 Y-22.874 Z16.942 F1999.800
G1 X44.030 Y-22.100 Z16.942 F1999.800
G1 X44.030 Y-6.512 Z16.942 F1999.800
G1 X41.648 Y-5.738 Z16.942 F1999.800
G1 X41.648 Y-21.326 Z16.942 F1999.800
G1 X39.267 Y-20.553 Z16.942 F1999.800
G1 X39.267 Y-4.965 Z16.942 F1999.800
G1 X36.886 Y-4.191 Z16.942 F1999.800
G1 X36.886 Y-19.779 Z16.942 F1999.800
G1 X34.505 Y-19.005 Z16.942 F1999.800
G1 X34.505 Y-3.417 Z16.942 F1999.800
G1 X32.123 Y-2.644 Z16.942 F1999.800
G1 X32.123 Y-18.231 Z16.942 F1999.800
G1 X29.742 Y-17.458 Z16.942 F1999.800
G1 X29.742 Y-1.870 Z16.942 F1999.800
G1 X27.361 Y-1.096 Z16.942 F1999.800
G1 X27.361 Y-16.684 Z16.942 F1999.800
G1 X24.980 Y-15.910 Z16.942 F1999.800
G1 X24.980 Y-0.322 Z16.942 F1999.800
G1 X22.598 Y0.451 Z16.942 F1999.800
G1 X22.598 Y-15.137 Z16.942 F1999.800
G1 X20.217 Y-14.363 Z16.942 F1999.800
G1 X20.217 Y1.225 Z16.942 F1999.800
G1 X17.836 Y1.999 Z16.942 F1999.800
G1 X17.836 Y-13.589 Z16.942 F1999.800
G1 X15.455 Y-12.815 Z16.942 F1999.800
G1 X15.455 Y2.341 Z16.942 F1999.800
G1 X13.073 Y-4.988 Z16.942 F1999.800
G1 X13.073 Y-12.042 Z16.942 F1999.800
G1 X11.000 Y-11.368 Z16.942 F1999.800
G1 X13.073 Y-4.988 Z16.942 F1999.800
G0 Z23.000
G0 X5.930 Y-13.975 Z23.000
G0 X5.930 Y-13.975 Z21.000
G1 X5.930 Y-13.975 Z16.942 F999.600
G1 X7.412 Y-13.975 Z16.942 F1999.800
G1 X7.412 Y-68.925 Z16.942 F1999.800
G1 X5.930 Y-68.925 Z16.942 F1999.800
G1 X5.930 Y-13.975 Z16.942 F1999.800
G1 X3.548 Y-13.975 Z16.942 F1999.800
G1 X3.548 Y-68.925 Z16.942 F1999.800
G1 X1.167 Y-68.925 Z16.942 F1999.800
G1 X1.167 Y-13.975 Z16.942 F1999.800
G1 X-1.214 Y-13.975 Z16.942 F1999.800
G1 X-1.214 Y-68.925 Z16.942 F1999.800
G1 X-3.595 Y-68.925 Z16.942 F1999.800
G1 X-3.595 Y-13.975 Z16.942 F1999.800
G1 X-5.977 Y-13.975 Z16.942 F1999.800
G1 X-5.977 Y-68.925 Z16.942 F1999.800
G1 X-7.412 Y-68.925 Z16.942 F1999.800
G1 X-7.412 Y-13.975 Z16.942 F1999.800
G1 X-5.977 Y-13.975 Z16.942 F1999.800
G0 Z23.000
G0 X-13.120 Y-4.843 Z23.000
G0 X-13.120 Y-4.843 Z21.000
G1 X-13.120 Y-4.843 Z16.942 F999.600
G1 X-11.000 Y-11.368 Z16.942 F1999.800
G1 X-13.120 Y-12.057 Z16.942 F1999.800
G1 X-13.120 Y-4.843 Z16.942 F1999.800
G1 X-15.502 Y2.485 Z16.942 F1999.800
G1 X-15.502 Y-12.831 Z16.942 F1999.800
G1 X-17.883 Y-13.604 Z16.942 F1999.800
G1 X-17.883 Y1.983 Z16.942 F1999.800
G1 X-20.264 Y1.210 Z16.942 F1999.800
G1 X-20.264 Y-14.378 Z16.942 F1999.800
G1 X-22.645 Y-15.152 Z16.942 F1999.800
G1 X-22.645 Y0.436 Z16.942 F1999.800
G1 X-25.027 Y-0.338 Z16.942 F1999.800
G1 X-25.027 Y-15.926 Z16.942 F1999.800
G1 X-27.408 Y-16.699 Z16.942 F1999.800
G1 X-27.408 Y-1.111 Z16.942 F1999.800
G1 X-29.789 Y-1.885 Z16.942 F1999.800
G1 X-29.789 Y-17.473 Z16.942 F1999.800
G1 X-32.170 Y-18.247 Z16.942 F1999.800
G1 X-32.170 Y-2.659 Z16.942 F1999.800
G1 X-34.552 Y-3.433 Z16.942 F1999.800
G1 X-34.552 Y-19.020 Z16.942 F1999.800
G1 X-36.933 Y-19.794 Z16.942 F1999.800
G1 X-36.933 Y-4.206 Z16.942 F1999.800
G1 X-39.314 Y-4.980 Z16.942 F1999.800
G1 X-39.314 Y-20.568 Z16.942 F1999.800
G1 X-41.695 Y-21.342 Z16.942 F1999.800
G1 X-41.695 Y-5.754 Z16.942 F1999.800
G1 X-44.077 Y-6.527 Z16.942 F1999.800
G1 X-44.077 Y-22.115 Z16.942 F1999.800
G1 X-46.458 Y-22.889 Z16.942 F1999.800
G1 X-46.458 Y-7.301 Z16.942 F1999.800
G1 X-48.839 Y-8.075 Z16.942 F1999.800
G1 X-48.839 Y-23.663 Z16.942 F1999.800
G1 X-51.220 Y-24.436 Z16.942 F1999.800
G1 X-51.220 Y-8.849 Z16.942 F1999.800
G1 X-53.602 Y-9.622 Z16.942 F1999.800
G1 X-53.602 Y-25.210 Z16.942 F1999.800
G1 X-55.983 Y-25.984 Z16.942 F1999.800
G1 X-55.983 Y-10.396 Z16.942 F1999.800
G1 X-58.364 Y-11.170 Z16.942 F1999.800
G1 X-58.364 Y-26.758 Z16.942 F1999.800
G1 X-60.745 Y-27.531 Z16.942 F1999.800
G1 X-60.745 Y-11.943 Z16.942 F1999.800
G1 X-63.127 Y-12.717 Z16.942 F1999.800
G1 X-63.127 Y-28.305 Z16.942 F1999.800
G1 X-63.261 Y-28.349 Z16.942 F1999.800
G1 X-65.508 Y-21.433 Z16.942 F1999.800
G1 X-65.508 Y-13.491 Z16.942 F1999.800
G1 X-67.842 Y-14.249 Z16.942 F1999.800
G1 X-65.508 Y-21.433 Z16.942 F1999.800
G0 Z23.000
G0 X-3.595 Y17.560 Z23.000
G0 X-3.595 Y17.560 Z21.000
G1 X-3.595 Y17.560 Z16.942 F999.600
G1 X-2.217 Y15.663 Z16.942 F1999.800
G1 X-3.595 Y14.662 Z16.942 F1999.800
G1 X-3.595 Y17.560 Z16.942 F1999.800
G1 X-5.977 Y20.837 Z16.942 F1999.800
G1 X-5.977 Y12.932 Z16.942 F1999.800
G1 X-8.358 Y11.202 Z16.942 F1999.800
G1 X-8.358 Y24.115 Z16.942 F1999.800
G1 X-10.739 Y27.392 Z16.942 F1999.800
G1 X-10.739 Y9.472 Z16.942 F1999.800
G1 X-13.120 Y7.741 Z16.942 F1999.800
G1 X-13.120 Y30.670 Z16.942 F1999.800
G1 X-15.502 Y33.947 Z16.942 F1999.800
G1 X-15.502 Y8.725 Z16.942 F1999.800
G1 X-17.883 Y12.003 Z16.942 F1999.800
G1 X-17.883 Y37.225 Z16.942 F1999.800
G1 X-20.264 Y40.502 Z16.942 F1999.800
G1 X-20.264 Y15.280 Z16.942 F1999.800
G1 X-22.645 Y18.558 Z16.942 F1999.800
G1 X-22.645 Y43.780 Z16.942 F1999.800
G1 X-25.027 Y47.057 Z16.942 F1999.800
G1 X-25.027 Y21.835 Z16.942 F1999.800
G1 X-27.408 Y25.113 Z16.942 F1999.800
G1 X-27.408 Y50.335 Z16.942 F1999.800
G1 X-29.789 Y53.612 Z16.942 F1999.800
G1 X-29.789 Y28.390 Z16.942 F1999.800
G1 X-32.170 Y31.668 Z16.942 F1999.800
G1 X-32.170 Y56.890 Z16.942 F1999.800
G1 X-34.516 Y60.118 Z16.942 F1999.800
G1 X-34.552 Y60.093 Z16.942 F1999.800
G1 X-34.552 Y34.945 Z16.942 F1999.800
G1 X-36.933 Y38.223 Z16.942 F1999.800
G1 X-36.933 Y58.363 Z16.942 F1999.800
G1 X-39.314 Y56.633 Z16.942 F1999.800
G1 X-39.314 Y41.500 Z16.942 F1999.800
G1 X-41.695 Y44.778 Z16.942 F1999.800
G1 X-41.695 Y54.902 Z16.942 F1999.800
G1 X-44.077 Y53.172 Z16.942 F1999.800
G1 X-44.077 Y48.055 Z16.942 F1999.800
G1 X-46.458 Y51.333 Z16.942 F1999.800
G2 X-46.458 Y51.442 Z16.942 I0.000 J0.055 K0.000 F1999.800
G1 X-46.458 Y51.333 Z16.942 F1999.800
G0 Z23.000
G0 X3.548 Y17.495 Z23.000
G0 X3.548 Y17.495 Z21.000
G1 X3.548 Y17.495 Z16.942 F999.600
G1 X3.548 Y14.696 Z16.942 F1999.800
G1 X2.217 Y15.663 Z16.942 F1999.800
G1 X3.548 Y17.495 Z16.942 F1999.800
G1 X5.930 Y20.772 Z16.942 F1999.800
G1 X5.930 Y12.966 Z16.942 F1999.800
G1 X8.311 Y11.236 Z16.942 F1999.800
G1 X8.311 Y24.050 Z16.942 F1999.800
G1 X10.692 Y27.327 Z16.942 F1999.800
G1 X10.692 Y9.506 Z16.942 F1999.800
G1 X13.073 Y7.776 Z16.942 F1999.800
G1 X13.073 Y30.605 Z16.942 F1999.800
G1 X15.455 Y33.882 Z16.942 F1999.800
G1 X15.455 Y8.661 Z16.942 F1999.800
G1 X17.836 Y11.938 Z16.942 F1999.800
G1 X17.836 Y37.160 Z16.942 F1999.800
G1 X20.217 Y40.437 Z16.942 F1999.800
G1 X20.217 Y15.216 Z16.942 F1999.800
G1 X22.598 Y18.493 Z16.942 F1999.800
G1 X22.598 Y43.715 Z16.942 F1999.800
G1 X24.980 Y46.992 Z16.942 F1999.800
G1 X24.980 Y21.771 Z16.942 F1999.800
G1 X27.361 Y25.048 Z16.942 F1999.800
G1 X27.361 Y50.270 Z16.942 F1999.800
G1 X29.742 Y53.547 Z16.942 F1999.800
G1 X29.742 Y28.326 Z16.942 F1999.800
G1 X32.123 Y31.603 Z16.942 F1999.800
G1 X32.123 Y56.825 Z16.942 F1999.800
G1 X34.505 Y60.102 Z16.942 F1999.800
G1 X34.505 Y34.881 Z16.942 F1999.800
G1 X36.886 Y38.158 Z16.942 F1999.800
G1 X36.886 Y58.397 Z16.942 F1999.800
G1 X39.267 Y56.667 Z16.942 F1999.800
G1 X39.267 Y41.436 Z16.942 F1999.800
G1 X41.648 Y44.713 Z16.942 F1999.800
G1 X41.648 Y54.937 Z16.942 F1999.800
G1 X44.030 Y53.207 Z16.942 F1999.800
G1 X44.030 Y47.991 Z16.942 F1999.800
G1 X46.411 Y51.268 Z16.942 F1999.800
G1 X46.411 Y51.476 Z16.942 F1999.800
G1 X46.510 Y51.405 Z16.942 F1999.800
G1 X46.411 Y51.268 Z16.942 F1999.800
G1 X46.411 Y51.268 Z16.413 F999.600
G1 X46.510 Y51.405 Z16.413 F1999.800
G1 X46.411 Y51.476 Z16.413 F1999.800
G1 X46.411 Y51.268 Z16.413 F1999.800
G1 X44.030 Y47.991 Z16.413 F1999.800
G1 X44.030 Y53.207 Z16.413 F1999.800
G1 X41.648 Y54.937 Z16.413 F1999.800
G1 X41.648 Y44.713 Z16.413 F1999.800
G1 X39.267 Y41.436 Z16.413 F1999.800
G1 X39.267 Y56.667 Z16.413 F1999.800
G1 X36.886 Y58.397 Z16.413 F1999.800
G1 X36.886 Y38.158 Z16.413 F1999.800
G1 X34.505 Y34.881 Z16.413 F1999.800
G1 X34.505 Y60.102 Z16.413 F1999.800
G1 X32.123 Y56.825 Z16.413 F1999.800
G1 X32.123 Y31.603 Z16.413 F1999.800
G1 X29.742 Y28.326 Z16.413 F1999.800
G1 X29.742 Y53.547 Z16.413 F1999.800
G1 X27.361 Y50.270 Z16.413 F1999.800
G1 X27.361 Y25.048 Z16.413 F1999.800
G1 X24.980 Y21.771 Z16.413 F1999.800
G1 X24.980 Y46.992 Z16.413 F1999.800
G1 X22.598 Y43.715 Z16.413 F1999.800
G1 X22.598 Y18.493 Z16.413 F1999.800
G1 X20.217 Y15.216 Z16.413 F1999.800
G1 X20.217 Y40.437 Z16.413 F1999.800
G1 X17.836 Y37.160 Z16.413 F1999.800
G1 X17.836 Y11.938 Z16.413 F1999.800
G1 X15.455 Y8.661 Z16.413 F1999.800
G1 X15.455 Y33.882 Z16.413 F1999.800
G1 X13.073 Y30.605 Z16.413 F1999.800
G1 X13.073 Y7.776 Z16.413 F1999.800
G1 X10.692 Y9.506 Z16.413 F1999.800
G1 X10.692 Y27.327 Z16.413 F1999.800
G1 X8.311 Y24.050 Z16.413 F1999.800
G1 X8.311 Y11.236 Z16.413 F1999.800
G1 X5.930 Y12.966 Z16.413 F1999.800
G1 X5.930 Y20.772 Z16.413 F1999.800
G1 X3.548 Y17.495 Z16.413 F1999.800
G1 X2.217 Y15.663 Z16.413 F1999.800
G1 X3.548 Y14.696 Z16.413 F1999.800
G1 X3.548 Y17.495 Z16.413 F1999.800
G0 Z23.000
G0 X-3.595 Y17.560 Z23.000
G0 X-3.595 Y17.560 Z21.000
G1 X-3.595 Y17.560 Z16.413 F999.600
G1 X-2.217 Y15.663 Z16.413 F1999.800
G1 X-3.595 Y14.662 Z16.413 F1999.800
G1 X-3.595 Y17.560 Z16.413 F1999.800
G1 X-5.977 Y20.837 Z16.413 F1999.800
G1 X-5.977 Y12.932 Z16.413 F1999.800
G1 X-8.358 Y11.202 Z16.413 F1999.800
G1 X-8.358 Y24.115 Z16.413 F1999.800
G1 X-10.739 Y27.392 Z16.413 F1999.800
G1 X-10.739 Y9.472 Z16.413 F1999.800
G1 X-13.120 Y7.741 Z16.413 F1999.800
G1 X-13.120 Y30.670 Z16.413 F1999.800
G1 X-15.502 Y33.947 Z16.413 F1999.800
G1 X-15.502 Y8.725 Z16.413 F1999.800
G1 X-17.883 Y12.003 Z16.413 F1999.800
G1 X-17.883 Y37.225 Z16.413 F1999.800
G1 X-20.264 Y40.502 Z16.413 F1999.800
G1 X-20.264 Y15.280 Z16.413 F1999.800
G1 X-22.645 Y18.558 Z16.413 F1999.800
G1 X-22.645 Y43.780 Z16.413 F1999.800
G1 X-25.027 Y47.057 Z16.413 F1999.800
G1 X-25.027 Y21.835 Z16.413 F1999.800
G1 X-27.408 Y25.113 Z16.413 F1999.800
G1 X-27.408 Y50.335 Z16.413 F1999.800
G1 X-29.789 Y53.612 Z16.413 F1999.800
G1 X-29.789 Y28.390 Z16.413 F1999.800
G1 X-32.170 Y31.668 Z16.413 F1999.800
G1 X-32.170 Y56.890 Z16.413 F1999.800
G1 X-34.516 Y60.118 Z16.413 F1999.800
G1 X-34.552 Y60.093 Z16.413 F1999.800
G1 X-34.552 Y34.945 Z16.413 F1999.800
G1 X-36.933 Y38.223 Z16.413 F1999.800
G1 X-36.933 Y58.363 Z16.413 F1999.800
G1 X-39.314 Y56.633 Z16.413 F1999.800
G1 X-39.314 Y41.500 Z16.413 F1999.800
G1 X-41.695 Y44.778 Z16.413 F1999.800
G1 X-41.695 Y54.902 Z16.413 F1999.800
G1 X-44.077 Y53.172 Z16.413 F1999.800
G1 X-44.077 Y48.055 Z16.413 F1999.800
G1 X-46.458 Y51.333 Z16.413 F1999.800
G2 X-46.458 Y51.442 Z16.413 I0.000 J0.055 K0.000 F1999.800
G1 X-46.458 Y51.333 Z16.413 F1999.800
G0 Z23.000
G0 X-13.120 Y-4.843 Z23.000
G0 X-13.120 Y-4.843 Z21.000
G1 X-13.120 Y-4.843 Z16.413 F999.600
G1 X-11.000 Y-11.368 Z16.413 F1999.800
G1 X-13.120 Y-12.057 Z16.413 F1999.800
G1 X-13.120 Y-4.843 Z16.413 F1999.800
G1 X-15.502 Y2.485 Z16.413 F1999.800
G1 X-15.502 Y-12.831 Z16.413 F1999.800
G1 X-17.883 Y-13.604 Z16.413 F1999.800
G1 X-17.883 Y1.983 Z16.413 F1999.800
G1 X-20.264 Y1.210 Z16.413 F1999.800
G1 X-20.264 Y-14.378 Z16.413 F1999.800
G1 X-22.645 Y-15.152 Z16.413 F1999.800
G1 X-22.645 Y0.436 Z16.413 F1999.800
G1 X-25.027 Y-0.338 Z16.413 F1999.800
G1 X-25.027 Y-15.926 Z16.413 F1999.800
G1 X-27.408 Y-16.699 Z16.413 F1999.800
G1 X-27.408 Y-1.111 Z16.413 F1999.800
G1 X-29.789 Y-1.885 Z16.413 F1999.800
G1 X-29.789 Y-17.473 Z16.413 F1999.800
G1 X-32.170 Y-18.247 Z16.413 F1999.800
G1 X-32.170 Y-2.659 Z16.413 F1999.800
G1 X-34.552 Y-3.433 Z16.413 F1999.800
G1 X-34.552 Y-19.020 Z16.413 F1999.800
G1 X-36.933 Y-19.794 Z16.413 F1999.800
G1 X-36.933 Y-4.206 Z16.413 F1999.800
G1 X-39.314 Y-4.980 Z16.413 F1999.800
G1 X-39.314 Y-20.568 Z16.413 F1999.800
G1 X-41.695 Y-21.342 Z16.413 F1999.800
G1 X-41.695 Y-5.754 Z16.413 F1999.800
G1 X-44.077 Y-6.527 Z16.413 F1999.800
G1 X-44.077 Y-22.115 Z16.413 F1999.800
G1 X-46.458 Y-22.889 Z16.413 F1999.800
G1 X-46.458 Y-7.301 Z16.413 F1999.800
G1 X-48.839 Y-8.075 Z16.413 F1999.800
G1 X-48.839 Y-23.663 Z16.413 F1999.800
G1 X-51.220 Y-24.436 Z16.413 F1999.800
G1 X-51.220 Y-8.849 Z16.413 F1999.800
G1 X-53.602 Y-9.622 Z16.413 F1999.800
G1 X-53.602 Y-25.210 Z16.413 F1999.800
G1 X-55.983 Y-25.984 Z16.413 F1999.800
G1 X-55.983 Y-10.396 Z16.413 F1999.800
G1 X-58.364 Y-11.170 Z16.413 F1999.800
G1 X-58.364 Y-26.758 Z16.413 F1999.800
G1 X-60.745 Y-27.531 Z16.413 F1999.800
G1 X-60.745 Y-11.943 Z16.413 F1999.800
G1 X-63.127 Y-12.717 Z16.413 F1999.800
G1 X-63.127 Y-28.305 Z16.413 F1999.800
G1 X-63.261 Y-28.349 Z16.413 F1999.800
G1 X-65.508 Y-21.433 Z16.413 F1999.800
G1 X-65.508 Y-13.491 Z16.413 F1999.800
G1 X-67.842 Y-14.249 Z16.413 F1999.800
G1 X-65.508 Y-21.433 Z16.413 F1999.800
G0 Z23.000
G0 X-5.977 Y-13.975 Z23.000
G0 X-5.977 Y-13.975 Z21.000
G1 X-5.977 Y-13.975 Z16.413 F999.600
G1 X-7.412 Y-13.975 Z16.413 F1999.800
G1 X-7.412 Y-68.925 Z16.413 F1999.800
G1 X-5.977 Y-68.925 Z16.413 F1999.800
G1 X-5.977 Y-13.975 Z16.413 F1999.800
G1 X-3.595 Y-13.975 Z16.413 F1999.800
G1 X-3.595 Y-68.925 Z16.413 F1999.800
G1 X-1.214 Y-68.925 Z16.413 F1999.800
G1 X-1.214 Y-13.975 Z16.413 F1999.800
G1 X1.167 Y-13.975 Z16.413 F1999.800
G1 X1.167 Y-68.925 Z16.413 F1999.800
G1 X3.548 Y-68.925 Z16.413 F1999.800
G1 X3.548 Y-13.975 Z16.413 F1999.800
G1 X5.930 Y-13.975 Z16.413 F1999.800
G1 X5.930 Y-68.925 Z16.413 F1999.800
G1 X7.412 Y-68.925 Z16.413 F1999.800
G1 X7.412 Y-13.975 Z16.413 F1999.800
G1 X5.930 Y-13.975 Z16.413 F1999.800
G0 Z23.000
G0 X13.073 Y-4.988 Z23.000
G0 X13.073 Y-4.988 Z21.000
G1 X13.073 Y-4.988 Z16.413 F999.600
G1 X11.000 Y-11.368 Z16.413 F1999.800
G1 X13.073 Y-12.042 Z16.413 F1999.800
G1 X13.073 Y-4.988 Z16.413 F1999.800
G1 X15.455 Y2.341 Z16.413 F1999.800
G1 X15.455 Y-12.815 Z16.413 F1999.800
G1 X17.836 Y-13.589 Z16.413 F1999.800
G1 X17.836 Y1.999 Z16.413 F1999.800
G1 X20.217 Y1.225 Z16.413 F1999.800
G1 X20.217 Y-14.363 Z16.413 F1999.800
G1 X22.598 Y-15.137 Z16.413 F1999.800
G1 X22.598 Y0.451 Z16.413 F1999.800
G1 X24.980 Y-0.322 Z16.413 F1999.800
G1 X24.980 Y-15.910 Z16.413 F1999.800
G1 X27.361 Y-16.684 Z16.413 F1999.800
G1 X27.361 Y-1.096 Z16.413 F1999.800
G1 X29.742 Y-1.870 Z16.413 F1999.800
G1 X29.742 Y-17.458 Z16.413 F1999.800
G1 X32.123 Y-18.231 Z16.413 F1999.800
G1 X32.123 Y-2.644 Z16.413 F1999.800
G1 X34.505 Y-3.417 Z16.413 F1999.800
G1 X34.505 Y-19.005 Z16.413 F1999.800
G1 X36.886 Y-19.779 Z16.413 F1999.800
G1 X36.886 Y-4.191 Z16.413 F1999.800
G1 X39.267 Y-4.965 Z16.413 F1999.800
G1 X39.267 Y-20.553 Z16.413 F1999.800
G1 X41.648 Y-21.326 Z16.413 F1999.800
G1 X41.648 Y-5.738 Z16.413 F1999.800
G1 X44.030 Y-6.512 Z16.413 F1999.800
G1 X44.030 Y-22.100 Z16.413 F1999.800
G1 X46.411 Y-22.874 Z16.413 F1999.800
G1 X46.411 Y-7.286 Z16.413 F1999.800
G1 X48.792 Y-8.060 Z16.413 F1999.800
G1 X48.792 Y-23.647 Z16.413 F1999.800
G1 X51.173 Y-24.421 Z16.413 F1999.800
G1 X51.173 Y-8.833 Z16.413 F1999.800
G1 X53.555 Y-9.607 Z16.413 F1999.800
G1 X53.555 Y-25.195 Z16.413 F1999.800
G1 X55.936 Y-25.969 Z16.413 F1999.800
G1 X55.936 Y-10.381 Z16.413 F1999.800
G1 X58.317 Y-11.154 Z16.413 F1999.800
G1 X58.317 Y-26.742 Z16.413 F1999.800
G1 X60.698 Y-27.516 Z16.413 F1999.800
G1 X60.698 Y-11.928 Z16.413 F1999.800
G1 X63.080 Y-12.702 Z16.413 F1999.800
G1 X63.080 Y-28.290 Z16.413 F1999.800
G1 X63.261 Y-28.349 Z16.413 F1999.800
G1 X65.461 Y-21.578 Z16.413 F1999.800
G1 X65.461 Y-13.476 Z16.413 F1999.800
G1 X67.842 Y-14.249 Z16.413 F1999.800
G1 X67.842 Y-14.249 Z15.883 F999.600
G1 X65.461 Y-13.476 Z15.883 F1999.800
G1 X65.461 Y-21.578 Z15.883 F1999.800
G1 X63.261 Y-28.349 Z15.883 F1999.800
G1 X63.080 Y-28.290 Z15.883 F1999.800
G1 X63.080 Y-12.702 Z15.883 F1999.800
G1 X60.698 Y-11.928 Z15.883 F1999.800
G1 X60.698 Y-27.516 Z15.883 F1999.800
G1 X58.317 Y-26.742 Z15.883 F1999.800
G1 X58.317 Y-11.154 Z15.883 F1999.800
G1 X55.936 Y-10.381 Z15.883 F1999.800
G1 X55.936 Y-25.969 Z15.883 F1999.800
G1 X53.555 Y-25.195 Z15.883 F1999.800
G1 X53.555 Y-9.607 Z15.883 F1999.800
G1 X51.173 Y-8.833 Z15.883 F1999.800
G1 X51.173 Y-24.421 Z15.883 F1999.800
G1 X48.792 Y-23.647 Z15.883 F1999.800
G1 X48.792 Y-8.060 Z15.883 F1999.800
G1 X46.411 Y-7.286 Z15.883 F1999.800
G1 X46.411 Y-22.874 Z15.883 F1999.800
G1 X44.030 Y-22.100 Z15.883 F1999.800
G1 X44.030 Y-6.512 Z15.883 F1999.800
G1 X41.648 Y-5.738 Z15.883 F1999.800
G1 X41.648 Y-21.326 Z15.883 F1999.800
G1 X39.267 Y-20.553 Z15.883 F1999.800
G1 X39.267 Y-4.965 Z15.883 F1999.800
G1 X36.886 Y-4.191 Z15.883 F1999.800
G1 X36.886 Y-19.779 Z15.883 F1999.800
G1 X34.505 Y-19.005 Z15.883 F1999.800
G1 X34.505 Y-3.417 Z15.883 F1999.800
G1 X32.123 Y-2.644 Z15.883 F1999.800
G1 X32.123 Y-18.231 Z15.883 F1999.800
G1 X29.742 Y-17.458 Z15.883 F1999.800
G1 X29.742 Y-1.870 Z15.883 F1999.800
G1 X27.361 Y-1.096 Z15.883 F1999.800
G1 X27.361 Y-16.684 Z15.883 F1999.800
G1 X24.980 Y-15.910 Z15.883 F1999.800
G1 X24.980 Y-0.322 Z15.883 F1999.800
G1 X22.598 Y0.451 Z15.883 F1999.800
G1 X22.598 Y-15.137 Z15.883 F1999.800
G1 X20.217 Y-14.363 Z15.883 F1999.800
G1 X20.217 Y1.225 Z15.883 F1999.800
G1 X17.836 Y1.999 Z15.883 F1999.800
G1 X17.836 Y-13.589 Z15.883 F1999.800
G1 X15.455 Y-12.815 Z15.883 F1999.800
G1 X15.455 Y2.341 Z15.883 F1999.800
G1 X13.073 Y-4.988 Z15.883 F1999.800
G1 X13.073 Y-12.042 Z15.883 F1999.800
G1 X11.000 Y-11.368 Z15.883 F1999.800
G1 X13.073 Y-4.988 Z15.883 F1999.800
G0 Z23.000
G0 X5.930 Y-13.975 Z23.000
G0 X5.930 Y-13.975 Z21.000
G1 X5.930 Y-13.975 Z15.883 F999.600
G1 X7.412 Y-13.975 Z15.883 F1999.800
G1 X7.412 Y-68.925 Z15.883 F1999.800
G1 X5.930 Y-68.925 Z15.883 F1999.800
G1 X5.930 Y-13.975 Z15.883 F1999.800
G1 X3.548 Y-13.975 Z15.883 F1999.800
G1 X3.548 Y-68.925 Z15.883 F1999.800
G1 X1.167 Y-68.925 Z15.883 F1999.800
G1 X1.167 Y-13.975 Z15.883 F1999.800
G1 X-1.214 Y-13.975 Z15.883 F1999.800
G1 X-1.214 Y-68.925 Z15.883 F1999.800
G1 X-3.595 Y-68.925 Z15.883 F1999.800
G1 X-3.595 Y-13.975 Z15.883 F1999.800
G1 X-5.977 Y-13.975 Z15.883 F1999.800
G1 X-5.977 Y-68.925 Z15.883 F1999.800
G1 X-7.412 Y-68.925 Z15.883 F1999.800
G1 X-7.412 Y-13.975 Z15.883 F1999.800
G1 X-5.977 Y-13.975 Z15.883 F1999.800
G0 Z23.000
G0 X-13.120 Y-4.843 Z23.000
G0 X-13.120 Y-4.843 Z21.000
G1 X-13.120 Y-4.843 Z15.883 F999.600
G1 X-11.000 Y-11.368 Z15.883 F1999.800
G1 X-13.120 Y-12.057 Z15.883 F1999.800
G1 X-13.120 Y-4.843 Z15.883 F1999.800
G1 X-15.502 Y2.485 Z15.883 F1999.800
G1 X-15.502 Y-12.831 Z15.883 F1999.800
G1 X-17.883 Y-13.604 Z15.883 F1999.800
G1 X-17.883 Y1.983 Z15.883 F1999.800
G1 X-20.264 Y1.210 Z15.883 F1999.800
G1 X-20.264 Y-14.378 Z15.883 F1999.800
G1 X-22.645 Y-15.152 Z15.883 F1999.800
G1 X-22.645 Y0.436 Z15.883 F1999.800
G1 X-25.027 Y-0.338 Z15.883 F1999.800
G1 X-25.027 Y-15.926 Z15.883 F1999.800
G1 X-27.408 Y-16.699 Z15.883 F1999.800
G1 X-27.408 Y-1.111 Z15.883 F1999.800
G1 X-29.789 Y-1.885 Z15.883 F1999.800
G1 X-29.789 Y-17.473 Z15.883 F1999.800
G1 X-32.170 Y-18.247 Z15.883 F1999.800
G1 X-32.170 Y-2.659 Z15.883 F1999.800
G1 X-34.552 Y-3.433 Z15.883 F1999.800
G1 X-34.552 Y-19.020 Z15.883 F1999.800
G1 X-36.933 Y-19.794 Z15.883 F1999.800
G1 X-36.933 Y-4.206 Z15.883 F1999.800
G1 X-39.314 Y-4.980 Z15.883 F1999.800
G1 X-39.314 Y-20.568 Z15.883 F1999.800
G1 X-41.695 Y-21.342 Z15.883 F1999.800
G1 X-41.695 Y-5.754 Z15.883 F1999.800
G1 X-44.077 Y-6.527 Z15.883 F1999.800
G1 X-44.077 Y-22.115 Z15.883 F1999.800
G1 X-46.458 Y-22.889 Z15.883 F1999.800
G1 X-46.458 Y-7.301 Z15.883 F1999.800
G1 X-48.839 Y-8.075 Z15.883 F1999.800
G1 X-48.839 Y-23.663 Z15.883 F1999.800
G1 X-51.220 Y-24.436 Z15.883 F1999.800
G1 X-51.220 Y-8.849 Z15.883 F1999.800
G1 X-53.602 Y-9.622 Z15.883 F1999.800
G1 X-53.602 Y-25.210 Z15.883 F1999.800
G1 X-55.983 Y-25.984 Z15.883 F1999.800
G1 X-55.983 Y-10.396 Z15.883 F1999.800
G1 X-58.364 Y-11.170 Z15.883 F1999.800
G1 X-58.364 Y-26.758 Z15.883 F1999.800
G1 X-60.745 Y-27.531 Z15.883 F1999.800
G1 X-60.745 Y-11.943 Z15.883 F1999.800
G1 X-63.127 Y-12.717 Z15.883 F1999.800
G1 X-63.127 Y-28.305 Z15.883 F1999.800
G1 X-63.261 Y-28.349 Z15.883 F1999.800
G1 X-65.508 Y-21.433 Z15.883 F1999.800
G1 X-65.508 Y-13.491 Z15.883 F1999.800
G1 X-67.842 Y-14.249 Z15.883 F1999.800
G1 X-65.508 Y-21.433 Z15.883 F1999.800
G0 Z23.000
G0 X-3.595 Y17.560 Z23.000
G0 X-3.595 Y17.560 Z21.000
G1 X-3.595 Y17.560 Z15.883 F999.600
G1 X-2.217 Y15.663 Z15.883 F1999.800
G1 X-3.595 Y14.662 Z15.883 F1999.800
G1 X-3.595 Y17.560 Z15.883 F1999.800
G1 X-5.977 Y20.837 Z15.883 F1999.800
G1 X-5.977 Y12.932 Z15.883 F1999.800
G1 X-8.358 Y11.202 Z15.883 F1999.800
G1 X-8.358 Y24.115 Z15.883 F1999.800
G1 X-10.739 Y27.392 Z15.883 F1999.800
G1 X-10.739 Y9.472 Z15.883 F1999.800
G1 X-13.120 Y7.741 Z15.883 F1999.800
G1 X-13.120 Y30.670 Z15.883 F1999.800
G1 X-15.502 Y33.947 Z15.883 F1999.800
G1 X-15.502 Y8.725 Z15.883 F1999.800
G1 X-17.883 Y12.003 Z15.883 F1999.800
G1 X-17.883 Y37.225 Z15.883 F1999.800
G1 X-20.264 Y40.502 Z15.883 F1999.800
G1 X-20.264 Y15.280 Z15.883 F1999.800
G1 X-22.645 Y18.558 Z15.883 F1999.800
G1 X-22.645 Y43.780 Z15.883 F1999.800
G1 X-25.027 Y47.057 Z15.883 F1999.800
G1 X-25.027 Y21.835 Z15.883 F1999.800
G1 X-27.408 Y25.113 Z15.883 F1999.800
G1 X-27.408 Y50.335 Z15.883 F1999.800
G1 X-29.789 Y53.612 Z15.883 F1999.800
G1 X-29.789 Y28.390 Z15.883 F1999.800
G1 X-32.170 Y31.668 Z15.883 F1999.800
G1 X-32.170 Y56.890 Z15.883 F1999.800
G1 X-34.516 Y60.118 Z15.883 F1999.800
G1 X-34.552 Y60.093 Z15.883 F1999.800
G1 X-34.552 Y34.945 Z15.883 F1999.800
G1 X-36.933 Y38.223 Z15.883 F1999.800
G1 X-36.933 Y58.363 Z15.883 F1999.800
G1 X-39.314 Y56.633 Z15.883 F1999.800
G1 X-39.314 Y41.500 Z15.883 F1999.800
G1 X-41.695 Y44.778 Z15.883 F1999.800
G1 X-41.695 Y54.902 Z15.883 F1999.800
G1 X-44.077 Y53.172 Z15.883 F1999.800
G1 X-44.077 Y48.055 Z15.883 F1999.800
G1 X-46.458 Y51.333 Z15.883 F1999.800
G2 X-46.458 Y51.442 Z15.883 I0.000 J0.055 K0.000 F1999.800
G1 X-46.458 Y51.333 Z15.883 F1999.800
G0 Z23.000
G0 X3.548 Y17.495 Z23.000
G0 X3.548 Y17.495 Z21.000
G1 X3.548 Y17.495 Z15.883 F999.600
G1 X3.548 Y14.696 Z15.883 F1999.800
G1 X2.217 Y15.663 Z15.883 F1999.800
G1 X3.548 Y17.495 Z15.883 F1999.800
G1 X5.930 Y20.772 Z15.883 F1999.800
G1 X5.930 Y12.966 Z15.883 F1999.800
G1 X8.311 Y11.236 Z15.883 F1999.800
G1 X8.311 Y24.050 Z15.883 F1999.800
G1 X10.692 Y27.327 Z15.883 F1999.800
G1 X10.692 Y9.506 Z15.883 F1999.800
G1 X13.073 Y7.776 Z15.883 F1999.800
G1 X13.073 Y30.605 Z15.883 F1999.800
G1 X15.455 Y33.882 Z15.883 F1999.800
G1 X15.455 Y8.661 Z15.883 F1999.800
G1 X17.836 Y11.938 Z15.883 F1999.800
G1 X17.836 Y37.160 Z15.883 F1999.800
G1 X20.217 Y40.437 Z15.883 F1999.800
G1 X20.217 Y15.216 Z15.883 F1999.800
G1 X22.598 Y18.493 Z15.883 F1999.800
G1 X22.598 Y43.715 Z15.883 F1999.800
G1 X24.980 Y46.992 Z15.883 F1999.800
G1 X24.980 Y21.771 Z15.883 F1999.800
G1 X27.361 Y25.048 Z15.883 F1999.800
G1 X27.361 Y50.270 Z15.883 F1999.800
G1 X29.742 Y53.547 Z15.883 F1999.800
G1 X29.742 Y28.326 Z15.883 F1999.800
G1 X32.123 Y31.603 Z15.883 F1999.800
G1 X32.123 Y56.825 Z15.883 F1999.800
G1 X34.505 Y60.102 Z15.883 F1999.800
G1 X34.505 Y34.881 Z15.883 F1999.800
G1 X36.886 Y38.158 Z15.883 F1999.800
G1 X36.886 Y58.397 Z15.883 F1999.800
G1 X39.267 Y56.667 Z15.883 F1999.800
G1 X39.267 Y41.436 Z15.883 F1999.800
G1 X41.648 Y44.713 Z15.883 F1999.800
G1 X41.648 Y54.937 Z15.883 F1999.800
G1 X44.030 Y53.207 Z15.883 F1999.800
G1 X44.030 Y47.991 Z15.883 F1999.800
G1 X46.411 Y51.268 Z15.883 F1999.800
G1 X46.411 Y51.476 Z15.883 F1999.800
G1 X46.510 Y51.405 Z15.883 F1999.800
G1 X46.411 Y51.268 Z15.883 F1999.800
G1 X46.411 Y51.268 Z15.354 F999.600
G1 X46.510 Y51.405 Z15.354 F1999.800
G1 X46.411 Y51.476 Z15.354 F1999.800
G1 X46.411 Y51.268 Z15.354 F1999.800
G1 X44.030 Y47.991 Z15.354 F1999.800
G1 X44.030 Y53.207 Z15.354 F1999.800
G1 X41.648 Y54.937 Z15.354 F1999.800
G1 X41.648 Y44.713 Z15.354 F1999.800
G1 X39.267 Y41.436 Z15.354 F1999.800
G1 X39.267 Y56.667 Z15.354 F1999.800
G1 X36.886 Y58.397 Z15.354 F1999.800
G1 X36.886 Y38.158 Z15.354 F1999.800
G1 X34.505 Y34.881 Z15.354 F1999.800
G1 X34.505 Y60.102 Z15.354 F1999.800
G1 X32.123 Y56.825 Z15.354 F1999.800
G1 X32.123 Y31.603 Z15.354 F1999.800
G1 X29.742 Y28.326 Z15.354 F1999.800
G1 X29.742 Y53.547 Z15.354 F1999.800
G1 X27.361 Y50.270 Z15.354 F1999.800
G1 X27.361 Y25.048 Z15.354 F1999.800
G1 X24.980 Y21.771 Z15.354 F1999.800
G1 X24.980 Y46.992 Z15.354 F1999.800
G1 X22.598 Y43.715 Z15.354 F1999.800
G1 X22.598 Y18.493 Z15.354 F1999.800
G1 X20.217 Y15.216 Z15.354 F1999.800
G1 X20.217 Y40.437 Z15.354 F1999.800
G1 X17.836 Y37.160 Z15.354 F1999.800
G1 X17.836 Y11.938 Z15.354 F1999.800
G1 X15.455 Y8.661 Z15.354 F1999.800
G1 X15.455 Y33.882 Z15.354 F1999.800
G1 X13.073 Y30.605 Z15.354 F1999.800
G1 X13.073 Y7.776 Z15.354 F1999.800
G1 X10.692 Y9.506 Z15.354 F1999.800
G1 X10.692 Y27.327 Z15.354 F1999.800
G1 X8.311 Y24.050 Z15.354 F1999.800
G1 X8.311 Y11.236 Z15.354 F1999.800
G1 X5.930 Y12.966 Z15.354 F1999.800
G1 X5.930 Y20.772 Z15.354 F1999.800
G1 X3.548 Y17.495 Z15.354 F1999.800
G1 X2.217 Y15.663 Z15.354 F1999.800
G1 X3.548 Y14.696 Z15.354 F1999.800
G1 X3.548 Y17.495 Z15.354 F1999.800
G0 Z23.000
G0 X-3.595 Y17.560 Z23.000
G0 X-3.595 Y17.560 Z21.000
G1 X-3.595 Y17.560 Z15.354 F999.600
G1 X-2.217 Y15.663 Z15.354 F1999.800
G1 X-3.595 Y14.662 Z15.354 F1999.800
G1 X-3.595 Y17.560 Z15.354 F1999.800
G1 X-5.977 Y20.837 Z15.354 F1999.800
G1 X-5.977 Y12.932 Z15.354 F1999.800
G1 X-8.358 Y11.202 Z15.354 F1999.800
G1 X-8.358 Y24.115 Z15.354 F1999.800
G1 X-10.739 Y27.392 Z15.354 F1999.800
G1 X-10.739 Y9.472 Z15.354 F1999.800
G1 X-13.120 Y7.741 Z15.354 F1999.800
G1 X-13.120 Y30.670 Z15.354 F1999.800
G1 X-15.502 Y33.947 Z15.354 F1999.800
G1 X-15.502 Y8.725 Z15.354 F1999.800
G1 X-17.883 Y12.003 Z15.354 F1999.800
G1 X-17.883 Y37.225 Z15.354 F1999.800
G1 X-20.264 Y40.502 Z15.354 F1999.800
G1 X-20.264 Y15.280 Z15.354 F1999.800
G1 X-22.645 Y18.558 Z15.354 F1999.800
G1 X-22.645 Y43.780 Z15.354 F1999.800
G1 X-25.027 Y47.057 Z15.354 F1999.800
G1 X-25.027 Y21.835 Z15.354 F1999.800
G1 X-27.408 Y25.113 Z15.354 F1999.800
G1 X-27.408 Y50.335 Z15.354 F1999.800
G1 X-29.789 Y53.612 Z15.354 F1999.800
G1 X-29.789 Y28.390 Z15.354 F1999.800
G1 X-32.170 Y31.668 Z15.354 F1999.800
G1 X-32.170 Y56.890 Z15.354 F1999.800
G1 X-34.516 Y60.118 Z15.354 F1999.800
G1 X-34.552 Y60.093 Z15.354 F1999.800
G1 X-34.552 Y34.945 Z15.354 F1999.800
G1 X-36.933 Y38.223 Z15.354 F1999.800
G1 X-36.933 Y58.363 Z15.354 F1999.800
G1 X-39.314 Y56.633 Z15.354 F1999.800
G1 X-39.314 Y41.500 Z15.354 F1999.800
G1 X-41.695 Y44.778 Z15.354 F1999.800
G1 X-41.695 Y54.902 Z15.354 F1999.800
G1 X-44.077 Y53.172 Z15.354 F1999.800
G1 X-44.077 Y48.055 Z15.354 F1999.800
G1 X-46.458 Y51.333 Z15.354 F1999.800
G2 X-46.458 Y51.442 Z15.354 I0.000 J0.055 K0.000 F1999.800
G1 X-46.458 Y51.333 Z15.354 F1999.800
G0 Z23.000
G0 X-13.120 Y-4.843 Z23.000
G0 X-13.120 Y-4.843 Z21.000
G1 X-13.120 Y-4.843 Z15.354 F999.600
G1 X-11.000 Y-11.368 Z15.354 F1999.800
G1 X-13.120 Y-12.057 Z15.354 F1999.800
G1 X-13.120 Y-4.843 Z15.354 F1999.800
G1 X-15.502 Y2.485 Z15.354 F1999.800
G1 X-15.502 Y-12.831 Z15.354 F1999.800
G1 X-17.883 Y-13.604 Z15.354 F1999.800
G1 X-17.883 Y1.983 Z15.354 F1999.800
G1 X-20.264 Y1.210 Z15.354 F1999.800
G1 X-20.264 Y-14.378 Z15.354 F1999.800
G1 X-22.645 Y-15.152 Z15.354 F1999.800
G1 X-22.645 Y0.436 Z15.354 F1999.800
G1 X-25.027 Y-0.338 Z15.354 F1999.800
G1 X-25.027 Y-15.926 Z15.354 F1999.800
G1 X-27.408 Y-16.699 Z15.354 F1999.800
G1 X-27.408 Y-1.111 Z15.354 F1999.800
G1 X-29.789 Y-1.885 Z15.354 F1999.800
G1 X-29.789 Y-17.473 Z15.354 F1999.800
G1 X-32.170 Y-18.247 Z15.354 F1999.800
G1 X-32.170 Y-2.659 Z15.354 F1999.800
G1 X-34.552 Y-3.433 Z15.354 F1999.800
G1 X-34.552 Y-19.020 Z15.354 F1999.800
G1 X-36.933 Y-19.794 Z15.354 F1999.800
G1 X-36.933 Y-4.206 Z15.354 F1999.800
G1 X-39.314 Y-4.980 Z15.354 F1999.800
G1 X-39.314 Y-20.568 Z15.354 F1999.800
G1 X-41.695 Y-21.342 Z15.354 F1999.800
G1 X-41.695 Y-5.754 Z15.354 F1999.800
G1 X-44.077 Y-6.527 Z15.354 F1999.800
G1 X-44.077 Y-22.115 Z15.354 F1999.800
G1 X-46.458 Y-22.889 Z15.354 F1999.800
G1 X-46.458 Y-7.301 Z15.354 F1999.800
G1 X-48.839 Y-8.075 Z15.354 F1999.800
G1 X-48.839 Y-23.663 Z15.354 F1999.800
G1 X-51.220 Y-24.436 Z15.354 F1999.800
G1 X-51.220 Y-8.849 Z15.354 F1999.800
G1 X-53.602 Y-9.622 Z15.354 F1999.800
G1 X-53.602 Y-25.210 Z15.354 F1999.800
G1 X-55.983 Y-25.984 Z15.354 F1999.800
G1 X-55.983 Y-10.396 Z15.354 F1999.800
G1 X-58.364 Y-11.170 Z15.354 F1999.800
G1 X-58.364 Y-26.758 Z15.354 F1999.800
G1 X-60.745 Y-27.531 Z15.354 F1999.800
G1 X-60.745 Y-11.943 Z15.354 F1999.800
G1 X-63.127 Y-12.717 Z15.354 F1999.800
G1 X-63.127 Y-28.305 Z15.354 F1999.800
G1 X-63.261 Y-28.349 Z15.354 F1999.800
G1 X-65.508 Y-21.433 Z15.354 F1999.800
G1 X-65.508 Y-13.491 Z15.354 F1999.800
G1 X-67.842 Y-14.249 Z15.354 F1999.800
G1 X-65.508 Y-21.433 Z15.354 F1999.800
G0 Z23.000
G0 X-5.977 Y-13.975 Z23.000
G0 X-5.977 Y-13.975 Z21.000
G1 X-5.977 Y-13.975 Z15.354 F999.600
G1 X-7.412 Y-13.975 Z15.354 F1999.800
G1 X-7.412 Y-68.925 Z15.354 F1999.800
G1 X-5.977 Y-68.925 Z15.354 F1999.800
G1 X-5.977 Y-13.975 Z15.354 F1999.800
G1 X-3.595 Y-13.975 Z15.354 F1999.800
G1 X-3.595 Y-68.925 Z15.354 F1999.800
G1 X-1.214 Y-68.925 Z15.354 F1999.800
G1 X-1.214 Y-13.975 Z15.354 F1999.800
G1 X1.167 Y-13.975 Z15.354 F1999.800
G1 X1.167 Y-68.925 Z15.354 F1999.800
G1 X3.548 Y-68.925 Z15.354 F1999.800
G1 X3.548 Y-13.975 Z15.354 F1999.800
G1 X5.930 Y-13.975 Z15.354 F1999.800
G1 X5.930 Y-68.925 Z15.354 F1999.800
G1 X7.412 Y-68.925 Z15.354 F1999.800
G1 X7.412 Y-13.975 Z15.354 F1999.800
G1 X5.930 Y-13.975 Z15.354 F1999.800
G0 Z23.000
G0 X13.073 Y-4.988 Z23.000
G0 X13.073 Y-4.988 Z21.000
G1 X13.073 Y-4.988 Z15.354 F999.600
G1 X11.000 Y-11.368 Z15.354 F1999.800
G1 X13.073 Y-12.042 Z15.354 F1999.800
G1 X13.073 Y-4.988 Z15.354 F1999.800
G1 X15.455 Y2.341 Z15.354 F1999.800
G1 X15.455 Y-12.815 Z15.354 F1999.800
G1 X17.836 Y-13.589 Z15.354 F1999.800
G1 X17.836 Y1.999 Z15.354 F1999.800
G1 X20.217 Y1.225 Z15.354 F1999.800
G1 X20.217 Y-14.363 Z15.354 F1999.800
G1 X22.598 Y-15.137 Z15.354 F1999.800
G1 X22.598 Y0.451 Z15.354 F1999.800
G1 X24.980 Y-0.322 Z15.354 F1999.800
G1 X24.980 Y-15.910 Z15.354 F1999.800
G1 X27.361 Y-16.684 Z15.354 F1999.800
G1 X27.361 Y-1.096 Z15.354 F1999.800
G1 X29.742 Y-1.870 Z15.354 F1999.800
G1 X29.742 Y-17.458 Z15.354 F1999.800
G1 X32.123 Y-18.231 Z15.354 F1999.800
G1 X32.123 Y-2.644 Z15.354 F1999.800
G1 X34.505 Y-3.417 Z15.354 F1999.800
G1 X34.505 Y-19.005 Z15.354 F1999.800
G1 X36.886 Y-19.779 Z15.354 F1999.800
G1 X36.886 Y-4.191 Z15.354 F1999.800
G1 X39.267 Y-4.965 Z15.354 F1999.800
G1 X39.267 Y-20.553 Z15.354 F1999.800
G1 X41.648 Y-21.326 Z15.354 F1999.800
G1 X41.648 Y-5.738 Z15.354 F1999.800
G1 X44.030 Y-6.512 Z15.354 F1999.800
G1 X44.030 Y-22.100 Z15.354 F1999.800
G1 X46.411 Y-22.874 Z15.354 F1999.800
G1 X46.411 Y-7.286 Z15.354 F1999.800
G1 X48.792 Y-8.060 Z15.354 F1999.800
G1 X48.792 Y-23.647 Z15.354 F1999.800
G1 X51.173 Y-24.421 Z15.354 F1999.800
G1 X51.173 Y-8.833 Z15.354 F1999.800
G1 X53.555 Y-9.607 Z15.354 F1999.800
G1 X53.555 Y-25.195 Z15.354 F1999.800
G1 X55.936 Y-25.969 Z15.354 F1999.800
G1 X55.936 Y-10.381 Z15.354 F1999.800
G1 X58.317 Y-11.154 Z15.354 F1999.800
G1 X58.317 Y-26.742 Z15.354 F1999.800
G1 X60.698 Y-27.516 Z15.354 F1999.800
G1 X60.698 Y-11.928 Z15.354 F1999.800
G1 X63.080 Y-12.702 Z15.354 F1999.800
G1 X63.080 Y-28.290 Z15.354 F1999.800
G1 X63.261 Y-28.349 Z15.354 F1999.800
G1 X65.461 Y-21.578 Z15.354 F1999.800
G1 X65.461 Y-13.476 Z15.354 F1999.800
G1 X67.842 Y-14.249 Z15.354 F1999.800
G1 X67.842 Y-14.249 Z14.825 F999.600
G1 X65.461 Y-13.476 Z14.825 F1999.800
G1 X65.461 Y-21.578 Z14.825 F1999.800
G1 X63.261 Y-28.349 Z14.825 F1999.800
G1 X63.080 Y-28.290 Z14.825 F1999.800
G1 X63.080 Y-12.702 Z14.825 F1999.800
G1 X60.698 Y-11.928 Z14.825 F1999.800
G1 X60.698 Y-27.516 Z14.825 F1999.800
G1 X58.317 Y-26.742 Z14.825 F1999.800
G1 X58.317 Y-11.154 Z14.825 F1999.800
G1 X55.936 Y-10.381 Z14.825 F1999.800
G1 X55.936 Y-25.969 Z14.825 F1999.800
G1 X53.555 Y-25.195 Z14.825 F1999.800
G1 X53.555 Y-9.607 Z14.825 F1999.800
G1 X51.173 Y-8.833 Z14.825 F1999.800
G1 X51.173 Y-24.421 Z14.825 F1999.800
G1 X48.792 Y-23.647 Z14.825 F1999.800
G1 X48.792 Y-8.060 Z14.825 F1999.800
G1 X46.411 Y-7.286 Z14.825 F1999.800
G1 X46.411 Y-22.874 Z14.825 F1999.800
G1 X44.030 Y-22.100 Z14.825 F1999.800
G1 X44.030 Y-6.512 Z14.825 F1999.800
G1 X41.648 Y-5.738 Z14.825 F1999.800
G1 X41.648 Y-21.326 Z14.825 F1999.800
G1 X39.267 Y-20.553 Z14.825 F1999.800
G1 X39.267 Y-4.965 Z14.825 F1999.800
G1 X36.886 Y-4.191 Z14.825 F1999.800
G1 X36.886 Y-19.779 Z14.825 F1999.800
G1 X34.505 Y-19.005 Z14.825 F1999.800
G1 X34.505 Y-3.417 Z14.825 F1999.800
G1 X32.123 Y-2.644 Z14.825 F1999.800
G1 X32.123 Y-18.231 Z14.825 F1999.800
G1 X29.742 Y-17.458 Z14.825 F1999.800
G1 X29.742 Y-1.870 Z14.825 F1999.800
G1 X27.361 Y-1.096 Z14.825 F1999.800
G1 X27.361 Y-16.684 Z14.825 F1999.800
G1 X24.980 Y-15.910 Z14.825 F1999.800
G1 X24.980 Y-0.322 Z14.825 F1999.800
G1 X22.598 Y0.451 Z14.825 F1999.800
G1 X22.598 Y-15.137 Z14.825 F1999.800
G1 X20.217 Y-14.363 Z14.825 F1999.800
G1 X20.217 Y1.225 Z14.825 F1999.800
G1 X17.836 Y1.999 Z14.825 F1999.800
G1 X17.836 Y-13.589 Z14.825 F1999.800
G1 X15.455 Y-12.815 Z14.825 F1999.800
G1 X15.455 Y2.341 Z14.825 F1999.800
G1 X13.073 Y-4.988 Z14.825 F1999.800
G1 X13.073 Y-12.042 Z14.825 F1999.800
G1 X11.000 Y-11.368 Z14.825 F1999.800
G1 X13.073 Y-4.988 Z14.825 F1999.800
G0 Z23.000
G0 X5.930 Y-13.975 Z23.000
G0 X5.930 Y-13.975 Z21.000
G1 X5.930 Y-13.975 Z14.825 F999.600
G1 X7.412 Y-13.975 Z14.825 F1999.800
G1 X7.412 Y-68.925 Z14.825 F1999.800
G1 X5.930 Y-68.925 Z14.825 F1999.800
G1 X5.930 Y-13.975 Z14.825 F1999.800
G1 X3.548 Y-13.975 Z14.825 F1999.800
G1 X3.548 Y-68.925 Z14.825 F1999.800
G1 X1.167 Y-68.925 Z14.825 F1999.800
G1 X1.167 Y-13.975 Z14.825 F1999.800
G1 X-1.214 Y-13.975 Z14.825 F1999.800
G1 X-1.214 Y-68.925 Z14.825 F1999.800
G1 X-3.595 Y-68.925 Z14.825 F1999.800
G1 X-3.595 Y-13.975 Z14.825 F1999.800
G1 X-5.977 Y-13.975 Z14.825 F1999.800
G1 X-5.977 Y-68.925 Z14.825 F1999.800
G1 X-7.412 Y-68.925 Z14.825 F1999.800
G1 X-7.412 Y-13.975 Z14.825 F1999.800
G1 X-5.977 Y-13.975 Z14.825 F1999.800
G0 Z23.000
G0 X-13.120 Y-4.843 Z23.000
G0 X-13.120 Y-4.843 Z21.000
G1 X-13.120 Y-4.843 Z14.825 F999.600
G1 X-11.000 Y-11.368 Z14.825 F1999.800
G1 X-13.120 Y-12.057 Z14.825 F1999.800
G1 X-13.120 Y-4.843 Z14.825 F1999.800
G1 X-15.502 Y2.485 Z14.825 F1999.800
G1 X-15.502 Y-12.831 Z14.825 F1999.800
G1 X-17.883 Y-13.604 Z14.825 F1999.800
G1 X-17.883 Y1.983 Z14.825 F1999.800
G1 X-20.264 Y1.210 Z14.825 F1999.800
G1 X-20.264 Y-14.378 Z14.825 F1999.800
G1 X-22.645 Y-15.152 Z14.825 F1999.800
G1 X-22.645 Y0.436 Z14.825 F1999.800
G1 X-25.027 Y-0.338 Z14.825 F1999.800
G1 X-25.027 Y-15.926 Z14.825 F1999.800
G1 X-27.408 Y-16.699 Z14.825 F1999.800
G1 X-27.408 Y-1.111 Z14.825 F1999.800
G1 X-29.789 Y-1.885 Z14.825 F1999.800
G1 X-29.789 Y-17.473 Z14.825 F1999.800
G1 X-32.170 Y-18.247 Z14.825 F1999.800
G1 X-32.170 Y-2.659 Z14.825 F1999.800
G1 X-34.552 Y-3.433 Z14.825 F1999.800
G1 X-34.552 Y-19.020 Z14.825 F1999.800
G1 X-36.933 Y-19.794 Z14.825 F1999.800
G1 X-36.933 Y-4.206 Z14.825 F1999.800
G1 X-39.314 Y-4.980 Z14.825 F1999.800
G1 X-39.314 Y-20.568 Z14.825 F1999.800
G1 X-41.695 Y-21.342 Z14.825 F1999.800
G1 X-41.695 Y-5.754 Z14.825 F1999.800
G1 X-44.077 Y-6.527 Z14.825 F1999.800
G1 X-44.077 Y-22.115 Z14.825 F1999.800
G1 X-46.458 Y-22.889 Z14.825 F1999.800
G1 X-46.458 Y-7.301 Z14.825 F1999.800
G1 X-48.839 Y-8.075 Z14.825 F1999.800
G1 X-48.839 Y-23.663 Z14.825 F1999.800
G1 X-51.220 Y-24.436 Z14.825 F1999.800
G1 X-51.220 Y-8.849 Z14.825 F1999.800
G1 X-53.602 Y-9.622 Z14.825 F1999.800
G1 X-53.602 Y-25.210 Z14.825 F1999.800
G1 X-55.983 Y-25.984 Z14.825 F1999.800
G1 X-55.983 Y-10.396 Z14.825 F1999.800
G1 X-58.364 Y-11.170 Z14.825 F1999.800
G1 X-58.364 Y-26.758 Z14.825 F1999.800
G1 X-60.745 Y-27.531 Z14.825 F1999.800
G1 X-60.745 Y-11.943 Z14.825 F1999.800
G1 X-63.127 Y-12.717 Z14.825 F1999.800
G1 X-63.127 Y-28.305 Z14.825 F1999.800
G1 X-63.261 Y-28.349 Z14.825 F1999.800
G1 X-65.508 Y-21.433 Z14.825 F1999.800
G1 X-65.508 Y-13.491 Z14.825 F1999.800
G1 X-67.842 Y-14.249 Z14.825 F1999.800
G1 X-65.508 Y-21.433 Z14.825 F1999.800
G0 Z23.000
G0 X-3.595 Y17.560 Z23.000
G0 X-3.595 Y17.560 Z21.000
G1 X-3.595 Y17.560 Z14.825 F999.600
G1 X-2.217 Y15.663 Z14.825 F1999.800
G1 X-3.595 Y14.662 Z14.825 F1999.800
G1 X-3.595 Y17.560 Z14.825 F1999.800
G1 X-5.977 Y20.837 Z14.825 F1999.800
G1 X-5.977 Y12.932 Z14.825 F1999.800
G1 X-8.358 Y11.202 Z14.825 F1999.800
G1 X-8.358 Y24.115 Z14.825 F1999.800
G1 X-10.739 Y27.392 Z14.825 F1999.800
G1 X-10.739 Y9.472 Z14.825 F1999.800
G1 X-13.120 Y7.741 Z14.825 F1999.800
G1 X-13.120 Y30.670 Z14.825 F1999.800
G1 X-15.502 Y33.947 Z14.825 F1999.800
G1 X-15.502 Y8.725 Z14.825 F1999.800
G1 X-17.883 Y12.003 Z14.825 F1999.800
G1 X-17.883 Y37.225 Z14.825 F1999.800
G1 X-20.264 Y40.502 Z14.825 F1999.800
G1 X-20.264 Y15.280 Z14.825 F1999.800
G1 X-22.645 Y18.558 Z14.825 F1999.800
G1 X-22.645 Y43.780 Z14.825 F1999.800
G1 X-25.027 Y47.057 Z14.825 F1999.800
G1 X-25.027 Y21.835 Z14.825 F1999.800
G1 X-27.408 Y25.113 Z14.825 F1999.800
G1 X-27.408 Y50.335 Z14.825 F1999.800
G1 X-29.789 Y53.612 Z14.825 F1999.800
G1 X-29.789 Y28.390 Z14.825 F1999.800
G1 X-32.170 Y31.668 Z14.825 F1999.800
G1 X-32.170 Y56.890 Z14.825 F1999.800
G1 X-34.516 Y60.118 Z14.825 F1999.800
G1 X-34.552 Y60.093 Z14.825 F1999.800
G1 X-34.552 Y34.945 Z14.825 F1999.800
G1 X-36.933 Y38.223 Z14.825 F1999.800
G1 X-36.933 Y58.363 Z14.825 F1999.800
G1 X-39.314 Y56.633 Z14.825 F1999.800
G1 X-39.314 Y41.500 Z14.825 F1999.800
G1 X-41.695 Y44.778 Z14.825 F1999.800
G1 X-41.695 Y54.902 Z14.825 F1999.800
G1 X-44.077 Y53.172 Z14.825 F1999.800
G1 X-44.077 Y48.055 Z14.825 F1999.800
G1 X-46.458 Y51.333 Z14.825 F1999.800
G2 X-46.458 Y51.442 Z14.825 I0.000 J0.055 K0.000 F1999.800
G1 X-46.458 Y51.333 Z14.825 F1999.800
G0 Z23.000
G0 X3.548 Y17.495 Z23.000
G0 X3.548 Y17.495 Z21.000
G1 X3.548 Y17.495 Z14.825 F999.600
G1 X3.548 Y14.696 Z14.825 F1999.800
G1 X2.217 Y15.663 Z14.825 F1999.800
G1 X3.548 Y17.495 Z14.825 F1999.800
G1 X5.930 Y20.772 Z14.825 F1999.800
G1 X5.930 Y12.966 Z14.825 F1999.800
G1 X8.311 Y11.236 Z14.825 F1999.800
G1 X8.311 Y24.050 Z14.825 F1999.800
G1 X10.692 Y27.327 Z14.825 F1999.800
G1 X10.692 Y9.506 Z14.825 F1999.800
G1 X13.073 Y7.776 Z14.825 F1999.800
G1 X13.073 Y30.605 Z14.825 F1999.800
G1 X15.455 Y33.882 Z14.825 F1999.800
G1 X15.455 Y8.661 Z14.825 F1999.800
G1 X17.836 Y11.938 Z14.825 F1999.800
G1 X17.836 Y37.160 Z14.825 F1999.800
G1 X20.217 Y40.437 Z14.825 F1999.800
G1 X20.217 Y15.216 Z14.825 F1999.800
G1 X22.598 Y18.493 Z14.825 F1999.800
G1 X22.598 Y43.715 Z14.825 F1999.800
G1 X24.980 Y46.992 Z14.825 F1999.800
G1 X24.980 Y21.771 Z14.825 F1999.800
G1 X27.361 Y25.048 Z14.825 F1999.800
G1 X27.361 Y50.270 Z14.825 F1999.800
G1 X29.742 Y53.547 Z14.825 F1999.800
G1 X29.742 Y28.326 Z14.825 F1999.800
G1 X32.123 Y31.603 Z14.825 F1999.800
G1 X32.123 Y56.825 Z14.825 F1999.800
G1 X34.505 Y60.102 Z14.825 F1999.800
G1 X34.505 Y34.881 Z14.825 F1999.800
G1 X36.886 Y38.158 Z14.825 F1999.800
G1 X36.886 Y58.397 Z14.825 F1999.800
G1 X39.267 Y56.667 Z14.825 F1999.800
G1 X39.267 Y41.436 Z14.825 F1999.800
G1 X41.648 Y44.713 Z14.825 F1999.800
G1 X41.648 Y54.937 Z14.825 F1999.800
G1 X44.030 Y53.207 Z14.825 F1999.800
G1 X44.030 Y47.991 Z14.825 F1999.800
G1 X46.411 Y51.268 Z14.825 F1999.800
G1 X46.411 Y51.476 Z14.825 F1999.800
G1 X46.510 Y51.405 Z14.825 F1999.800
G1 X46.411 Y51.268 Z14.825 F1999.800
G1 X46.411 Y51.268 Z14.296 F999.600
G1 X46.510 Y51.405 Z14.296 F1999.800
G1 X46.411 Y51.476 Z14.296 F1999.800
G1 X46.411 Y51.268 Z14.296 F1999.800
G1 X44.030 Y47.991 Z14.296 F1999.800
G1 X44.030 Y53.207 Z14.296 F1999.800
G1 X41.648 Y54.937 Z14.296 F1999.800
G1 X41.648 Y44.713 Z14.296 F1999.800
G1 X39.267 Y41.436 Z14.296 F1999.800
G1 X39.267 Y56.667 Z14.296 F1999.800
G1 X36.886 Y58.397 Z14.296 F1999.800
G1 X36.886 Y38.158 Z14.296 F1999.800
G1 X34.505 Y34.881 Z14.296 F1999.800
G1 X34.505 Y60.102 Z14.296 F1999.800
G1 X32.123 Y56.825 Z14.296 F1999.800
G1 X32.123 Y31.603 Z14.296 F1999.800
G1 X29.742 Y28.326 Z14.296 F1999.800
G1 X29.742 Y53.547 Z14.296 F1999.800
G1 X27.361 Y50.270 Z14.296 F1999.800
G1 X27.361 Y25.048 Z14.296 F1999.800
G1 X24.980 Y21.771 Z14.296 F1999.800
G1 X24.980 Y46.992 Z14.296 F1999.800
G1 X22.598 Y43.715 Z14.296 F1999.800
G1 X22.598 Y18.493 Z14.296 F1999.800
G1 X20.217 Y15.216 Z14.296 F1999.800
G1 X20.217 Y40.437 Z14.296 F1999.800
G1 X17.836 Y37.160 Z14.296 F1999.800
G1 X17.836 Y11.938 Z14.296 F1999.800
G1 X15.455 Y8.661 Z14.296 F1999.800
G1 X15.455 Y33.882 Z14.296 F1999.800
G1 X13.073 Y30.605 Z14.296 F1999.800
G1 X13.073 Y7.776 Z14.296 F1999.800
G1 X10.692 Y9.506 Z14.296 F1999.800
G1 X10.692 Y27.327 Z14.296 F1999.800
G1 X8.311 Y24.050 Z14.296 F1999.800
G1 X8.311 Y11.236 Z14.296 F1999.800
G1 X5.930 Y12.966 Z14.296 F1999.800
G1 X5.930 Y20.772 Z14.296 F1999.800
G1 X3.548 Y17.495 Z14.296 F1999.800
G1 X2.217 Y15.663 Z14.296 F1999.800
G1 X3.548 Y14.696 Z14.296 F1999.800
G1 X3.548 Y17.495 Z14.296 F1999.800
G0 Z23.000
G0 X-3.595 Y17.560 Z23.000
G0 X-3.595 Y17.560 Z21.000
G1 X-3.595 Y17.560 Z14.296 F999.600
G1 X-2.217 Y15.663 Z14.296 F1999.800
G1 X-3.595 Y14.662 Z14.296 F1999.800
G1 X-3.595 Y17.560 Z14.296 F1999.800
G1 X-5.977 Y20.837 Z14.296 F1999.800
G1 X-5.977 Y12.932 Z14.296 F1999.800
G1 X-8.358 Y11.202 Z14.296 F1999.800
G1 X-8.358 Y24.115 Z14.296 F1999.800
G1 X-10.739 Y27.392 Z14.296 F1999.800
G1 X-10.739 Y9.472 Z14.296 F1999.800
G1 X-13.120 Y7.741 Z14.296 F1999.800
G1 X-13.120 Y30.670 Z14.296 F1999.800
G1 X-15.502 Y33.947 Z14.296 F1999.800
G1 X-15.502 Y8.725 Z14.296 F1999.800
G1 X-17.883 Y12.003 Z14.296 F1999.800
G1 X-17.883 Y37.225 Z14.296 F1999.800
G1 X-20.264 Y40.502 Z14.296 F1999.800
G1 X-20.264 Y15.280 Z14.296 F1999.800
G1 X-22.645 Y18.558 Z14.296 F1999.800
G1 X-22.645 Y43.780 Z14.296 F1999.800
G1 X-25.027 Y47.057 Z14.296 F1999.800
G1 X-25.027 Y21.835 Z14.296 F1999.800
G1 X-27.408 Y25.113 Z14.296 F1999.800
G1 X-27.408 Y50.335 Z14.296 F1999.800
G1 X-29.789 Y53.612 Z14.296 F1999.800
G1 X-29.789 Y28.390 Z14.296 F1999.800
G1 X-32.170 Y31.668 Z14.296 F1999.800
G1 X-32.170 Y56.890 Z14.296 F1999.800
G1 X-34.516 Y60.118 Z14.296 F1999.800
G1 X-34.552 Y60.093 Z14.296 F1999.800
G1 X-34.552 Y34.945 Z14.296 F1999.800
G1 X-36.933 Y38.223 Z14.296 F1999.800
G1 X-36.933 Y58.363 Z14.296 F1999.800
G1 X-39.314 Y56.633 Z14.296 F1999.800
G1 X-39.314 Y41.500 Z14.296 F1999.800
G1 X-41.695 Y44.778 Z14.296 F1999.800
G1 X-41.695 Y54.902 Z14.296 F1999.800
G1 X-44.077 Y53.172 Z14.296 F1999.800
G1 X-44.077 Y48.055 Z14.296 F1999.800
G1 X-46.458 Y51.333 Z14.296 F1999.800
G2 X-46.458 Y51.442 Z14.296 I0.000 J0.055 K0.000 F1999.800
G1 X-46.458 Y51.333 Z14.296 F1999.800
G0 Z23.000
G0 X-13.120 Y-4.843 Z23.000
G0 X-13.120 Y-4.843 Z21.000
G1 X-13.120 Y-4.843 Z14.296 F999.600
G1 X-11.000 Y-11.368 Z14.296 F1999.800
G1 X-13.120 Y-12.057 Z14.296 F1999.800
G1 X-13.120 Y-4.843 Z14.296 F1999.800
G1 X-15.502 Y2.485 Z14.296 F1999.800
G1 X-15.502 Y-12.831 Z14.296 F1999.800
G1 X-17.883 Y-13.604 Z14.296 F1999.800
G1 X-17.883 Y1.983 Z14.296 F1999.800
G1 X-20.264 Y1.210 Z14.296 F1999.800
G1 X-20.264 Y-14.378 Z14.296 F1999.800
G1 X-22.645 Y-15.152 Z14.296 F1999.800
G1 X-22.645 Y0.436 Z14.296 F1999.800
G1 X-25.027 Y-0.338 Z14.296 F1999.800
G1 X-25.027 Y-15.926 Z14.296 F1999.800
G1 X-27.408 Y-16.699 Z14.296 F1999.800
G1 X-27.408 Y-1.111 Z14.296 F1999.800
G1 X-29.789 Y-1.885 Z14.296 F1999.800
G1 X-29.789 Y-17.473 Z14.296 F1999.800
G1 X-32.170 Y-18.247 Z14.296 F1999.800
G1 X-32.170 Y-2.659 Z14.296 F1999.800
G1 X-34.552 Y-3.433 Z14.296 F1999.800
G1 X-34.552 Y-19.020 Z14.296 F1999.800
G1 X-36.933 Y-19.794 Z14.296 F1999.800
G1 X-36.933 Y-4.206 Z14.296 F1999.800
G1 X-39.314 Y-4.980 Z14.296 F1999.800
G1 X-39.314 Y-20.568 Z14.296 F1999.800
G1 X-41.695 Y-21.342 Z14.296 F1999.800
G1 X-41.695 Y-5.754 Z14.296 F1999.800
G1 X-44.077 Y-6.527 Z14.296 F1999.800
G1 X-44.077 Y-22.115 Z14.296 F1999.800
G1 X-46.458 Y-22.889 Z14.296 F1999.800
G1 X-46.458 Y-7.301 Z14.296 F1999.800
G1 X-48.839 Y-8.075 Z14.296 F1999.800
G1 X-48.839 Y-23.663 Z14.296 F1999.800
G1 X-51.220 Y-24.436 Z14.296 F1999.800
G1 X-51.220 Y-8.849 Z14.296 F1999.800
G1 X-53.602 Y-9.622 Z14.296 F1999.800
G1 X-53.602 Y-25.210 Z14.296 F1999.800
G1 X-55.983 Y-25.984 Z14.296 F1999.800
G1 X-55.983 Y-10.396 Z14.296 F1999.800
G1 X-58.364 Y-11.170 Z14.296 F1999.800
G1 X-58.364 Y-26.758 Z14.296 F1999.800
G1 X-60.745 Y-27.531 Z14.296 F1999.800
G1 X-60.745 Y-11.943 Z14.296 F1999.800
G1 X-63.127 Y-12.717 Z14.296 F1999.800
G1 X-63.127 Y-28.305 Z14.296 F1999.800
G1 X-63.261 Y-28.349 Z14.296 F1999.800
G1 X-65.508 Y-21.433 Z14.296 F1999.800
G1 X-65.508 Y-13.491 Z14.296 F1999.800
G1 X-67.842 Y-14.249 Z14.296 F1999.800
G1 X-65.508 Y-21.433 Z14.296 F1999.800
G0 Z23.000
G0 X-5.977 Y-13.975 Z23.000
G0 X-5.977 Y-13.975 Z21.000
G1 X-5.977 Y-13.975 Z14.296 F999.600
G1 X-7.412 Y-13.975 Z14.296 F1999.800
G1 X-7.412 Y-68.925 Z14.296 F1999.800
G1 X-5.977 Y-68.925 Z14.296 F1999.800
G1 X-5.977 Y-13.975 Z14.296 F1999.800
G1 X-3.595 Y-13.975 Z14.296 F1999.800
G1 X-3.595 Y-68.925 Z14.296 F1999.800
G1 X-1.214 Y-68.925 Z14.296 F1999.800
G1 X-1.214 Y-13.975 Z14.296 F1999.800
G1 X1.167 Y-13.975 Z14.296 F1999.800
G1 X1.167 Y-68.925 Z14.296 F1999.800
G1 X3.548 Y-68.925 Z14.296 F1999.800
G1 X3.548 Y-13.975 Z14.296 F1999.800
G1 X5.930 Y-13.975 Z14.296 F1999.800
G1 X5.930 Y-68.925 Z14.296 F1999.800
G1 X7.412 Y-68.925 Z14.296 F1999.800
G1 X7.412 Y-13.975 Z14.296 F1999.800
G1 X5.930 Y-13.975 Z14.296 F1999.800
G0 Z23.000
G0 X13.073 Y-4.988 Z23.000
G0 X13.073 Y-4.988 Z21.000
G1 X13.073 Y-4.988 Z14.296 F999.600
G1 X11.000 Y-11.368 Z14.296 F1999.800
G1 X13.073 Y-12.042 Z14.296 F1999.800
G1 X13.073 Y-4.988 Z14.296 F1999.800
G1 X15.455 Y2.341 Z14.296 F1999.800
G1 X15.455 Y-12.815 Z14.296 F1999.800
G1 X17.836 Y-13.589 Z14.296 F1999.800
G1 X17.836 Y1.999 Z14.296 F1999.800
G1 X20.217 Y1.225 Z14.296 F1999.800
G1 X20.217 Y-14.363 Z14.296 F1999.800
G1 X22.598 Y-15.137 Z14.296 F1999.800
G1 X22.598 Y0.451 Z14.296 F1999.800
G1 X24.980 Y-0.322 Z14.296 F1999.800
G1 X24.980 Y-15.910 Z14.296 F1999.800
G1 X27.361 Y-16.684 Z14.296 F1999.800
G1 X27.361 Y-1.096 Z14.296 F1999.800
G1 X29.742 Y-1.870 Z14.296 F1999.800
G1 X29.742 Y-17.458 Z14.296 F1999.800
G1 X32.123 Y-18.231 Z14.296 F1999.800
G1 X32.123 Y-2.644 Z14.296 F1999.800
G1 X34.505 Y-3.417 Z14.296 F1999.800
G1 X34.505 Y-19.005 Z14.296 F1999.800
G1 X36.886 Y-19.779 Z14.296 F1999.800
G1 X36.886 Y-4.191 Z14.296 F1999.800
G1 X39.267 Y-4.965 Z14.296 F1999.800
G1 X39.267 Y-20.553 Z14.296 F1999.800
G1 X41.648 Y-21.326 Z14.296 F1999.800
G1 X41.648 Y-5.738 Z14.296 F1999.800
G1 X44.030 Y-6.512 Z14.296 F1999.800
G1 X44.030 Y-22.100 Z14.296 F1999.800
G1 X46.411 Y-22.874 Z14.296 F1999.800
G1 X46.411 Y-7.286 Z14.296 F1999.800
G1 X48.792 Y-8.060 Z14.296 F1999.800
G1 X48.792 Y-23.647 Z14.296 F1999.800
G1 X51.173 Y-24.421 Z14.296 F1999.800
G1 X51.173 Y-8.833 Z14.296 F1999.800
G1 X53.555 Y-9.607 Z14.296 F1999.800
G1 X53.555 Y-25.195 Z14.296 F1999.800
G1 X55.936 Y-25.969 Z14.296 F1999.800
G1 X55.936 Y-10.381 Z14.296 F1999.800
G1 X58.317 Y-11.154 Z14.296 F1999.800
G1 X58.317 Y-26.742 Z14.296 F1999.800
G1 X60.698 Y-27.516 Z14.296 F1999.800
G1 X60.698 Y-11.928 Z14.296 F1999.800
G1 X63.080 Y-12.702 Z14.296 F1999.800
G1 X63.080 Y-28.290 Z14.296 F1999.800
G1 X63.261 Y-28.349 Z14.296 F1999.800
G1 X65.461 Y-21.578 Z14.296 F1999.800
G1 X65.461 Y-13.476 Z14.296 F1999.800
G1 X67.842 Y-14.249 Z14.296 F1999.800
G1 X67.842 Y-14.249 Z13.767 F999.600
G1 X65.461 Y-13.476 Z13.767 F1999.800
G1 X65.461 Y-21.578 Z13.767 F1999.800
G1 X63.261 Y-28.349 Z13.767 F1999.800
G1 X63.080 Y-28.290 Z13.767 F1999.800
G1 X63.080 Y-12.702 Z13.767 F1999.800
G1 X60.698 Y-11.928 Z13.767 F1999.800
G1 X60.698 Y-27.516 Z13.767 F1999.800
G1 X58.317 Y-26.742 Z13.767 F1999.800
G1 X58.317 Y-11.154 Z13.767 F1999.800
G1 X55.936 Y-10.381 Z13.767 F1999.800
G1 X55.936 Y-25.969 Z13.767 F1999.800
G1 X53.555 Y-25.195 Z13.767 F1999.800
G1 X53.555 Y-9.607 Z13.767 F1999.800
G1 X51.173 Y-8.833 Z13.767 F1999.800
G1 X51.173 Y-24.421 Z13.767 F1999.800
G1 X48.792 Y-23.647 Z13.767 F1999.800
G1 X48.792 Y-8.060 Z13.767 F1999.800
G1 X46.411 Y-7.286 Z13.767 F1999.800
G1 X46.411 Y-22.874 Z13.767 F1999.800
G1 X44.030 Y-22.100 Z13.767 F1999.800
G1 X44.030 Y-6.512 Z13.767 F1999.800
G1 X41.648 Y-5.738 Z13.767 F1999.800
G1 X41.648 Y-21.326 Z13.767 F1999.800
G1 X39.267 Y-20.553 Z13.767 F1999.800
G1 X39.267 Y-4.965 Z13.767 F1999.800
G1 X36.886 Y-4.191 Z13.767 F1999.800
G1 X36.886 Y-19.779 Z13.767 F1999.800
G1 X34.505 Y-19.005 Z13.767 F1999.800
G1 X34.505 Y-3.417 Z13.767 F1999.800
G1 X32.123 Y-2.644 Z13.767 F1999.800
G1 X32.123 Y-18.231 Z13.767 F1999.800
G1 X29.742 Y-17.458 Z13.767 F1999.800
G1 X29.742 Y-1.870 Z13.767 F1999.800
G1 X27.361 Y-1.096 Z13.767 F1999.800
G1 X27.361 Y-16.684 Z13.767 F1999.800
G1 X24.980 Y-15.910 Z13.767 F1999.800
G1 X24.980 Y-0.322 Z13.767 F1999.800
G1 X22.598 Y0.451 Z13.767 F1999.800
G1 X22.598 Y-15.137 Z13.767 F1999.800
G1 X20.217 Y-14.363 Z13.767 F1999.800
G1 X20.217 Y1.225 Z13.767 F1999.800
G1 X17.836 Y1.999 Z13.767 F1999.800
G1 X17.836 Y-13.589 Z13.767 F1999.800
G1 X15.455 Y-12.815 Z13.767 F1999.800
G1 X15.455 Y2.341 Z13.767 F1999.800
G1 X13.073 Y-4.988 Z13.767 F1999.800
G1 X13.073 Y-12.042 Z13.767 F1999.800
G1 X11.000 Y-11.368 Z13.767 F1999.800
G1 X13.073 Y-4.988 Z13.767 F1999.800
G0 Z23.000
G0 X5.930 Y-13.975 Z23.000
G0 X5.930 Y-13.975 Z21.000
G1 X5.930 Y-13.975 Z13.767 F999.600
G1 X7.412 Y-13.975 Z13.767 F1999.800
G1 X7.412 Y-68.925 Z13.767 F1999.800
G1 X5.930 Y-68.925 Z13.767 F1999.800
G1 X5.930 Y-13.975 Z13.767 F1999.800
G1 X3.548 Y-13.975 Z13.767 F1999.800
G1 X3.548 Y-68.925 Z13.767 F1999.800
G1 X1.167 Y-68.925 Z13.767 F1999.800
G1 X1.167 Y-13.975 Z13.767 F1999.800
G1 X-1.214 Y-13.975 Z13.767 F1999.800
G1 X-1.214 Y-68.925 Z13.767 F1999.800
G1 X-3.595 Y-68.925 Z13.767 F1999.800
G1 X-3.595 Y-13.975 Z13.767 F1999.800
G1 X-5.977 Y-13.975 Z13.767 F1999.800
G1 X-5.977 Y-68.925 Z13.767 F1999.800
G1 X-7.412 Y-68.925 Z13.767 F1999.800
G1 X-7.412 Y-13.975 Z13.767 F1999.800
G1 X-5.977 Y-13.975 Z13.767 F1999.800
G0 Z23.000
G0 X-13.120 Y-4.843 Z23.000
G0 X-13.120 Y-4.843 Z21.000
G1 X-13.120 Y-4.843 Z13.767 F999.600
G1 X-11.000 Y-11.368 Z13.767 F1999.800
G1 X-13.120 Y-12.057 Z13.767 F1999.800
G1 X-13.120 Y-4.843 Z13.767 F1999.800
G1 X-15.502 Y2.485 Z13.767 F1999.800
G1 X-15.502 Y-12.831 Z13.767 F1999.800
G1 X-17.883 Y-13.604 Z13.767 F1999.800
G1 X-17.883 Y1.983 Z13.767 F1999.800
G1 X-20.264 Y1.210 Z13.767 F1999.800
G1 X-20.264 Y-14.378 Z13.767 F1999.800
G1 X-22.645 Y-15.152 Z13.767 F1999.800
G1 X-22.645 Y0.436 Z13.767 F1999.800
G1 X-25.027 Y-0.338 Z13.767 F1999.800
G1 X-25.027 Y-15.926 Z13.767 F1999.800
G1 X-27.408 Y-16.699 Z13.767 F1999.800
G1 X-27.408 Y-1.111 Z13.767 F1999.800
G1 X-29.789 Y-1.885 Z13.767 F1999.800
G1 X-29.789 Y-17.473 Z13.767 F1999.800
G1 X-32.170 Y-18.247 Z13.767 F1999.800
G1 X-32.170 Y-2.659 Z13.767 F1999.800
G1 X-34.552 Y-3.433 Z13.767 F1999.800
G1 X-34.552 Y-19.020 Z13.767 F1999.800
G1 X-36.933 Y-19.794 Z13.767 F1999.800
G1 X-36.933 Y-4.206 Z13.767 F1999.800
G1 X-39.314 Y-4.980 Z13.767 F1999.800
G1 X-39.314 Y-20.568 Z13.767 F1999.800
G1 X-41.695 Y-21.342 Z13.767 F1999.800
G1 X-41.695 Y-5.754 Z13.767 F1999.800
G1 X-44.077 Y-6.527 Z13.767 F1999.800
G1 X-44.077 Y-22.115 Z13.767 F1999.800
G1 X-46.458 Y-22.889 Z13.767 F1999.800
G1 X-46.458 Y-7.301 Z13.767 F1999.800
G1 X-48.839 Y-8.075 Z13.767 F1999.800
G1 X-48.839 Y-23.663 Z13.767 F1999.800
G1 X-51.220 Y-24.436 Z13.767 F1999.800
G1 X-51.220 Y-8.849 Z13.767 F1999.800
G1 X-53.602 Y-9.622 Z13.767 F1999.800
G1 X-53.602 Y-25.210 Z13.767 F1999.800
G1 X-55.983 Y-25.984 Z13.767 F1999.800
G1 X-55.983 Y-10.396 Z13.767 F1999.800
G1 X-58.364 Y-11.170 Z13.767 F1999.800
G1 X-58.364 Y-26.758 Z13.767 F1999.800
G1 X-60.745 Y-27.531 Z13.767 F1999.800
G1 X-60.745 Y-11.943 Z13.767 F1999.800
G1 X-63.127 Y-12.717 Z13.767 F1999.800
G1 X-63.127 Y-28.305 Z13.767 F1999.800
G1 X-63.261 Y-28.349 Z13.767 F1999.800
G1 X-65.508 Y-21.433 Z13.767 F1999.800
G1 X-65.508 Y-13.491 Z13.767 F1999.800
G1 X-67.842 Y-14.249 Z13.767 F1999.800
G1 X-65.508 Y-21.433 Z13.767 F1999.800
G0 Z23.000
G0 X-3.595 Y17.560 Z23.000
G0 X-3.595 Y17.560 Z21.000
G1 X-3.595 Y17.560 Z13.767 F999.600
G1 X-2.217 Y15.663 Z13.767 F1999.800
G1 X-3.595 Y14.662 Z13.767 F1999.800
G1 X-3.595 Y17.560 Z13.767 F1999.800
G1 X-5.977 Y20.837 Z13.767 F1999.800
G1 X-5.977 Y12.932 Z13.767 F1999.800
G1 X-8.358 Y11.202 Z13.767 F1999.800
G1 X-8.358 Y24.115 Z13.767 F1999.800
G1 X-10.739 Y27.392 Z13.767 F1999.800
G1 X-10.739 Y9.472 Z13.767 F1999.800
G1 X-13.120 Y7.741 Z13.767 F1999.800
G1 X-13.120 Y30.670 Z13.767 F1999.800
G1 X-15.502 Y33.947 Z13.767 F1999.800
G1 X-15.502 Y8.725 Z13.767 F1999.800
G1 X-17.883 Y12.003 Z13.767 F1999.800
G1 X-17.883 Y37.225 Z13.767 F1999.800
G1 X-20.264 Y40.502 Z13.767 F1999.800
G1 X-20.264 Y15.280 Z13.767 F1999.800
G1 X-22.645 Y18.558 Z13.767 F1999.800
G1 X-22.645 Y43.780 Z13.767 F1999.800
G1 X-25.027 Y47.057 Z13.767 F1999.800
G1 X-25.027 Y21.835 Z13.767 F1999.800
G1 X-27.408 Y25.113 Z13.767 F1999.800
G1 X-27.408 Y50.335 Z13.767 F1999.800
G1 X-29.789 Y53.612 Z13.767 F1999.800
G1 X-29.789 Y28.390 Z13.767 F1999.800
G1 X-32.170 Y31.668 Z13.767 F1999.800
G1 X-32.170 Y56.890 Z13.767 F1999.800
G1 X-34.516 Y60.118 Z13.767 F1999.800
G1 X-34.552 Y60.093 Z13.767 F1999.800
G1 X-34.552 Y34.945 Z13.767 F1999.800
G1 X-36.933 Y38.223 Z13.767 F1999.800
G1 X-36.933 Y58.363 Z13.767 F1999.800
G1 X-39.314 Y56.633 Z13.767 F1999.800
G1 X-39.314 Y41.500 Z13.767 F1999.800
G1 X-41.695 Y44.778 Z13.767 F1999.800
G1 X-41.695 Y54.902 Z13.767 F1999.800
G1 X-44.077 Y53.172 Z13.767 F1999.800
G1 X-44.077 Y48.055 Z13.767 F1999.800
G1 X-46.458 Y51.333 Z13.767 F1999.800
G2 X-46.458 Y51.442 Z13.767 I0.000 J0.055 K0.000 F1999.800
G1 X-46.458 Y51.333 Z13.767 F1999.800
G0 Z23.000
G0 X3.548 Y17.495 Z23.000
G0 X3.548 Y17.495 Z21.000
G1 X3.548 Y17.495 Z13.767 F999.600
G1 X3.548 Y14.696 Z13.767 F1999.800
G1 X2.217 Y15.663 Z13.767 F1999.800
G1 X3.548 Y17.495 Z13.767 F1999.800
G1 X5.930 Y20.772 Z13.767 F1999.800
G1 X5.930 Y12.966 Z13.767 F1999.800
G1 X8.311 Y11.236 Z13.767 F1999.800
G1 X8.311 Y24.050 Z13.767 F1999.800
G1 X10.692 Y27.327 Z13.767 F1999.800
G1 X10.692 Y9.506 Z13.767 F1999.800
G1 X13.073 Y7.776 Z13.767 F1999.800
G1 X13.073 Y30.605 Z13.767 F1999.800
G1 X15.455 Y33.882 Z13.767 F1999.800
G1 X15.455 Y8.661 Z13.767 F1999.800
G1 X17.836 Y11.938 Z13.767 F1999.800
G1 X17.836 Y37.160 Z13.767 F1999.800
G1 X20.217 Y40.437 Z13.767 F1999.800
G1 X20.217 Y15.216 Z13.767 F1999.800
G1 X22.598 Y18.493 Z13.767 F1999.800
G1 X22.598 Y43.715 Z13.767 F1999.800
G1 X24.980 Y46.992 Z13.767 F1999.800
G1 X24.980 Y21.771 Z13.767 F1999.800
G1 X27.361 Y25.048 Z13.767 F1999.800
G1 X27.361 Y50.270 Z13.767 F1999.800
G1 X29.742 Y53.547 Z13.767 F1999.800
G1 X29.742 Y28.326 Z13.767 F1999.800
G1 X32.123 Y31.603 Z13.767 F1999.800
G1 X32.123 Y56.825 Z13.767 F1999.800
G1 X34.505 Y60.102 Z13.767 F1999.800
G1 X34.505 Y34.881 Z13.767 F1999.800
G1 X36.886 Y38.158 Z13.767 F1999.800
G1 X36.886 Y58.397 Z13.767 F1999.800
G1 X39.267 Y56.667 Z13.767 F1999.800
G1 X39.267 Y41.436 Z13.767 F1999.800
G1 X41.648 Y44.713 Z13.767 F1999.800
G1 X41.648 Y54.937 Z13.767 F1999.800
G1 X44.030 Y53.207 Z13.767 F1999.800
G1 X44.030 Y47.991 Z13.767 F1999.800
G1 X46.411 Y51.268 Z13.767 F1999.800
G1 X46.411 Y51.476 Z13.767 F1999.800
G1 X46.510 Y51.405 Z13.767 F1999.800
G1 X46.411 Y51.268 Z13.767 F1999.800
G1 X46.411 Y51.268 Z13.238 F999.600
G1 X46.510 Y51.405 Z13.238 F1999.800
G1 X46.411 Y51.476 Z13.238 F1999.800
G1 X46.411 Y51.268 Z13.238 F1999.800
G1 X44.030 Y47.991 Z13.238 F1999.800
G1 X44.030 Y53.207 Z13.238 F1999.800
G1 X41.648 Y54.937 Z13.238 F1999.800
G1 X41.648 Y44.713 Z13.238 F1999.800
G1 X39.267 Y41.436 Z13.238 F1999.800
G1 X39.267 Y56.667 Z13.238 F1999.800
G1 X36.886 Y58.397 Z13.238 F1999.800
G1 X36.886 Y38.158 Z13.238 F1999.800
G1 X34.505 Y34.881 Z13.238 F1999.800
G1 X34.505 Y60.102 Z13.238 F1999.800
G1 X32.123 Y56.825 Z13.238 F1999.800
G1 X32.123 Y31.603 Z13.238 F1999.800
G1 X29.742 Y28.326 Z13.238 F1999.800
G1 X29.742 Y53.547 Z13.238 F1999.800
G1 X27.361 Y50.270 Z13.238 F1999.800
G1 X27.361 Y25.048 Z13.238 F1999.800
G1 X24.980 Y21.771 Z13.238 F1999.800
G1 X24.980 Y46.992 Z13.238 F1999.800
G1 X22.598 Y43.715 Z13.238 F1999.800
G1 X22.598 Y18.493 Z13.238 F1999.800
G1 X20.217 Y15.216 Z13.238 F1999.800
G1 X20.217 Y40.437 Z13.238 F1999.800
G1 X17.836 Y37.160 Z13.238 F1999.800
G1 X17.836 Y11.938 Z13.238 F1999.800
G1 X15.455 Y8.661 Z13.238 F1999.800
G1 X15.455 Y33.882 Z13.238 F1999.800
G1 X13.073 Y30.605 Z13.238 F1999.800
G1 X13.073 Y7.776 Z13.238 F1999.800
G1 X10.692 Y9.506 Z13.238 F1999.800
G1 X10.692 Y27.327 Z13.238 F1999.800
G1 X8.311 Y24.050 Z13.238 F1999.800
G1 X8.311 Y11.236 Z13.238 F1999.800
G1 X5.930 Y12.966 Z13.238 F1999.800
G1 X5.930 Y20.772 Z13.238 F1999.800
G1 X3.548 Y17.495 Z13.238 F1999.800
G1 X2.217 Y15.663 Z13.238 F1999.800
G1 X3.548 Y14.696 Z13.238 F1999.800
G1 X3.548 Y17.495 Z13.238 F1999.800
G0 Z23.000
G0 X-3.595 Y17.560 Z23.000
G0 X-3.595 Y17.560 Z21.000
G1 X-3.595 Y17.560 Z13.238 F999.600
G1 X-2.217 Y15.663 Z13.238 F1999.800
G1 X-3.595 Y14.662 Z13.238 F1999.800
G1 X-3.595 Y17.560 Z13.238 F1999.800
G1 X-5.977 Y20.837 Z13.238 F1999.800
G1 X-5.977 Y12.932 Z13.238 F1999.800
G1 X-8.358 Y11.202 Z13.238 F1999.800
G1 X-8.358 Y24.115 Z13.238 F1999.800
G1 X-10.739 Y27.392 Z13.238 F1999.800
G1 X-10.739 Y9.472 Z13.238 F1999.800
G1 X-13.120 Y7.741 Z13.238 F1999.800
G1 X-13.120 Y30.670 Z13.238 F1999.800
G1 X-15.502 Y33.947 Z13.238 F1999.800
G1 X-15.502 Y8.725 Z13.238 F1999.800
G1 X-17.883 Y12.003 Z13.238 F1999.800
G1 X-17.883 Y37.225 Z13.238 F1999.800
G1 X-20.264 Y40.502 Z13.238 F1999.800
G1 X-20.264 Y15.280 Z13.238 F1999.800
G1 X-22.645 Y18.558 Z13.238 F1999.800
G1 X-22.645 Y43.780 Z13.238 F1999.800
G1 X-25.027 Y47.057 Z13.238 F1999.800
G1 X-25.027 Y21.835 Z13.238 F1999.800
G1 X-27.408 Y25.113 Z13.238 F1999.800
G1 X-27.408 Y50.335 Z13.238 F1999.800
G1 X-29.789 Y53.612 Z13.238 F1999.800
G1 X-29.789 Y28.390 Z13.238 F1999.800
G1 X-32.170 Y31.668 Z13.238 F1999.800
G1 X-32.170 Y56.890 Z13.238 F1999.800
G1 X-34.516 Y60.118 Z13.238 F1999.800
G1 X-34.552 Y60.093 Z13.238 F1999.800
G1 X-34.552 Y34.945 Z13.238 F1999.800
G1 X-36.933 Y38.223 Z13.238 F1999.800
G1 X-36.933 Y58.363 Z13.238 F1999.800
G1 X-39.314 Y56.633 Z13.238 F1999.800
G1 X-39.314 Y41.500 Z13.238 F1999.800
G1 X-41.695 Y44.778 Z13.238 F1999.800
G1 X-41.695 Y54.902 Z13.238 F1999.800
G1 X-44.077 Y53.172 Z13.238 F1999.800
G1 X-44.077 Y48.055 Z13.238 F1999.800
G1 X-46.458 Y51.333 Z13.238 F1999.800
G2 X-46.458 Y51.442 Z13.238 I0.000 J0.055 K0.000 F1999.800
G1 X-46.458 Y51.333 Z13.238 F1999.800
G0 Z23.000
G0 X-13.120 Y-4.843 Z23.000
G0 X-13.120 Y-4.843 Z21.000
G1 X-13.120 Y-4.843 Z13.238 F999.600
G1 X-11.000 Y-11.368 Z13.238 F1999.800
G1 X-13.120 Y-12.057 Z13.238 F1999.800
G1 X-13.120 Y-4.843 Z13.238 F1999.800
G1 X-15.502 Y2.485 Z13.238 F1999.800
G1 X-15.502 Y-12.831 Z13.238 F1999.800
G1 X-17.883 Y-13.604 Z13.238 F1999.800
G1 X-17.883 Y1.983 Z13.238 F1999.800
G1 X-20.264 Y1.210 Z13.238 F1999.800
G1 X-20.264 Y-14.378 Z13.238 F1999.800
G1 X-22.645 Y-15.152 Z13.238 F1999.800
G1 X-22.645 Y0.436 Z13.238 F1999.800
G1 X-25.027 Y-0.338 Z13.238 F1999.800
G1 X-25.027 Y-15.926 Z13.238 F1999.800
G1 X-27.408 Y-16.699 Z13.238 F1999.800
G1 X-27.408 Y-1.111 Z13.238 F1999.800
G1 X-29.789 Y-1.885 Z13.238 F1999.800
G1 X-29.789 Y-17.473 Z13.238 F1999.800
G1 X-32.170 Y-18.247 Z13.238 F1999.800
G1 X-32.170 Y-2.659 Z13.238 F1999.800
G1 X-34.552 Y-3.433 Z13.238 F1999.800
G1 X-34.552 Y-19.020 Z13.238 F1999.800
G1 X-36.933 Y-19.794 Z13.238 F1999.800
G1 X-36.933 Y-4.206 Z13.238 F1999.800
G1 X-39.314 Y-4.980 Z13.238 F1999.800
G1 X-39.314 Y-20.568 Z13.238 F1999.800
G1 X-41.695 Y-21.342 Z13.238 F1999.800
G1 X-41.695 Y-5.754 Z13.238 F1999.800
G1 X-44.077 Y-6.527 Z13.238 F1999.800
G1 X-44.077 Y-22.115 Z13.238 F1999.800
G1 X-46.458 Y-22.889 Z13.238 F1999.800
G1 X-46.458 Y-7.301 Z13.238 F1999.800
G1 X-48.839 Y-8.075 Z13.238 F1999.800
G1 X-48.839 Y-23.663 Z13.238 F1999.800
G1 X-51.220 Y-24.436 Z13.238 F1999.800
G1 X-51.220 Y-8.849 Z13.238 F1999.800
G1 X-53.602 Y-9.622 Z13.238 F1999.800
G1 X-53.602 Y-25.210 Z13.238 F1999.800
G1 X-55.983 Y-25.984 Z13.238 F1999.800
G1 X-55.983 Y-10.396 Z13.238 F1999.800
G1 X-58.364 Y-11.170 Z13.238 F1999.800
G1 X-58.364 Y-26.758 Z13.238 F1999.800
G1 X-60.745 Y-27.531 Z13.238 F1999.800
G1 X-60.745 Y-11.943 Z13.238 F1999.800
G1 X-63.127 Y-12.717 Z13.238 F1999.800
G1 X-63.127 Y-28.305 Z13.238 F1999.800
G1 X-63.261 Y-28.349 Z13.238 F1999.800
G1 X-65.508 Y-21.433 Z13.238 F1999.800
G1 X-65.508 Y-13.491 Z13.238 F1999.800
G1 X-67.842 Y-14.249 Z13.238 F1999.800
G1 X-65.508 Y-21.433 Z13.238 F1999.800
G0 Z23.000
G0 X-5.977 Y-13.975 Z23.000
G0 X-5.977 Y-13.975 Z21.000
G1 X-5.977 Y-13.975 Z13.238 F999.600
G1 X-7.412 Y-13.975 Z13.238 F1999.800
G1 X-7.412 Y-68.925 Z13.238 F1999.800
G1 X-5.977 Y-68.925 Z13.238 F1999.800
G1 X-5.977 Y-13.975 Z13.238 F1999.800
G1 X-3.595 Y-13.975 Z13.238 F1999.800
G1 X-3.595 Y-68.925 Z13.238 F1999.800
G1 X-1.214 Y-68.925 Z13.238 F1999.800
G1 X-1.214 Y-13.975 Z13.238 F1999.800
G1 X1.167 Y-13.975 Z13.238 F1999.800
G1 X1.167 Y-68.925 Z13.238 F1999.800
G1 X3.548 Y-68.925 Z13.238 F1999.800
G1 X3.548 Y-13.975 Z13.238 F1999.800
G1 X5.930 Y-13.975 Z13.238 F1999.800
G1 X5.930 Y-68.925 Z13.238 F1999.800
G1 X7.412 Y-68.925 Z13.238 F1999.800
G1 X7.412 Y-13.975 Z13.238 F1999.800
G1 X5.930 Y-13.975 Z13.238 F1999.800
G0 Z23.000
G0 X13.073 Y-4.988 Z23.000
G0 X13.073 Y-4.988 Z21.000
G1 X13.073 Y-4.988 Z13.238 F999.600
G1 X11.000 Y-11.368 Z13.238 F1999.800
G1 X13.073 Y-12.042 Z13.238 F1999.800
G1 X13.073 Y-4.988 Z13.238 F1999.800
G1 X15.455 Y2.341 Z13.238 F1999.800
G1 X15.455 Y-12.815 Z13.238 F1999.800
G1 X17.836 Y-13.589 Z13.238 F1999.800
G1 X17.836 Y1.999 Z13.238 F1999.800
G1 X20.217 Y1.225 Z13.238 F1999.800
G1 X20.217 Y-14.363 Z13.238 F1999.800
G1 X22.598 Y-15.137 Z13.238 F1999.800
G1 X22.598 Y0.451 Z13.238 F1999.800
G1 X24.980 Y-0.322 Z13.238 F1999.800
G1 X24.980 Y-15.910 Z13.238 F1999.800
G1 X27.361 Y-16.684 Z13.238 F1999.800
G1 X27.361 Y-1.096 Z13.238 F1999.800
G1 X29.742 Y-1.870 Z13.238 F1999.800
G1 X29.742 Y-17.458 Z13.238 F1999.800
G1 X32.123 Y-18.231 Z13.238 F1999.800
G1 X32.123 Y-2.644 Z13.238 F1999.800
G1 X34.505 Y-3.417 Z13.238 F1999.800
G1 X34.505 Y-19.005 Z13.238 F1999.800
G1 X36.886 Y-19.779 Z13.238 F1999.800
G1 X36.886 Y-4.191 Z13.238 F1999.800
G1 X39.267 Y-4.965 Z13.238 F1999.800
G1 X39.267 Y-20.553 Z13.238 F1999.800
G1 X41.648 Y-21.326 Z13.238 F1999.800
G1 X41.648 Y-5.738 Z13.238 F1999.800
G1 X44.030 Y-6.512 Z13.238 F1999.800
G1 X44.030 Y-22.100 Z13.238 F1999.800
G1 X46.411 Y-22.874 Z13.238 F1999.800
G1 X46.411 Y-7.286 Z13.238 F1999.800
G1 X48.792 Y-8.060 Z13.238 F1999.800
G1 X48.792 Y-23.647 Z13.238 F1999.800
G1 X51.173 Y-24.421 Z13.238 F1999.800
G1 X51.173 Y-8.833 Z13.238 F1999.800
G1 X53.555 Y-9.607 Z13.238 F1999.800
G1 X53.555 Y-25.195 Z13.238 F1999.800
G1 X55.936 Y-25.969 Z13.238 F1999.800
G1 X55.936 Y-10.381 Z13.238 F1999.800
G1 X58.317 Y-11.154 Z13.238 F1999.800
G1 X58.317 Y-26.742 Z13.238 F1999.800
G1 X60.698 Y-27.516 Z13.238 F1999.800
G1 X60.698 Y-11.928 Z13.238 F1999.800
G1 X63.080 Y-12.702 Z13.238 F1999.800
G1 X63.080 Y-28.290 Z13.238 F1999.800
G1 X63.261 Y-28.349 Z13.238 F1999.800
G1 X65.461 Y-21.578 Z13.238 F1999.800
G1 X65.461 Y-13.476 Z13.238 F1999.800
G1 X67.842 Y-14.249 Z13.238 F1999.800
G1 X67.842 Y-14.249 Z13.000 F999.600
G1 X65.461 Y-13.476 Z13.000 F1999.800
G1 X65.461 Y-21.578 Z13.000 F1999.800
G1 X63.261 Y-28.349 Z13.000 F1999.800
G1 X63.080 Y-28.290 Z13.000 F1999.800
G1 X63.080 Y-12.702 Z13.000 F1999.800
G1 X60.698 Y-11.928 Z13.000 F1999.800
G1 X60.698 Y-27.516 Z13.000 F1999.800
G1 X58.317 Y-26.742 Z13.000 F1999.800
G1 X58.317 Y-11.154 Z13.000 F1999.800
G1 X55.936 Y-10.381 Z13.000 F1999.800
G1 X55.936 Y-25.969 Z13.000 F1999.800
G1 X53.555 Y-25.195 Z13.000 F1999.800
G1 X53.555 Y-9.607 Z13.000 F1999.800
G1 X51.173 Y-8.833 Z13.000 F1999.800
G1 X51.173 Y-24.421 Z13.000 F1999.800
G1 X48.792 Y-23.647 Z13.000 F1999.800
G1 X48.792 Y-8.060 Z13.000 F1999.800
G1 X46.411 Y-7.286 Z13.000 F1999.800
G1 X46.411 Y-22.874 Z13.000 F1999.800
G1 X44.030 Y-22.100 Z13.000 F1999.800
G1 X44.030 Y-6.512 Z13.000 F1999.800
G1 X41.648 Y-5.738 Z13.000 F1999.800
G1 X41.648 Y-21.326 Z13.000 F1999.800
G1 X39.267 Y-20.553 Z13.000 F1999.800
G1 X39.267 Y-4.965 Z13.000 F1999.800
G1 X36.886 Y-4.191 Z13.000 F1999.800
G1 X36.886 Y-19.779 Z13.000 F1999.800
G1 X34.505 Y-19.005 Z13.000 F1999.800
G1 X34.505 Y-3.417 Z13.000 F1999.800
G1 X32.123 Y-2.644 Z13.000 F1999.800
G1 X32.123 Y-18.231 Z13.000 F1999.800
G1 X29.742 Y-17.458 Z13.000 F1999.800
G1 X29.742 Y-1.870 Z13.000 F1999.800
G1 X27.361 Y-1.096 Z13.000 F1999.800
G1 X27.361 Y-16.684 Z13.000 F1999.800
G1 X24.980 Y-15.910 Z13.000 F1999.800
G1 X24.980 Y-0.322 Z13.000 F1999.800
G1 X22.598 Y0.451 Z13.000 F1999.800
G1 X22.598 Y-15.137 Z13.000 F1999.800
G1 X20.217 Y-14.363 Z13.000 F1999.800
G1 X20.217 Y1.225 Z13.000 F1999.800
G1 X17.836 Y1.999 Z13.000 F1999.800
G1 X17.836 Y-13.589 Z13.000 F1999.800
G1 X15.455 Y-12.815 Z13.000 F1999.800
G1 X15.455 Y2.341 Z13.000 F1999.800
G1 X13.073 Y-4.988 Z13.000 F1999.800
G1 X13.073 Y-12.042 Z13.000 F1999.800
G1 X11.000 Y-11.368 Z13.000 F1999.800
G1 X13.073 Y-4.988 Z13.000 F1999.800
G0 Z23.000
G0 X5.930 Y-13.975 Z23.000
G0 X5.930 Y-13.975 Z21.000
G1 X5.930 Y-13.975 Z13.000 F999.600
G1 X7.412 Y-13.975 Z13.000 F1999.800
G1 X7.412 Y-68.925 Z13.000 F1999.800
G1 X5.930 Y-68.925 Z13.000 F1999.800
G1 X5.930 Y-13.975 Z13.000 F1999.800
G1 X3.548 Y-13.975 Z13.000 F1999.800
G1 X3.548 Y-68.925 Z13.000 F1999.800
G1 X1.167 Y-68.925 Z13.000 F1999.800
G1 X1.167 Y-13.975 Z13.000 F1999.800
G1 X-1.214 Y-13.975 Z13.000 F1999.800
G1 X-1.214 Y-68.925 Z13.000 F1999.800
G1 X-3.595 Y-68.925 Z13.000 F1999.800
G1 X-3.595 Y-13.975 Z13.000 F1999.800
G1 X-5.977 Y-13.975 Z13.000 F1999.800
G1 X-5.977 Y-68.925 Z13.000 F1999.800
G1 X-7.412 Y-68.925 Z13.000 F1999.800
G1 X-7.412 Y-13.975 Z13.000 F1999.800
G1 X-5.977 Y-13.975 Z13.000 F1999.800
G0 Z23.000
G0 X-13.120 Y-4.843 Z23.000
G0 X-13.120 Y-4.843 Z21.000
G1 X-13.120 Y-4.843 Z13.000 F999.600
G1 X-11.000 Y-11.368 Z13.000 F1999.800
G1 X-13.120 Y-12.057 Z13.000 F1999.800
G1 X-13.120 Y-4.843 Z13.000 F1999.800
G1 X-15.502 Y2.485 Z13.000 F1999.800
G1 X-15.502 Y-12.831 Z13.000 F1999.800
G1 X-17.883 Y-13.604 Z13.000 F1999.800
G1 X-17.883 Y1.983 Z13.000 F1999.800
G1 X-20.264 Y1.210 Z13.000 F1999.800
G1 X-20.264 Y-14.378 Z13.000 F1999.800
G1 X-22.645 Y-15.152 Z13.000 F1999.800
G1 X-22.645 Y0.436 Z13.000 F1999.800
G1 X-25.027 Y-0.338 Z13.000 F1999.800
G1 X-25.027 Y-15.926 Z13.000 F1999.800
G1 X-27.408 Y-16.699 Z13.000 F1999.800
G1 X-27.408 Y-1.111 Z13.000 F1999.800
G1 X-29.789 Y-1.885 Z13.000 F1999.800
G1 X-29.789 Y-17.473 Z13.000 F1999.800
G1 X-32.170 Y-18.247 Z13.000 F1999.800
G1 X-32.170 Y-2.659 Z13.000 F1999.800
G1 X-34.552 Y-3.433 Z13.000 F1999.800
G1 X-34.552 Y-19.020 Z13.000 F1999.800
G1 X-36.933 Y-19.794 Z13.000 F1999.800
G1 X-36.933 Y-4.206 Z13.000 F1999.800
G1 X-39.314 Y-4.980 Z13.000 F1999.800
G1 X-39.314 Y-20.568 Z13.000 F1999.800
G1 X-41.695 Y-21.342 Z13.000 F1999.800
G1 X-41.695 Y-5.754 Z13.000 F1999.800
G1 X-44.077 Y-6.527 Z13.000 F1999.800
G1 X-44.077 Y-22.115 Z13.000 F1999.800
G1 X-46.458 Y-22.889 Z13.000 F1999.800
G1 X-46.458 Y-7.301 Z13.000 F1999.800
G1 X-48.839 Y-8.075 Z13.000 F1999.800
G1 X-48.839 Y-23.663 Z13.000 F1999.800
G1 X-51.220 Y-24.436 Z13.000 F1999.800
G1 X-51.220 Y-8.849 Z13.000 F1999.800
G1 X-53.602 Y-9.622 Z13.000 F1999.800
G1 X-53.602 Y-25.210 Z13.000 F1999.800
G1 X-55.983 Y-25.984 Z13.000 F1999.800
G1 X-55.983 Y-10.396 Z13.000 F1999.800
G1 X-58.364 Y-11.170 Z13.000 F1999.800
G1 X-58.364 Y-26.758 Z13.000 F1999.800
G1 X-60.745 Y-27.531 Z13.000 F1999.800
G1 X-60.745 Y-11.943 Z13.000 F1999.800
G1 X-63.127 Y-12.717 Z13.000 F1999.800
G1 X-63.127 Y-28.305 Z13.000 F1999.800
G1 X-63.261 Y-28.349 Z13.000 F1999.800
G1 X-65.508 Y-21.433 Z13.000 F1999.800
G1 X-65.508 Y-13.491 Z13.000 F1999.800
G1 X-67.842 Y-14.249 Z13.000 F1999.800
G1 X-65.508 Y-21.433 Z13.000 F1999.800
G0 Z23.000
G0 X-3.595 Y17.560 Z23.000
G0 X-3.595 Y17.560 Z21.000
G1 X-3.595 Y17.560 Z13.000 F999.600
G1 X-2.217 Y15.663 Z13.000 F1999.800
G1 X-3.595 Y14.662 Z13.000 F1999.800
G1 X-3.595 Y17.560 Z13.000 F1999.800
G1 X-5.977 Y20.837 Z13.000 F1999.800
G1 X-5.977 Y12.932 Z13.000 F1999.800
G1 X-8.358 Y11.202 Z13.000 F1999.800
G1 X-8.358 Y24.115 Z13.000 F1999.800
G1 X-10.739 Y27.392 Z13.000 F1999.800
G1 X-10.739 Y9.472 Z13.000 F1999.800
G1 X-13.120 Y7.741 Z13.000 F1999.800
G1 X-13.120 Y30.670 Z13.000 F1999.800
G1 X-15.502 Y33.947 Z13.000 F1999.800
G1 X-15.502 Y8.725 Z13.000 F1999.800
G1 X-17.883 Y12.003 Z13.000 F1999.800
G1 X-17.883 Y37.225 Z13.000 F1999.800
G1 X-20.264 Y40.502 Z13.000 F1999.800
G1 X-20.264 Y15.280 Z13.000 F1999.800
G1 X-22.645 Y18.558 Z13.000 F1999.800
G1 X-22.645 Y43.780 Z13.000 F1999.800
G1 X-25.027 Y47.057 Z13.000 F1999.800
G1 X-25.027 Y21.835 Z13.000 F1999.800
G1 X-27.408 Y25.113 Z13.000 F1999.800
G1 X-27.408 Y50.335 Z13.000 F1999.800
G1 X-29.789 Y53.612 Z13.000 F1999.800
G1 X-29.789 Y28.390 Z13.000 F1999.800
G1 X-32.170 Y31.668 Z13.000 F1999.800
G1 X-32.170 Y56.890 Z13.000 F1999.800
G1 X-34.516 Y60.118 Z13.000 F1999.800
G1 X-34.552 Y60.093 Z13.000 F1999.800
G1 X-34.552 Y34.945 Z13.000 F1999.800
G1 X-36.933 Y38.223 Z13.000 F1999.800
G1 X-36.933 Y58.363 Z13.000 F1999.800
G1 X-39.314 Y56.633 Z13.000 F1999.800
G1 X-39.314 Y41.500 Z13.000 F1999.800
G1 X-41.695 Y44.778 Z13.000 F1999.800
G1 X-41.695 Y54.902 Z13.000 F1999.800
G1 X-44.077 Y53.172 Z13.000 F1999.800
G1 X-44.077 Y48.055 Z13.000 F1999.800
G1 X-46.458 Y51.333 Z13.000 F1999.800
G2 X-46.458 Y51.442 Z13.000 I0.000 J0.055 K0.000 F1999.800
G1 X-46.458 Y51.333 Z13.000 F1999.800
G0 Z23.000
G0 X3.548 Y17.495 Z23.000
G0 X3.548 Y17.495 Z21.000
G1 X3.548 Y17.495 Z13.000 F999.600
G1 X3.548 Y14.696 Z13.000 F1999.800
G1 X2.217 Y15.663 Z13.000 F1999.800
G1 X3.548 Y17.495 Z13.000 F1999.800
G1 X5.930 Y20.772 Z13.000 F1999.800
G1 X5.930 Y12.966 Z13.000 F1999.800
G1 X8.311 Y11.236 Z13.000 F1999.800
G1 X8.311 Y24.050 Z13.000 F1999.800
G1 X10.692 Y27.327 Z13.000 F1999.800
G1 X10.692 Y9.506 Z13.000 F1999.800
G1 X13.073 Y7.776 Z13.000 F1999.800
G1 X13.073 Y30.605 Z13.000 F1999.800
G1 X15.455 Y33.882 Z13.000 F1999.800
G1 X15.455 Y8.661 Z13.000 F1999.800
G1 X17.836 Y11.938 Z13.000 F1999.800
G1 X17.836 Y37.160 Z13.000 F1999.800
G1 X20.217 Y40.437 Z13.000 F1999.800
G1 X20.217 Y15.216 Z13.000 F1999.800
G1 X22.598 Y18.493 Z13.000 F1999.800
G1 X22.598 Y43.715 Z13.000 F1999.800
G1 X24.980 Y46.992 Z13.000 F1999.800
G1 X24.980 Y21.771 Z13.000 F1999.800
G1 X27.361 Y25.048 Z13.000 F1999.800
G1 X27.361 Y50.270 Z13.000 F1999.800
G1 X29.742 Y53.547 Z13.000 F1999.800
G1 X29.742 Y28.326 Z13.000 F1999.800
G1 X32.123 Y31.603 Z13.000 F1999.800
G1 X32.123 Y56.825 Z13.000 F1999.800
G1 X34.505 Y60.102 Z13.000 F1999.800
G1 X34.505 Y34.881 Z13.000 F1999.800
G1 X36.886 Y38.158 Z13.000 F1999.800
G1 X36.886 Y58.397 Z13.000 F1999.800
G1 X39.267 Y56.667 Z13.000 F1999.800
G1 X39.267 Y41.436 Z13.000 F1999.800
G1 X41.648 Y44.713 Z13.000 F1999.800
G1 X41.648 Y54.937 Z13.000 F1999.800
G1 X44.030 Y53.207 Z13.000 F1999.800
G1 X44.030 Y47.991 Z13.000 F1999.800
G1 X46.411 Y51.268 Z13.000 F1999.800
G1 X46.411 Y51.476 Z13.000 F1999.800
G1 X46.510 Y51.405 Z13.000 F1999.800
G1 X46.411 Y51.268 Z13.000 F1999.800
G0 Z23.000
G0 Z23.000
G0 X80.310 Y97.926
G0 X80.310 Y97.926 Z21.000
G1 X80.310 Y97.926 Z17.471 F999.600
G1 X79.742 Y97.144 Z17.471 F1999.800
G1 X78.666 Y97.926 Z17.471 F1999.800
G1 X80.310 Y97.926 Z17.471 F1999.800
G1 X82.040 Y100.307 Z17.471 F1999.800
G1 X75.388 Y100.307 Z17.471 F1999.800
G1 X72.111 Y102.689 Z17.471 F1999.800
G1 X83.770 Y102.689 Z17.471 F1999.800
G1 X85.500 Y105.070 Z17.471 F1999.800
G1 X68.833 Y105.070 Z17.471 F1999.800
G1 X67.748 Y105.858 Z17.471 F1999.800
G1 X68.906 Y107.451 Z17.471 F1999.800
G1 X87.230 Y107.451 Z17.471 F1999.800
G1 X88.960 Y109.832 Z17.471 F1999.800
G1 X70.636 Y109.832 Z17.471 F1999.800
G1 X72.366 Y112.214 Z17.471 F1999.800
G1 X90.690 Y112.214 Z17.471 F1999.800
G1 X92.420 Y114.595 Z17.471 F1999.800
G1 X74.096 Y114.595 Z17.471 F1999.800
G1 X75.826 Y116.976 Z17.471 F1999.800
G1 X94.151 Y116.976 Z17.471 F1999.800
G1 X95.881 Y119.357 Z17.471 F1999.800
G1 X77.556 Y119.357 Z17.471 F1999.800
G1 X79.286 Y121.739 Z17.471 F1999.800
G1 X97.611 Y121.739 Z17.471 F1999.800
G1 X99.341 Y124.120 Z17.471 F1999.800
G1 X81.016 Y124.120 Z17.471 F1999.800
G1 X82.746 Y126.501 Z17.471 F1999.800
G1 X101.071 Y126.501 Z17.471 F1999.800
G1 X102.801 Y128.882 Z17.471 F1999.800
G1 X84.476 Y128.882 Z17.471 F1999.800
G1 X86.206 Y131.264 Z17.471 F1999.800
G1 X104.531 Y131.264 Z17.471 F1999.800
G1 X106.261 Y133.645 Z17.471 F1999.800
G1 X87.936 Y133.645 Z17.471 F1999.800
G1 X89.666 Y136.026 Z17.471 F1999.800
G1 X107.991 Y136.026 Z17.471 F1999.800
G1 X109.721 Y138.407 Z17.471 F1999.800
G1 X91.397 Y138.407 Z17.471 F1999.800
G1 X93.127 Y140.789 Z17.471 F1999.800
G1 X111.451 Y140.789 Z17.471 F1999.800
G1 X112.041 Y141.600 Z17.471 F1999.800
G1 X109.879 Y143.170 Z17.471 F1999.800
G1 X94.857 Y143.170 Z17.471 F1999.800
G1 X96.587 Y145.551 Z17.471 F1999.800
G1 X106.602 Y145.551 Z17.471 F1999.800
G1 X103.324 Y147.932 Z17.471 F1999.800
G1 X98.317 Y147.932 Z17.471 F1999.800
G1 X100.047 Y150.314 Z17.471 F1999.800
G1 X100.047 Y150.314 Z16.942 F999.600
G1 X98.317 Y147.932 Z16.942 F1999.800
G1 X103.324 Y147.932 Z16.942 F1999.800
G1 X106.602 Y145.551 Z16.942 F1999.800
G1 X96.587 Y145.551 Z16.942 F1999.800
G1 X94.857 Y143.170 Z16.942 F1999.800
G1 X109.879 Y143.170 Z16.942 F1999.800
G1 X112.041 Y141.600 Z16.942 F1999.800
G1 X111.451 Y140.789 Z16.942 F1999.800
G1 X93.127 Y140.789 Z16.942 F1999.800
G1 X91.397 Y138.407 Z16.942 F1999.800
G1 X109.721 Y138.407 Z16.942 F1999.800
G1 X107.991 Y136.026 Z16.942 F1999.800
G1 X89.666 Y136.026 Z16.942 F1999.800
G1 X87.936 Y133.645 Z16.942 F1999.800
G1 X106.261 Y133.645 Z16.942 F1999.800
G1 X104.531 Y131.264 Z16.942 F1999.800
G1 X86.206 Y131.264 Z16.942 F1999.800
G1 X84.476 Y128.882 Z16.942 F1999.800
G1 X102.801 Y128.882 Z16.942 F1999.800
G1 X101.071 Y126.501 Z16.942 F1999.800
G1 X82.746 Y126.501 Z16.942 F1999.800
G1 X81.016 Y124.120 Z16.942 F1999.800
G1 X99.341 Y124.120 Z16.942 F1999.800
G1 X97.611 Y121.739 Z16.942 F1999.800
G1 X79.286 Y121.739 Z16.942 F1999.800
G1 X77.556 Y119.357 Z16.942 F1999.800
G1 X95.881 Y119.357 Z16.942 F1999.800
G1 X94.151 Y116.976 Z16.942 F1999.800
G1 X75.826 Y116.976 Z16.942 F1999.800
G1 X74.096 Y114.595 Z16.942 F1999.800
G1 X92.420 Y114.595 Z16.942 F1999.800
G1 X90.690 Y112.214 Z16.942 F1999.800
G1 X72.366 Y112.214 Z16.942 F1999.800
G1 X70.636 Y109.832 Z16.942 F1999.800
G1 X88.960 Y109.832 Z16.942 F1999.800
G1 X87.230 Y107.451 Z16.942 F1999.800
G1 X68.906 Y107.451 Z16.942 F1999.800
G1 X67.748 Y105.858 Z16.942 F1999.800
G1 X68.833 Y105.070 Z16.942 F1999.800
G1 X85.500 Y105.070 Z16.942 F1999.800
G1 X83.770 Y102.689 Z16.942 F1999.800
G1 X72.111 Y102.689 Z16.942 F1999.800
G1 X75.388 Y100.307 Z16.942 F1999.800
G1 X82.040 Y100.307 Z16.942 F1999.800
G1 X80.310 Y97.926 Z16.942 F1999.800
G1 X78.666 Y97.926 Z16.942 F1999.800
G1 X79.742 Y97.144 Z16.942 F1999.800
G1 X80.310 Y97.926 Z16.942 F1999.800
G1 X80.310 Y97.926 Z16.413 F999.600
G1 X79.742 Y97.144 Z16.413 F1999.800
G1 X78.666 Y97.926 Z16.413 F1999.800
G1 X80.310 Y97.926 Z16.413 F1999.800
G1 X82.040 Y100.307 Z16.413 F1999.800
G1 X75.388 Y100.307 Z16.413 F1999.800
G1 X72.111 Y102.689 Z16.413 F1999.800
G1 X83.770 Y102.689 Z16.413 F1999.800
G1 X85.500 Y105.070 Z16.413 F1999.800
G1 X68.833 Y105.070 Z16.413 F1999.800
G1 X67.748 Y105.858 Z16.413 F1999.800
G1 X68.906 Y107.451 Z16.413 F1999.800
G1 X87.230 Y107.451 Z16.413 F1999.800
G1 X88.960 Y109.832 Z16.413 F1999.800
G1 X70.636 Y109.832 Z16.413 F1999.800
G1 X72.366 Y112.214 Z16.413 F1999.800
G1 X90.690 Y112.214 Z16.413 F1999.800
G1 X92.420 Y114.595 Z16.413 F1999.800
G1 X74.096 Y114.595 Z16.413 F1999.800
G1 X75.826 Y116.976 Z16.413 F1999.800
G1 X94.151 Y116.976 Z16.413 F1999.800
G1 X95.881 Y119.357 Z16.413 F1999.800
G1 X77.556 Y119.357 Z16.413 F1999.800
G1 X79.286 Y121.739 Z16.413 F1999.800
G1 X97.611 Y121.739 Z16.413 F1999.800
G1 X99.341 Y124.120 Z16.413 F1999.800
G1 X81.016 Y124.120 Z16.413 F1999.800
G1 X82.746 Y126.501 Z16.413 F1999.800
G1 X101.071 Y126.501 Z16.413 F1999.800
G1 X102.801 Y128.882 Z16.413 F1999.800
G1 X84.476 Y128.882 Z16.413 F1999.800
G1 X86.206 Y131.264 Z16.413 F1999.800
G1 X104.531 Y131.264 Z16.413 F1999.800
G1 X106.261 Y133.645 Z16.413 F1999.800
G1 X87.936 Y133.645 Z16.413 F1999.800
G1 X89.666 Y136.026 Z16.413 F1999.800
G1 X107.991 Y136.026 Z16.413 F1999.800
G1 X109.721 Y138.407 Z16.413 F1999.800
G1 X91.397 Y138.407 Z16.413 F1999.800
G1 X93.127 Y140.789 Z16.413 F1999.800
G1 X111.451 Y140.789 Z16.413 F1999.800
G1 X112.041 Y141.600 Z16.413 F1999.800
G1 X109.879 Y143.170 Z16.413 F1999.800
G1 X94.857 Y143.170 Z16.413 F1999.800
G1 X96.587 Y145.551 Z16.413 F1999.800
G1 X106.602 Y145.551 Z16.413 F1999.800
G1 X103.324 Y147.932 Z16.413 F1999.800
G1 X98.317 Y147.932 Z16.413 F1999.800
G1 X100.047 Y150.314 Z16.413 F1999.800
G1 X100.047 Y150.314 Z15.883 F999.600
G1 X98.317 Y147.932 Z15.883 F1999.800
G1 X103.324 Y147.932 Z15.883 F1999.800
G1 X106.602 Y145.551 Z15.883 F1999.800
G1 X96.587 Y145.551 Z15.883 F1999.800
G1 X94.857 Y143.170 Z15.883 F1999.800
G1 X109.879 Y143.170 Z15.883 F1999.800
G1 X112.041 Y141.600 Z15.883 F1999.800
G1 X111.451 Y140.789 Z15.883 F1999.800
G1 X93.127 Y140.789 Z15.883 F1999.800
G1 X91.397 Y138.407 Z15.883 F1999.800
G1 X109.721 Y138.407 Z15.883 F1999.800
G1 X107.991 Y136.026 Z15.883 F1999.800
G1 X89.666 Y136.026 Z15.883 F1999.800
G1 X87.936 Y133.645 Z15.883 F1999.800
G1 X106.261 Y133.645 Z15.883 F1999.800
G1 X104.531 Y131.264 Z15.883 F1999.800
G1 X86.206 Y131.264 Z15.883 F1999.800
G1 X84.476 Y128.882 Z15.883 F1999.800
G1 X102.801 Y128.882 Z15.883 F1999.800
G1 X101.071 Y126.501 Z15.883 F1999.800
G1 X82.746 Y126.501 Z15.883 F1999.800
G1 X81.016 Y124.120 Z15.883 F1999.800
G1 X99.341 Y124.120 Z15.883 F1999.800
G1 X97.611 Y121.739 Z15.883 F1999.800
G1 X79.286 Y121.739 Z15.883 F1999.800
G1 X77.556 Y119.357 Z15.883 F1999.800
G1 X95.881 Y119.357 Z15.883 F1999.800
G1 X94.151 Y116.976 Z15.883 F1999.800
G1 X75.826 Y116.976 Z15.883 F1999.800
G1 X74.096 Y114.595 Z15.883 F1999.800
G1 X92.420 Y114.595 Z15.883 F1999.800
G1 X90.690 Y112.214 Z15.883 F1999.800
G1 X72.366 Y112.214 Z15.883 F1999.800
G1 X70.636 Y109.832 Z15.883 F1999.800
G1 X88.960 Y109.832 Z15.883 F1999.800
G1 X87.230 Y107.451 Z15.883 F1999.800
G1 X68.906 Y107.451 Z15.883 F1999.800
G1 X67.748 Y105.858 Z15.883 F1999.800
G1 X68.833 Y105.070 Z15.883 F1999.800
G1 X85.500 Y105.070 Z15.883 F1999.800
G1 X83.770 Y102.689 Z15.883 F1999.800
G1 X72.111 Y102.689 Z15.883 F1999.800
G1 X75.388 Y100.307 Z15.883 F1999.800
G1 X82.040 Y100.307 Z15.883 F1999.800
G1 X80.310 Y97.926 Z15.883 F1999.800
G1 X78.666 Y97.926 Z15.883 F1999.800
G1 X79.742 Y97.144 Z15.883 F1999.800
G1 X80.310 Y97.926 Z15.883 F1999.800
G1 X80.310 Y97.926 Z15.354 F999.600
G1 X79.742 Y97.144 Z15.354 F1999.800
G1 X78.666 Y97.926 Z15.354 F1999.800
G1 X80.310 Y97.926 Z15.354 F1999.800
G1 X82.040 Y100.307 Z15.354 F1999.800
G1 X75.388 Y100.307 Z15.354 F1999.800
G1 X72.111 Y102.689 Z15.354 F1999.800
G1 X83.770 Y102.689 Z15.354 F1999.800
G1 X85.500 Y105.070 Z15.354 F1999.800
G1 X68.833 Y105.070 Z15.354 F1999.800
G1 X67.748 Y105.858 Z15.354 F1999.800
G1 X68.906 Y107.451 Z15.354 F1999.800
G1 X87.230 Y107.451 Z15.354 F1999.800
G1 X88.960 Y109.832 Z15.354 F1999.800
G1 X70.636 Y109.832 Z15.354 F1999.800
G1 X72.366 Y112.214 Z15.354 F1999.800
G1 X90.690 Y112.214 Z15.354 F1999.800
G1 X92.420 Y114.595 Z15.354 F1999.800
G1 X74.096 Y114.595 Z15.354 F1999.800
G1 X75.826 Y116.976 Z15.354 F1999.800
G1 X94.151 Y116.976 Z15.354 F1999.800
G1 X95.881 Y119.357 Z15.354 F1999.800
G1 X77.556 Y119.357 Z15.354 F1999.800
G1 X79.286 Y121.739 Z15.354 F1999.800
G1 X97.611 Y121.739 Z15.354 F1999.800
G1 X99.341 Y124.120 Z15.354 F1999.800
G1 X81.016 Y124.120 Z15.354 F1999.800
G1 X82.746 Y126.501 Z15.354 F1999.800
G1 X101.071 Y126.501 Z15.354 F1999.800
G1 X102.801 Y128.882 Z15.354 F1999.800
G1 X84.476 Y128.882 Z15.354 F1999.800
G1 X86.206 Y131.264 Z15.354 F1999.800
G1 X104.531 Y131.264 Z15.354 F1999.800
G1 X106.261 Y133.645 Z15.354 F1999.800
G1 X87.936 Y133.645 Z15.354 F1999.800
G1 X89.666 Y136.026 Z15.354 F1999.800
G1 X107.991 Y136.026 Z15.354 F1999.800
G1 X109.721 Y138.407 Z15.354 F1999.800
G1 X91.397 Y138.407 Z15.354 F1999.800
G1 X93.127 Y140.789 Z15.354 F1999.800
G1 X111.451 Y140.789 Z15.354 F1999.800
G1 X112.041 Y141.600 Z15.354 F1999.800
G1 X109.879 Y143.170 Z15.354 F1999.800
G1 X94.857 Y143.170 Z15.354 F1999.800
G1 X96.587 Y145.551 Z15.354 F1999.800
G1 X106.602 Y145.551 Z15.354 F1999.800
G1 X103.324 Y147.932 Z15.354 F1999.800
G1 X98.317 Y147.932 Z15.354 F1999.800
G1 X100.047 Y150.314 Z15.354 F1999.800
G1 X100.047 Y150.314 Z14.825 F999.600
G1 X98.317 Y147.932 Z14.825 F1999.800
G1 X103.324 Y147.932 Z14.825 F1999.800
G1 X106.602 Y145.551 Z14.825 F1999.800
G1 X96.587 Y145.551 Z14.825 F1999.800
G1 X94.857 Y143.170 Z14.825 F1999.800
G1 X109.879 Y143.170 Z14.825 F1999.800
G1 X112.041 Y141.600 Z14.825 F1999.800
G1 X111.451 Y140.789 Z14.825 F1999.800
G1 X93.127 Y140.789 Z14.825 F1999.800
G1 X91.397 Y138.407 Z14.825 F1999.800
G1 X109.721 Y138.407 Z14.825 F1999.800
G1 X107.991 Y136.026 Z14.825 F1999.800
G1 X89.666 Y136.026 Z14.825 F1999.800
G1 X87.936 Y133.645 Z14.825 F1999.800
G1 X106.261 Y133.645 Z14.825 F1999.800
G1 X104.531 Y131.264 Z14.825 F1999.800
G1 X86.206 Y131.264 Z14.825 F1999.800
G1 X84.476 Y128.882 Z14.825 F1999.800
G1 X102.801 Y128.882 Z14.825 F1999.800
G1 X101.071 Y126.501 Z14.825 F1999.800
G1 X82.746 Y126.501 Z14.825 F1999.800
G1 X81.016 Y124.120 Z14.825 F1999.800
G1 X99.341 Y124.120 Z14.825 F1999.800
G1 X97.611 Y121.739 Z14.825 F1999.800
G1 X79.286 Y121.739 Z14.825 F1999.800
G1 X77.556 Y119.357 Z14.825 F1999.800
G1 X95.881 Y119.357 Z14.825 F1999.800
G1 X94.151 Y116.976 Z14.825 F1999.800
G1 X75.826 Y116.976 Z14.825 F1999.800
G1 X74.096 Y114.595 Z14.825 F1999.800
G1 X92.420 Y114.595 Z14.825 F1999.800
G1 X90.690 Y112.214 Z14.825 F1999.800
G1 X72.366 Y112.214 Z14.825 F1999.800
G1 X70.636 Y109.832 Z14.825 F1999.800
G1 X88.960 Y109.832 Z14.825 F1999.800
G1 X87.230 Y107.451 Z14.825 F1999.800
G1 X68.906 Y107.451 Z14.825 F1999.800
G1 X67.748 Y105.858 Z14.825 F1999.800
G1 X68.833 Y105.070 Z14.825 F1999.800
G1 X85.500 Y105.070 Z14.825 F1999.800
G1 X83.770 Y102.689 Z14.825 F1999.800
G1 X72.111 Y102.689 Z14.825 F1999.800
G1 X75.388 Y100.307 Z14.825 F1999.800
G1 X82.040 Y100.307 Z14.825 F1999.800
G1 X80.310 Y97.926 Z14.825 F1999.800
G1 X78.666 Y97.926 Z14.825 F1999.800
G1 X79.742 Y97.144 Z14.825 F1999.800
G1 X80.310 Y97.926 Z14.825 F1999.800
G1 X80.310 Y97.926 Z14.296 F999.600
G1 X79.742 Y97.144 Z14.296 F1999.800
G1 X78.666 Y97.926 Z14.296 F1999.800
G1 X80.310 Y97.926 Z14.296 F1999.800
G1 X82.040 Y100.307 Z14.296 F1999.800
G1 X75.388 Y100.307 Z14.296 F1999.800
G1 X72.111 Y102.689 Z14.296 F1999.800
G1 X83.770 Y102.689 Z14.296 F1999.800
G1 X85.500 Y105.070 Z14.296 F1999.800
G1 X68.833 Y105.070 Z14.296 F1999.800
G1 X67.748 Y105.858 Z14.296 F1999.800
G1 X68.906 Y107.451 Z14.296 F1999.800
G1 X87.230 Y107.451 Z14.296 F1999.800
G1 X88.960 Y109.832 Z14.296 F1999.800
G1 X70.636 Y109.832 Z14.296 F1999.800
G1 X72.366 Y112.214 Z14.296 F1999.800
G1 X90.690 Y112.214 Z14.296 F1999.800
G1 X92.420 Y114.595 Z14.296 F1999.800
G1 X74.096 Y114.595 Z14.296 F1999.800
G1 X75.826 Y116.976 Z14.296 F1999.800
G1 X94.151 Y116.976 Z14.296 F1999.800
G1 X95.881 Y119.357 Z14.296 F1999.800
G1 X77.556 Y119.357 Z14.296 F1999.800
G1 X79.286 Y121.739 Z14.296 F1999.800
G1 X97.611 Y121.739 Z14.296 F1999.800
G1 X99.341 Y124.120 Z14.296 F1999.800
G1 X81.016 Y124.120 Z14.296 F1999.800
G1 X82.746 Y126.501 Z14.296 F1999.800
G1 X101.071 Y126.501 Z14.296 F1999.800
G1 X102.801 Y128.882 Z14.296 F1999.800
G1 X84.476 Y128.882 Z14.296 F1999.800
G1 X86.206 Y131.264 Z14.296 F1999.800
G1 X104.531 Y131.264 Z14.296 F1999.800
G1 X106.261 Y133.645 Z14.296 F1999.800
G1 X87.936 Y133.645 Z14.296 F1999.800
G1 X89.666 Y136.026 Z14.296 F1999.800
G1 X107.991 Y136.026 Z14.296 F1999.800
G1 X109.721 Y138.407 Z14.296 F1999.800
G1 X91.397 Y138.407 Z14.296 F1999.800
G1 X93.127 Y140.789 Z14.296 F1999.800
G1 X111.451 Y140.789 Z14.296 F1999.800
G1 X112.041 Y141.600 Z14.296 F1999.800
G1 X109.879 Y143.170 Z14.296 F1999.800
G1 X94.857 Y143.170 Z14.296 F1999.800
G1 X96.587 Y145.551 Z14.296 F1999.800
G1 X106.602 Y145.551 Z14.296 F1999.800
G1 X103.324 Y147.932 Z14.296 F1999.800
G1 X98.317 Y147.932 Z14.296 F1999.800
G1 X100.047 Y150.314 Z14.296 F1999.800
G1 X100.047 Y150.314 Z13.767 F999.600
G1 X98.317 Y147.932 Z13.767 F1999.800
G1 X103.324 Y147.932 Z13.767 F1999.800
G1 X106.602 Y145.551 Z13.767 F1999.800
G1 X96.587 Y145.551 Z13.767 F1999.800
G1 X94.857 Y143.170 Z13.767 F1999.800
G1 X109.879 Y143.170 Z13.767 F1999.800
G1 X112.041 Y141.600 Z13.767 F1999.800
G1 X111.451 Y140.789 Z13.767 F1999.800
G1 X93.127 Y140.789 Z13.767 F1999.800
G1 X91.397 Y138.407 Z13.767 F1999.800
G1 X109.721 Y138.407 Z13.767 F1999.800
G1 X107.991 Y136.026 Z13.767 F1999.800
G1 X89.666 Y136.026 Z13.767 F1999.800
G1 X87.936 Y133.645 Z13.767 F1999.800
G1 X106.261 Y133.645 Z13.767 F1999.800
G1 X104.531 Y131.264 Z13.767 F1999.800
G1 X86.206 Y131.264 Z13.767 F1999.800
G1 X84.476 Y128.882 Z13.767 F1999.800
G1 X102.801 Y128.882 Z13.767 F1999.800
G1 X101.071 Y126.501 Z13.767 F1999.800
G1 X82.746 Y126.501 Z13.767 F1999.800
G1 X81.016 Y124.120 Z13.767 F1999.800
G1 X99.341 Y124.120 Z13.767 F1999.800
G1 X97.611 Y121.739 Z13.767 F1999.800
G1 X79.286 Y121.739 Z13.767 F1999.800
G1 X77.556 Y119.357 Z13.767 F1999.800
G1 X95.881 Y119.357 Z13.767 F1999.800
G1 X94.151 Y116.976 Z13.767 F1999.800
G1 X75.826 Y116.976 Z13.767 F1999.800
G1 X74.096 Y114.595 Z13.767 F1999.800
G1 X92.420 Y114.595 Z13.767 F1999.800
G1 X90.690 Y112.214 Z13.767 F1999.800
G1 X72.366 Y112.214 Z13.767 F1999.800
G1 X70.636 Y109.832 Z13.767 F1999.800
G1 X88.960 Y109.832 Z13.767 F1999.800
G1 X87.230 Y107.451 Z13.767 F1999.800
G1 X68.906 Y107.451 Z13.767 F1999.800
G1 X67.748 Y105.858 Z13.767 F1999.800
G1 X68.833 Y105.070 Z13.767 F1999.800
G1 X85.500 Y105.070 Z13.767 F1999.800
G1 X83.770 Y102.689 Z13.767 F1999.800
G1 X72.111 Y102.689 Z13.767 F1999.800
G1 X75.388 Y100.307 Z13.767 F1999.800
G1 X82.040 Y100.307 Z13.767 F1999.800
G1 X80.310 Y97.926 Z13.767 F1999.800
G1 X78.666 Y97.926 Z13.767 F1999.800
G1 X79.742 Y97.144 Z13.767 F1999.800
G1 X80.310 Y97.926 Z13.767 F1999.800
G1 X80.310 Y97.926 Z13.238 F999.600
G1 X79.742 Y97.144 Z13.238 F1999.800
G1 X78.666 Y97.926 Z13.238 F1999.800
G1 X80.310 Y97.926 Z13.238 F1999.800
G1 X82.040 Y100.307 Z13.238 F1999.800
G1 X75.388 Y100.307 Z13.238 F1999.800
G1 X72.111 Y102.689 Z13.238 F1999.800
G1 X83.770 Y102.689 Z13.238 F1999.800
G1 X85.500 Y105.070 Z13.238 F1999.800
G1 X68.833 Y105.070 Z13.238 F1999.800
G1 X67.748 Y105.858 Z13.238 F1999.800
G1 X68.906 Y107.451 Z13.238 F1999.800
G1 X87.230 Y107.451 Z13.238 F1999.800
G1 X88.960 Y109.832 Z13.238 F1999.800
G1 X70.636 Y109.832 Z13.238 F1999.800
G1 X72.366 Y112.214 Z13.238 F1999.800
G1 X90.690 Y112.214 Z13.238 F1999.800
G1 X92.420 Y114.595 Z13.238 F1999.800
G1 X74.096 Y114.595 Z13.238 F1999.800
G1 X75.826 Y116.976 Z13.238 F1999.800
G1 X94.151 Y116.976 Z13.238 F1999.800
G1 X95.881 Y119.357 Z13.238 F1999.800
G1 X77.556 Y119.357 Z13.238 F1999.800
G1 X79.286 Y121.739 Z13.238 F1999.800
G1 X97.611 Y121.739 Z13.238 F1999.800
G1 X99.341 Y124.120 Z13.238 F1999.800
G1 X81.016 Y124.120 Z13.238 F1999.800
G1 X82.746 Y126.501 Z13.238 F1999.800
G1 X101.071 Y126.501 Z13.238 F1999.800
G1 X102.801 Y128.882 Z13.238 F1999.800
G1 X84.476 Y128.882 Z13.238 F1999.800
G1 X86.206 Y131.264 Z13.238 F1999.800
G1 X104.531 Y131.264 Z13.238 F1999.800
G1 X106.261 Y133.645 Z13.238 F1999.800
G1 X87.936 Y133.645 Z13.238 F1999.800
G1 X89.666 Y136.026 Z13.238 F1999.800
G1 X107.991 Y136.026 Z13.238 F1999.800
G1 X109.721 Y138.407 Z13.238 F1999.800
G1 X91.397 Y138.407 Z13.238 F1999.800
G1 X93.127 Y140.789 Z13.238 F1999.800
G1 X111.451 Y140.789 Z13.238 F1999.800
G1 X112.041 Y141.600 Z13.238 F1999.800
G1 X109.879 Y143.170 Z13.238 F1999.800
G1 X94.857 Y143.170 Z13.238 F1999.800
G1 X96.587 Y145.551 Z13.238 F1999.800
G1 X106.602 Y145.551 Z13.238 F1999.800
G1 X103.324 Y147.932 Z13.238 F1999.800
G1 X98.317 Y147.932 Z13.238 F1999.800
G1 X100.047 Y150.314 Z13.238 F1999.800
G1 X100.047 Y150.314 Z13.000 F999.600
G1 X98.317 Y147.932 Z13.000 F1999.800
G1 X103.324 Y147.932 Z13.000 F1999.800
G1 X106.602 Y145.551 Z13.000 F1999.800
G1 X96.587 Y145.551 Z13.000 F1999.800
G1 X94.857 Y143.170 Z13.000 F1999.800
G1 X109.879 Y143.170 Z13.000 F1999.800
G1 X112.041 Y141.600 Z13.000 F1999.800
G1 X111.451 Y140.789 Z13.000 F1999.800
G1 X93.127 Y140.789 Z13.000 F1999.800
G1 X91.397 Y138.407 Z13.000 F1999.800
G1 X109.721 Y138.407 Z13.000 F1999.800
G1 X107.991 Y136.026 Z13.000 F1999.800
G1 X89.666 Y136.026 Z13.000 F1999.800
G1 X87.936 Y133.645 Z13.000 F1999.800
G1 X106.261 Y133.645 Z13.000 F1999.800
G1 X104.531 Y131.264 Z13.000 F1999.800
G1 X86.206 Y131.264 Z13.000 F1999.800
G1 X84.476 Y128.882 Z13.000 F1999.800
G1 X102.801 Y128.882 Z13.000 F1999.800
G1 X101.071 Y126.501 Z13.000 F1999.800
G1 X82.746 Y126.501 Z13.000 F1999.800
G1 X81.016 Y124.120 Z13.000 F1999.800
G1 X99.341 Y124.120 Z13.000 F1999.800
G1 X97.611 Y121.739 Z13.000 F1999.800
G1 X79.286 Y121.739 Z13.000 F1999.800
G1 X77.556 Y119.357 Z13.000 F1999.800
G1 X95.881 Y119.357 Z13.000 F1999.800
G1 X94.151 Y116.976 Z13.000 F1999.800
G1 X75.826 Y116.976 Z13.000 F1999.800
G1 X74.096 Y114.595 Z13.000 F1999.800
G1 X92.420 Y114.595 Z13.000 F1999.800
G1 X90.690 Y112.214 Z13.000 F1999.800
G1 X72.366 Y112.214 Z13.000 F1999.800
G1 X70.636 Y109.832 Z13.000 F1999.800
G1 X88.960 Y109.832 Z13.000 F1999.800
G1 X87.230 Y107.451 Z13.000 F1999.800
G1 X68.906 Y107.451 Z13.000 F1999.800
G1 X67.748 Y105.858 Z13.000 F1999.800
G1 X68.833 Y105.070 Z13.000 F1999.800
G1 X85.500 Y105.070 Z13.000 F1999.800
G1 X83.770 Y102.689 Z13.000 F1999.800
G1 X72.111 Y102.689 Z13.000 F1999.800
G1 X75.388 Y100.307 Z13.000 F1999.800
G1 X82.040 Y100.307 Z13.000 F1999.800
G1 X80.310 Y97.926 Z13.000 F1999.800
G1 X78.666 Y97.926 Z13.000 F1999.800
G1 X79.742 Y97.144 Z13.000 F1999.800
G1 X80.310 Y97.926 Z13.000 F1999.800
G0 Z23.000
G0 Z23.000
G0 X-78.666
G0 X-78.666 Z21.000
G1 X-78.666 Y97.926 Z17.471 F999.600
G1 X-80.310 Y97.926 Z17.471 F1999.800
G1 X-79.742 Y97.144 Z17.471 F1999.800
G1 X-78.666 Y97.926 Z17.471 F1999.800
G1 X-75.388 Y100.307 Z17.471 F1999.800
G1 X-82.040 Y100.307 Z17.471 F1999.800
G1 X-83.770 Y102.689 Z17.471 F1999.800
G1 X-72.111 Y102.689 Z17.471 F1999.800
G1 X-68.833 Y105.070 Z17.471 F1999.800
G1 X-85.500 Y105.070 Z17.471 F1999.800
G1 X-87.230 Y107.451 Z17.471 F1999.800
G1 X-68.906 Y107.451 Z17.471 F1999.800
G1 X-70.636 Y109.832 Z17.471 F1999.800
G1 X-88.960 Y109.832 Z17.471 F1999.800
G1 X-90.690 Y112.214 Z17.471 F1999.800
G1 X-72.366 Y112.214 Z17.471 F1999.800
G1 X-74.096 Y114.595 Z17.471 F1999.800
G1 X-92.420 Y114.595 Z17.471 F1999.800
G1 X-94.151 Y116.976 Z17.471 F1999.800
G1 X-75.826 Y116.976 Z17.471 F1999.800
G1 X-77.556 Y119.357 Z17.471 F1999.800
G1 X-95.881 Y119.357 Z17.471 F1999.800
G1 X-97.611 Y121.739 Z17.471 F1999.800
G1 X-79.286 Y121.739 Z17.471 F1999.800
G1 X-81.016 Y124.120 Z17.471 F1999.800
G1 X-99.341 Y124.120 Z17.471 F1999.800
G1 X-101.071 Y126.501 Z17.471 F1999.800
G1 X-82.746 Y126.501 Z17.471 F1999.800
G1 X-84.476 Y128.882 Z17.471 F1999.800
G1 X-102.801 Y128.882 Z17.471 F1999.800
G1 X-104.531 Y131.264 Z17.471 F1999.800
G1 X-86.206 Y131.264 Z17.471 F1999.800
G1 X-87.936 Y133.645 Z17.471 F1999.800
G1 X-106.261 Y133.645 Z17.471 F1999.800
G1 X-107.991 Y136.026 Z17.471 F1999.800
G1 X-89.666 Y136.026 Z17.471 F1999.800
G1 X-91.397 Y138.407 Z17.471 F1999.800
