(Exported by FreeCAD)
(Post Processor: grbl_post)
(Output Time:2020-05-23 12:29:28.160547)
(Begin preamble)
G17 G90
G21
(Begin operation: Fixture)
(Path: Fixture)
G54
(Finish operation: Fixture)
(Begin operation: T6: 2FluteWoodMill003)
(Path: T6: 2FluteWoodMill003)
(T6: 2FluteWoodMill003)
(Begin toolchange)
(M6 T6.0)
M3 S14000.0
(Finish operation: T6: 2FluteWoodMill003)
(Begin operation: Hole_18mm)
(Path: Hole_18mm)
(Hole_18mm)
(helix cut operation)
G0 Z23.000
G0 X220.915 Y-200.000
G0 Z21.000
G1 Z18.000 F999.600
G2 X219.085 Y-200.000 Z17.737 I-0.915 J0.000 F1999.800
G2 X220.915 Y-200.000 Z17.474 I0.915 J0.000 F1999.800
G2 X219.085 Y-200.000 Z17.211 I-0.915 J0.000 F1999.800
G2 X220.915 Y-200.000 Z16.947 I0.915 J0.000 F1999.800
G2 X219.085 Y-200.000 Z16.684 I-0.915 J0.000 F1999.800
G2 X220.915 Y-200.000 Z16.421 I0.915 J0.000 F1999.800
G2 X219.085 Y-200.000 Z16.158 I-0.915 J0.000 F1999.800
G2 X220.915 Y-200.000 Z15.895 I0.915 J0.000 F1999.800
G2 X219.085 Y-200.000 Z15.632 I-0.915 J0.000 F1999.800
G2 X220.915 Y-200.000 Z15.368 I0.915 J0.000 F1999.800
G2 X219.085 Y-200.000 Z15.105 I-0.915 J0.000 F1999.800
G2 X220.915 Y-200.000 Z14.842 I0.915 J0.000 F1999.800
G2 X219.085 Y-200.000 Z14.579 I-0.915 J0.000 F1999.800
G2 X220.915 Y-200.000 Z14.316 I0.915 J0.000 F1999.800
G2 X219.085 Y-200.000 Z14.053 I-0.915 J0.000 F1999.800
G2 X220.915 Y-200.000 Z13.789 I0.915 J0.000 F1999.800
G2 X219.085 Y-200.000 Z13.526 I-0.915 J0.000 F1999.800
G2 X220.915 Y-200.000 Z13.263 I0.915 J0.000 F1999.800
G2 X219.085 Y-200.000 Z13.000 I-0.915 J0.000 F1999.800
G2 X220.915 Y-200.000 Z12.737 I0.915 J0.000 F1999.800
G2 X219.085 Y-200.000 Z12.474 I-0.915 J0.000 F1999.800
G2 X220.915 Y-200.000 Z12.211 I0.915 J0.000 F1999.800
G2 X219.085 Y-200.000 Z11.947 I-0.915 J0.000 F1999.800
G2 X220.915 Y-200.000 Z11.684 I0.915 J0.000 F1999.800
G2 X219.085 Y-200.000 Z11.421 I-0.915 J0.000 F1999.800
G2 X220.915 Y-200.000 Z11.158 I0.915 J0.000 F1999.800
G2 X219.085 Y-200.000 Z10.895 I-0.915 J0.000 F1999.800
G2 X220.915 Y-200.000 Z10.632 I0.915 J0.000 F1999.800
G2 X219.085 Y-200.000 Z10.368 I-0.915 J0.000 F1999.800
G2 X220.915 Y-200.000 Z10.105 I0.915 J0.000 F1999.800
G2 X219.085 Y-200.000 Z9.842 I-0.915 J0.000 F1999.800
G2 X220.915 Y-200.000 Z9.579 I0.915 J0.000 F1999.800
G2 X219.085 Y-200.000 Z9.316 I-0.915 J0.000 F1999.800
G2 X220.915 Y-200.000 Z9.053 I0.915 J0.000 F1999.800
G2 X219.085 Y-200.000 Z8.789 I-0.915 J0.000 F1999.800
G2 X220.915 Y-200.000 Z8.526 I0.915 J0.000 F1999.800
G2 X219.085 Y-200.000 Z8.263 I-0.915 J0.000 F1999.800
G2 X220.915 Y-200.000 Z8.000 I0.915 J0.000 F1999.800
G2 X219.085 Y-200.000 Z7.737 I-0.915 J0.000 F1999.800
G2 X220.915 Y-200.000 Z7.474 I0.915 J0.000 F1999.800
G2 X219.085 Y-200.000 Z7.211 I-0.915 J0.000 F1999.800
G2 X220.915 Y-200.000 Z6.947 I0.915 J0.000 F1999.800
G2 X219.085 Y-200.000 Z6.684 I-0.915 J0.000 F1999.800
G2 X220.915 Y-200.000 Z6.421 I0.915 J0.000 F1999.800
G2 X219.085 Y-200.000 Z6.158 I-0.915 J0.000 F1999.800
G2 X220.915 Y-200.000 Z5.895 I0.915 J0.000 F1999.800
G2 X219.085 Y-200.000 Z5.632 I-0.915 J0.000 F1999.800
G2 X220.915 Y-200.000 Z5.368 I0.915 J0.000 F1999.800
G2 X219.085 Y-200.000 Z5.105 I-0.915 J0.000 F1999.800
G2 X220.915 Y-200.000 Z4.842 I0.915 J0.000 F1999.800
G2 X219.085 Y-200.000 Z4.579 I-0.915 J0.000 F1999.800
G2 X220.915 Y-200.000 Z4.316 I0.915 J0.000 F1999.800
G2 X219.085 Y-200.000 Z4.053 I-0.915 J0.000 F1999.800
G2 X220.915 Y-200.000 Z3.789 I0.915 J0.000 F1999.800
G2 X219.085 Y-200.000 Z3.526 I-0.915 J0.000 F1999.800
G2 X220.915 Y-200.000 Z3.263 I0.915 J0.000 F1999.800
G2 X219.085 Y-200.000 Z3.000 I-0.915 J0.000 F1999.800
G2 X220.915 Y-200.000 Z2.737 I0.915 J0.000 F1999.800
G2 X219.085 Y-200.000 Z2.474 I-0.915 J0.000 F1999.800
G2 X220.915 Y-200.000 Z2.211 I0.915 J0.000 F1999.800
G2 X219.085 Y-200.000 Z1.947 I-0.915 J0.000 F1999.800
G2 X220.915 Y-200.000 Z1.684 I0.915 J0.000 F1999.800
G2 X219.085 Y-200.000 Z1.421 I-0.915 J0.000 F1999.800
G2 X220.915 Y-200.000 Z1.158 I0.915 J0.000 F1999.800
G2 X219.085 Y-200.000 Z0.895 I-0.915 J0.000 F1999.800
G2 X220.915 Y-200.000 Z0.632 I0.915 J0.000 F1999.800
G2 X219.085 Y-200.000 Z0.368 I-0.915 J0.000 F1999.800
G2 X220.915 Y-200.000 Z0.105 I0.915 J0.000 F1999.800
G2 X219.085 Y-200.000 Z-0.158 I-0.915 J0.000 F1999.800
G2 X220.915 Y-200.000 Z-0.421 I0.915 J0.000 F1999.800
G2 X219.085 Y-200.000 Z-0.684 I-0.915 J0.000 F1999.800
G2 X220.915 Y-200.000 Z-0.947 I0.915 J0.000 F1999.800
G2 X219.085 Y-200.000 Z-1.211 I-0.915 J0.000 F1999.800
G2 X220.915 Y-200.000 Z-1.474 I0.915 J0.000 F1999.800
G2 X219.085 Y-200.000 Z-1.737 I-0.915 J0.000 F1999.800
G2 X220.915 Y-200.000 Z-2.000 I0.915 J0.000 F1999.800
G2 X219.085 Y-200.000 Z-2.000 I-0.915 J0.000 F1999.800
G2 X220.915 Y-200.000 Z-2.000 I0.915 J0.000 F1999.800
G0 Z21.000
G0 X220.915 Y200.000
G0 Z21.000
G1 Z18.000 F999.600
G2 X219.085 Y200.000 Z17.737 I-0.915 J0.000 F1999.800
G2 X220.915 Y200.000 Z17.474 I0.915 J0.000 F1999.800
G2 X219.085 Y200.000 Z17.211 I-0.915 J0.000 F1999.800
G2 X220.915 Y200.000 Z16.947 I0.915 J0.000 F1999.800
G2 X219.085 Y200.000 Z16.684 I-0.915 J0.000 F1999.800
G2 X220.915 Y200.000 Z16.421 I0.915 J0.000 F1999.800
G2 X219.085 Y200.000 Z16.158 I-0.915 J0.000 F1999.800
G2 X220.915 Y200.000 Z15.895 I0.915 J0.000 F1999.800
G2 X219.085 Y200.000 Z15.632 I-0.915 J0.000 F1999.800
G2 X220.915 Y200.000 Z15.368 I0.915 J0.000 F1999.800
G2 X219.085 Y200.000 Z15.105 I-0.915 J0.000 F1999.800
G2 X220.915 Y200.000 Z14.842 I0.915 J0.000 F1999.800
G2 X219.085 Y200.000 Z14.579 I-0.915 J0.000 F1999.800
G2 X220.915 Y200.000 Z14.316 I0.915 J0.000 F1999.800
G2 X219.085 Y200.000 Z14.053 I-0.915 J0.000 F1999.800
G2 X220.915 Y200.000 Z13.789 I0.915 J0.000 F1999.800
G2 X219.085 Y200.000 Z13.526 I-0.915 J0.000 F1999.800
G2 X220.915 Y200.000 Z13.263 I0.915 J0.000 F1999.800
G2 X219.085 Y200.000 Z13.000 I-0.915 J0.000 F1999.800
G2 X220.915 Y200.000 Z12.737 I0.915 J0.000 F1999.800
G2 X219.085 Y200.000 Z12.474 I-0.915 J0.000 F1999.800
G2 X220.915 Y200.000 Z12.211 I0.915 J0.000 F1999.800
G2 X219.085 Y200.000 Z11.947 I-0.915 J0.000 F1999.800
G2 X220.915 Y200.000 Z11.684 I0.915 J0.000 F1999.800
G2 X219.085 Y200.000 Z11.421 I-0.915 J0.000 F1999.800
G2 X220.915 Y200.000 Z11.158 I0.915 J0.000 F1999.800
G2 X219.085 Y200.000 Z10.895 I-0.915 J0.000 F1999.800
G2 X220.915 Y200.000 Z10.632 I0.915 J0.000 F1999.800
G2 X219.085 Y200.000 Z10.368 I-0.915 J0.000 F1999.800
G2 X220.915 Y200.000 Z10.105 I0.915 J0.000 F1999.800
G2 X219.085 Y200.000 Z9.842 I-0.915 J0.000 F1999.800
G2 X220.915 Y200.000 Z9.579 I0.915 J0.000 F1999.800
G2 X219.085 Y200.000 Z9.316 I-0.915 J0.000 F1999.800
G2 X220.915 Y200.000 Z9.053 I0.915 J0.000 F1999.800
G2 X219.085 Y200.000 Z8.789 I-0.915 J0.000 F1999.800
G2 X220.915 Y200.000 Z8.526 I0.915 J0.000 F1999.800
G2 X219.085 Y200.000 Z8.263 I-0.915 J0.000 F1999.800
G2 X220.915 Y200.000 Z8.000 I0.915 J0.000 F1999.800
G2 X219.085 Y200.000 Z7.737 I-0.915 J0.000 F1999.800
G2 X220.915 Y200.000 Z7.474 I0.915 J0.000 F1999.800
G2 X219.085 Y200.000 Z7.211 I-0.915 J0.000 F1999.800
G2 X220.915 Y200.000 Z6.947 I0.915 J0.000 F1999.800
G2 X219.085 Y200.000 Z6.684 I-0.915 J0.000 F1999.800
G2 X220.915 Y200.000 Z6.421 I0.915 J0.000 F1999.800
G2 X219.085 Y200.000 Z6.158 I-0.915 J0.000 F1999.800
G2 X220.915 Y200.000 Z5.895 I0.915 J0.000 F1999.800
G2 X219.085 Y200.000 Z5.632 I-0.915 J0.000 F1999.800
G2 X220.915 Y200.000 Z5.368 I0.915 J0.000 F1999.800
G2 X219.085 Y200.000 Z5.105 I-0.915 J0.000 F1999.800
G2 X220.915 Y200.000 Z4.842 I0.915 J0.000 F1999.800
G2 X219.085 Y200.000 Z4.579 I-0.915 J0.000 F1999.800
G2 X220.915 Y200.000 Z4.316 I0.915 J0.000 F1999.800
G2 X219.085 Y200.000 Z4.053 I-0.915 J0.000 F1999.800
G2 X220.915 Y200.000 Z3.789 I0.915 J0.000 F1999.800
G2 X219.085 Y200.000 Z3.526 I-0.915 J0.000 F1999.800
G2 X220.915 Y200.000 Z3.263 I0.915 J0.000 F1999.800
G2 X219.085 Y200.000 Z3.000 I-0.915 J0.000 F1999.800
G2 X220.915 Y200.000 Z2.737 I0.915 J0.000 F1999.800
G2 X219.085 Y200.000 Z2.474 I-0.915 J0.000 F1999.800
G2 X220.915 Y200.000 Z2.211 I0.915 J0.000 F1999.800
G2 X219.085 Y200.000 Z1.947 I-0.915 J0.000 F1999.800
G2 X220.915 Y200.000 Z1.684 I0.915 J0.000 F1999.800
G2 X219.085 Y200.000 Z1.421 I-0.915 J0.000 F1999.800
G2 X220.915 Y200.000 Z1.158 I0.915 J0.000 F1999.800
G2 X219.085 Y200.000 Z0.895 I-0.915 J0.000 F1999.800
G2 X220.915 Y200.000 Z0.632 I0.915 J0.000 F1999.800
G2 X219.085 Y200.000 Z0.368 I-0.915 J0.000 F1999.800
G2 X220.915 Y200.000 Z0.105 I0.915 J0.000 F1999.800
G2 X219.085 Y200.000 Z-0.158 I-0.915 J0.000 F1999.800
G2 X220.915 Y200.000 Z-0.421 I0.915 J0.000 F1999.800
G2 X219.085 Y200.000 Z-0.684 I-0.915 J0.000 F1999.800
G2 X220.915 Y200.000 Z-0.947 I0.915 J0.000 F1999.800
G2 X219.085 Y200.000 Z-1.211 I-0.915 J0.000 F1999.800
G2 X220.915 Y200.000 Z-1.474 I0.915 J0.000 F1999.800
G2 X219.085 Y200.000 Z-1.737 I-0.915 J0.000 F1999.800
G2 X220.915 Y200.000 Z-2.000 I0.915 J0.000 F1999.800
G2 X219.085 Y200.000 Z-2.000 I-0.915 J0.000 F1999.800
G2 X220.915 Y200.000 Z-2.000 I0.915 J0.000 F1999.800
G0 Z21.000
G0 X-219.085 Y200.000
G0 Z21.000
G1 Z18.000 F999.600
G2 X-220.915 Y200.000 Z17.737 I-0.915 J0.000 F1999.800
G2 X-219.085 Y200.000 Z17.474 I0.915 J0.000 F1999.800
G2 X-220.915 Y200.000 Z17.211 I-0.915 J0.000 F1999.800
G2 X-219.085 Y200.000 Z16.947 I0.915 J0.000 F1999.800
G2 X-220.915 Y200.000 Z16.684 I-0.915 J0.000 F1999.800
G2 X-219.085 Y200.000 Z16.421 I0.915 J0.000 F1999.800
G2 X-220.915 Y200.000 Z16.158 I-0.915 J0.000 F1999.800
G2 X-219.085 Y200.000 Z15.895 I0.915 J0.000 F1999.800
G2 X-220.915 Y200.000 Z15.632 I-0.915 J0.000 F1999.800
G2 X-219.085 Y200.000 Z15.368 I0.915 J0.000 F1999.800
G2 X-220.915 Y200.000 Z15.105 I-0.915 J0.000 F1999.800
G2 X-219.085 Y200.000 Z14.842 I0.915 J0.000 F1999.800
G2 X-220.915 Y200.000 Z14.579 I-0.915 J0.000 F1999.800
G2 X-219.085 Y200.000 Z14.316 I0.915 J0.000 F1999.800
G2 X-220.915 Y200.000 Z14.053 I-0.915 J0.000 F1999.800
G2 X-219.085 Y200.000 Z13.789 I0.915 J0.000 F1999.800
G2 X-220.915 Y200.000 Z13.526 I-0.915 J0.000 F1999.800
G2 X-219.085 Y200.000 Z13.263 I0.915 J0.000 F1999.800
G2 X-220.915 Y200.000 Z13.000 I-0.915 J0.000 F1999.800
G2 X-219.085 Y200.000 Z12.737 I0.915 J0.000 F1999.800
G2 X-220.915 Y200.000 Z12.474 I-0.915 J0.000 F1999.800
G2 X-219.085 Y200.000 Z12.211 I0.915 J0.000 F1999.800
G2 X-220.915 Y200.000 Z11.947 I-0.915 J0.000 F1999.800
G2 X-219.085 Y200.000 Z11.684 I0.915 J0.000 F1999.800
G2 X-220.915 Y200.000 Z11.421 I-0.915 J0.000 F1999.800
G2 X-219.085 Y200.000 Z11.158 I0.915 J0.000 F1999.800
G2 X-220.915 Y200.000 Z10.895 I-0.915 J0.000 F1999.800
G2 X-219.085 Y200.000 Z10.632 I0.915 J0.000 F1999.800
G2 X-220.915 Y200.000 Z10.368 I-0.915 J0.000 F1999.800
G2 X-219.085 Y200.000 Z10.105 I0.915 J0.000 F1999.800
G2 X-220.915 Y200.000 Z9.842 I-0.915 J0.000 F1999.800
G2 X-219.085 Y200.000 Z9.579 I0.915 J0.000 F1999.800
G2 X-220.915 Y200.000 Z9.316 I-0.915 J0.000 F1999.800
G2 X-219.085 Y200.000 Z9.053 I0.915 J0.000 F1999.800
G2 X-220.915 Y200.000 Z8.789 I-0.915 J0.000 F1999.800
G2 X-219.085 Y200.000 Z8.526 I0.915 J0.000 F1999.800
G2 X-220.915 Y200.000 Z8.263 I-0.915 J0.000 F1999.800
G2 X-219.085 Y200.000 Z8.000 I0.915 J0.000 F1999.800
G2 X-220.915 Y200.000 Z7.737 I-0.915 J0.000 F1999.800
G2 X-219.085 Y200.000 Z7.474 I0.915 J0.000 F1999.800
G2 X-220.915 Y200.000 Z7.211 I-0.915 J0.000 F1999.800
G2 X-219.085 Y200.000 Z6.947 I0.915 J0.000 F1999.800
G2 X-220.915 Y200.000 Z6.684 I-0.915 J0.000 F1999.800
G2 X-219.085 Y200.000 Z6.421 I0.915 J0.000 F1999.800
G2 X-220.915 Y200.000 Z6.158 I-0.915 J0.000 F1999.800
G2 X-219.085 Y200.000 Z5.895 I0.915 J0.000 F1999.800
G2 X-220.915 Y200.000 Z5.632 I-0.915 J0.000 F1999.800
G2 X-219.085 Y200.000 Z5.368 I0.915 J0.000 F1999.800
G2 X-220.915 Y200.000 Z5.105 I-0.915 J0.000 F1999.800
G2 X-219.085 Y200.000 Z4.842 I0.915 J0.000 F1999.800
G2 X-220.915 Y200.000 Z4.579 I-0.915 J0.000 F1999.800
G2 X-219.085 Y200.000 Z4.316 I0.915 J0.000 F1999.800
G2 X-220.915 Y200.000 Z4.053 I-0.915 J0.000 F1999.800
G2 X-219.085 Y200.000 Z3.789 I0.915 J0.000 F1999.800
G2 X-220.915 Y200.000 Z3.526 I-0.915 J0.000 F1999.800
G2 X-219.085 Y200.000 Z3.263 I0.915 J0.000 F1999.800
G2 X-220.915 Y200.000 Z3.000 I-0.915 J0.000 F1999.800
G2 X-219.085 Y200.000 Z2.737 I0.915 J0.000 F1999.800
G2 X-220.915 Y200.000 Z2.474 I-0.915 J0.000 F1999.800
G2 X-219.085 Y200.000 Z2.211 I0.915 J0.000 F1999.800
G2 X-220.915 Y200.000 Z1.947 I-0.915 J0.000 F1999.800
G2 X-219.085 Y200.000 Z1.684 I0.915 J0.000 F1999.800
G2 X-220.915 Y200.000 Z1.421 I-0.915 J0.000 F1999.800
G2 X-219.085 Y200.000 Z1.158 I0.915 J0.000 F1999.800
G2 X-220.915 Y200.000 Z0.895 I-0.915 J0.000 F1999.800
G2 X-219.085 Y200.000 Z0.632 I0.915 J0.000 F1999.800
G2 X-220.915 Y200.000 Z0.368 I-0.915 J0.000 F1999.800
G2 X-219.085 Y200.000 Z0.105 I0.915 J0.000 F1999.800
G2 X-220.915 Y200.000 Z-0.158 I-0.915 J0.000 F1999.800
G2 X-219.085 Y200.000 Z-0.421 I0.915 J0.000 F1999.800
G2 X-220.915 Y200.000 Z-0.684 I-0.915 J0.000 F1999.800
G2 X-219.085 Y200.000 Z-0.947 I0.915 J0.000 F1999.800
G2 X-220.915 Y200.000 Z-1.211 I-0.915 J0.000 F1999.800
G2 X-219.085 Y200.000 Z-1.474 I0.915 J0.000 F1999.800
G2 X-220.915 Y200.000 Z-1.737 I-0.915 J0.000 F1999.800
G2 X-219.085 Y200.000 Z-2.000 I0.915 J0.000 F1999.800
G2 X-220.915 Y200.000 Z-2.000 I-0.915 J0.000 F1999.800
G2 X-219.085 Y200.000 Z-2.000 I0.915 J0.000 F1999.800
G0 Z21.000
G0 X-219.085 Y-200.000
G0 Z21.000
G1 Z18.000 F999.600
G2 X-220.915 Y-200.000 Z17.737 I-0.915 J0.000 F1999.800
G2 X-219.085 Y-200.000 Z17.474 I0.915 J0.000 F1999.800
G2 X-220.915 Y-200.000 Z17.211 I-0.915 J0.000 F1999.800
G2 X-219.085 Y-200.000 Z16.947 I0.915 J0.000 F1999.800
G2 X-220.915 Y-200.000 Z16.684 I-0.915 J0.000 F1999.800
G2 X-219.085 Y-200.000 Z16.421 I0.915 J0.000 F1999.800
G2 X-220.915 Y-200.000 Z16.158 I-0.915 J0.000 F1999.800
G2 X-219.085 Y-200.000 Z15.895 I0.915 J0.000 F1999.800
G2 X-220.915 Y-200.000 Z15.632 I-0.915 J0.000 F1999.800
G2 X-219.085 Y-200.000 Z15.368 I0.915 J0.000 F1999.800
G2 X-220.915 Y-200.000 Z15.105 I-0.915 J0.000 F1999.800
G2 X-219.085 Y-200.000 Z14.842 I0.915 J0.000 F1999.800
G2 X-220.915 Y-200.000 Z14.579 I-0.915 J0.000 F1999.800
G2 X-219.085 Y-200.000 Z14.316 I0.915 J0.000 F1999.800
G2 X-220.915 Y-200.000 Z14.053 I-0.915 J0.000 F1999.800
G2 X-219.085 Y-200.000 Z13.789 I0.915 J0.000 F1999.800
G2 X-220.915 Y-200.000 Z13.526 I-0.915 J0.000 F1999.800
G2 X-219.085 Y-200.000 Z13.263 I0.915 J0.000 F1999.800
G2 X-220.915 Y-200.000 Z13.000 I-0.915 J0.000 F1999.800
G2 X-219.085 Y-200.000 Z12.737 I0.915 J0.000 F1999.800
G2 X-220.915 Y-200.000 Z12.474 I-0.915 J0.000 F1999.800
G2 X-219.085 Y-200.000 Z12.211 I0.915 J0.000 F1999.800
G2 X-220.915 Y-200.000 Z11.947 I-0.915 J0.000 F1999.800
G2 X-219.085 Y-200.000 Z11.684 I0.915 J0.000 F1999.800
G2 X-220.915 Y-200.000 Z11.421 I-0.915 J0.000 F1999.800
G2 X-219.085 Y-200.000 Z11.158 I0.915 J0.000 F1999.800
G2 X-220.915 Y-200.000 Z10.895 I-0.915 J0.000 F1999.800
G2 X-219.085 Y-200.000 Z10.632 I0.915 J0.000 F1999.800
G2 X-220.915 Y-200.000 Z10.368 I-0.915 J0.000 F1999.800
G2 X-219.085 Y-200.000 Z10.105 I0.915 J0.000 F1999.800
G2 X-220.915 Y-200.000 Z9.842 I-0.915 J0.000 F1999.800
G2 X-219.085 Y-200.000 Z9.579 I0.915 J0.000 F1999.800
G2 X-220.915 Y-200.000 Z9.316 I-0.915 J0.000 F1999.800
G2 X-219.085 Y-200.000 Z9.053 I0.915 J0.000 F1999.800
G2 X-220.915 Y-200.000 Z8.789 I-0.915 J0.000 F1999.800
G2 X-219.085 Y-200.000 Z8.526 I0.915 J0.000 F1999.800
G2 X-220.915 Y-200.000 Z8.263 I-0.915 J0.000 F1999.800
G2 X-219.085 Y-200.000 Z8.000 I0.915 J0.000 F1999.800
G2 X-220.915 Y-200.000 Z7.737 I-0.915 J0.000 F1999.800
G2 X-219.085 Y-200.000 Z7.474 I0.915 J0.000 F1999.800
G2 X-220.915 Y-200.000 Z7.211 I-0.915 J0.000 F1999.800
G2 X-219.085 Y-200.000 Z6.947 I0.915 J0.000 F1999.800
G2 X-220.915 Y-200.000 Z6.684 I-0.915 J0.000 F1999.800
G2 X-219.085 Y-200.000 Z6.421 I0.915 J0.000 F1999.800
G2 X-220.915 Y-200.000 Z6.158 I-0.915 J0.000 F1999.800
G2 X-219.085 Y-200.000 Z5.895 I0.915 J0.000 F1999.800
G2 X-220.915 Y-200.000 Z5.632 I-0.915 J0.000 F1999.800
G2 X-219.085 Y-200.000 Z5.368 I0.915 J0.000 F1999.800
G2 X-220.915 Y-200.000 Z5.105 I-0.915 J0.000 F1999.800
G2 X-219.085 Y-200.000 Z4.842 I0.915 J0.000 F1999.800
G2 X-220.915 Y-200.000 Z4.579 I-0.915 J0.000 F1999.800
G2 X-219.085 Y-200.000 Z4.316 I0.915 J0.000 F1999.800
G2 X-220.915 Y-200.000 Z4.053 I-0.915 J0.000 F1999.800
G2 X-219.085 Y-200.000 Z3.789 I0.915 J0.000 F1999.800
G2 X-220.915 Y-200.000 Z3.526 I-0.915 J0.000 F1999.800
G2 X-219.085 Y-200.000 Z3.263 I0.915 J0.000 F1999.800
G2 X-220.915 Y-200.000 Z3.000 I-0.915 J0.000 F1999.800
G2 X-219.085 Y-200.000 Z2.737 I0.915 J0.000 F1999.800
G2 X-220.915 Y-200.000 Z2.474 I-0.915 J0.000 F1999.800
G2 X-219.085 Y-200.000 Z2.211 I0.915 J0.000 F1999.800
G2 X-220.915 Y-200.000 Z1.947 I-0.915 J0.000 F1999.800
G2 X-219.085 Y-200.000 Z1.684 I0.915 J0.000 F1999.800
G2 X-220.915 Y-200.000 Z1.421 I-0.915 J0.000 F1999.800
G2 X-219.085 Y-200.000 Z1.158 I0.915 J0.000 F1999.800
G2 X-220.915 Y-200.000 Z0.895 I-0.915 J0.000 F1999.800
G2 X-219.085 Y-200.000 Z0.632 I0.915 J0.000 F1999.800
G2 X-220.915 Y-200.000 Z0.368 I-0.915 J0.000 F1999.800
G2 X-219.085 Y-200.000 Z0.105 I0.915 J0.000 F1999.800
G2 X-220.915 Y-200.000 Z-0.158 I-0.915 J0.000 F1999.800
G2 X-219.085 Y-200.000 Z-0.421 I0.915 J0.000 F1999.800
G2 X-220.915 Y-200.000 Z-0.684 I-0.915 J0.000 F1999.800
G2 X-219.085 Y-200.000 Z-0.947 I0.915 J0.000 F1999.800
G2 X-220.915 Y-200.000 Z-1.211 I-0.915 J0.000 F1999.800
G2 X-219.085 Y-200.000 Z-1.474 I0.915 J0.000 F1999.800
G2 X-220.915 Y-200.000 Z-1.737 I-0.915 J0.000 F1999.800
G2 X-219.085 Y-200.000 Z-2.000 I0.915 J0.000 F1999.800
G2 X-220.915 Y-200.000 Z-2.000 I-0.915 J0.000 F1999.800
G2 X-219.085 Y-200.000 Z-2.000 I0.915 J0.000 F1999.800
G0 Z21.000
G0 Z23.000
(Finish operation: Hole_18mm)
(Begin operation: Counterbore_18mm_17mm)
(Path: Counterbore_18mm_17mm)
(Counterbore_18mm_17mm)
(helix cut operation)
G0 Z23.000
G0 X221.189 Y-200.000
G0 Z21.000
G1 Z18.000 F999.600
G2 X218.811 Y-200.000 Z17.750 I-1.189 J0.000 F1999.800
G2 X221.189 Y-200.000 Z17.500 I1.189 J0.000 F1999.800
G2 X218.811 Y-200.000 Z17.250 I-1.189 J0.000 F1999.800
G2 X221.189 Y-200.000 Z17.000 I1.189 J0.000 F1999.800
G2 X218.811 Y-200.000 Z17.000 I-1.189 J0.000 F1999.800
G2 X221.189 Y-200.000 Z17.000 I1.189 J0.000 F1999.800
G0 Z21.000
G0 X223.415 Y-200.000
G0 Z21.000
G1 Z18.000 F999.600
G2 X216.585 Y-200.000 Z17.750 I-3.415 J0.000 F1999.800
G2 X223.415 Y-200.000 Z17.500 I3.415 J0.000 F1999.800
G2 X216.585 Y-200.000 Z17.250 I-3.415 J0.000 F1999.800
G2 X223.415 Y-200.000 Z17.000 I3.415 J0.000 F1999.800
G2 X216.585 Y-200.000 Z17.000 I-3.415 J0.000 F1999.800
G2 X223.415 Y-200.000 Z17.000 I3.415 J0.000 F1999.800
G0 Z21.000
G0 X221.189 Y200.000
G0 Z21.000
G1 Z18.000 F999.600
G2 X218.811 Y200.000 Z17.750 I-1.189 J0.000 F1999.800
G2 X221.189 Y200.000 Z17.500 I1.189 J0.000 F1999.800
G2 X218.811 Y200.000 Z17.250 I-1.189 J0.000 F1999.800
G2 X221.189 Y200.000 Z17.000 I1.189 J0.000 F1999.800
G2 X218.811 Y200.000 Z17.000 I-1.189 J0.000 F1999.800
G2 X221.189 Y200.000 Z17.000 I1.189 J0.000 F1999.800
G0 Z21.000
G0 X223.415 Y200.000
G0 Z21.000
G1 Z18.000 F999.600
G2 X216.585 Y200.000 Z17.750 I-3.415 J0.000 F1999.800
G2 X223.415 Y200.000 Z17.500 I3.415 J0.000 F1999.800
G2 X216.585 Y200.000 Z17.250 I-3.415 J0.000 F1999.800
G2 X223.415 Y200.000 Z17.000 I3.415 J0.000 F1999.800
G2 X216.585 Y200.000 Z17.000 I-3.415 J0.000 F1999.800
G2 X223.415 Y200.000 Z17.000 I3.415 J0.000 F1999.800
G0 Z21.000
G0 X-218.811 Y200.000
G0 Z21.000
G1 Z18.000 F999.600
G2 X-221.189 Y200.000 Z17.750 I-1.189 J0.000 F1999.800
G2 X-218.811 Y200.000 Z17.500 I1.189 J0.000 F1999.800
G2 X-221.189 Y200.000 Z17.250 I-1.189 J0.000 F1999.800
G2 X-218.811 Y200.000 Z17.000 I1.189 J0.000 F1999.800
G2 X-221.189 Y200.000 Z17.000 I-1.189 J0.000 F1999.800
G2 X-218.811 Y200.000 Z17.000 I1.189 J0.000 F1999.800
G0 Z21.000
G0 X-216.585 Y200.000
G0 Z21.000
G1 Z18.000 F999.600
G2 X-223.415 Y200.000 Z17.750 I-3.415 J0.000 F1999.800
G2 X-216.585 Y200.000 Z17.500 I3.415 J0.000 F1999.800
G2 X-223.415 Y200.000 Z17.250 I-3.415 J0.000 F1999.800
G2 X-216.585 Y200.000 Z17.000 I3.415 J0.000 F1999.800
G2 X-223.415 Y200.000 Z17.000 I-3.415 J0.000 F1999.800
G2 X-216.585 Y200.000 Z17.000 I3.415 J0.000 F1999.800
G0 Z21.000
G0 X-218.811 Y-200.000
G0 Z21.000
G1 Z18.000 F999.600
G2 X-221.189 Y-200.000 Z17.750 I-1.189 J0.000 F1999.800
G2 X-218.811 Y-200.000 Z17.500 I1.189 J0.000 F1999.800
G2 X-221.189 Y-200.000 Z17.250 I-1.189 J0.000 F1999.800
G2 X-218.811 Y-200.000 Z17.000 I1.189 J0.000 F1999.800
G2 X-221.189 Y-200.000 Z17.000 I-1.189 J0.000 F1999.800
G2 X-218.811 Y-200.000 Z17.000 I1.189 J0.000 F1999.800
G0 Z21.000
G0 X-216.585 Y-200.000
G0 Z21.000
G1 Z18.000 F999.600
G2 X-223.415 Y-200.000 Z17.750 I-3.415 J0.000 F1999.800
G2 X-216.585 Y-200.000 Z17.500 I3.415 J0.000 F1999.800
G2 X-223.415 Y-200.000 Z17.250 I-3.415 J0.000 F1999.800
G2 X-216.585 Y-200.000 Z17.000 I3.415 J0.000 F1999.800
G2 X-223.415 Y-200.000 Z17.000 I-3.415 J0.000 F1999.800
G2 X-216.585 Y-200.000 Z17.000 I3.415 J0.000 F1999.800
G0 Z21.000
G0 Z23.000
(Finish operation: Counterbore_18mm_17mm)
(Begin postamble)
M5
G17 G90
M2
