(Exported by FreeCAD)
(Post Processor: grbl_post)
(Output Time:2020-05-25 17:27:36.041465)
(Begin preamble)
G17 G90
G21
(Begin operation: Fixture)
(Path: Fixture)
G54
(Finish operation: Fixture)
(Begin operation: T6: 2FluteWoodMill006)
(Path: T6: 2FluteWoodMill006)
(T6: 2FluteWoodMill006)
(Begin toolchange)
(M6 T6.0)
M3 S14000.0
G4 P5
(Finish operation: T6: 2FluteWoodMill006)
(Begin operation: Joint_Pocket)
(Path: Joint_Pocket)
(Joint_Pocket)
G0 Z17.800
G0 X123.554 Y157.446
G0 Z15.800
G1 X123.554 Y157.446 Z12.400 F999.600
G1 X14.211 Y6.949 Z12.400 F1999.800
G1 X2.217 Y15.663 Z12.400 F1999.800
G1 X111.560 Y166.160 Z12.400 F1999.800
G1 X112.226 Y165.676 Z12.400 F1999.800
G2 X112.246 Y165.552 Z12.400 I-0.004 J-0.065 K0.000 F1999.800
G1 X58.094 Y91.017 Z12.400 F1999.800
G3 X58.445 Y88.800 Z12.400 I1.284 J-0.933 K0.000 F1999.800
G1 X66.393 Y83.025 Z12.400 F1999.800
G3 X68.611 Y83.376 Z12.400 I0.933 J1.284 K0.000 F1999.800
G1 X122.763 Y157.911 Z12.400 F1999.800
G1 X122.818 Y157.970 Z12.400 F1999.800
G2 X123.554 Y157.446 Z12.400 I-1.956 J-3.529 K0.000 F1999.800
G0 Z17.800
G0 X65.096 Y81.037 Z17.800
G0 X65.096 Y81.037 Z15.800
G1 X65.096 Y81.037 Z12.400 F999.600
G1 X13.684 Y10.275 Z12.400 F1999.800
G1 X5.544 Y16.190 Z12.400 F1999.800
G1 X56.954 Y86.950 Z12.400 F1999.800
G1 X57.045 Y86.874 Z12.400 F1999.800
G1 X64.994 Y81.099 Z12.400 F1999.800
G1 X65.096 Y81.037 Z12.400 F1999.800
G0 Z17.800
G0 X61.764 Y80.502 Z17.800
G0 X61.764 Y80.502 Z15.800
G1 X61.764 Y80.502 Z12.400 F999.600
G1 X13.157 Y13.601 Z12.400 F1999.800
G1 X8.870 Y16.717 Z12.400 F1999.800
G1 X57.476 Y83.617 Z12.400 F1999.800
G1 X61.764 Y80.502 Z12.400 F1999.800
G0 Z17.800
G0 X58.438 Y79.975 Z17.800
G0 X58.438 Y79.975 Z15.800
G1 X58.438 Y79.975 Z12.400 F999.600
G1 X12.631 Y16.927 Z12.400 F1999.800
G1 X12.196 Y17.243 Z12.400 F1999.800
G1 X58.003 Y80.291 Z12.400 F1999.800
G1 X58.438 Y79.975 Z12.400 F1999.800
G0 Z17.800
G0 X31.644 Y-2.488 Z17.800
G0 X31.644 Y-2.488 Z15.800
G1 X31.644 Y-2.488 Z12.400 F999.600
G1 X192.502 Y-54.754 Z12.400 F1999.800
G1 X192.247 Y-55.537 Z12.400 F1999.800
G2 X192.135 Y-55.594 Z12.400 I-0.063 J-0.016 K0.000 F1999.800
G1 X104.515 Y-27.124 Z12.400 F1999.800
G3 X102.514 Y-28.144 Z12.400 I-0.491 J-1.510 K0.000 F1999.800
G1 X99.478 Y-37.488 Z12.400 F1999.800
G3 X100.497 Y-39.488 Z12.400 I1.510 J-0.491 K0.000 F1999.800
G1 X188.118 Y-67.958 Z12.400 F1999.800
G1 X188.191 Y-67.991 Z12.400 F1999.800
G2 X187.921 Y-68.853 Z12.400 I-3.961 J0.770 K0.000 F1999.800
G1 X11.000 Y-11.368 Z12.400 F1999.800
G1 X15.582 Y2.731 Z12.400 F1999.800
G1 X31.644 Y-2.488 Z12.400 F1999.800
G0 Z17.800
G0 X30.908 Y-4.752 Z17.800
G0 X30.908 Y-4.752 Z15.800
G1 X30.908 Y-4.752 Z12.400 F999.600
G1 X100.294 Y-27.297 Z12.400 F1999.800
G1 X100.250 Y-27.408 Z12.400 F1999.800
G1 X97.213 Y-36.752 Z12.400 F1999.800
G1 X97.187 Y-36.868 Z12.400 F1999.800
G1 X14.001 Y-9.839 Z12.400 F1999.800
G1 X17.110 Y-0.269 Z12.400 F1999.800
G1 X30.908 Y-4.752 Z12.400 F1999.800
G0 Z17.800
G0 X30.172 Y-7.017 Z17.800
G0 X30.172 Y-7.017 Z15.800
G1 X30.172 Y-7.017 Z12.400 F999.600
G1 X97.286 Y-28.824 Z12.400 F1999.800
G1 X95.648 Y-33.864 Z12.400 F1999.800
G1 X17.001 Y-8.310 Z12.400 F1999.800
G1 X18.639 Y-3.270 Z12.400 F1999.800
G1 X30.172 Y-7.017 Z12.400 F1999.800
G0 Z17.800
G0 X29.436 Y-9.282 Z17.800
G0 X29.436 Y-9.282 Z15.800
G1 X29.436 Y-9.282 Z12.400 F999.600
G1 X94.285 Y-30.353 Z12.400 F1999.800
G1 X94.119 Y-30.864 Z12.400 F1999.800
G1 X20.002 Y-6.782 Z12.400 F1999.800
G1 X20.168 Y-6.270 Z12.400 F1999.800
G1 X29.436 Y-9.282 Z12.400 F1999.800
G0 Z17.800
G0 X7.412 Y-13.975 Z17.800
G0 X7.412 Y-13.975 Z15.800
G1 X7.412 Y-13.975 Z12.400 F999.600
G1 X7.412 Y-200.000 Z12.400 F1999.800
G1 X6.589 Y-200.000 Z12.400 F1999.800
G2 X6.500 Y-199.911 Z12.400 I-0.034 J0.055 K0.000 F1999.800
G1 X6.500 Y-107.781 Z12.400 F1999.800
G3 X4.912 Y-106.194 Z12.400 I-1.587 J0.000 K0.000 F1999.800
G1 X-4.912 Y-106.194 Z12.400 F1999.800
G3 X-6.500 Y-107.781 Z12.400 I-0.000 J-1.587 K0.000 F1999.800
G1 X-6.500 Y-199.911 Z12.400 F1999.800
G1 X-6.509 Y-199.991 Z12.400 F1999.800
G2 X-7.412 Y-200.000 Z12.400 I-0.492 J4.005 K0.000 F1999.800
G1 X-7.412 Y-13.975 Z12.400 F1999.800
G1 X7.412 Y-13.975 Z12.400 F1999.800
G0 Z17.800
G0 X5.031 Y-16.356 Z17.800
G0 X5.031 Y-16.356 Z15.800
G1 X5.031 Y-16.356 Z12.400 F999.600
G1 X5.031 Y-103.821 Z12.400 F1999.800
G1 X4.912 Y-103.812 Z12.400 F1999.800
G1 X-4.912 Y-103.812 Z12.400 F1999.800
G1 X-5.031 Y-103.823 Z12.400 F1999.800
G1 X-5.031 Y-16.356 Z12.400 F1999.800
G1 X5.031 Y-16.356 Z12.400 F1999.800
G0 Z17.800
G0 X2.650 Y-18.737 Z17.800
G0 X2.650 Y-18.737 Z15.800
G1 X2.650 Y-18.737 Z12.400 F999.600
G1 X2.650 Y-101.431 Z12.400 F1999.800
G1 X-2.650 Y-101.431 Z12.400 F1999.800
G1 X-2.650 Y-18.737 Z12.400 F1999.800
G1 X2.650 Y-18.737 Z12.400 F1999.800
G0 Z17.800
G0 X0.269 Y-21.119 Z17.800
G0 X0.269 Y-21.119 Z15.800
G1 X0.269 Y-21.119 Z12.400 F999.600
G1 X0.269 Y-99.050 Z12.400 F1999.800
G1 X-0.269 Y-99.050 Z12.400 F1999.800
G1 X-0.269 Y-21.119 Z12.400 F1999.800
G1 X0.269 Y-21.119 Z12.400 F1999.800
G0 Z17.800
G0 X-11.000 Y-11.368 Z17.800
G0 X-11.000 Y-11.368 Z15.800
G1 X-11.000 Y-11.368 Z12.400 F999.600
G1 X-187.921 Y-68.853 Z12.400 F1999.800
G1 X-188.175 Y-68.070 Z12.400 F1999.800
G2 X-188.118 Y-67.958 Z12.400 I0.041 J0.050 K0.000 F1999.800
G1 X-100.497 Y-39.488 Z12.400 F1999.800
G3 X-99.478 Y-37.488 Z12.400 I-0.491 J1.510 K0.000 F1999.800
G1 X-102.514 Y-28.144 Z12.400 F1999.800
G3 X-104.515 Y-27.124 Z12.400 I-1.510 J-0.491 K0.000 F1999.800
G1 X-192.135 Y-55.594 Z12.400 F1999.800
G1 X-192.214 Y-55.610 Z12.400 F1999.800
G2 X-192.502 Y-54.754 Z12.400 I3.657 J1.705 K0.000 F1999.800
G1 X-15.582 Y2.731 Z12.400 F1999.800
G1 X-11.000 Y-11.368 Z12.400 F1999.800
G0 Z17.800
G0 X-14.001 Y-9.839 Z17.800
G0 X-14.001 Y-9.839 Z15.800
G1 X-14.001 Y-9.839 Z12.400 F999.600
G1 X-97.185 Y-36.867 Z12.400 F1999.800
G1 X-97.213 Y-36.752 Z12.400 F1999.800
G1 X-100.250 Y-27.408 Z12.400 F1999.800
G1 X-100.296 Y-27.298 Z12.400 F1999.800
G1 X-17.110 Y-0.269 Z12.400 F1999.800
G1 X-14.001 Y-9.839 Z12.400 F1999.800
G0 Z17.800
G0 X-17.001 Y-8.310 Z17.800
G0 X-17.001 Y-8.310 Z15.800
G1 X-17.001 Y-8.310 Z12.400 F999.600
G1 X-95.648 Y-33.864 Z12.400 F1999.800
G1 X-97.286 Y-28.824 Z12.400 F1999.800
G1 X-18.639 Y-3.270 Z12.400 F1999.800
G1 X-17.001 Y-8.310 Z12.400 F1999.800
G0 Z17.800
G0 X-20.002 Y-6.782 Z17.800
G0 X-20.002 Y-6.782 Z15.800
G1 X-20.002 Y-6.782 Z12.400 F999.600
G1 X-94.119 Y-30.864 Z12.400 F1999.800
G1 X-94.285 Y-30.353 Z12.400 F1999.800
G1 X-20.168 Y-6.270 Z12.400 F1999.800
G1 X-20.002 Y-6.782 Z12.400 F1999.800
G0 Z17.800
G0 X-14.211 Y6.949 Z17.800
G0 X-14.211 Y6.949 Z15.800
G1 X-14.211 Y6.949 Z12.400 F999.600
G1 X-123.554 Y157.446 Z12.400 F1999.800
G1 X-122.888 Y157.930 Z12.400 F1999.800
G2 X-122.763 Y157.911 Z12.400 I0.060 J-0.024 K0.000 F1999.800
G1 X-68.611 Y83.376 Z12.400 F1999.800
G3 X-66.393 Y83.025 Z12.400 I1.284 J0.933 K0.000 F1999.800
G1 X-58.445 Y88.800 Z12.400 F1999.800
G3 X-58.094 Y91.017 Z12.400 I-0.933 J1.284 K0.000 F1999.800
G1 X-112.246 Y165.552 Z12.400 F1999.800
G1 X-112.286 Y165.622 Z12.400 F1999.800
G2 X-111.560 Y166.160 Z12.400 I2.752 J-2.951 K0.000 F1999.800
G1 X-2.217 Y15.663 Z12.400 F1999.800
G1 X-14.211 Y6.949 Z12.400 F1999.800
G0 Z17.800
G0 X-13.684 Y10.275 Z17.800
G0 X-13.684 Y10.275 Z15.800
G1 X-13.684 Y10.275 Z12.400 F999.600
G1 X-65.095 Y81.035 Z12.400 F1999.800
G1 X-64.994 Y81.099 Z12.400 F1999.800
G1 X-57.045 Y86.874 Z12.400 F1999.800
G1 X-56.955 Y86.952 Z12.400 F1999.800
G1 X-5.544 Y16.190 Z12.400 F1999.800
G1 X-13.684 Y10.275 Z12.400 F1999.800
G0 Z17.800
G0 X-13.157 Y13.601 Z17.800
G0 X-13.157 Y13.601 Z15.800
G1 X-13.157 Y13.601 Z12.400 F999.600
G1 X-61.764 Y80.502 Z12.400 F1999.800
G1 X-57.476 Y83.617 Z12.400 F1999.800
G1 X-8.870 Y16.717 Z12.400 F1999.800
G1 X-13.157 Y13.601 Z12.400 F1999.800
G0 Z17.800
G0 X-12.631 Y16.927 Z17.800
G0 X-12.631 Y16.927 Z15.800
G1 X-12.631 Y16.927 Z12.400 F999.600
G1 X-58.438 Y79.975 Z12.400 F1999.800
G1 X-58.003 Y80.291 Z12.400 F1999.800
G1 X-12.196 Y17.243 Z12.400 F1999.800
G1 X-12.631 Y16.927 Z12.400 F1999.800
G1 X-12.631 Y16.927 Z12.000 F999.600
G1 X-58.438 Y79.975 Z12.000 F1999.800
G1 X-58.003 Y80.291 Z12.000 F1999.800
G1 X-12.196 Y17.243 Z12.000 F1999.800
G1 X-12.631 Y16.927 Z12.000 F1999.800
G0 Z17.800
G0 X-11.231 Y15.001 Z17.800
G0 X-11.231 Y15.001 Z15.800
G1 X-11.231 Y15.001 Z12.000 F999.600
G1 X-13.157 Y13.601 Z12.000 F1999.800
G1 X-61.764 Y80.502 Z12.000 F1999.800
G1 X-57.476 Y83.617 Z12.000 F1999.800
G1 X-8.870 Y16.717 Z12.000 F1999.800
G1 X-11.231 Y15.001 Z12.000 F1999.800
G0 Z17.800
G0 X-9.831 Y13.074 Z17.800
G0 X-9.831 Y13.074 Z15.800
G1 X-9.831 Y13.074 Z12.000 F999.600
G1 X-13.684 Y10.275 Z12.000 F1999.800
G1 X-65.095 Y81.035 Z12.000 F1999.800
G1 X-64.994 Y81.099 Z12.000 F1999.800
G1 X-57.045 Y86.874 Z12.000 F1999.800
G1 X-56.955 Y86.952 Z12.000 F1999.800
G1 X-5.544 Y16.190 Z12.000 F1999.800
G1 X-9.831 Y13.074 Z12.000 F1999.800
G0 Z17.800
G0 X-8.432 Y11.148 Z17.800
G0 X-8.432 Y11.148 Z15.800
G1 X-8.432 Y11.148 Z12.000 F999.600
G1 X-14.211 Y6.949 Z12.000 F1999.800
G1 X-123.554 Y157.446 Z12.000 F1999.800
G1 X-122.888 Y157.930 Z12.000 F1999.800
G2 X-122.763 Y157.911 Z12.000 I0.060 J-0.024 K0.000 F1999.800
G1 X-68.611 Y83.376 Z12.000 F1999.800
G3 X-66.393 Y83.025 Z12.000 I1.284 J0.933 K0.000 F1999.800
G1 X-58.445 Y88.800 Z12.000 F1999.800
G3 X-58.094 Y91.017 Z12.000 I-0.933 J1.284 K0.000 F1999.800
G1 X-112.246 Y165.552 Z12.000 F1999.800
G1 X-112.286 Y165.622 Z12.000 F1999.800
G2 X-111.560 Y166.160 Z12.000 I2.752 J-2.951 K0.000 F1999.800
G1 X-2.217 Y15.663 Z12.000 F1999.800
G1 X-8.432 Y11.148 Z12.000 F1999.800
G0 Z17.800
G0 X-15.582 Y2.731 Z17.800
G0 X-15.582 Y2.731 Z15.800
G1 X-15.582 Y2.731 Z12.000 F999.600
G1 X-11.000 Y-11.368 Z12.000 F1999.800
G1 X-187.921 Y-68.853 Z12.000 F1999.800
G1 X-188.175 Y-68.070 Z12.000 F1999.800
G2 X-188.118 Y-67.958 Z12.000 I0.041 J0.050 K0.000 F1999.800
G1 X-100.497 Y-39.488 Z12.000 F1999.800
G3 X-99.478 Y-37.488 Z12.000 I-0.491 J1.510 K0.000 F1999.800
G1 X-102.514 Y-28.144 Z12.000 F1999.800
G3 X-104.515 Y-27.124 Z12.000 I-1.510 J-0.491 K0.000 F1999.800
G1 X-192.135 Y-55.594 Z12.000 F1999.800
G1 X-192.214 Y-55.610 Z12.000 F1999.800
G2 X-192.502 Y-54.754 Z12.000 I3.657 J1.705 K0.000 F1999.800
G1 X-15.582 Y2.731 Z12.000 F1999.800
G0 Z17.800
G0 X-17.110 Y-0.269 Z17.800
G0 X-17.110 Y-0.269 Z15.800
G1 X-17.110 Y-0.269 Z12.000 F999.600
G1 X-14.001 Y-9.839 Z12.000 F1999.800
G1 X-97.185 Y-36.867 Z12.000 F1999.800
G1 X-97.213 Y-36.752 Z12.000 F1999.800
G1 X-100.250 Y-27.408 Z12.000 F1999.800
G1 X-100.296 Y-27.298 Z12.000 F1999.800
G1 X-17.110 Y-0.269 Z12.000 F1999.800
G0 Z17.800
G0 X-18.639 Y-3.270 Z17.800
G0 X-18.639 Y-3.270 Z15.800
G1 X-18.639 Y-3.270 Z12.000 F999.600
G1 X-17.001 Y-8.310 Z12.000 F1999.800
G1 X-95.648 Y-33.864 Z12.000 F1999.800
G1 X-97.286 Y-28.824 Z12.000 F1999.800
G1 X-18.639 Y-3.270 Z12.000 F1999.800
G0 Z17.800
G0 X-20.168 Y-6.270 Z17.800
G0 X-20.168 Y-6.270 Z15.800
G1 X-20.168 Y-6.270 Z12.000 F999.600
G1 X-20.002 Y-6.782 Z12.000 F1999.800
G1 X-94.119 Y-30.864 Z12.000 F1999.800
G1 X-94.285 Y-30.353 Z12.000 F1999.800
G1 X-20.168 Y-6.270 Z12.000 F1999.800
G0 Z17.800
G0 X-7.412 Y-13.975 Z17.800
G0 X-7.412 Y-13.975 Z15.800
G1 X-7.412 Y-13.975 Z12.000 F999.600
G1 X7.412 Y-13.975 Z12.000 F1999.800
G1 X7.412 Y-200.000 Z12.000 F1999.800
G1 X6.589 Y-200.000 Z12.000 F1999.800
G2 X6.500 Y-199.911 Z12.000 I-0.034 J0.055 K0.000 F1999.800
G1 X6.500 Y-107.781 Z12.000 F1999.800
G3 X4.912 Y-106.194 Z12.000 I-1.587 J0.000 K0.000 F1999.800
G1 X-4.912 Y-106.194 Z12.000 F1999.800
G3 X-6.500 Y-107.781 Z12.000 I-0.000 J-1.587 K0.000 F1999.800
G1 X-6.500 Y-199.911 Z12.000 F1999.800
G1 X-6.509 Y-199.991 Z12.000 F1999.800
G2 X-7.412 Y-200.000 Z12.000 I-0.492 J4.005 K0.000 F1999.800
G1 X-7.412 Y-13.975 Z12.000 F1999.800
G0 Z17.800
G0 X-5.031 Y-16.356 Z17.800
G0 X-5.031 Y-16.356 Z15.800
G1 X-5.031 Y-16.356 Z12.000 F999.600
G1 X5.031 Y-16.356 Z12.000 F1999.800
G1 X5.031 Y-103.821 Z12.000 F1999.800
G1 X4.912 Y-103.812 Z12.000 F1999.800
G1 X-4.912 Y-103.812 Z12.000 F1999.800
G1 X-5.031 Y-103.823 Z12.000 F1999.800
G1 X-5.031 Y-16.356 Z12.000 F1999.800
G0 Z17.800
G0 X-2.650 Y-18.737 Z17.800
G0 X-2.650 Y-18.737 Z15.800
G1 X-2.650 Y-18.737 Z12.000 F999.600
G1 X2.650 Y-18.737 Z12.000 F1999.800
G1 X2.650 Y-101.431 Z12.000 F1999.800
G1 X-2.650 Y-101.431 Z12.000 F1999.800
G1 X-2.650 Y-18.737 Z12.000 F1999.800
G0 Z17.800
G0 X-0.269 Y-21.119 Z17.800
G0 X-0.269 Y-21.119 Z15.800
G1 X-0.269 Y-21.119 Z12.000 F999.600
G1 X0.269 Y-21.119 Z12.000 F1999.800
G1 X0.269 Y-99.050 Z12.000 F1999.800
G1 X-0.269 Y-99.050 Z12.000 F1999.800
G1 X-0.269 Y-21.119 Z12.000 F1999.800
G0 Z17.800
G0 X11.000 Y-11.368 Z17.800
G0 X11.000 Y-11.368 Z15.800
G1 X11.000 Y-11.368 Z12.000 F999.600
G1 X15.582 Y2.731 Z12.000 F1999.800
G1 X192.502 Y-54.754 Z12.000 F1999.800
G1 X192.247 Y-55.537 Z12.000 F1999.800
G2 X192.135 Y-55.594 Z12.000 I-0.063 J-0.016 K0.000 F1999.800
G1 X104.515 Y-27.124 Z12.000 F1999.800
G3 X102.514 Y-28.144 Z12.000 I-0.491 J-1.510 K0.000 F1999.800
G1 X99.478 Y-37.488 Z12.000 F1999.800
G3 X100.497 Y-39.488 Z12.000 I1.510 J-0.491 K0.000 F1999.800
G1 X188.118 Y-67.958 Z12.000 F1999.800
G1 X188.191 Y-67.991 Z12.000 F1999.800
G2 X187.921 Y-68.853 Z12.000 I-3.961 J0.770 K0.000 F1999.800
G1 X11.000 Y-11.368 Z12.000 F1999.800
G0 Z17.800
G0 X14.001 Y-9.839 Z17.800
G0 X14.001 Y-9.839 Z15.800
G1 X14.001 Y-9.839 Z12.000 F999.600
G1 X17.110 Y-0.269 Z12.000 F1999.800
G1 X100.294 Y-27.297 Z12.000 F1999.800
G1 X100.250 Y-27.408 Z12.000 F1999.800
G1 X97.213 Y-36.752 Z12.000 F1999.800
G1 X97.187 Y-36.868 Z12.000 F1999.800
G1 X14.001 Y-9.839 Z12.000 F1999.800
G0 Z17.800
G0 X17.001 Y-8.310 Z17.800
G0 X17.001 Y-8.310 Z15.800
G1 X17.001 Y-8.310 Z12.000 F999.600
G1 X18.639 Y-3.270 Z12.000 F1999.800
G1 X97.286 Y-28.824 Z12.000 F1999.800
G1 X95.648 Y-33.864 Z12.000 F1999.800
G1 X17.001 Y-8.310 Z12.000 F1999.800
G0 Z17.800
G0 X20.002 Y-6.782 Z17.800
G0 X20.002 Y-6.782 Z15.800
G1 X20.002 Y-6.782 Z12.000 F999.600
G1 X20.168 Y-6.270 Z12.000 F1999.800
G1 X94.285 Y-30.353 Z12.000 F1999.800
G1 X94.119 Y-30.864 Z12.000 F1999.800
G1 X20.002 Y-6.782 Z12.000 F1999.800
G0 Z17.800
G0 X14.211 Y6.949 Z17.800
G0 X14.211 Y6.949 Z15.800
G1 X14.211 Y6.949 Z12.000 F999.600
G1 X2.217 Y15.663 Z12.000 F1999.800
G1 X111.560 Y166.160 Z12.000 F1999.800
G1 X112.226 Y165.676 Z12.000 F1999.800
G2 X112.246 Y165.552 Z12.000 I-0.004 J-0.065 K0.000 F1999.800
G1 X58.094 Y91.017 Z12.000 F1999.800
G3 X58.445 Y88.800 Z12.000 I1.284 J-0.933 K0.000 F1999.800
G1 X66.393 Y83.025 Z12.000 F1999.800
G3 X68.611 Y83.376 Z12.000 I0.933 J1.284 K0.000 F1999.800
G1 X122.763 Y157.911 Z12.000 F1999.800
G1 X122.818 Y157.970 Z12.000 F1999.800
G2 X123.554 Y157.446 Z12.000 I-1.956 J-3.529 K0.000 F1999.800
G1 X14.211 Y6.949 Z12.000 F1999.800
G0 Z17.800
G0 X13.684 Y10.275 Z17.800
G0 X13.684 Y10.275 Z15.800
G1 X13.684 Y10.275 Z12.000 F999.600
G1 X5.544 Y16.190 Z12.000 F1999.800
G1 X56.954 Y86.950 Z12.000 F1999.800
G1 X57.045 Y86.874 Z12.000 F1999.800
G1 X64.994 Y81.099 Z12.000 F1999.800
G1 X65.096 Y81.037 Z12.000 F1999.800
G1 X13.684 Y10.275 Z12.000 F1999.800
G0 Z17.800
G0 X13.157 Y13.601 Z17.800
G0 X13.157 Y13.601 Z15.800
G1 X13.157 Y13.601 Z12.000 F999.600
G1 X8.870 Y16.717 Z12.000 F1999.800
G1 X57.476 Y83.617 Z12.000 F1999.800
G1 X61.764 Y80.502 Z12.000 F1999.800
G1 X13.157 Y13.601 Z12.000 F1999.800
G0 Z17.800
G0 X12.631 Y16.927 Z17.800
G0 X12.631 Y16.927 Z15.800
G1 X12.631 Y16.927 Z12.000 F999.600
G1 X12.196 Y17.243 Z12.000 F1999.800
G1 X58.003 Y80.291 Z12.000 F1999.800
G1 X58.438 Y79.975 Z12.000 F1999.800
G1 X12.631 Y16.927 Z12.000 F1999.800
G1 X12.631 Y16.927 Z11.600 F999.600
G1 X12.196 Y17.243 Z11.600 F1999.800
G1 X58.003 Y80.291 Z11.600 F1999.800
G1 X58.438 Y79.975 Z11.600 F1999.800
G1 X12.631 Y16.927 Z11.600 F1999.800
G0 Z17.800
G0 X11.231 Y15.001 Z17.800
G0 X11.231 Y15.001 Z15.800
G1 X11.231 Y15.001 Z11.600 F999.600
G1 X8.870 Y16.717 Z11.600 F1999.800
G1 X57.476 Y83.617 Z11.600 F1999.800
G1 X61.764 Y80.502 Z11.600 F1999.800
G1 X13.157 Y13.601 Z11.600 F1999.800
G1 X11.231 Y15.001 Z11.600 F1999.800
G0 Z17.800
G0 X9.831 Y13.074 Z17.800
G0 X9.831 Y13.074 Z15.800
G1 X9.831 Y13.074 Z11.600 F999.600
G1 X5.544 Y16.190 Z11.600 F1999.800
G1 X56.954 Y86.950 Z11.600 F1999.800
G1 X57.045 Y86.874 Z11.600 F1999.800
G1 X64.994 Y81.099 Z11.600 F1999.800
G1 X65.096 Y81.037 Z11.600 F1999.800
G1 X13.684 Y10.275 Z11.600 F1999.800
G1 X9.831 Y13.074 Z11.600 F1999.800
G0 Z17.800
G0 X8.432 Y11.148 Z17.800
G0 X8.432 Y11.148 Z15.800
G1 X8.432 Y11.148 Z11.600 F999.600
G1 X2.217 Y15.663 Z11.600 F1999.800
G1 X111.560 Y166.160 Z11.600 F1999.800
G1 X112.226 Y165.676 Z11.600 F1999.800
G2 X112.246 Y165.552 Z11.600 I-0.004 J-0.065 K0.000 F1999.800
G1 X58.094 Y91.017 Z11.600 F1999.800
G3 X58.445 Y88.800 Z11.600 I1.284 J-0.933 K0.000 F1999.800
G1 X66.393 Y83.025 Z11.600 F1999.800
G3 X68.611 Y83.376 Z11.600 I0.933 J1.284 K0.000 F1999.800
G1 X122.763 Y157.911 Z11.600 F1999.800
G1 X122.818 Y157.970 Z11.600 F1999.800
G2 X123.554 Y157.446 Z11.600 I-1.956 J-3.529 K0.000 F1999.800
G1 X14.211 Y6.949 Z11.600 F1999.800
G1 X8.432 Y11.148 Z11.600 F1999.800
G0 Z17.800
G0 X15.582 Y2.731 Z17.800
G0 X15.582 Y2.731 Z15.800
G1 X15.582 Y2.731 Z11.600 F999.600
G1 X192.502 Y-54.754 Z11.600 F1999.800
G1 X192.247 Y-55.537 Z11.600 F1999.800
G2 X192.135 Y-55.594 Z11.600 I-0.063 J-0.016 K0.000 F1999.800
G1 X104.515 Y-27.124 Z11.600 F1999.800
G3 X102.514 Y-28.144 Z11.600 I-0.491 J-1.510 K0.000 F1999.800
G1 X99.478 Y-37.488 Z11.600 F1999.800
G3 X100.497 Y-39.488 Z11.600 I1.510 J-0.491 K0.000 F1999.800
G1 X188.118 Y-67.958 Z11.600 F1999.800
G1 X188.191 Y-67.991 Z11.600 F1999.800
G2 X187.921 Y-68.853 Z11.600 I-3.961 J0.770 K0.000 F1999.800
G1 X11.000 Y-11.368 Z11.600 F1999.800
G1 X15.582 Y2.731 Z11.600 F1999.800
G0 Z17.800
G0 X17.110 Y-0.269 Z17.800
G0 X17.110 Y-0.269 Z15.800
G1 X17.110 Y-0.269 Z11.600 F999.600
G1 X100.294 Y-27.297 Z11.600 F1999.800
G1 X100.250 Y-27.408 Z11.600 F1999.800
G1 X97.213 Y-36.752 Z11.600 F1999.800
G1 X97.187 Y-36.868 Z11.600 F1999.800
G1 X14.001 Y-9.839 Z11.600 F1999.800
G1 X17.110 Y-0.269 Z11.600 F1999.800
G0 Z17.800
G0 X18.639 Y-3.270 Z17.800
G0 X18.639 Y-3.270 Z15.800
G1 X18.639 Y-3.270 Z11.600 F999.600
G1 X97.286 Y-28.824 Z11.600 F1999.800
G1 X95.648 Y-33.864 Z11.600 F1999.800
G1 X17.001 Y-8.310 Z11.600 F1999.800
G1 X18.639 Y-3.270 Z11.600 F1999.800
G0 Z17.800
G0 X20.168 Y-6.270 Z17.800
G0 X20.168 Y-6.270 Z15.800
G1 X20.168 Y-6.270 Z11.600 F999.600
G1 X94.285 Y-30.353 Z11.600 F1999.800
G1 X94.119 Y-30.864 Z11.600 F1999.800
G1 X20.002 Y-6.782 Z11.600 F1999.800
G1 X20.168 Y-6.270 Z11.600 F1999.800
G0 Z17.800
G0 X7.412 Y-13.975 Z17.800
G0 X7.412 Y-13.975 Z15.800
G1 X7.412 Y-13.975 Z11.600 F999.600
G1 X7.412 Y-200.000 Z11.600 F1999.800
G1 X6.589 Y-200.000 Z11.600 F1999.800
G2 X6.500 Y-199.911 Z11.600 I-0.034 J0.055 K0.000 F1999.800
G1 X6.500 Y-107.781 Z11.600 F1999.800
G3 X4.912 Y-106.194 Z11.600 I-1.587 J0.000 K0.000 F1999.800
G1 X-4.912 Y-106.194 Z11.600 F1999.800
G3 X-6.500 Y-107.781 Z11.600 I-0.000 J-1.587 K0.000 F1999.800
G1 X-6.500 Y-199.911 Z11.600 F1999.800
G1 X-6.509 Y-199.991 Z11.600 F1999.800
G2 X-7.412 Y-200.000 Z11.600 I-0.492 J4.005 K0.000 F1999.800
G1 X-7.412 Y-13.975 Z11.600 F1999.800
G1 X7.412 Y-13.975 Z11.600 F1999.800
G0 Z17.800
G0 X5.031 Y-16.356 Z17.800
G0 X5.031 Y-16.356 Z15.800
G1 X5.031 Y-16.356 Z11.600 F999.600
G1 X5.031 Y-103.821 Z11.600 F1999.800
G1 X4.912 Y-103.812 Z11.600 F1999.800
G1 X-4.912 Y-103.812 Z11.600 F1999.800
G1 X-5.031 Y-103.823 Z11.600 F1999.800
G1 X-5.031 Y-16.356 Z11.600 F1999.800
G1 X5.031 Y-16.356 Z11.600 F1999.800
G0 Z17.800
G0 X2.650 Y-18.737 Z17.800
G0 X2.650 Y-18.737 Z15.800
G1 X2.650 Y-18.737 Z11.600 F999.600
G1 X2.650 Y-101.431 Z11.600 F1999.800
G1 X-2.650 Y-101.431 Z11.600 F1999.800
G1 X-2.650 Y-18.737 Z11.600 F1999.800
G1 X2.650 Y-18.737 Z11.600 F1999.800
G0 Z17.800
G0 X0.269 Y-21.119 Z17.800
G0 X0.269 Y-21.119 Z15.800
G1 X0.269 Y-21.119 Z11.600 F999.600
G1 X0.269 Y-99.050 Z11.600 F1999.800
G1 X-0.269 Y-99.050 Z11.600 F1999.800
G1 X-0.269 Y-21.119 Z11.600 F1999.800
G1 X0.269 Y-21.119 Z11.600 F1999.800
G0 Z17.800
G0 X-11.000 Y-11.368 Z17.800
G0 X-11.000 Y-11.368 Z15.800
G1 X-11.000 Y-11.368 Z11.600 F999.600
G1 X-187.921 Y-68.853 Z11.600 F1999.800
G1 X-188.175 Y-68.070 Z11.600 F1999.800
G2 X-188.118 Y-67.958 Z11.600 I0.041 J0.050 K0.000 F1999.800
G1 X-100.497 Y-39.488 Z11.600 F1999.800
G3 X-99.478 Y-37.488 Z11.600 I-0.491 J1.510 K0.000 F1999.800
G1 X-102.514 Y-28.144 Z11.600 F1999.800
G3 X-104.515 Y-27.124 Z11.600 I-1.510 J-0.491 K0.000 F1999.800
G1 X-192.135 Y-55.594 Z11.600 F1999.800
G1 X-192.214 Y-55.610 Z11.600 F1999.800
G2 X-192.502 Y-54.754 Z11.600 I3.657 J1.705 K0.000 F1999.800
G1 X-15.582 Y2.731 Z11.600 F1999.800
G1 X-11.000 Y-11.368 Z11.600 F1999.800
G0 Z17.800
G0 X-14.001 Y-9.839 Z17.800
G0 X-14.001 Y-9.839 Z15.800
G1 X-14.001 Y-9.839 Z11.600 F999.600
G1 X-97.185 Y-36.867 Z11.600 F1999.800
G1 X-97.213 Y-36.752 Z11.600 F1999.800
G1 X-100.250 Y-27.408 Z11.600 F1999.800
G1 X-100.296 Y-27.298 Z11.600 F1999.800
G1 X-17.110 Y-0.269 Z11.600 F1999.800
G1 X-14.001 Y-9.839 Z11.600 F1999.800
G0 Z17.800
G0 X-17.001 Y-8.310 Z17.800
G0 X-17.001 Y-8.310 Z15.800
G1 X-17.001 Y-8.310 Z11.600 F999.600
G1 X-95.648 Y-33.864 Z11.600 F1999.800
G1 X-97.286 Y-28.824 Z11.600 F1999.800
G1 X-18.639 Y-3.270 Z11.600 F1999.800
G1 X-17.001 Y-8.310 Z11.600 F1999.800
G0 Z17.800
G0 X-20.002 Y-6.782 Z17.800
G0 X-20.002 Y-6.782 Z15.800
G1 X-20.002 Y-6.782 Z11.600 F999.600
G1 X-94.119 Y-30.864 Z11.600 F1999.800
G1 X-94.285 Y-30.353 Z11.600 F1999.800
G1 X-20.168 Y-6.270 Z11.600 F1999.800
G1 X-20.002 Y-6.782 Z11.600 F1999.800
G0 Z17.800
G0 X-14.211 Y6.949 Z17.800
G0 X-14.211 Y6.949 Z15.800
G1 X-14.211 Y6.949 Z11.600 F999.600
G1 X-123.554 Y157.446 Z11.600 F1999.800
G1 X-122.888 Y157.930 Z11.600 F1999.800
G2 X-122.763 Y157.911 Z11.600 I0.060 J-0.024 K0.000 F1999.800
G1 X-68.611 Y83.376 Z11.600 F1999.800
G3 X-66.393 Y83.025 Z11.600 I1.284 J0.933 K0.000 F1999.800
G1 X-58.445 Y88.800 Z11.600 F1999.800
G3 X-58.094 Y91.017 Z11.600 I-0.933 J1.284 K0.000 F1999.800
G1 X-112.246 Y165.552 Z11.600 F1999.800
G1 X-112.286 Y165.622 Z11.600 F1999.800
G2 X-111.560 Y166.160 Z11.600 I2.752 J-2.951 K0.000 F1999.800
G1 X-2.217 Y15.663 Z11.600 F1999.800
G1 X-14.211 Y6.949 Z11.600 F1999.800
G0 Z17.800
G0 X-13.684 Y10.275 Z17.800
G0 X-13.684 Y10.275 Z15.800
G1 X-13.684 Y10.275 Z11.600 F999.600
G1 X-65.095 Y81.035 Z11.600 F1999.800
G1 X-64.994 Y81.099 Z11.600 F1999.800
G1 X-57.045 Y86.874 Z11.600 F1999.800
G1 X-56.955 Y86.952 Z11.600 F1999.800
G1 X-5.544 Y16.190 Z11.600 F1999.800
G1 X-13.684 Y10.275 Z11.600 F1999.800
G0 Z17.800
G0 X-13.157 Y13.601 Z17.800
G0 X-13.157 Y13.601 Z15.800
G1 X-13.157 Y13.601 Z11.600 F999.600
G1 X-61.764 Y80.502 Z11.600 F1999.800
G1 X-57.476 Y83.617 Z11.600 F1999.800
G1 X-8.870 Y16.717 Z11.600 F1999.800
G1 X-13.157 Y13.601 Z11.600 F1999.800
G0 Z17.800
G0 X-12.631 Y16.927 Z17.800
G0 X-12.631 Y16.927 Z15.800
G1 X-12.631 Y16.927 Z11.600 F999.600
G1 X-58.438 Y79.975 Z11.600 F1999.800
G1 X-58.003 Y80.291 Z11.600 F1999.800
G1 X-12.196 Y17.243 Z11.600 F1999.800
G1 X-12.631 Y16.927 Z11.600 F1999.800
G1 X-12.631 Y16.927 Z11.400 F999.600
G1 X-58.438 Y79.975 Z11.400 F1999.800
G1 X-58.003 Y80.291 Z11.400 F1999.800
G1 X-12.196 Y17.243 Z11.400 F1999.800
G1 X-12.631 Y16.927 Z11.400 F1999.800
G0 Z17.800
G0 X-11.231 Y15.001 Z17.800
G0 X-11.231 Y15.001 Z15.800
G1 X-11.231 Y15.001 Z11.400 F999.600
G1 X-13.157 Y13.601 Z11.400 F1999.800
G1 X-61.764 Y80.502 Z11.400 F1999.800
G1 X-57.476 Y83.617 Z11.400 F1999.800
G1 X-8.870 Y16.717 Z11.400 F1999.800
G1 X-11.231 Y15.001 Z11.400 F1999.800
G0 Z17.800
G0 X-9.831 Y13.074 Z17.800
G0 X-9.831 Y13.074 Z15.800
G1 X-9.831 Y13.074 Z11.400 F999.600
G1 X-13.684 Y10.275 Z11.400 F1999.800
G1 X-65.095 Y81.035 Z11.400 F1999.800
G1 X-64.994 Y81.099 Z11.400 F1999.800
G1 X-57.045 Y86.874 Z11.400 F1999.800
G1 X-56.955 Y86.952 Z11.400 F1999.800
G1 X-5.544 Y16.190 Z11.400 F1999.800
G1 X-9.831 Y13.074 Z11.400 F1999.800
G0 Z17.800
G0 X-8.432 Y11.148 Z17.800
G0 X-8.432 Y11.148 Z15.800
G1 X-8.432 Y11.148 Z11.400 F999.600
G1 X-14.211 Y6.949 Z11.400 F1999.800
G1 X-123.554 Y157.446 Z11.400 F1999.800
G1 X-122.888 Y157.930 Z11.400 F1999.800
G2 X-122.763 Y157.911 Z11.400 I0.060 J-0.024 K0.000 F1999.800
G1 X-68.611 Y83.376 Z11.400 F1999.800
G3 X-66.393 Y83.025 Z11.400 I1.284 J0.933 K0.000 F1999.800
G1 X-58.445 Y88.800 Z11.400 F1999.800
G3 X-58.094 Y91.017 Z11.400 I-0.933 J1.284 K0.000 F1999.800
G1 X-112.246 Y165.552 Z11.400 F1999.800
G1 X-112.286 Y165.622 Z11.400 F1999.800
G2 X-111.560 Y166.160 Z11.400 I2.752 J-2.951 K0.000 F1999.800
G1 X-2.217 Y15.663 Z11.400 F1999.800
G1 X-8.432 Y11.148 Z11.400 F1999.800
G0 Z17.800
G0 X-15.582 Y2.731 Z17.800
G0 X-15.582 Y2.731 Z15.800
G1 X-15.582 Y2.731 Z11.400 F999.600
G1 X-11.000 Y-11.368 Z11.400 F1999.800
G1 X-187.921 Y-68.853 Z11.400 F1999.800
G1 X-188.175 Y-68.070 Z11.400 F1999.800
G2 X-188.118 Y-67.958 Z11.400 I0.041 J0.050 K0.000 F1999.800
G1 X-100.497 Y-39.488 Z11.400 F1999.800
G3 X-99.478 Y-37.488 Z11.400 I-0.491 J1.510 K0.000 F1999.800
G1 X-102.514 Y-28.144 Z11.400 F1999.800
G3 X-104.515 Y-27.124 Z11.400 I-1.510 J-0.491 K0.000 F1999.800
G1 X-192.135 Y-55.594 Z11.400 F1999.800
G1 X-192.214 Y-55.610 Z11.400 F1999.800
G2 X-192.502 Y-54.754 Z11.400 I3.657 J1.705 K0.000 F1999.800
G1 X-15.582 Y2.731 Z11.400 F1999.800
G0 Z17.800
G0 X-17.110 Y-0.269 Z17.800
G0 X-17.110 Y-0.269 Z15.800
G1 X-17.110 Y-0.269 Z11.400 F999.600
G1 X-14.001 Y-9.839 Z11.400 F1999.800
G1 X-97.185 Y-36.867 Z11.400 F1999.800
G1 X-97.213 Y-36.752 Z11.400 F1999.800
G1 X-100.250 Y-27.408 Z11.400 F1999.800
G1 X-100.296 Y-27.298 Z11.400 F1999.800
G1 X-17.110 Y-0.269 Z11.400 F1999.800
G0 Z17.800
G0 X-18.639 Y-3.270 Z17.800
G0 X-18.639 Y-3.270 Z15.800
G1 X-18.639 Y-3.270 Z11.400 F999.600
G1 X-17.001 Y-8.310 Z11.400 F1999.800
G1 X-95.648 Y-33.864 Z11.400 F1999.800
G1 X-97.286 Y-28.824 Z11.400 F1999.800
G1 X-18.639 Y-3.270 Z11.400 F1999.800
G0 Z17.800
G0 X-20.168 Y-6.270 Z17.800
G0 X-20.168 Y-6.270 Z15.800
G1 X-20.168 Y-6.270 Z11.400 F999.600
G1 X-20.002 Y-6.782 Z11.400 F1999.800
G1 X-94.119 Y-30.864 Z11.400 F1999.800
G1 X-94.285 Y-30.353 Z11.400 F1999.800
G1 X-20.168 Y-6.270 Z11.400 F1999.800
G0 Z17.800
G0 X-7.412 Y-13.975 Z17.800
G0 X-7.412 Y-13.975 Z15.800
G1 X-7.412 Y-13.975 Z11.400 F999.600
G1 X7.412 Y-13.975 Z11.400 F1999.800
G1 X7.412 Y-200.000 Z11.400 F1999.800
G1 X6.589 Y-200.000 Z11.400 F1999.800
G2 X6.500 Y-199.911 Z11.400 I-0.034 J0.055 K0.000 F1999.800
G1 X6.500 Y-107.781 Z11.400 F1999.800
G3 X4.912 Y-106.194 Z11.400 I-1.587 J0.000 K0.000 F1999.800
G1 X-4.912 Y-106.194 Z11.400 F1999.800
G3 X-6.500 Y-107.781 Z11.400 I-0.000 J-1.587 K0.000 F1999.800
G1 X-6.500 Y-199.911 Z11.400 F1999.800
G1 X-6.509 Y-199.991 Z11.400 F1999.800
G2 X-7.412 Y-200.000 Z11.400 I-0.492 J4.005 K0.000 F1999.800
G1 X-7.412 Y-13.975 Z11.400 F1999.800
G0 Z17.800
G0 X-5.031 Y-16.356 Z17.800
G0 X-5.031 Y-16.356 Z15.800
G1 X-5.031 Y-16.356 Z11.400 F999.600
G1 X5.031 Y-16.356 Z11.400 F1999.800
G1 X5.031 Y-103.821 Z11.400 F1999.800
G1 X4.912 Y-103.812 Z11.400 F1999.800
G1 X-4.912 Y-103.812 Z11.400 F1999.800
G1 X-5.031 Y-103.823 Z11.400 F1999.800
G1 X-5.031 Y-16.356 Z11.400 F1999.800
G0 Z17.800
G0 X-2.650 Y-18.737 Z17.800
G0 X-2.650 Y-18.737 Z15.800
G1 X-2.650 Y-18.737 Z11.400 F999.600
G1 X2.650 Y-18.737 Z11.400 F1999.800
G1 X2.650 Y-101.431 Z11.400 F1999.800
G1 X-2.650 Y-101.431 Z11.400 F1999.800
G1 X-2.650 Y-18.737 Z11.400 F1999.800
G0 Z17.800
G0 X-0.269 Y-21.119 Z17.800
G0 X-0.269 Y-21.119 Z15.800
G1 X-0.269 Y-21.119 Z11.400 F999.600
G1 X0.269 Y-21.119 Z11.400 F1999.800
G1 X0.269 Y-99.050 Z11.400 F1999.800
G1 X-0.269 Y-99.050 Z11.400 F1999.800
G1 X-0.269 Y-21.119 Z11.400 F1999.800
G0 Z17.800
G0 X11.000 Y-11.368 Z17.800
G0 X11.000 Y-11.368 Z15.800
G1 X11.000 Y-11.368 Z11.400 F999.600
G1 X15.582 Y2.731 Z11.400 F1999.800
G1 X192.502 Y-54.754 Z11.400 F1999.800
G1 X192.247 Y-55.537 Z11.400 F1999.800
G2 X192.135 Y-55.594 Z11.400 I-0.063 J-0.016 K0.000 F1999.800
G1 X104.515 Y-27.124 Z11.400 F1999.800
G3 X102.514 Y-28.144 Z11.400 I-0.491 J-1.510 K0.000 F1999.800
G1 X99.478 Y-37.488 Z11.400 F1999.800
G3 X100.497 Y-39.488 Z11.400 I1.510 J-0.491 K0.000 F1999.800
G1 X188.118 Y-67.958 Z11.400 F1999.800
G1 X188.191 Y-67.991 Z11.400 F1999.800
G2 X187.921 Y-68.853 Z11.400 I-3.961 J0.770 K0.000 F1999.800
G1 X11.000 Y-11.368 Z11.400 F1999.800
G0 Z17.800
G0 X14.001 Y-9.839 Z17.800
G0 X14.001 Y-9.839 Z15.800
G1 X14.001 Y-9.839 Z11.400 F999.600
G1 X17.110 Y-0.269 Z11.400 F1999.800
G1 X100.294 Y-27.297 Z11.400 F1999.800
G1 X100.250 Y-27.408 Z11.400 F1999.800
G1 X97.213 Y-36.752 Z11.400 F1999.800
G1 X97.187 Y-36.868 Z11.400 F1999.800
G1 X14.001 Y-9.839 Z11.400 F1999.800
G0 Z17.800
G0 X17.001 Y-8.310 Z17.800
G0 X17.001 Y-8.310 Z15.800
G1 X17.001 Y-8.310 Z11.400 F999.600
G1 X18.639 Y-3.270 Z11.400 F1999.800
G1 X97.286 Y-28.824 Z11.400 F1999.800
G1 X95.648 Y-33.864 Z11.400 F1999.800
G1 X17.001 Y-8.310 Z11.400 F1999.800
G0 Z17.800
G0 X20.002 Y-6.782 Z17.800
G0 X20.002 Y-6.782 Z15.800
G1 X20.002 Y-6.782 Z11.400 F999.600
G1 X20.168 Y-6.270 Z11.400 F1999.800
G1 X94.285 Y-30.353 Z11.400 F1999.800
G1 X94.119 Y-30.864 Z11.400 F1999.800
G1 X20.002 Y-6.782 Z11.400 F1999.800
G0 Z17.800
G0 X14.211 Y6.949 Z17.800
G0 X14.211 Y6.949 Z15.800
G1 X14.211 Y6.949 Z11.400 F999.600
G1 X2.217 Y15.663 Z11.400 F1999.800
G1 X111.560 Y166.160 Z11.400 F1999.800
G1 X112.226 Y165.676 Z11.400 F1999.800
G2 X112.246 Y165.552 Z11.400 I-0.004 J-0.065 K0.000 F1999.800
G1 X58.094 Y91.017 Z11.400 F1999.800
G3 X58.445 Y88.800 Z11.400 I1.284 J-0.933 K0.000 F1999.800
G1 X66.393 Y83.025 Z11.400 F1999.800
G3 X68.611 Y83.376 Z11.400 I0.933 J1.284 K0.000 F1999.800
G1 X122.763 Y157.911 Z11.400 F1999.800
G1 X122.818 Y157.970 Z11.400 F1999.800
G2 X123.554 Y157.446 Z11.400 I-1.956 J-3.529 K0.000 F1999.800
G1 X14.211 Y6.949 Z11.400 F1999.800
G0 Z17.800
G0 X13.684 Y10.275 Z17.800
G0 X13.684 Y10.275 Z15.800
G1 X13.684 Y10.275 Z11.400 F999.600
G1 X5.544 Y16.190 Z11.400 F1999.800
G1 X56.954 Y86.950 Z11.400 F1999.800
G1 X57.045 Y86.874 Z11.400 F1999.800
G1 X64.994 Y81.099 Z11.400 F1999.800
G1 X65.096 Y81.037 Z11.400 F1999.800
G1 X13.684 Y10.275 Z11.400 F1999.800
G0 Z17.800
G0 X13.157 Y13.601 Z17.800
G0 X13.157 Y13.601 Z15.800
G1 X13.157 Y13.601 Z11.400 F999.600
G1 X8.870 Y16.717 Z11.400 F1999.800
G1 X57.476 Y83.617 Z11.400 F1999.800
G1 X61.764 Y80.502 Z11.400 F1999.800
G1 X13.157 Y13.601 Z11.400 F1999.800
G0 Z17.800
G0 X12.631 Y16.927 Z17.800
G0 X12.631 Y16.927 Z15.800
G1 X12.631 Y16.927 Z11.400 F999.600
G1 X12.196 Y17.243 Z11.400 F1999.800
G1 X58.003 Y80.291 Z11.400 F1999.800
G1 X58.438 Y79.975 Z11.400 F1999.800
G1 X12.631 Y16.927 Z11.400 F1999.800
G0 Z17.800
G0 Z17.800
(Finish operation: Joint_Pocket)
(Begin operation: Dogbone_Replacement_Center)
(Path: Dogbone_Replacement_Center)
(Dogbone_Replacement_Center)
(Compensated Tool Path. Diameter: 3.175)
G0 Z17.800
G0 X10.748 Y9.465
G0 Z15.800
G1 X10.748 Y9.465 Z12.271 F999.600
G1 X0.933 Y16.596 Z12.271 F1999.800
G3 X-0.933 Y16.596 Z12.271 I-0.933 J-1.284 K0.000 F1999.800
G1 X-15.495 Y6.016 Z12.271 F1999.800
G3 X-16.072 Y4.241 Z12.271 I0.933 J-1.284 K0.000 F1999.800
G1 X-10.510 Y-12.878 Z12.271 F1999.800
G3 X-9.000 Y-13.975 Z12.271 I1.510 J0.491 K0.000 F1999.800
G1 X9.000 Y-13.975 Z12.271 F1999.800
G3 X10.510 Y-12.878 Z12.271 I0.000 J1.587 K0.000 F1999.800
G1 X16.072 Y4.241 Z12.271 F1999.800
G3 X15.495 Y6.016 Z12.271 I-1.510 J0.491 K0.000 F1999.800
G1 X10.748 Y9.465 Z12.271 F1999.800
G1 X10.748 Y9.465 Z11.742 F999.600
G1 X0.933 Y16.596 Z11.742 F1999.800
G3 X-0.933 Y16.596 Z11.742 I-0.933 J-1.284 K0.000 F1999.800
G1 X-15.495 Y6.016 Z11.742 F1999.800
G3 X-16.072 Y4.241 Z11.742 I0.933 J-1.284 K0.000 F1999.800
G1 X-10.510 Y-12.878 Z11.742 F1999.800
G3 X-9.000 Y-13.975 Z11.742 I1.510 J0.491 K0.000 F1999.800
G1 X9.000 Y-13.975 Z11.742 F1999.800
G3 X10.510 Y-12.878 Z11.742 I0.000 J1.587 K0.000 F1999.800
G1 X16.072 Y4.241 Z11.742 F1999.800
G3 X15.495 Y6.016 Z11.742 I-1.510 J0.491 K0.000 F1999.800
G1 X10.748 Y9.465 Z11.742 F1999.800
G1 X10.748 Y9.465 Z11.400 F999.600
G1 X0.933 Y16.596 Z11.400 F1999.800
G3 X-0.933 Y16.596 Z11.400 I-0.933 J-1.284 K0.000 F1999.800
G1 X-15.495 Y6.016 Z11.400 F1999.800
G3 X-16.072 Y4.241 Z11.400 I0.933 J-1.284 K0.000 F1999.800
G1 X-10.510 Y-12.878 Z11.400 F1999.800
G3 X-9.000 Y-13.975 Z11.400 I1.510 J0.491 K0.000 F1999.800
G1 X9.000 Y-13.975 Z11.400 F1999.800
G3 X10.510 Y-12.878 Z11.400 I0.000 J1.587 K0.000 F1999.800
G1 X16.072 Y4.241 Z11.400 F1999.800
G3 X15.495 Y6.016 Z11.400 I-1.510 J0.491 K0.000 F1999.800
G1 X10.748 Y9.465 Z11.400 F1999.800
G0 Z17.800
G0 Z17.800
(Finish operation: Dogbone_Replacement_Center)
(Begin postamble)
M5
G17 G90
M2
