(Exported by FreeCAD)
(Post Processor: grbl_post)
(Output Time:2020-05-25 22:07:12.200219)
(Begin preamble)
G17 G90
G21
(Begin operation: Fixture)
(Path: Fixture)
G54
(Finish operation: Fixture)
(Begin operation: T6: 2FluteWoodMill006)
(Path: T6: 2FluteWoodMill006)
(T6: 2FluteWoodMill006)
(Begin toolchange)
(M6 T6.0)
M3 S14000.0
G4 P5
(Finish operation: T6: 2FluteWoodMill006)
(Begin operation: Contour_With_Tags)
(Path: Contour_With_Tags)
G0 Z17.800
G0 X174.795 Y122.059 Z17.800
G0 X174.795 Y122.059 Z15.800
G1 X174.795 Y122.059 Z2.000 F999.600
G2 X211.809 Y-0.470 Z2.000 I-69.649 J-87.895 K0.000 F1999.800
G1 X193.730 Y-56.112 Z2.000 F1999.800
G2 X191.729 Y-57.131 Z2.000 I-1.510 J0.491 K0.000 F1999.800
G1 X104.024 Y-28.634 Z2.000 F1999.800
G1 X103.726 Y-28.048 Z2.000 F1999.800
G1 X104.024 Y-28.634 Z2.000 F1999.800
G1 X100.988 Y-37.978 Z2.000 F1999.800
G1 X100.402 Y-38.277 Z2.000 F1999.800
G1 X100.988 Y-37.978 Z2.000 F1999.800
G1 X188.693 Y-66.475 Z2.000 F1999.800
G2 X189.712 Y-68.476 Z2.000 I-0.491 J-1.510 K0.000 F1999.800
G1 X171.640 Y-124.097 Z2.000 F1999.800
G2 X65.005 Y-201.587 Z2.000 I-106.656 J34.655 K0.000 F1999.800
G1 X6.500 Y-201.587 Z2.000 F1999.800
G2 X4.912 Y-200.000 Z2.000 I-0.000 J1.587 K0.000 F1999.800
G1 X4.912 Y-107.781 Z2.000 F1999.800
G1 X5.377 Y-107.316 Z2.000 F1999.800
G1 X4.912 Y-107.781 Z2.000 F1999.800
G1 X-4.912 Y-107.781 Z2.000 F1999.800
G1 X-5.377 Y-107.316 Z2.000 F1999.800
G1 X-4.912 Y-107.781 Z2.000 F1999.800
G1 X-4.912 Y-200.000 Z2.000 F1999.800
G2 X-6.500 Y-201.587 Z2.000 I-1.587 J-0.000 K0.000 F1999.800
G1 X-64.984 Y-201.587 Z2.000 F1999.800
G2 X-171.633 Y-124.118 Z2.000 I0.000 J112.145 K0.000 F1999.800
G1 X-189.712 Y-68.476 Z2.000 F1999.800
G2 X-188.693 Y-66.475 Z2.000 I1.510 J0.491 K0.000 F1999.800
G1 X-100.988 Y-37.978 Z2.000 F1999.800
G1 X-100.402 Y-38.277 Z2.000 F1999.800
G1 X-100.988 Y-37.978 Z2.000 F1999.800
G1 X-104.024 Y-28.634 Z2.000 F1999.800
G1 X-103.726 Y-28.048 Z2.000 F1999.800
G1 X-104.024 Y-28.634 Z2.000 F1999.800
G1 X-191.729 Y-57.131 Z2.000 F1999.800
G2 X-193.730 Y-56.112 Z2.000 I-0.491 J1.510 K0.000 F1999.800
G1 X-211.802 Y-0.491 Z2.000 F1999.800
G2 X-171.080 Y124.879 Z2.000 I106.656 J34.654 K0.000 F1999.800
G1 X-123.749 Y159.267 Z2.000 F1999.800
G2 X-121.531 Y158.916 Z2.000 I0.933 J-1.284 K0.000 F1999.800
G1 X-67.327 Y84.309 Z2.000 F1999.800
G1 X-67.429 Y83.660 Z2.000 F1999.800
G1 X-67.327 Y84.309 Z2.000 F1999.800
G1 X-59.378 Y90.084 Z2.000 F1999.800
G1 X-58.728 Y89.981 Z2.000 F1999.800
G1 X-59.378 Y90.084 Z2.000 F1999.800
G1 X-113.583 Y164.691 Z2.000 F1999.800
G2 X-113.232 Y166.908 Z2.000 I1.284 J0.933 K0.000 F1999.800
G1 X-103.928 Y173.668 Z2.000 F1999.800
G2 X-89.184 Y171.384 Z2.000 I6.222 J-8.568 K0.000 F1999.800
G1 X-39.300 Y102.728 Z2.000 F1999.800
G3 X39.300 Y102.728 Z2.000 I39.300 J28.535 K0.000 F1999.800
G1 X89.139 Y171.326 Z2.000 F1999.800
G2 X103.868 Y173.710 Z2.000 I8.565 J-6.226 K0.000 F1999.800
G1 X113.232 Y166.908 Z2.000 F1999.800
G2 X113.583 Y164.691 Z2.000 I-0.933 J-1.284 K0.000 F1999.800
G1 X59.378 Y90.084 Z2.000 F1999.800
G1 X58.728 Y89.981 Z2.000 F1999.800
G1 X59.378 Y90.084 Z2.000 F1999.800
G1 X67.327 Y84.309 Z2.000 F1999.800
G1 X67.429 Y83.660 Z2.000 F1999.800
G1 X67.327 Y84.309 Z2.000 F1999.800
G1 X121.531 Y158.916 Z2.000 F1999.800
G2 X123.749 Y159.267 Z2.000 I1.284 J-0.933 K0.000 F1999.800
G1 X171.063 Y124.891 Z2.000 F1999.800
G2 X174.795 Y122.059 Z2.000 I-65.917 J-90.727 K0.000 F1999.800
G1 X174.795 Y122.059 Z1.600 F999.600
G2 X211.809 Y-0.470 Z1.600 I-69.649 J-87.895 K0.000 F1999.800
G1 X205.779 Y-19.027 Z1.600 F1999.800
G1 X205.656 Y-19.407 Z2.000 F1499.700
G1 X202.833 Y-28.095 Z2.000 F1999.800
G1 X202.709 Y-28.476 Z1.600 F1499.700
G1 X193.730 Y-56.112 Z1.600 F1999.800
G2 X191.729 Y-57.131 Z1.600 I-1.510 J0.491 K0.000 F1999.800
G1 X104.024 Y-28.634 Z1.600 F1999.800
G1 X103.726 Y-28.048 Z1.600 F1999.800
G1 X104.024 Y-28.634 Z1.600 F1999.800
G1 X100.988 Y-37.978 Z1.600 F1999.800
G1 X100.402 Y-38.277 Z1.600 F1999.800
G1 X100.988 Y-37.978 Z1.600 F1999.800
G1 X188.693 Y-66.475 Z1.600 F1999.800
G2 X189.712 Y-68.476 Z1.600 I-0.491 J-1.510 K0.000 F1999.800
G1 X176.907 Y-107.886 Z1.600 F1999.800
G1 X176.784 Y-108.267 Z2.000 F1499.700
G1 X173.961 Y-116.955 Z2.000 F1999.800
G1 X173.837 Y-117.335 Z1.600 F1499.700
G1 X171.640 Y-124.097 Z1.600 F1999.800
G2 X65.005 Y-201.587 Z1.600 I-106.656 J34.655 K0.000 F1999.800
G1 X40.508 Y-201.587 Z1.600 F1999.800
G1 X40.107 Y-201.587 Z2.000 F1499.700
G1 X30.973 Y-201.587 Z2.000 F1999.800
G1 X30.572 Y-201.587 Z1.600 F1499.700
G1 X6.500 Y-201.587 Z1.600 F1999.800
G2 X4.912 Y-200.000 Z1.600 I-0.000 J1.587 K0.000 F1999.800
G1 X4.912 Y-107.781 Z1.600 F1999.800
G1 X5.377 Y-107.316 Z1.600 F1999.800
G1 X4.912 Y-107.781 Z1.600 F1999.800
G1 X-4.912 Y-107.781 Z1.600 F1999.800
G1 X-5.377 Y-107.316 Z1.600 F1999.800
G1 X-4.912 Y-107.781 Z1.600 F1999.800
G1 X-4.912 Y-200.000 Z1.600 F1999.800
G2 X-6.500 Y-201.587 Z1.600 I-1.587 J-0.000 K0.000 F1999.800
G1 X-50.482 Y-201.587 Z1.600 F1999.800
G1 X-50.883 Y-201.587 Z2.000 F1499.700
G1 X-60.017 Y-201.587 Z2.000 F1999.800
G1 X-60.418 Y-201.587 Z1.600 F1499.700
G1 X-64.984 Y-201.587 Z1.600 F1999.800
G2 X-171.633 Y-124.118 Z1.600 I0.000 J112.145 K0.000 F1999.800
G1 X-178.568 Y-102.775 Z1.600 F1999.800
G1 X-178.691 Y-102.395 Z2.000 F1499.700
G1 X-181.514 Y-93.707 Z2.000 F1999.800
G1 X-181.638 Y-93.327 Z1.600 F1499.700
G1 X-189.712 Y-68.476 Z1.600 F1999.800
G2 X-188.693 Y-66.475 Z1.600 I1.510 J0.491 K0.000 F1999.800
G1 X-100.988 Y-37.978 Z1.600 F1999.800
G1 X-100.402 Y-38.277 Z1.600 F1999.800
G1 X-100.988 Y-37.978 Z1.600 F1999.800
G1 X-104.024 Y-28.634 Z1.600 F1999.800
G1 X-103.726 Y-28.048 Z1.600 F1999.800
G1 X-104.024 Y-28.634 Z1.600 F1999.800
G1 X-191.729 Y-57.131 Z1.600 F1999.800
G2 X-193.730 Y-56.112 Z1.600 I-0.491 J1.510 K0.000 F1999.800
G1 X-201.011 Y-33.703 Z1.600 F1999.800
G1 X-201.134 Y-33.323 Z2.000 F1499.700
G1 X-203.957 Y-24.635 Z2.000 F1999.800
G1 X-204.081 Y-24.254 Z1.600 F1499.700
G1 X-211.802 Y-0.491 Z1.600 F1999.800
G2 X-171.080 Y124.879 Z1.600 I106.656 J34.654 K0.000 F1999.800
G1 X-149.446 Y140.597 Z1.600 F1999.800
G1 X-149.123 Y140.832 Z2.000 F1499.700
G1 X-141.732 Y146.201 Z2.000 F1999.800
G1 X-141.409 Y146.436 Z1.600 F1499.700
G1 X-123.749 Y159.267 Z1.600 F1999.800
G2 X-121.531 Y158.916 Z1.600 I0.933 J-1.284 K0.000 F1999.800
G1 X-67.327 Y84.309 Z1.600 F1999.800
G1 X-67.429 Y83.660 Z1.600 F1999.800
G1 X-67.327 Y84.309 Z1.600 F1999.800
G1 X-59.378 Y90.084 Z1.600 F1999.800
G1 X-58.728 Y89.981 Z1.600 F1999.800
G1 X-59.378 Y90.084 Z1.600 F1999.800
G1 X-83.561 Y123.369 Z1.600 F1999.800
G1 X-83.796 Y123.692 Z2.000 F1499.700
G1 X-89.165 Y131.083 Z2.000 F1999.800
G1 X-89.400 Y131.406 Z1.600 F1499.700
G1 X-113.583 Y164.691 Z1.600 F1999.800
G2 X-113.232 Y166.908 Z1.600 I1.284 J0.933 K0.000 F1999.800
G1 X-112.858 Y167.179 Z1.600 F1999.800
G1 X-112.535 Y167.415 Z2.000 F1499.700
G1 X-105.144 Y172.784 Z2.000 F1999.800
G1 X-104.821 Y173.019 Z1.600 F1499.700
G1 X-103.928 Y173.668 Z1.600 F1999.800
G2 X-89.184 Y171.384 Z1.600 I6.222 J-8.568 K0.000 F1999.800
G1 X-59.217 Y130.141 Z1.600 F1999.800
G1 X-58.982 Y129.817 Z2.000 F1499.700
G1 X-53.613 Y122.427 Z2.000 F1999.800
G1 X-53.378 Y122.103 Z1.600 F1499.700
G1 X-39.300 Y102.728 Z1.600 F1999.800
G3 X39.300 Y102.728 Z1.600 I39.300 J28.535 K0.000 F1999.800
G1 X54.035 Y123.008 Z1.600 F1999.800
G1 X54.270 Y123.332 Z2.000 F1499.700
G1 X59.639 Y130.722 Z2.000 F1999.800
G1 X59.874 Y131.046 Z1.600 F1499.700
G1 X89.139 Y171.326 Z1.600 F1999.800
G2 X102.045 Y174.758 Z1.600 I8.565 J-6.226 K0.000 F1999.800
G1 X102.411 Y174.585 Z2.000
G2 X103.868 Y173.710 Z2.000 I-4.706 J-9.485 K0.000 F1999.800
G1 X109.887 Y169.338 Z2.000 F1999.800
G1 X110.211 Y169.103 Z1.600 F1499.700
G1 X113.232 Y166.908 Z1.600 F1999.800
G2 X113.583 Y164.691 Z1.600 I-0.933 J-1.284 K0.000 F1999.800
G1 X59.378 Y90.084 Z1.600 F1999.800
G1 X58.728 Y89.981 Z1.600 F1999.800
G1 X59.378 Y90.084 Z1.600 F1999.800
G1 X67.327 Y84.309 Z1.600 F1999.800
G1 X67.429 Y83.660 Z1.600 F1999.800
G1 X67.327 Y84.309 Z1.600 F1999.800
G1 X121.531 Y158.916 Z1.600 F1999.800
G2 X123.749 Y159.267 Z1.600 I1.284 J-0.933 K0.000 F1999.800
G1 X143.387 Y144.999 Z1.600 F1999.800
G1 X143.711 Y144.764 Z2.000 F1499.700
G1 X151.101 Y139.394 Z2.000 F1999.800
G1 X151.425 Y139.159 Z1.600 F1499.700
G1 X171.063 Y124.891 Z1.600 F1999.800
G2 X174.795 Y122.059 Z1.600 I-65.917 J-90.727 K0.000 F1999.800
G1 X174.795 Y122.059 Z1.200 F999.600
G2 X211.809 Y-0.470 Z1.200 I-69.649 J-87.895 K0.000 F1999.800
G1 X205.903 Y-18.647 Z1.200 F1999.800
G1 X205.656 Y-19.407 Z2.000 F1499.700
G1 X202.833 Y-28.095 Z2.000 F1999.800
G1 X202.586 Y-28.856 Z1.200 F1499.700
G1 X193.730 Y-56.112 Z1.200 F1999.800
G2 X191.729 Y-57.131 Z1.200 I-1.510 J0.491 K0.000 F1999.800
G1 X104.024 Y-28.634 Z1.200 F1999.800
G1 X103.726 Y-28.048 Z1.200 F1999.800
G1 X104.024 Y-28.634 Z1.200 F1999.800
G1 X100.988 Y-37.978 Z1.200 F1999.800
G1 X100.402 Y-38.277 Z1.200 F1999.800
G1 X100.988 Y-37.978 Z1.200 F1999.800
G1 X188.693 Y-66.475 Z1.200 F1999.800
G2 X189.712 Y-68.476 Z1.200 I-0.491 J-1.510 K0.000 F1999.800
G1 X177.031 Y-107.506 Z1.200 F1999.800
G1 X176.784 Y-108.267 Z2.000 F1499.700
G1 X173.961 Y-116.955 Z2.000 F1999.800
G1 X173.714 Y-117.716 Z1.200 F1499.700
G1 X171.640 Y-124.097 Z1.200 F1999.800
G2 X65.005 Y-201.587 Z1.200 I-106.656 J34.655 K0.000 F1999.800
G1 X40.908 Y-201.587 Z1.200 F1999.800
G1 X40.107 Y-201.587 Z2.000 F1499.700
G1 X30.973 Y-201.587 Z2.000 F1999.800
G1 X30.172 Y-201.587 Z1.200 F1499.700
G1 X6.500 Y-201.587 Z1.200 F1999.800
G2 X4.912 Y-200.000 Z1.200 I-0.000 J1.587 K0.000 F1999.800
G1 X4.912 Y-107.781 Z1.200 F1999.800
G1 X5.377 Y-107.316 Z1.200 F1999.800
G1 X4.912 Y-107.781 Z1.200 F1999.800
G1 X-4.912 Y-107.781 Z1.200 F1999.800
G1 X-5.377 Y-107.316 Z1.200 F1999.800
G1 X-4.912 Y-107.781 Z1.200 F1999.800
G1 X-4.912 Y-200.000 Z1.200 F1999.800
G2 X-6.500 Y-201.587 Z1.200 I-1.587 J-0.000 K0.000 F1999.800
G1 X-50.082 Y-201.587 Z1.200 F1999.800
G1 X-50.883 Y-201.587 Z2.000 F1499.700
G1 X-60.017 Y-201.587 Z2.000 F1999.800
G1 X-60.818 Y-201.587 Z1.200 F1499.700
G1 X-64.984 Y-201.587 Z1.200 F1999.800
G2 X-171.633 Y-124.118 Z1.200 I0.000 J112.145 K0.000 F1999.800
G1 X-178.444 Y-103.156 Z1.200 F1999.800
G1 X-178.691 Y-102.395 Z2.000 F1499.700
G1 X-181.514 Y-93.707 Z2.000 F1999.800
G1 X-181.762 Y-92.946 Z1.200 F1499.700
G1 X-189.712 Y-68.476 Z1.200 F1999.800
G2 X-188.693 Y-66.475 Z1.200 I1.510 J0.491 K0.000 F1999.800
G1 X-100.988 Y-37.978 Z1.200 F1999.800
G1 X-100.402 Y-38.277 Z1.200 F1999.800
G1 X-100.988 Y-37.978 Z1.200 F1999.800
G1 X-104.024 Y-28.634 Z1.200 F1999.800
G1 X-103.726 Y-28.048 Z1.200 F1999.800
G1 X-104.024 Y-28.634 Z1.200 F1999.800
G1 X-191.729 Y-57.131 Z1.200 F1999.800
G2 X-193.730 Y-56.112 Z1.200 I-0.491 J1.510 K0.000 F1999.800
G1 X-200.887 Y-34.083 Z1.200 F1999.800
G1 X-201.134 Y-33.323 Z2.000 F1499.700
G1 X-203.957 Y-24.635 Z2.000 F1999.800
G1 X-204.205 Y-23.874 Z1.200 F1499.700
G1 X-211.802 Y-0.491 Z1.200 F1999.800
G2 X-171.080 Y124.879 Z1.200 I106.656 J34.654 K0.000 F1999.800
G1 X-149.770 Y140.362 Z1.200 F1999.800
G1 X-149.123 Y140.832 Z2.000 F1499.700
G1 X-141.732 Y146.201 Z2.000 F1999.800
G1 X-141.085 Y146.671 Z1.200 F1499.700
G1 X-123.749 Y159.267 Z1.200 F1999.800
G2 X-121.531 Y158.916 Z1.200 I0.933 J-1.284 K0.000 F1999.800
G1 X-67.327 Y84.309 Z1.200 F1999.800
G1 X-67.429 Y83.660 Z1.200 F1999.800
G1 X-67.327 Y84.309 Z1.200 F1999.800
G1 X-59.378 Y90.084 Z1.200 F1999.800
G1 X-58.728 Y89.981 Z1.200 F1999.800
G1 X-59.378 Y90.084 Z1.200 F1999.800
G1 X-83.325 Y123.045 Z1.200 F1999.800
G1 X-83.796 Y123.692 Z2.000 F1499.700
G1 X-89.165 Y131.083 Z2.000 F1999.800
G1 X-89.635 Y131.730 Z1.200 F1499.700
G1 X-113.583 Y164.691 Z1.200 F1999.800
G2 X-113.232 Y166.908 Z1.200 I1.284 J0.933 K0.000 F1999.800
G1 X-113.182 Y166.944 Z1.200 F1999.800
G1 X-112.535 Y167.415 Z2.000 F1499.700
G1 X-105.144 Y172.784 Z2.000 F1999.800
G1 X-104.497 Y173.254 Z1.200 F1499.700
G1 X-103.928 Y173.668 Z1.200 F1999.800
G2 X-89.184 Y171.384 Z1.200 I6.222 J-8.568 K0.000 F1999.800
G1 X-59.453 Y130.464 Z1.200 F1999.800
G1 X-58.982 Y129.817 Z2.000 F1499.700
G1 X-53.613 Y122.427 Z2.000 F1999.800
G1 X-53.142 Y121.779 Z1.200 F1499.700
G1 X-39.300 Y102.728 Z1.200 F1999.800
G3 X39.300 Y102.728 Z1.200 I39.300 J28.535 K0.000 F1999.800
G1 X53.799 Y122.684 Z1.200 F1999.800
G1 X54.270 Y123.332 Z2.000 F1499.700
G1 X59.639 Y130.722 Z2.000 F1999.800
G1 X60.109 Y131.369 Z1.200 F1499.700
G1 X89.139 Y171.326 Z1.200 F1999.800
G2 X101.671 Y174.917 Z1.200 I8.565 J-6.226 K0.000 F1999.800
G1 X102.411 Y174.585 Z2.000
G2 X103.868 Y173.710 Z2.000 I-4.706 J-9.485 K0.000 F1999.800
G1 X109.887 Y169.338 Z2.000 F1999.800
G1 X110.534 Y168.867 Z1.200 F1499.700
G1 X113.232 Y166.908 Z1.200 F1999.800
G2 X113.583 Y164.691 Z1.200 I-0.933 J-1.284 K0.000 F1999.800
G1 X59.378 Y90.084 Z1.200 F1999.800
G1 X58.728 Y89.981 Z1.200 F1999.800
G1 X59.378 Y90.084 Z1.200 F1999.800
G1 X67.327 Y84.309 Z1.200 F1999.800
G1 X67.429 Y83.660 Z1.200 F1999.800
G1 X67.327 Y84.309 Z1.200 F1999.800
G1 X121.531 Y158.916 Z1.200 F1999.800
G2 X123.749 Y159.267 Z1.200 I1.284 J-0.933 K0.000 F1999.800
G1 X143.064 Y145.234 Z1.200 F1999.800
G1 X143.711 Y144.764 Z2.000 F1499.700
G1 X151.101 Y139.394 Z2.000 F1999.800
G1 X151.748 Y138.924 Z1.200 F1499.700
G1 X171.063 Y124.891 Z1.200 F1999.800
G2 X174.795 Y122.059 Z1.200 I-65.917 J-90.727 K0.000 F1999.800
G1 X174.795 Y122.059 Z0.800 F999.600
G2 X211.809 Y-0.470 Z0.800 I-69.649 J-87.895 K0.000 F1999.800
G1 X206.027 Y-18.266 Z0.800 F1999.800
G1 X205.656 Y-19.407 Z2.000 F1499.700
G1 X202.833 Y-28.095 Z2.000 F1999.800
G1 X202.462 Y-29.237 Z0.800 F1499.700
G1 X193.730 Y-56.112 Z0.800 F1999.800
G2 X191.729 Y-57.131 Z0.800 I-1.510 J0.491 K0.000 F1999.800
G1 X104.024 Y-28.634 Z0.800 F1999.800
G1 X103.726 Y-28.048 Z0.800 F1999.800
G1 X104.024 Y-28.634 Z0.800 F1999.800
G1 X100.988 Y-37.978 Z0.800 F1999.800
G1 X100.402 Y-38.277 Z0.800 F1999.800
G1 X100.988 Y-37.978 Z0.800 F1999.800
G1 X188.693 Y-66.475 Z0.800 F1999.800
G2 X189.712 Y-68.476 Z0.800 I-0.491 J-1.510 K0.000 F1999.800
G1 X177.154 Y-107.125 Z0.800 F1999.800
G1 X176.784 Y-108.267 Z2.000 F1499.700
G1 X173.961 Y-116.955 Z2.000 F1999.800
G1 X173.590 Y-118.096 Z0.800 F1499.700
G1 X171.640 Y-124.097 Z0.800 F1999.800
G2 X65.005 Y-201.587 Z0.800 I-106.656 J34.655 K0.000 F1999.800
G1 X41.308 Y-201.587 Z0.800 F1999.800
G1 X40.107 Y-201.587 Z2.000 F1499.700
G1 X30.973 Y-201.587 Z2.000 F1999.800
G1 X29.772 Y-201.587 Z0.800 F1499.700
G1 X6.500 Y-201.587 Z0.800 F1999.800
G2 X4.912 Y-200.000 Z0.800 I-0.000 J1.587 K0.000 F1999.800
G1 X4.912 Y-107.781 Z0.800 F1999.800
G1 X5.377 Y-107.316 Z0.800 F1999.800
G1 X4.912 Y-107.781 Z0.800 F1999.800
G1 X-4.912 Y-107.781 Z0.800 F1999.800
G1 X-5.377 Y-107.316 Z0.800 F1999.800
G1 X-4.912 Y-107.781 Z0.800 F1999.800
G1 X-4.912 Y-200.000 Z0.800 F1999.800
G2 X-6.500 Y-201.587 Z0.800 I-1.587 J-0.000 K0.000 F1999.800
G1 X-49.682 Y-201.587 Z0.800 F1999.800
G1 X-50.883 Y-201.587 Z2.000 F1499.700
G1 X-60.017 Y-201.587 Z2.000 F1999.800
G1 X-61.218 Y-201.587 Z0.800 F1499.700
G1 X-64.984 Y-201.587 Z0.800 F1999.800
G2 X-171.633 Y-124.118 Z0.800 I0.000 J112.145 K0.000 F1999.800
G1 X-178.321 Y-103.536 Z0.800 F1999.800
G1 X-178.691 Y-102.395 Z2.000 F1499.700
G1 X-181.514 Y-93.707 Z2.000 F1999.800
G1 X-181.885 Y-92.566 Z0.800 F1499.700
G1 X-189.712 Y-68.476 Z0.800 F1999.800
G2 X-188.693 Y-66.475 Z0.800 I1.510 J0.491 K0.000 F1999.800
G1 X-100.988 Y-37.978 Z0.800 F1999.800
G1 X-100.402 Y-38.277 Z0.800 F1999.800
G1 X-100.988 Y-37.978 Z0.800 F1999.800
G1 X-104.024 Y-28.634 Z0.800 F1999.800
G1 X-103.726 Y-28.048 Z0.800 F1999.800
G1 X-104.024 Y-28.634 Z0.800 F1999.800
G1 X-191.729 Y-57.131 Z0.800 F1999.800
G2 X-193.730 Y-56.112 Z0.800 I-0.491 J1.510 K0.000 F1999.800
G1 X-200.764 Y-34.464 Z0.800 F1999.800
G1 X-201.134 Y-33.323 Z2.000 F1499.700
G1 X-203.957 Y-24.635 Z2.000 F1999.800
G1 X-204.328 Y-23.493 Z0.800 F1499.700
G1 X-211.802 Y-0.491 Z0.800 F1999.800
G2 X-171.080 Y124.879 Z0.800 I106.656 J34.654 K0.000 F1999.800
G1 X-150.093 Y140.126 Z0.800 F1999.800
G1 X-149.123 Y140.832 Z2.000 F1499.700
G1 X-141.732 Y146.201 Z2.000 F1999.800
G1 X-140.761 Y146.907 Z0.800 F1499.700
G1 X-123.749 Y159.267 Z0.800 F1999.800
G2 X-121.531 Y158.916 Z0.800 I0.933 J-1.284 K0.000 F1999.800
G1 X-67.327 Y84.309 Z0.800 F1999.800
G1 X-67.429 Y83.660 Z0.800 F1999.800
G1 X-67.327 Y84.309 Z0.800 F1999.800
G1 X-59.378 Y90.084 Z0.800 F1999.800
G1 X-58.728 Y89.981 Z0.800 F1999.800
G1 X-59.378 Y90.084 Z0.800 F1999.800
G1 X-83.090 Y122.722 Z0.800 F1999.800
G1 X-83.796 Y123.692 Z2.000 F1499.700
G1 X-89.165 Y131.083 Z2.000 F1999.800
G1 X-89.870 Y132.054 Z0.800 F1499.700
G1 X-113.583 Y164.691 Z0.800 F1999.800
G2 X-113.484 Y166.680 Z0.800 I1.284 J0.933 K0.000 F1999.800
G1 X-113.232 Y166.908 Z1.139
G1 X-112.535 Y167.415 Z2.000 F1499.700
G1 X-105.144 Y172.784 Z2.000 F1999.800
G1 X-104.174 Y173.489 Z0.800 F1499.700
G1 X-103.928 Y173.668 Z0.800 F1999.800
G2 X-89.184 Y171.384 Z0.800 I6.222 J-8.568 K0.000 F1999.800
G1 X-59.688 Y130.788 Z0.800 F1999.800
G1 X-58.982 Y129.817 Z2.000 F1499.700
G1 X-53.613 Y122.427 Z2.000 F1999.800
G1 X-52.907 Y121.456 Z0.800 F1499.700
G1 X-39.300 Y102.728 Z0.800 F1999.800
G3 X39.300 Y102.728 Z0.800 I39.300 J28.535 K0.000 F1999.800
G1 X53.564 Y122.361 Z0.800 F1999.800
G1 X54.270 Y123.332 Z2.000 F1499.700
G1 X59.639 Y130.722 Z2.000 F1999.800
G1 X60.344 Y131.693 Z0.800 F1499.700
G1 X89.139 Y171.326 Z0.800 F1999.800
G2 X101.290 Y175.062 Z0.800 I8.565 J-6.226 K0.000 F1999.800
G1 X102.411 Y174.585 Z2.000
G2 X103.868 Y173.710 Z2.000 I-4.706 J-9.485 K0.000 F1999.800
G1 X109.887 Y169.338 Z2.000 F1999.800
G1 X110.858 Y168.632 Z0.800 F1499.700
G1 X113.232 Y166.908 Z0.800 F1999.800
G2 X113.583 Y164.691 Z0.800 I-0.933 J-1.284 K0.000 F1999.800
G1 X59.378 Y90.084 Z0.800 F1999.800
G1 X58.728 Y89.981 Z0.800 F1999.800
G1 X59.378 Y90.084 Z0.800 F1999.800
G1 X67.327 Y84.309 Z0.800 F1999.800
G1 X67.429 Y83.660 Z0.800 F1999.800
G1 X67.327 Y84.309 Z0.800 F1999.800
G1 X121.531 Y158.916 Z0.800 F1999.800
G2 X123.749 Y159.267 Z0.800 I1.284 J-0.933 K0.000 F1999.800
G1 X142.740 Y145.469 Z0.800 F1999.800
G1 X143.711 Y144.764 Z2.000 F1499.700
G1 X151.101 Y139.394 Z2.000 F1999.800
G1 X152.072 Y138.689 Z0.800 F1499.700
G1 X171.063 Y124.891 Z0.800 F1999.800
G2 X174.795 Y122.059 Z0.800 I-65.917 J-90.727 K0.000 F1999.800
G1 X174.795 Y122.059 Z0.400 F999.600
G2 X211.809 Y-0.470 Z0.400 I-69.649 J-87.895 K0.000 F1999.800
G1 X206.150 Y-17.886 Z0.400 F1999.800
G1 X205.656 Y-19.407 Z2.000 F1499.700
G1 X202.833 Y-28.095 Z2.000 F1999.800
G1 X202.338 Y-29.617 Z0.400 F1499.700
G1 X193.730 Y-56.112 Z0.400 F1999.800
G2 X191.729 Y-57.131 Z0.400 I-1.510 J0.491 K0.000 F1999.800
G1 X104.024 Y-28.634 Z0.400 F1999.800
G1 X103.726 Y-28.048 Z0.400 F1999.800
G1 X104.024 Y-28.634 Z0.400 F1999.800
G1 X100.988 Y-37.978 Z0.400 F1999.800
G1 X100.402 Y-38.277 Z0.400 F1999.800
G1 X100.988 Y-37.978 Z0.400 F1999.800
G1 X188.693 Y-66.475 Z0.400 F1999.800
G2 X189.712 Y-68.476 Z0.400 I-0.491 J-1.510 K0.000 F1999.800
G1 X177.278 Y-106.745 Z0.400 F1999.800
G1 X176.784 Y-108.267 Z2.000 F1499.700
G1 X173.961 Y-116.955 Z2.000 F1999.800
G1 X173.466 Y-118.476 Z0.400 F1499.700
G1 X171.640 Y-124.097 Z0.400 F1999.800
G2 X65.005 Y-201.587 Z0.400 I-106.656 J34.655 K0.000 F1999.800
G1 X41.708 Y-201.587 Z0.400 F1999.800
G1 X40.107 Y-201.587 Z2.000 F1499.700
G1 X30.973 Y-201.587 Z2.000 F1999.800
G1 X29.372 Y-201.587 Z0.400 F1499.700
G1 X6.500 Y-201.587 Z0.400 F1999.800
G2 X4.912 Y-200.000 Z0.400 I-0.000 J1.587 K0.000 F1999.800
G1 X4.912 Y-107.781 Z0.400 F1999.800
G1 X5.377 Y-107.316 Z0.400 F1999.800
G1 X4.912 Y-107.781 Z0.400 F1999.800
G1 X-4.912 Y-107.781 Z0.400 F1999.800
G1 X-5.377 Y-107.316 Z0.400 F1999.800
G1 X-4.912 Y-107.781 Z0.400 F1999.800
G1 X-4.912 Y-200.000 Z0.400 F1999.800
G2 X-6.500 Y-201.587 Z0.400 I-1.587 J-0.000 K0.000 F1999.800
G1 X-49.282 Y-201.587 Z0.400 F1999.800
G1 X-50.883 Y-201.587 Z2.000 F1499.700
G1 X-60.017 Y-201.587 Z2.000 F1999.800
G1 X-61.618 Y-201.587 Z0.400 F1499.700
G1 X-64.984 Y-201.587 Z0.400 F1999.800
G2 X-171.633 Y-124.118 Z0.400 I0.000 J112.145 K0.000 F1999.800
G1 X-178.197 Y-103.917 Z0.400 F1999.800
G1 X-178.691 Y-102.395 Z2.000 F1499.700
G1 X-181.514 Y-93.707 Z2.000 F1999.800
G1 X-182.009 Y-92.185 Z0.400 F1499.700
G1 X-189.712 Y-68.476 Z0.400 F1999.800
G2 X-188.693 Y-66.475 Z0.400 I1.510 J0.491 K0.000 F1999.800
G1 X-100.988 Y-37.978 Z0.400 F1999.800
G1 X-100.402 Y-38.277 Z0.400 F1999.800
G1 X-100.988 Y-37.978 Z0.400 F1999.800
G1 X-104.024 Y-28.634 Z0.400 F1999.800
G1 X-103.726 Y-28.048 Z0.400 F1999.800
G1 X-104.024 Y-28.634 Z0.400 F1999.800
G1 X-191.729 Y-57.131 Z0.400 F1999.800
G2 X-193.730 Y-56.112 Z0.400 I-0.491 J1.510 K0.000 F1999.800
G1 X-200.640 Y-34.844 Z0.400 F1999.800
G1 X-201.134 Y-33.323 Z2.000 F1499.700
G1 X-203.957 Y-24.635 Z2.000 F1999.800
G1 X-204.452 Y-23.113 Z0.400 F1499.700
G1 X-211.802 Y-0.491 Z0.400 F1999.800
G2 X-171.080 Y124.879 Z0.400 I106.656 J34.654 K0.000 F1999.800
G1 X-150.417 Y139.891 Z0.400 F1999.800
G1 X-149.123 Y140.832 Z2.000 F1499.700
G1 X-141.732 Y146.201 Z2.000 F1999.800
G1 X-140.438 Y147.142 Z0.400 F1499.700
G1 X-123.749 Y159.267 Z0.400 F1999.800
G2 X-121.531 Y158.916 Z0.400 I0.933 J-1.284 K0.000 F1999.800
G1 X-67.327 Y84.309 Z0.400 F1999.800
G1 X-67.429 Y83.660 Z0.400 F1999.800
G1 X-67.327 Y84.309 Z0.400 F1999.800
G1 X-59.378 Y90.084 Z0.400 F1999.800
G1 X-58.728 Y89.981 Z0.400 F1999.800
G1 X-59.378 Y90.084 Z0.400 F1999.800
G1 X-82.855 Y122.398 Z0.400 F1999.800
G1 X-83.796 Y123.692 Z2.000 F1499.700
G1 X-89.165 Y131.083 Z2.000 F1999.800
G1 X-90.106 Y132.377 Z0.400 F1499.700
G1 X-113.583 Y164.691 Z0.400 F1999.800
G2 X-113.721 Y166.329 Z0.400 I1.284 J0.933 K0.000 F1999.800
G1 X-113.585 Y166.554 Z0.644
G1 X-113.421 Y166.747 Z0.890
G1 X-113.232 Y166.908 Z1.139
G1 X-112.535 Y167.415 Z2.000 F1499.700
G1 X-105.144 Y172.784 Z2.000 F1999.800
G1 X-103.928 Y173.668 Z0.496 F1499.700
G1 X-103.850 Y173.724 Z0.400
G2 X-89.184 Y171.384 Z0.400 I6.144 J-8.624 K0.000 F1999.800
G1 X-59.923 Y131.111 Z0.400 F1999.800
G1 X-58.982 Y129.817 Z2.000 F1499.700
G1 X-53.613 Y122.427 Z2.000 F1999.800
G1 X-52.672 Y121.132 Z0.400 F1499.700
G1 X-39.300 Y102.728 Z0.400 F1999.800
G3 X39.300 Y102.728 Z0.400 I39.300 J28.535 K0.000 F1999.800
G1 X53.329 Y122.037 Z0.400 F1999.800
G1 X54.270 Y123.332 Z2.000 F1499.700
G1 X59.639 Y130.722 Z2.000 F1999.800
G1 X60.579 Y132.016 Z0.400 F1499.700
G1 X89.139 Y171.326 Z0.400 F1999.800
G2 X100.902 Y175.194 Z0.400 I8.565 J-6.226 K0.000 F1999.800
G1 X102.411 Y174.585 Z2.000
G2 X103.868 Y173.710 Z2.000 I-4.706 J-9.485 K0.000 F1999.800
G1 X109.887 Y169.338 Z2.000 F1999.800
G1 X111.181 Y168.397 Z0.400 F1499.700
G1 X113.232 Y166.908 Z0.400 F1999.800
G2 X113.583 Y164.691 Z0.400 I-0.933 J-1.284 K0.000 F1999.800
G1 X59.378 Y90.084 Z0.400 F1999.800
G1 X58.728 Y89.981 Z0.400 F1999.800
G1 X59.378 Y90.084 Z0.400 F1999.800
G1 X67.327 Y84.309 Z0.400 F1999.800
G1 X67.429 Y83.660 Z0.400 F1999.800
G1 X67.327 Y84.309 Z0.400 F1999.800
G1 X121.531 Y158.916 Z0.400 F1999.800
G2 X123.749 Y159.267 Z0.400 I1.284 J-0.933 K0.000 F1999.800
G1 X142.416 Y145.704 Z0.400 F1999.800
G1 X143.711 Y144.764 Z2.000 F1499.700
G1 X151.101 Y139.394 Z2.000 F1999.800
G1 X152.396 Y138.454 Z0.400 F1499.700
G1 X171.063 Y124.891 Z0.400 F1999.800
G2 X174.795 Y122.059 Z0.400 I-65.917 J-90.727 K0.000 F1999.800
G1 X174.795 Y122.059 Z0.000 F999.600
G2 X211.809 Y-0.470 Z0.000 I-69.649 J-87.895 K0.000 F1999.800
G1 X206.274 Y-17.505 Z0.000 F1999.800
G1 X205.656 Y-19.407 Z2.000 F1499.700
G1 X202.833 Y-28.095 Z2.000 F1999.800
G1 X202.215 Y-29.997 Z0.000 F1499.700
G1 X193.730 Y-56.112 Z0.000 F1999.800
G2 X191.729 Y-57.131 Z0.000 I-1.510 J0.491 K0.000 F1999.800
G1 X104.024 Y-28.634 Z0.000 F1999.800
G1 X103.726 Y-28.048 Z0.000 F1999.800
G1 X104.024 Y-28.634 Z0.000 F1999.800
G1 X100.988 Y-37.978 Z0.000 F1999.800
G1 X100.402 Y-38.277 Z0.000 F1999.800
G1 X100.988 Y-37.978 Z0.000 F1999.800
G1 X188.693 Y-66.475 Z0.000 F1999.800
G2 X189.712 Y-68.476 Z0.000 I-0.491 J-1.510 K0.000 F1999.800
G1 X177.402 Y-106.365 Z0.000 F1999.800
G1 X176.784 Y-108.267 Z2.000 F1499.700
G1 X173.961 Y-116.955 Z2.000 F1999.800
G1 X173.343 Y-118.857 Z0.000 F1499.700
G1 X171.640 Y-124.097 Z0.000 F1999.800
G2 X65.005 Y-201.587 Z0.000 I-106.656 J34.655 K0.000 F1999.800
G1 X42.107 Y-201.587 Z0.000 F1999.800
G1 X40.107 Y-201.587 Z2.000 F1499.700
G1 X30.973 Y-201.587 Z2.000 F1999.800
G1 X28.973 Y-201.587 Z0.000 F1499.700
G1 X6.500 Y-201.587 Z0.000 F1999.800
G2 X4.912 Y-200.000 Z0.000 I-0.000 J1.587 K0.000 F1999.800
G1 X4.912 Y-107.781 Z0.000 F1999.800
G1 X5.377 Y-107.316 Z0.000 F1999.800
G1 X4.912 Y-107.781 Z0.000 F1999.800
G1 X-4.912 Y-107.781 Z0.000 F1999.800
G1 X-5.377 Y-107.316 Z0.000 F1999.800
G1 X-4.912 Y-107.781 Z0.000 F1999.800
G1 X-4.912 Y-200.000 Z0.000 F1999.800
G2 X-6.500 Y-201.587 Z0.000 I-1.587 J-0.000 K0.000 F1999.800
G1 X-48.883 Y-201.587 Z0.000 F1999.800
G1 X-50.883 Y-201.587 Z2.000 F1499.700
G1 X-60.017 Y-201.587 Z2.000 F1999.800
G1 X-62.017 Y-201.587 Z0.000 F1499.700
G1 X-64.984 Y-201.587 Z0.000 F1999.800
G2 X-171.633 Y-124.118 Z0.000 I0.000 J112.145 K0.000 F1999.800
G1 X-178.073 Y-104.297 Z0.000 F1999.800
G1 X-178.691 Y-102.395 Z2.000 F1499.700
G1 X-181.514 Y-93.707 Z2.000 F1999.800
G1 X-182.132 Y-91.805 Z0.000 F1499.700
G1 X-189.712 Y-68.476 Z0.000 F1999.800
G2 X-188.693 Y-66.475 Z0.000 I1.510 J0.491 K0.000 F1999.800
G1 X-100.988 Y-37.978 Z0.000 F1999.800
G1 X-100.402 Y-38.277 Z0.000 F1999.800
G1 X-100.988 Y-37.978 Z0.000 F1999.800
G1 X-104.024 Y-28.634 Z0.000 F1999.800
G1 X-103.726 Y-28.048 Z0.000 F1999.800
G1 X-104.024 Y-28.634 Z0.000 F1999.800
G1 X-191.729 Y-57.131 Z0.000 F1999.800
G2 X-193.730 Y-56.112 Z0.000 I-0.491 J1.510 K0.000 F1999.800
G1 X-200.516 Y-35.225 Z0.000 F1999.800
G1 X-201.134 Y-33.323 Z2.000 F1499.700
G1 X-203.957 Y-24.635 Z2.000 F1999.800
G1 X-204.575 Y-22.733 Z0.000 F1499.700
G1 X-211.802 Y-0.491 Z0.000 F1999.800
G2 X-171.080 Y124.879 Z0.000 I106.656 J34.654 K0.000 F1999.800
G1 X-150.741 Y139.656 Z0.000 F1999.800
G1 X-149.123 Y140.832 Z2.000 F1499.700
G1 X-141.732 Y146.201 Z2.000 F1999.800
G1 X-140.114 Y147.377 Z0.000 F1499.700
G1 X-123.749 Y159.267 Z0.000 F1999.800
G2 X-121.531 Y158.916 Z0.000 I0.933 J-1.284 K0.000 F1999.800
G1 X-67.327 Y84.309 Z0.000 F1999.800
G1 X-67.429 Y83.660 Z0.000 F1999.800
G1 X-67.327 Y84.309 Z0.000 F1999.800
G1 X-59.378 Y90.084 Z0.000 F1999.800
G1 X-58.728 Y89.981 Z0.000 F1999.800
G1 X-59.378 Y90.084 Z0.000 F1999.800
G1 X-82.620 Y122.074 Z0.000 F1999.800
G1 X-83.796 Y123.692 Z2.000 F1499.700
G1 X-89.165 Y131.083 Z2.000 F1999.800
G1 X-90.341 Y132.701 Z0.000 F1499.700
G1 X-113.583 Y164.691 Z0.000 F1999.800
G2 X-113.866 Y165.873 Z0.000 I1.284 J0.933 K0.000 F1999.800
G1 X-113.778 Y166.198 Z0.274
G1 X-113.636 Y166.479 Z0.558
G1 X-113.452 Y166.715 Z0.847
G1 X-113.232 Y166.908 Z1.139
G1 X-112.535 Y167.415 Z2.000 F1499.700
G1 X-105.144 Y172.784 Z2.000 F1999.800
G1 X-103.928 Y173.668 Z0.496 F1499.700
G1 X-103.519 Y173.950 Z0.000
G2 X-89.184 Y171.384 Z0.000 I5.813 J-8.850 K0.000 F1999.800
G1 X-60.158 Y131.435 Z0.000 F1999.800
G1 X-58.982 Y129.817 Z2.000 F1499.700
G1 X-53.613 Y122.427 Z2.000 F1999.800
G1 X-52.437 Y120.809 Z0.000 F1499.700
G1 X-39.300 Y102.728 Z0.000 F1999.800
G3 X39.300 Y102.728 Z0.000 I39.300 J28.535 K0.000 F1999.800
G1 X53.094 Y121.714 Z0.000 F1999.800
G1 X54.270 Y123.332 Z2.000 F1499.700
G1 X59.639 Y130.722 Z2.000 F1999.800
G1 X60.815 Y132.340 Z0.000 F1499.700
G1 X89.139 Y171.326 Z0.000 F1999.800
G2 X100.506 Y175.311 Z0.000 I8.565 J-6.226 K0.000 F1999.800
G1 X102.411 Y174.585 Z2.000
G2 X103.868 Y173.710 Z2.000 I-4.706 J-9.485 K0.000 F1999.800
G1 X109.887 Y169.338 Z2.000 F1999.800
G1 X111.505 Y168.162 Z0.000 F1499.700
G1 X113.232 Y166.908 Z0.000 F1999.800
G2 X113.583 Y164.691 Z0.000 I-0.933 J-1.284 K0.000 F1999.800
G1 X59.378 Y90.084 Z0.000 F1999.800
G1 X58.728 Y89.981 Z0.000 F1999.800
G1 X59.378 Y90.084 Z0.000 F1999.800
G1 X67.327 Y84.309 Z0.000 F1999.800
G1 X67.429 Y83.660 Z0.000 F1999.800
G1 X67.327 Y84.309 Z0.000 F1999.800
G1 X121.531 Y158.916 Z0.000 F1999.800
G2 X123.749 Y159.267 Z0.000 I1.284 J-0.933 K0.000 F1999.800
G1 X142.093 Y145.939 Z0.000 F1999.800
G1 X143.711 Y144.764 Z2.000 F1499.700
G1 X151.101 Y139.394 Z2.000 F1999.800
G1 X152.719 Y138.219 Z0.000 F1499.700
G1 X171.063 Y124.891 Z0.000 F1999.800
G2 X174.795 Y122.059 Z0.000 I-65.917 J-90.727 K0.000 F1999.800
G0 X174.795 Y122.059 Z17.800
(Finish operation: Contour_With_Tags)
(Begin postamble)
M5
G17 G90
M2
