(Exported by FreeCAD)
(Post Processor: grbl_post)
(Output Time:2020-05-23 15:42:36.385647)
(Begin preamble)
G17 G90
G21
(Begin operation: Fixture)
(Path: Fixture)
G54
(Finish operation: Fixture)
(Begin operation: T6: 2FluteWoodMill003)
(Path: T6: 2FluteWoodMill003)
(T6: 2FluteWoodMill003)
(Begin toolchange)
(M6 T6.0)
M3 S14000.0
(Finish operation: T6: 2FluteWoodMill003)
(Begin operation: Hole_Spoilerboard)
(Path: Hole_Spoilerboard)
(Hole_Spoilerboard)
(helix cut operation)
G0 Z23.000
G0 X220.915 Y-200.000
G0 Z21.000
G1 Z0.000 F999.600
G2 X219.085 Y-200.000 Z-0.263 I-0.915 J0.000 F1999.800
G2 X220.915 Y-200.000 Z-0.526 I0.915 J0.000 F1999.800
G2 X219.085 Y-200.000 Z-0.789 I-0.915 J0.000 F1999.800
G2 X220.915 Y-200.000 Z-1.053 I0.915 J0.000 F1999.800
G2 X219.085 Y-200.000 Z-1.316 I-0.915 J0.000 F1999.800
G2 X220.915 Y-200.000 Z-1.579 I0.915 J0.000 F1999.800
G2 X219.085 Y-200.000 Z-1.842 I-0.915 J0.000 F1999.800
G2 X220.915 Y-200.000 Z-2.105 I0.915 J0.000 F1999.800
G2 X219.085 Y-200.000 Z-2.368 I-0.915 J0.000 F1999.800
G2 X220.915 Y-200.000 Z-2.632 I0.915 J0.000 F1999.800
G2 X219.085 Y-200.000 Z-2.895 I-0.915 J0.000 F1999.800
G2 X220.915 Y-200.000 Z-3.158 I0.915 J0.000 F1999.800
G2 X219.085 Y-200.000 Z-3.421 I-0.915 J0.000 F1999.800
G2 X220.915 Y-200.000 Z-3.684 I0.915 J0.000 F1999.800
G2 X219.085 Y-200.000 Z-3.947 I-0.915 J0.000 F1999.800
G2 X220.915 Y-200.000 Z-4.211 I0.915 J0.000 F1999.800
G2 X219.085 Y-200.000 Z-4.474 I-0.915 J0.000 F1999.800
G2 X220.915 Y-200.000 Z-4.737 I0.915 J0.000 F1999.800
G2 X219.085 Y-200.000 Z-5.000 I-0.915 J0.000 F1999.800
G2 X220.915 Y-200.000 Z-5.263 I0.915 J0.000 F1999.800
G2 X219.085 Y-200.000 Z-5.526 I-0.915 J0.000 F1999.800
G2 X220.915 Y-200.000 Z-5.789 I0.915 J0.000 F1999.800
G2 X219.085 Y-200.000 Z-6.053 I-0.915 J0.000 F1999.800
G2 X220.915 Y-200.000 Z-6.316 I0.915 J0.000 F1999.800
G2 X219.085 Y-200.000 Z-6.579 I-0.915 J0.000 F1999.800
G2 X220.915 Y-200.000 Z-6.842 I0.915 J0.000 F1999.800
G2 X219.085 Y-200.000 Z-7.105 I-0.915 J0.000 F1999.800
G2 X220.915 Y-200.000 Z-7.368 I0.915 J0.000 F1999.800
G2 X219.085 Y-200.000 Z-7.632 I-0.915 J0.000 F1999.800
G2 X220.915 Y-200.000 Z-7.895 I0.915 J0.000 F1999.800
G2 X219.085 Y-200.000 Z-8.158 I-0.915 J0.000 F1999.800
G2 X220.915 Y-200.000 Z-8.421 I0.915 J0.000 F1999.800
G2 X219.085 Y-200.000 Z-8.684 I-0.915 J0.000 F1999.800
G2 X220.915 Y-200.000 Z-8.947 I0.915 J0.000 F1999.800
G2 X219.085 Y-200.000 Z-9.211 I-0.915 J0.000 F1999.800
G2 X220.915 Y-200.000 Z-9.474 I0.915 J0.000 F1999.800
G2 X219.085 Y-200.000 Z-9.737 I-0.915 J0.000 F1999.800
G2 X220.915 Y-200.000 Z-10.000 I0.915 J0.000 F1999.800
G2 X219.085 Y-200.000 Z-10.000 I-0.915 J0.000 F1999.800
G2 X220.915 Y-200.000 Z-10.000 I0.915 J0.000 F1999.800
G0 Z21.000
G0 X220.915 Y200.000
G0 Z21.000
G1 Z0.000 F999.600
G2 X219.085 Y200.000 Z-0.263 I-0.915 J0.000 F1999.800
G2 X220.915 Y200.000 Z-0.526 I0.915 J0.000 F1999.800
G2 X219.085 Y200.000 Z-0.789 I-0.915 J0.000 F1999.800
G2 X220.915 Y200.000 Z-1.053 I0.915 J0.000 F1999.800
G2 X219.085 Y200.000 Z-1.316 I-0.915 J0.000 F1999.800
G2 X220.915 Y200.000 Z-1.579 I0.915 J0.000 F1999.800
G2 X219.085 Y200.000 Z-1.842 I-0.915 J0.000 F1999.800
G2 X220.915 Y200.000 Z-2.105 I0.915 J0.000 F1999.800
G2 X219.085 Y200.000 Z-2.368 I-0.915 J0.000 F1999.800
G2 X220.915 Y200.000 Z-2.632 I0.915 J0.000 F1999.800
G2 X219.085 Y200.000 Z-2.895 I-0.915 J0.000 F1999.800
G2 X220.915 Y200.000 Z-3.158 I0.915 J0.000 F1999.800
G2 X219.085 Y200.000 Z-3.421 I-0.915 J0.000 F1999.800
G2 X220.915 Y200.000 Z-3.684 I0.915 J0.000 F1999.800
G2 X219.085 Y200.000 Z-3.947 I-0.915 J0.000 F1999.800
G2 X220.915 Y200.000 Z-4.211 I0.915 J0.000 F1999.800
G2 X219.085 Y200.000 Z-4.474 I-0.915 J0.000 F1999.800
G2 X220.915 Y200.000 Z-4.737 I0.915 J0.000 F1999.800
G2 X219.085 Y200.000 Z-5.000 I-0.915 J0.000 F1999.800
G2 X220.915 Y200.000 Z-5.263 I0.915 J0.000 F1999.800
G2 X219.085 Y200.000 Z-5.526 I-0.915 J0.000 F1999.800
G2 X220.915 Y200.000 Z-5.789 I0.915 J0.000 F1999.800
G2 X219.085 Y200.000 Z-6.053 I-0.915 J0.000 F1999.800
G2 X220.915 Y200.000 Z-6.316 I0.915 J0.000 F1999.800
G2 X219.085 Y200.000 Z-6.579 I-0.915 J0.000 F1999.800
G2 X220.915 Y200.000 Z-6.842 I0.915 J0.000 F1999.800
G2 X219.085 Y200.000 Z-7.105 I-0.915 J0.000 F1999.800
G2 X220.915 Y200.000 Z-7.368 I0.915 J0.000 F1999.800
G2 X219.085 Y200.000 Z-7.632 I-0.915 J0.000 F1999.800
G2 X220.915 Y200.000 Z-7.895 I0.915 J0.000 F1999.800
G2 X219.085 Y200.000 Z-8.158 I-0.915 J0.000 F1999.800
G2 X220.915 Y200.000 Z-8.421 I0.915 J0.000 F1999.800
G2 X219.085 Y200.000 Z-8.684 I-0.915 J0.000 F1999.800
G2 X220.915 Y200.000 Z-8.947 I0.915 J0.000 F1999.800
G2 X219.085 Y200.000 Z-9.211 I-0.915 J0.000 F1999.800
G2 X220.915 Y200.000 Z-9.474 I0.915 J0.000 F1999.800
G2 X219.085 Y200.000 Z-9.737 I-0.915 J0.000 F1999.800
G2 X220.915 Y200.000 Z-10.000 I0.915 J0.000 F1999.800
G2 X219.085 Y200.000 Z-10.000 I-0.915 J0.000 F1999.800
G2 X220.915 Y200.000 Z-10.000 I0.915 J0.000 F1999.800
G0 Z21.000
G0 X-219.085 Y200.000
G0 Z21.000
G1 Z0.000 F999.600
G2 X-220.915 Y200.000 Z-0.263 I-0.915 J0.000 F1999.800
G2 X-219.085 Y200.000 Z-0.526 I0.915 J0.000 F1999.800
G2 X-220.915 Y200.000 Z-0.789 I-0.915 J0.000 F1999.800
G2 X-219.085 Y200.000 Z-1.053 I0.915 J0.000 F1999.800
G2 X-220.915 Y200.000 Z-1.316 I-0.915 J0.000 F1999.800
G2 X-219.085 Y200.000 Z-1.579 I0.915 J0.000 F1999.800
G2 X-220.915 Y200.000 Z-1.842 I-0.915 J0.000 F1999.800
G2 X-219.085 Y200.000 Z-2.105 I0.915 J0.000 F1999.800
G2 X-220.915 Y200.000 Z-2.368 I-0.915 J0.000 F1999.800
G2 X-219.085 Y200.000 Z-2.632 I0.915 J0.000 F1999.800
G2 X-220.915 Y200.000 Z-2.895 I-0.915 J0.000 F1999.800
G2 X-219.085 Y200.000 Z-3.158 I0.915 J0.000 F1999.800
G2 X-220.915 Y200.000 Z-3.421 I-0.915 J0.000 F1999.800
G2 X-219.085 Y200.000 Z-3.684 I0.915 J0.000 F1999.800
G2 X-220.915 Y200.000 Z-3.947 I-0.915 J0.000 F1999.800
G2 X-219.085 Y200.000 Z-4.211 I0.915 J0.000 F1999.800
G2 X-220.915 Y200.000 Z-4.474 I-0.915 J0.000 F1999.800
G2 X-219.085 Y200.000 Z-4.737 I0.915 J0.000 F1999.800
G2 X-220.915 Y200.000 Z-5.000 I-0.915 J0.000 F1999.800
G2 X-219.085 Y200.000 Z-5.263 I0.915 J0.000 F1999.800
G2 X-220.915 Y200.000 Z-5.526 I-0.915 J0.000 F1999.800
G2 X-219.085 Y200.000 Z-5.789 I0.915 J0.000 F1999.800
G2 X-220.915 Y200.000 Z-6.053 I-0.915 J0.000 F1999.800
G2 X-219.085 Y200.000 Z-6.316 I0.915 J0.000 F1999.800
G2 X-220.915 Y200.000 Z-6.579 I-0.915 J0.000 F1999.800
G2 X-219.085 Y200.000 Z-6.842 I0.915 J0.000 F1999.800
G2 X-220.915 Y200.000 Z-7.105 I-0.915 J0.000 F1999.800
G2 X-219.085 Y200.000 Z-7.368 I0.915 J0.000 F1999.800
G2 X-220.915 Y200.000 Z-7.632 I-0.915 J0.000 F1999.800
G2 X-219.085 Y200.000 Z-7.895 I0.915 J0.000 F1999.800
G2 X-220.915 Y200.000 Z-8.158 I-0.915 J0.000 F1999.800
G2 X-219.085 Y200.000 Z-8.421 I0.915 J0.000 F1999.800
G2 X-220.915 Y200.000 Z-8.684 I-0.915 J0.000 F1999.800
G2 X-219.085 Y200.000 Z-8.947 I0.915 J0.000 F1999.800
G2 X-220.915 Y200.000 Z-9.211 I-0.915 J0.000 F1999.800
G2 X-219.085 Y200.000 Z-9.474 I0.915 J0.000 F1999.800
G2 X-220.915 Y200.000 Z-9.737 I-0.915 J0.000 F1999.800
G2 X-219.085 Y200.000 Z-10.000 I0.915 J0.000 F1999.800
G2 X-220.915 Y200.000 Z-10.000 I-0.915 J0.000 F1999.800
G2 X-219.085 Y200.000 Z-10.000 I0.915 J0.000 F1999.800
G0 Z21.000
G0 X-219.085 Y-200.000
G0 Z21.000
G1 Z0.000 F999.600
G2 X-220.915 Y-200.000 Z-0.263 I-0.915 J0.000 F1999.800
G2 X-219.085 Y-200.000 Z-0.526 I0.915 J0.000 F1999.800
G2 X-220.915 Y-200.000 Z-0.789 I-0.915 J0.000 F1999.800
G2 X-219.085 Y-200.000 Z-1.053 I0.915 J0.000 F1999.800
G2 X-220.915 Y-200.000 Z-1.316 I-0.915 J0.000 F1999.800
G2 X-219.085 Y-200.000 Z-1.579 I0.915 J0.000 F1999.800
G2 X-220.915 Y-200.000 Z-1.842 I-0.915 J0.000 F1999.800
G2 X-219.085 Y-200.000 Z-2.105 I0.915 J0.000 F1999.800
G2 X-220.915 Y-200.000 Z-2.368 I-0.915 J0.000 F1999.800
G2 X-219.085 Y-200.000 Z-2.632 I0.915 J0.000 F1999.800
G2 X-220.915 Y-200.000 Z-2.895 I-0.915 J0.000 F1999.800
G2 X-219.085 Y-200.000 Z-3.158 I0.915 J0.000 F1999.800
G2 X-220.915 Y-200.000 Z-3.421 I-0.915 J0.000 F1999.800
G2 X-219.085 Y-200.000 Z-3.684 I0.915 J0.000 F1999.800
G2 X-220.915 Y-200.000 Z-3.947 I-0.915 J0.000 F1999.800
G2 X-219.085 Y-200.000 Z-4.211 I0.915 J0.000 F1999.800
G2 X-220.915 Y-200.000 Z-4.474 I-0.915 J0.000 F1999.800
G2 X-219.085 Y-200.000 Z-4.737 I0.915 J0.000 F1999.800
G2 X-220.915 Y-200.000 Z-5.000 I-0.915 J0.000 F1999.800
G2 X-219.085 Y-200.000 Z-5.263 I0.915 J0.000 F1999.800
G2 X-220.915 Y-200.000 Z-5.526 I-0.915 J0.000 F1999.800
G2 X-219.085 Y-200.000 Z-5.789 I0.915 J0.000 F1999.800
G2 X-220.915 Y-200.000 Z-6.053 I-0.915 J0.000 F1999.800
G2 X-219.085 Y-200.000 Z-6.316 I0.915 J0.000 F1999.800
G2 X-220.915 Y-200.000 Z-6.579 I-0.915 J0.000 F1999.800
G2 X-219.085 Y-200.000 Z-6.842 I0.915 J0.000 F1999.800
G2 X-220.915 Y-200.000 Z-7.105 I-0.915 J0.000 F1999.800
G2 X-219.085 Y-200.000 Z-7.368 I0.915 J0.000 F1999.800
G2 X-220.915 Y-200.000 Z-7.632 I-0.915 J0.000 F1999.800
G2 X-219.085 Y-200.000 Z-7.895 I0.915 J0.000 F1999.800
G2 X-220.915 Y-200.000 Z-8.158 I-0.915 J0.000 F1999.800
G2 X-219.085 Y-200.000 Z-8.421 I0.915 J0.000 F1999.800
G2 X-220.915 Y-200.000 Z-8.684 I-0.915 J0.000 F1999.800
G2 X-219.085 Y-200.000 Z-8.947 I0.915 J0.000 F1999.800
G2 X-220.915 Y-200.000 Z-9.211 I-0.915 J0.000 F1999.800
G2 X-219.085 Y-200.000 Z-9.474 I0.915 J0.000 F1999.800
G2 X-220.915 Y-200.000 Z-9.737 I-0.915 J0.000 F1999.800
G2 X-219.085 Y-200.000 Z-10.000 I0.915 J0.000 F1999.800
G2 X-220.915 Y-200.000 Z-10.000 I-0.915 J0.000 F1999.800
G2 X-219.085 Y-200.000 Z-10.000 I0.915 J0.000 F1999.800
G0 Z21.000
G0 Z23.000
(Finish operation: Hole_Spoilerboard)
(Begin operation: Counterbore_Spoilerboard)
(Path: Counterbore_Spoilerboard)
(Counterbore_Spoilerboard)
(helix cut operation)
G0 Z23.000
G0 X221.189 Y-200.000
G0 Z21.000
G1 Z0.000 F999.600
G2 X218.811 Y-200.000 Z-0.250 I-1.189 J0.000 F1999.800
G2 X221.189 Y-200.000 Z-0.500 I1.189 J0.000 F1999.800
G2 X218.811 Y-200.000 Z-0.750 I-1.189 J0.000 F1999.800
G2 X221.189 Y-200.000 Z-1.000 I1.189 J0.000 F1999.800
G2 X218.811 Y-200.000 Z-1.000 I-1.189 J0.000 F1999.800
G2 X221.189 Y-200.000 Z-1.000 I1.189 J0.000 F1999.800
G0 Z21.000
G0 X223.415 Y-200.000
G0 Z21.000
G1 Z0.000 F999.600
G2 X216.585 Y-200.000 Z-0.250 I-3.415 J0.000 F1999.800
G2 X223.415 Y-200.000 Z-0.500 I3.415 J0.000 F1999.800
G2 X216.585 Y-200.000 Z-0.750 I-3.415 J0.000 F1999.800
G2 X223.415 Y-200.000 Z-1.000 I3.415 J0.000 F1999.800
G2 X216.585 Y-200.000 Z-1.000 I-3.415 J0.000 F1999.800
G2 X223.415 Y-200.000 Z-1.000 I3.415 J0.000 F1999.800
G0 Z21.000
G0 X221.189 Y200.000
G0 Z21.000
G1 Z0.000 F999.600
G2 X218.811 Y200.000 Z-0.250 I-1.189 J0.000 F1999.800
G2 X221.189 Y200.000 Z-0.500 I1.189 J0.000 F1999.800
G2 X218.811 Y200.000 Z-0.750 I-1.189 J0.000 F1999.800
G2 X221.189 Y200.000 Z-1.000 I1.189 J0.000 F1999.800
G2 X218.811 Y200.000 Z-1.000 I-1.189 J0.000 F1999.800
G2 X221.189 Y200.000 Z-1.000 I1.189 J0.000 F1999.800
G0 Z21.000
G0 X223.415 Y200.000
G0 Z21.000
G1 Z0.000 F999.600
G2 X216.585 Y200.000 Z-0.250 I-3.415 J0.000 F1999.800
G2 X223.415 Y200.000 Z-0.500 I3.415 J0.000 F1999.800
G2 X216.585 Y200.000 Z-0.750 I-3.415 J0.000 F1999.800
G2 X223.415 Y200.000 Z-1.000 I3.415 J0.000 F1999.800
G2 X216.585 Y200.000 Z-1.000 I-3.415 J0.000 F1999.800
G2 X223.415 Y200.000 Z-1.000 I3.415 J0.000 F1999.800
G0 Z21.000
G0 X-218.811 Y200.000
G0 Z21.000
G1 Z0.000 F999.600
G2 X-221.189 Y200.000 Z-0.250 I-1.189 J0.000 F1999.800
G2 X-218.811 Y200.000 Z-0.500 I1.189 J0.000 F1999.800
G2 X-221.189 Y200.000 Z-0.750 I-1.189 J0.000 F1999.800
G2 X-218.811 Y200.000 Z-1.000 I1.189 J0.000 F1999.800
G2 X-221.189 Y200.000 Z-1.000 I-1.189 J0.000 F1999.800
G2 X-218.811 Y200.000 Z-1.000 I1.189 J0.000 F1999.800
G0 Z21.000
G0 X-216.585 Y200.000
G0 Z21.000
G1 Z0.000 F999.600
G2 X-223.415 Y200.000 Z-0.250 I-3.415 J0.000 F1999.800
G2 X-216.585 Y200.000 Z-0.500 I3.415 J0.000 F1999.800
G2 X-223.415 Y200.000 Z-0.750 I-3.415 J0.000 F1999.800
G2 X-216.585 Y200.000 Z-1.000 I3.415 J0.000 F1999.800
G2 X-223.415 Y200.000 Z-1.000 I-3.415 J0.000 F1999.800
G2 X-216.585 Y200.000 Z-1.000 I3.415 J0.000 F1999.800
G0 Z21.000
G0 X-218.811 Y-200.000
G0 Z21.000
G1 Z0.000 F999.600
G2 X-221.189 Y-200.000 Z-0.250 I-1.189 J0.000 F1999.800
G2 X-218.811 Y-200.000 Z-0.500 I1.189 J0.000 F1999.800
G2 X-221.189 Y-200.000 Z-0.750 I-1.189 J0.000 F1999.800
G2 X-218.811 Y-200.000 Z-1.000 I1.189 J0.000 F1999.800
G2 X-221.189 Y-200.000 Z-1.000 I-1.189 J0.000 F1999.800
G2 X-218.811 Y-200.000 Z-1.000 I1.189 J0.000 F1999.800
G0 Z21.000
G0 X-216.585 Y-200.000
G0 Z21.000
G1 Z0.000 F999.600
G2 X-223.415 Y-200.000 Z-0.250 I-3.415 J0.000 F1999.800
G2 X-216.585 Y-200.000 Z-0.500 I3.415 J0.000 F1999.800
G2 X-223.415 Y-200.000 Z-0.750 I-3.415 J0.000 F1999.800
G2 X-216.585 Y-200.000 Z-1.000 I3.415 J0.000 F1999.800
G2 X-223.415 Y-200.000 Z-1.000 I-3.415 J0.000 F1999.800
G2 X-216.585 Y-200.000 Z-1.000 I3.415 J0.000 F1999.800
G0 Z21.000
G0 Z23.000
(Finish operation: Counterbore_Spoilerboard)
(Begin postamble)
M5
G17 G90
M2
