(Exported by FreeCAD)
(Post Processor: grbl_post)
(Output Time:2020-06-14 19:14:48.651472)
(Begin preamble)
G17 G90
G21
(Begin operation: Fixture)
(Path: Fixture)
G54
(Finish operation: Fixture)
(Begin operation: T6: 2FluteWoodMill007)
(Path: T6: 2FluteWoodMill007)
(T6: 2FluteWoodMill007)
(Begin toolchange)
(M6 T6.0)
M3 S14000.0
G4 P5
(Finish operation: T6: 2FluteWoodMill007)
(Begin operation: Hinge_Pocket_Helix)
(Path: Hinge_Pocket_Helix)
(Hinge_Pocket_Helix)
(helix cut operation)
G0 Z23.000
G0 X0.397 Y0.000
G0 Z21.000
G1 Z18.000 F999.600
G3 X-0.397 Y0.000 Z17.300 I-0.397 J0.000 F1999.800
G3 X0.397 Y0.000 Z16.600 I0.397 J0.000 F1999.800
G3 X-0.397 Y0.000 Z15.900 I-0.397 J0.000 F1999.800
G3 X0.397 Y0.000 Z15.200 I0.397 J0.000 F1999.800
G3 X-0.397 Y0.000 Z14.500 I-0.397 J0.000 F1999.800
G3 X0.397 Y0.000 Z13.800 I0.397 J0.000 F1999.800
G3 X-0.397 Y0.000 Z13.100 I-0.397 J0.000 F1999.800
G3 X0.397 Y0.000 Z12.400 I0.397 J0.000 F1999.800
G3 X-0.397 Y0.000 Z11.700 I-0.397 J0.000 F1999.800
G3 X0.397 Y0.000 Z11.000 I0.397 J0.000 F1999.800
G3 X-0.397 Y0.000 Z11.000 I-0.397 J0.000 F1999.800
G3 X0.397 Y0.000 Z11.000 I0.397 J0.000 F1999.800
G0 Z21.000
G0 X1.185 Y0.000
G0 Z21.000
G1 Z18.000 F999.600
G3 X-1.185 Y0.000 Z17.300 I-1.185 J0.000 F1999.800
G3 X1.185 Y0.000 Z16.600 I1.185 J0.000 F1999.800
G3 X-1.185 Y0.000 Z15.900 I-1.185 J0.000 F1999.800
G3 X1.185 Y0.000 Z15.200 I1.185 J0.000 F1999.800
G3 X-1.185 Y0.000 Z14.500 I-1.185 J0.000 F1999.800
G3 X1.185 Y0.000 Z13.800 I1.185 J0.000 F1999.800
G3 X-1.185 Y0.000 Z13.100 I-1.185 J0.000 F1999.800
G3 X1.185 Y0.000 Z12.400 I1.185 J0.000 F1999.800
G3 X-1.185 Y0.000 Z11.700 I-1.185 J0.000 F1999.800
G3 X1.185 Y0.000 Z11.000 I1.185 J0.000 F1999.800
G3 X-1.185 Y0.000 Z11.000 I-1.185 J0.000 F1999.800
G3 X1.185 Y0.000 Z11.000 I1.185 J0.000 F1999.800
G0 Z21.000
G0 X1.973 Y0.000
G0 Z21.000
G1 Z18.000 F999.600
G3 X-1.973 Y0.000 Z17.300 I-1.973 J0.000 F1999.800
G3 X1.973 Y0.000 Z16.600 I1.973 J0.000 F1999.800
G3 X-1.973 Y0.000 Z15.900 I-1.973 J0.000 F1999.800
G3 X1.973 Y0.000 Z15.200 I1.973 J0.000 F1999.800
G3 X-1.973 Y0.000 Z14.500 I-1.973 J0.000 F1999.800
G3 X1.973 Y0.000 Z13.800 I1.973 J0.000 F1999.800
G3 X-1.973 Y0.000 Z13.100 I-1.973 J0.000 F1999.800
G3 X1.973 Y0.000 Z12.400 I1.973 J0.000 F1999.800
G3 X-1.973 Y0.000 Z11.700 I-1.973 J0.000 F1999.800
G3 X1.973 Y0.000 Z11.000 I1.973 J0.000 F1999.800
G3 X-1.973 Y0.000 Z11.000 I-1.973 J0.000 F1999.800
G3 X1.973 Y0.000 Z11.000 I1.973 J0.000 F1999.800
G0 Z21.000
G0 X2.761 Y0.000
G0 Z21.000
G1 Z18.000 F999.600
G3 X-2.761 Y0.000 Z17.300 I-2.761 J0.000 F1999.800
G3 X2.761 Y0.000 Z16.600 I2.761 J0.000 F1999.800
G3 X-2.761 Y0.000 Z15.900 I-2.761 J0.000 F1999.800
G3 X2.761 Y0.000 Z15.200 I2.761 J0.000 F1999.800
G3 X-2.761 Y0.000 Z14.500 I-2.761 J0.000 F1999.800
G3 X2.761 Y0.000 Z13.800 I2.761 J0.000 F1999.800
G3 X-2.761 Y0.000 Z13.100 I-2.761 J0.000 F1999.800
G3 X2.761 Y0.000 Z12.400 I2.761 J0.000 F1999.800
G3 X-2.761 Y0.000 Z11.700 I-2.761 J0.000 F1999.800
G3 X2.761 Y0.000 Z11.000 I2.761 J0.000 F1999.800
G3 X-2.761 Y0.000 Z11.000 I-2.761 J0.000 F1999.800
G3 X2.761 Y0.000 Z11.000 I2.761 J0.000 F1999.800
G0 Z21.000
G0 X3.549 Y0.000
G0 Z21.000
G1 Z18.000 F999.600
G3 X-3.549 Y0.000 Z17.300 I-3.549 J0.000 F1999.800
G3 X3.549 Y0.000 Z16.600 I3.549 J0.000 F1999.800
G3 X-3.549 Y0.000 Z15.900 I-3.549 J0.000 F1999.800
G3 X3.549 Y0.000 Z15.200 I3.549 J0.000 F1999.800
G3 X-3.549 Y0.000 Z14.500 I-3.549 J0.000 F1999.800
G3 X3.549 Y0.000 Z13.800 I3.549 J0.000 F1999.800
G3 X-3.549 Y0.000 Z13.100 I-3.549 J0.000 F1999.800
G3 X3.549 Y0.000 Z12.400 I3.549 J0.000 F1999.800
G3 X-3.549 Y0.000 Z11.700 I-3.549 J0.000 F1999.800
G3 X3.549 Y0.000 Z11.000 I3.549 J0.000 F1999.800
G3 X-3.549 Y0.000 Z11.000 I-3.549 J0.000 F1999.800
G3 X3.549 Y0.000 Z11.000 I3.549 J0.000 F1999.800
G0 Z21.000
G0 X4.337 Y0.000
G0 Z21.000
G1 Z18.000 F999.600
G3 X-4.337 Y0.000 Z17.300 I-4.337 J0.000 F1999.800
G3 X4.337 Y0.000 Z16.600 I4.337 J0.000 F1999.800
G3 X-4.337 Y0.000 Z15.900 I-4.337 J0.000 F1999.800
G3 X4.337 Y0.000 Z15.200 I4.337 J0.000 F1999.800
G3 X-4.337 Y0.000 Z14.500 I-4.337 J0.000 F1999.800
G3 X4.337 Y0.000 Z13.800 I4.337 J0.000 F1999.800
G3 X-4.337 Y0.000 Z13.100 I-4.337 J0.000 F1999.800
G3 X4.337 Y0.000 Z12.400 I4.337 J0.000 F1999.800
G3 X-4.337 Y0.000 Z11.700 I-4.337 J0.000 F1999.800
G3 X4.337 Y0.000 Z11.000 I4.337 J0.000 F1999.800
G3 X-4.337 Y0.000 Z11.000 I-4.337 J0.000 F1999.800
G3 X4.337 Y0.000 Z11.000 I4.337 J0.000 F1999.800
G0 Z21.000
G0 X5.125 Y0.000
G0 Z21.000
G1 Z18.000 F999.600
G3 X-5.125 Y0.000 Z17.300 I-5.125 J0.000 F1999.800
G3 X5.125 Y0.000 Z16.600 I5.125 J0.000 F1999.800
G3 X-5.125 Y0.000 Z15.900 I-5.125 J0.000 F1999.800
G3 X5.125 Y0.000 Z15.200 I5.125 J0.000 F1999.800
G3 X-5.125 Y0.000 Z14.500 I-5.125 J0.000 F1999.800
G3 X5.125 Y0.000 Z13.800 I5.125 J0.000 F1999.800
G3 X-5.125 Y0.000 Z13.100 I-5.125 J0.000 F1999.800
G3 X5.125 Y0.000 Z12.400 I5.125 J0.000 F1999.800
G3 X-5.125 Y0.000 Z11.700 I-5.125 J0.000 F1999.800
G3 X5.125 Y0.000 Z11.000 I5.125 J0.000 F1999.800
G3 X-5.125 Y0.000 Z11.000 I-5.125 J0.000 F1999.800
G3 X5.125 Y0.000 Z11.000 I5.125 J0.000 F1999.800
G0 Z21.000
G0 X5.913 Y0.000
G0 Z21.000
G1 Z18.000 F999.600
G3 X-5.913 Y0.000 Z17.300 I-5.913 J0.000 F1999.800
G3 X5.913 Y0.000 Z16.600 I5.913 J0.000 F1999.800
G3 X-5.913 Y0.000 Z15.900 I-5.913 J0.000 F1999.800
G3 X5.913 Y0.000 Z15.200 I5.913 J0.000 F1999.800
G3 X-5.913 Y0.000 Z14.500 I-5.913 J0.000 F1999.800
G3 X5.913 Y0.000 Z13.800 I5.913 J0.000 F1999.800
G3 X-5.913 Y0.000 Z13.100 I-5.913 J0.000 F1999.800
G3 X5.913 Y0.000 Z12.400 I5.913 J0.000 F1999.800
G3 X-5.913 Y0.000 Z11.700 I-5.913 J0.000 F1999.800
G3 X5.913 Y0.000 Z11.000 I5.913 J0.000 F1999.800
G3 X-5.913 Y0.000 Z11.000 I-5.913 J0.000 F1999.800
G3 X5.913 Y0.000 Z11.000 I5.913 J0.000 F1999.800
G0 Z21.000
G0 X6.701 Y0.000
G0 Z21.000
G1 Z18.000 F999.600
G3 X-6.701 Y0.000 Z17.300 I-6.701 J0.000 F1999.800
G3 X6.701 Y0.000 Z16.600 I6.701 J0.000 F1999.800
G3 X-6.701 Y0.000 Z15.900 I-6.701 J0.000 F1999.800
G3 X6.701 Y0.000 Z15.200 I6.701 J0.000 F1999.800
G3 X-6.701 Y0.000 Z14.500 I-6.701 J0.000 F1999.800
G3 X6.701 Y0.000 Z13.800 I6.701 J0.000 F1999.800
G3 X-6.701 Y0.000 Z13.100 I-6.701 J0.000 F1999.800
G3 X6.701 Y0.000 Z12.400 I6.701 J0.000 F1999.800
G3 X-6.701 Y0.000 Z11.700 I-6.701 J0.000 F1999.800
G3 X6.701 Y0.000 Z11.000 I6.701 J0.000 F1999.800
G3 X-6.701 Y0.000 Z11.000 I-6.701 J0.000 F1999.800
G3 X6.701 Y0.000 Z11.000 I6.701 J0.000 F1999.800
G0 Z21.000
G0 X7.489 Y0.000
G0 Z21.000
G1 Z18.000 F999.600
G3 X-7.489 Y0.000 Z17.300 I-7.489 J0.000 F1999.800
G3 X7.489 Y0.000 Z16.600 I7.489 J0.000 F1999.800
G3 X-7.489 Y0.000 Z15.900 I-7.489 J0.000 F1999.800
G3 X7.489 Y0.000 Z15.200 I7.489 J0.000 F1999.800
G3 X-7.489 Y0.000 Z14.500 I-7.489 J0.000 F1999.800
G3 X7.489 Y0.000 Z13.800 I7.489 J0.000 F1999.800
G3 X-7.489 Y0.000 Z13.100 I-7.489 J0.000 F1999.800
G3 X7.489 Y0.000 Z12.400 I7.489 J0.000 F1999.800
G3 X-7.489 Y0.000 Z11.700 I-7.489 J0.000 F1999.800
G3 X7.489 Y0.000 Z11.000 I7.489 J0.000 F1999.800
G3 X-7.489 Y0.000 Z11.000 I-7.489 J0.000 F1999.800
G3 X7.489 Y0.000 Z11.000 I7.489 J0.000 F1999.800
G0 Z21.000
G0 X8.277 Y0.000
G0 Z21.000
G1 Z18.000 F999.600
G3 X-8.277 Y0.000 Z17.300 I-8.277 J0.000 F1999.800
G3 X8.277 Y0.000 Z16.600 I8.277 J0.000 F1999.800
G3 X-8.277 Y0.000 Z15.900 I-8.277 J0.000 F1999.800
G3 X8.277 Y0.000 Z15.200 I8.277 J0.000 F1999.800
G3 X-8.277 Y0.000 Z14.500 I-8.277 J0.000 F1999.800
G3 X8.277 Y0.000 Z13.800 I8.277 J0.000 F1999.800
G3 X-8.277 Y0.000 Z13.100 I-8.277 J0.000 F1999.800
G3 X8.277 Y0.000 Z12.400 I8.277 J0.000 F1999.800
G3 X-8.277 Y0.000 Z11.700 I-8.277 J0.000 F1999.800
G3 X8.277 Y0.000 Z11.000 I8.277 J0.000 F1999.800
G3 X-8.277 Y0.000 Z11.000 I-8.277 J0.000 F1999.800
G3 X8.277 Y0.000 Z11.000 I8.277 J0.000 F1999.800
G0 Z21.000
G0 X9.065 Y0.000
G0 Z21.000
G1 Z18.000 F999.600
G3 X-9.065 Y0.000 Z17.300 I-9.065 J0.000 F1999.800
G3 X9.065 Y0.000 Z16.600 I9.065 J0.000 F1999.800
G3 X-9.065 Y0.000 Z15.900 I-9.065 J0.000 F1999.800
G3 X9.065 Y0.000 Z15.200 I9.065 J0.000 F1999.800
G3 X-9.065 Y0.000 Z14.500 I-9.065 J0.000 F1999.800
G3 X9.065 Y0.000 Z13.800 I9.065 J0.000 F1999.800
G3 X-9.065 Y0.000 Z13.100 I-9.065 J0.000 F1999.800
G3 X9.065 Y0.000 Z12.400 I9.065 J0.000 F1999.800
G3 X-9.065 Y0.000 Z11.700 I-9.065 J0.000 F1999.800
G3 X9.065 Y0.000 Z11.000 I9.065 J0.000 F1999.800
G3 X-9.065 Y0.000 Z11.000 I-9.065 J0.000 F1999.800
G3 X9.065 Y0.000 Z11.000 I9.065 J0.000 F1999.800
G0 Z21.000
G0 X9.853 Y0.000
G0 Z21.000
G1 Z18.000 F999.600
G3 X-9.853 Y0.000 Z17.300 I-9.853 J0.000 F1999.800
G3 X9.853 Y0.000 Z16.600 I9.853 J0.000 F1999.800
G3 X-9.853 Y0.000 Z15.900 I-9.853 J0.000 F1999.800
G3 X9.853 Y0.000 Z15.200 I9.853 J0.000 F1999.800
G3 X-9.853 Y0.000 Z14.500 I-9.853 J0.000 F1999.800
G3 X9.853 Y0.000 Z13.800 I9.853 J0.000 F1999.800
G3 X-9.853 Y0.000 Z13.100 I-9.853 J0.000 F1999.800
G3 X9.853 Y0.000 Z12.400 I9.853 J0.000 F1999.800
G3 X-9.853 Y0.000 Z11.700 I-9.853 J0.000 F1999.800
G3 X9.853 Y0.000 Z11.000 I9.853 J0.000 F1999.800
G3 X-9.853 Y0.000 Z11.000 I-9.853 J0.000 F1999.800
G3 X9.853 Y0.000 Z11.000 I9.853 J0.000 F1999.800
G0 Z21.000
G0 X10.641 Y0.000
G0 Z21.000
G1 Z18.000 F999.600
G3 X-10.641 Y0.000 Z17.300 I-10.641 J0.000 F1999.800
G3 X10.641 Y0.000 Z16.600 I10.641 J0.000 F1999.800
G3 X-10.641 Y0.000 Z15.900 I-10.641 J0.000 F1999.800
G3 X10.641 Y0.000 Z15.200 I10.641 J0.000 F1999.800
G3 X-10.641 Y0.000 Z14.500 I-10.641 J0.000 F1999.800
G3 X10.641 Y0.000 Z13.800 I10.641 J0.000 F1999.800
G3 X-10.641 Y0.000 Z13.100 I-10.641 J0.000 F1999.800
G3 X10.641 Y0.000 Z12.400 I10.641 J0.000 F1999.800
G3 X-10.641 Y0.000 Z11.700 I-10.641 J0.000 F1999.800
G3 X10.641 Y0.000 Z11.000 I10.641 J0.000 F1999.800
G3 X-10.641 Y0.000 Z11.000 I-10.641 J0.000 F1999.800
G3 X10.641 Y0.000 Z11.000 I10.641 J0.000 F1999.800
G0 Z21.000
G0 X11.429 Y0.000
G0 Z21.000
G1 Z18.000 F999.600
G3 X-11.429 Y0.000 Z17.300 I-11.429 J0.000 F1999.800
G3 X11.429 Y0.000 Z16.600 I11.429 J0.000 F1999.800
G3 X-11.429 Y0.000 Z15.900 I-11.429 J0.000 F1999.800
G3 X11.429 Y0.000 Z15.200 I11.429 J0.000 F1999.800
G3 X-11.429 Y0.000 Z14.500 I-11.429 J0.000 F1999.800
G3 X11.429 Y0.000 Z13.800 I11.429 J0.000 F1999.800
G3 X-11.429 Y0.000 Z13.100 I-11.429 J0.000 F1999.800
G3 X11.429 Y0.000 Z12.400 I11.429 J0.000 F1999.800
G3 X-11.429 Y0.000 Z11.700 I-11.429 J0.000 F1999.800
G3 X11.429 Y0.000 Z11.000 I11.429 J0.000 F1999.800
G3 X-11.429 Y0.000 Z11.000 I-11.429 J0.000 F1999.800
G3 X11.429 Y0.000 Z11.000 I11.429 J0.000 F1999.800
G0 Z21.000
G0 X12.217 Y0.000
G0 Z21.000
G1 Z18.000 F999.600
G3 X-12.217 Y0.000 Z17.300 I-12.217 J0.000 F1999.800
G3 X12.217 Y0.000 Z16.600 I12.217 J0.000 F1999.800
G3 X-12.217 Y0.000 Z15.900 I-12.217 J0.000 F1999.800
G3 X12.217 Y0.000 Z15.200 I12.217 J0.000 F1999.800
G3 X-12.217 Y0.000 Z14.500 I-12.217 J0.000 F1999.800
G3 X12.217 Y0.000 Z13.800 I12.217 J0.000 F1999.800
G3 X-12.217 Y0.000 Z13.100 I-12.217 J0.000 F1999.800
G3 X12.217 Y0.000 Z12.400 I12.217 J0.000 F1999.800
G3 X-12.217 Y0.000 Z11.700 I-12.217 J0.000 F1999.800
G3 X12.217 Y0.000 Z11.000 I12.217 J0.000 F1999.800
G3 X-12.217 Y0.000 Z11.000 I-12.217 J0.000 F1999.800
G3 X12.217 Y0.000 Z11.000 I12.217 J0.000 F1999.800
G0 Z21.000
G0 X13.005 Y0.000
G0 Z21.000
G1 Z18.000 F999.600
G3 X-13.005 Y0.000 Z17.300 I-13.005 J0.000 F1999.800
G3 X13.005 Y0.000 Z16.600 I13.005 J0.000 F1999.800
G3 X-13.005 Y0.000 Z15.900 I-13.005 J0.000 F1999.800
G3 X13.005 Y0.000 Z15.200 I13.005 J0.000 F1999.800
G3 X-13.005 Y0.000 Z14.500 I-13.005 J0.000 F1999.800
G3 X13.005 Y0.000 Z13.800 I13.005 J0.000 F1999.800
G3 X-13.005 Y0.000 Z13.100 I-13.005 J0.000 F1999.800
G3 X13.005 Y0.000 Z12.400 I13.005 J0.000 F1999.800
G3 X-13.005 Y0.000 Z11.700 I-13.005 J0.000 F1999.800
G3 X13.005 Y0.000 Z11.000 I13.005 J0.000 F1999.800
G3 X-13.005 Y0.000 Z11.000 I-13.005 J0.000 F1999.800
G3 X13.005 Y0.000 Z11.000 I13.005 J0.000 F1999.800
G0 Z21.000
G0 X13.793 Y0.000
G0 Z21.000
G1 Z18.000 F999.600
G3 X-13.793 Y0.000 Z17.300 I-13.793 J0.000 F1999.800
G3 X13.793 Y0.000 Z16.600 I13.793 J0.000 F1999.800
G3 X-13.793 Y0.000 Z15.900 I-13.793 J0.000 F1999.800
G3 X13.793 Y0.000 Z15.200 I13.793 J0.000 F1999.800
G3 X-13.793 Y0.000 Z14.500 I-13.793 J0.000 F1999.800
G3 X13.793 Y0.000 Z13.800 I13.793 J0.000 F1999.800
G3 X-13.793 Y0.000 Z13.100 I-13.793 J0.000 F1999.800
G3 X13.793 Y0.000 Z12.400 I13.793 J0.000 F1999.800
G3 X-13.793 Y0.000 Z11.700 I-13.793 J0.000 F1999.800
G3 X13.793 Y0.000 Z11.000 I13.793 J0.000 F1999.800
G3 X-13.793 Y0.000 Z11.000 I-13.793 J0.000 F1999.800
G3 X13.793 Y0.000 Z11.000 I13.793 J0.000 F1999.800
G0 Z21.000
G0 X14.582 Y0.000
G0 Z21.000
G1 Z18.000 F999.600
G3 X-14.582 Y0.000 Z17.300 I-14.582 J0.000 F1999.800
G3 X14.582 Y0.000 Z16.600 I14.582 J0.000 F1999.800
G3 X-14.582 Y0.000 Z15.900 I-14.582 J0.000 F1999.800
G3 X14.582 Y0.000 Z15.200 I14.582 J0.000 F1999.800
G3 X-14.582 Y0.000 Z14.500 I-14.582 J0.000 F1999.800
G3 X14.582 Y0.000 Z13.800 I14.582 J0.000 F1999.800
G3 X-14.582 Y0.000 Z13.100 I-14.582 J0.000 F1999.800
G3 X14.582 Y0.000 Z12.400 I14.582 J0.000 F1999.800
G3 X-14.582 Y0.000 Z11.700 I-14.582 J0.000 F1999.800
G3 X14.582 Y0.000 Z11.000 I14.582 J0.000 F1999.800
G3 X-14.582 Y0.000 Z11.000 I-14.582 J0.000 F1999.800
G3 X14.582 Y0.000 Z11.000 I14.582 J0.000 F1999.800
G0 Z21.000
G0 X15.370 Y0.000
G0 Z21.000
G1 Z18.000 F999.600
G3 X-15.370 Y0.000 Z17.300 I-15.370 J0.000 F1999.800
G3 X15.370 Y0.000 Z16.600 I15.370 J0.000 F1999.800
G3 X-15.370 Y0.000 Z15.900 I-15.370 J0.000 F1999.800
G3 X15.370 Y0.000 Z15.200 I15.370 J0.000 F1999.800
G3 X-15.370 Y0.000 Z14.500 I-15.370 J0.000 F1999.800
G3 X15.370 Y0.000 Z13.800 I15.370 J0.000 F1999.800
G3 X-15.370 Y0.000 Z13.100 I-15.370 J0.000 F1999.800
G3 X15.370 Y0.000 Z12.400 I15.370 J0.000 F1999.800
G3 X-15.370 Y0.000 Z11.700 I-15.370 J0.000 F1999.800
G3 X15.370 Y0.000 Z11.000 I15.370 J0.000 F1999.800
G3 X-15.370 Y0.000 Z11.000 I-15.370 J0.000 F1999.800
G3 X15.370 Y0.000 Z11.000 I15.370 J0.000 F1999.800
G0 Z21.000
G0 X16.158 Y0.000
G0 Z21.000
G1 Z18.000 F999.600
G3 X-16.158 Y0.000 Z17.300 I-16.158 J0.000 F1999.800
G3 X16.158 Y0.000 Z16.600 I16.158 J0.000 F1999.800
G3 X-16.158 Y0.000 Z15.900 I-16.158 J0.000 F1999.800
G3 X16.158 Y0.000 Z15.200 I16.158 J0.000 F1999.800
G3 X-16.158 Y0.000 Z14.500 I-16.158 J0.000 F1999.800
G3 X16.158 Y0.000 Z13.800 I16.158 J0.000 F1999.800
G3 X-16.158 Y0.000 Z13.100 I-16.158 J0.000 F1999.800
G3 X16.158 Y0.000 Z12.400 I16.158 J0.000 F1999.800
G3 X-16.158 Y0.000 Z11.700 I-16.158 J0.000 F1999.800
G3 X16.158 Y0.000 Z11.000 I16.158 J0.000 F1999.800
G3 X-16.158 Y0.000 Z11.000 I-16.158 J0.000 F1999.800
G3 X16.158 Y0.000 Z11.000 I16.158 J0.000 F1999.800
G0 Z21.000
G0 X16.946 Y0.000
G0 Z21.000
G1 Z18.000 F999.600
G3 X-16.946 Y0.000 Z17.300 I-16.946 J0.000 F1999.800
G3 X16.946 Y0.000 Z16.600 I16.946 J0.000 F1999.800
G3 X-16.946 Y0.000 Z15.900 I-16.946 J0.000 F1999.800
G3 X16.946 Y0.000 Z15.200 I16.946 J0.000 F1999.800
G3 X-16.946 Y0.000 Z14.500 I-16.946 J0.000 F1999.800
G3 X16.946 Y0.000 Z13.800 I16.946 J0.000 F1999.800
G3 X-16.946 Y0.000 Z13.100 I-16.946 J0.000 F1999.800
G3 X16.946 Y0.000 Z12.400 I16.946 J0.000 F1999.800
G3 X-16.946 Y0.000 Z11.700 I-16.946 J0.000 F1999.800
G3 X16.946 Y0.000 Z11.000 I16.946 J0.000 F1999.800
G3 X-16.946 Y0.000 Z11.000 I-16.946 J0.000 F1999.800
G3 X16.946 Y0.000 Z11.000 I16.946 J0.000 F1999.800
G0 Z21.000
G0 X17.734 Y0.000
G0 Z21.000
G1 Z18.000 F999.600
G3 X-17.734 Y0.000 Z17.300 I-17.734 J0.000 F1999.800
G3 X17.734 Y0.000 Z16.600 I17.734 J0.000 F1999.800
G3 X-17.734 Y0.000 Z15.900 I-17.734 J0.000 F1999.800
G3 X17.734 Y0.000 Z15.200 I17.734 J0.000 F1999.800
G3 X-17.734 Y0.000 Z14.500 I-17.734 J0.000 F1999.800
G3 X17.734 Y0.000 Z13.800 I17.734 J0.000 F1999.800
G3 X-17.734 Y0.000 Z13.100 I-17.734 J0.000 F1999.800
G3 X17.734 Y0.000 Z12.400 I17.734 J0.000 F1999.800
G3 X-17.734 Y0.000 Z11.700 I-17.734 J0.000 F1999.800
G3 X17.734 Y0.000 Z11.000 I17.734 J0.000 F1999.800
G3 X-17.734 Y0.000 Z11.000 I-17.734 J0.000 F1999.800
G3 X17.734 Y0.000 Z11.000 I17.734 J0.000 F1999.800
G0 Z21.000
G0 X18.522 Y0.000
G0 Z21.000
G1 Z18.000 F999.600
G3 X-18.522 Y0.000 Z17.300 I-18.522 J0.000 F1999.800
G3 X18.522 Y0.000 Z16.600 I18.522 J0.000 F1999.800
G3 X-18.522 Y0.000 Z15.900 I-18.522 J0.000 F1999.800
G3 X18.522 Y0.000 Z15.200 I18.522 J0.000 F1999.800
G3 X-18.522 Y0.000 Z14.500 I-18.522 J0.000 F1999.800
G3 X18.522 Y0.000 Z13.800 I18.522 J0.000 F1999.800
G3 X-18.522 Y0.000 Z13.100 I-18.522 J0.000 F1999.800
G3 X18.522 Y0.000 Z12.400 I18.522 J0.000 F1999.800
G3 X-18.522 Y0.000 Z11.700 I-18.522 J0.000 F1999.800
G3 X18.522 Y0.000 Z11.000 I18.522 J0.000 F1999.800
G3 X-18.522 Y0.000 Z11.000 I-18.522 J0.000 F1999.800
G3 X18.522 Y0.000 Z11.000 I18.522 J0.000 F1999.800
G0 Z21.000
G0 X19.310 Y0.000
G0 Z21.000
G1 Z18.000 F999.600
G3 X-19.310 Y0.000 Z17.300 I-19.310 J0.000 F1999.800
G3 X19.310 Y0.000 Z16.600 I19.310 J0.000 F1999.800
G3 X-19.310 Y0.000 Z15.900 I-19.310 J0.000 F1999.800
G3 X19.310 Y0.000 Z15.200 I19.310 J0.000 F1999.800
G3 X-19.310 Y0.000 Z14.500 I-19.310 J0.000 F1999.800
G3 X19.310 Y0.000 Z13.800 I19.310 J0.000 F1999.800
G3 X-19.310 Y0.000 Z13.100 I-19.310 J0.000 F1999.800
G3 X19.310 Y0.000 Z12.400 I19.310 J0.000 F1999.800
G3 X-19.310 Y0.000 Z11.700 I-19.310 J0.000 F1999.800
G3 X19.310 Y0.000 Z11.000 I19.310 J0.000 F1999.800
G3 X-19.310 Y0.000 Z11.000 I-19.310 J0.000 F1999.800
G3 X19.310 Y0.000 Z11.000 I19.310 J0.000 F1999.800
G0 Z21.000
G0 X20.098 Y0.000
G0 Z21.000
G1 Z18.000 F999.600
G3 X-20.098 Y0.000 Z17.300 I-20.098 J0.000 F1999.800
G3 X20.098 Y0.000 Z16.600 I20.098 J0.000 F1999.800
G3 X-20.098 Y0.000 Z15.900 I-20.098 J0.000 F1999.800
G3 X20.098 Y0.000 Z15.200 I20.098 J0.000 F1999.800
G3 X-20.098 Y0.000 Z14.500 I-20.098 J0.000 F1999.800
G3 X20.098 Y0.000 Z13.800 I20.098 J0.000 F1999.800
G3 X-20.098 Y0.000 Z13.100 I-20.098 J0.000 F1999.800
G3 X20.098 Y0.000 Z12.400 I20.098 J0.000 F1999.800
G3 X-20.098 Y0.000 Z11.700 I-20.098 J0.000 F1999.800
G3 X20.098 Y0.000 Z11.000 I20.098 J0.000 F1999.800
G3 X-20.098 Y0.000 Z11.000 I-20.098 J0.000 F1999.800
G3 X20.098 Y0.000 Z11.000 I20.098 J0.000 F1999.800
G0 Z21.000
G0 X20.886 Y0.000
G0 Z21.000
G1 Z18.000 F999.600
G3 X-20.886 Y0.000 Z17.300 I-20.886 J0.000 F1999.800
G3 X20.886 Y0.000 Z16.600 I20.886 J0.000 F1999.800
G3 X-20.886 Y0.000 Z15.900 I-20.886 J0.000 F1999.800
G3 X20.886 Y0.000 Z15.200 I20.886 J0.000 F1999.800
G3 X-20.886 Y0.000 Z14.500 I-20.886 J0.000 F1999.800
G3 X20.886 Y0.000 Z13.800 I20.886 J0.000 F1999.800
G3 X-20.886 Y0.000 Z13.100 I-20.886 J0.000 F1999.800
G3 X20.886 Y0.000 Z12.400 I20.886 J0.000 F1999.800
G3 X-20.886 Y0.000 Z11.700 I-20.886 J0.000 F1999.800
G3 X20.886 Y0.000 Z11.000 I20.886 J0.000 F1999.800
G3 X-20.886 Y0.000 Z11.000 I-20.886 J0.000 F1999.800
G3 X20.886 Y0.000 Z11.000 I20.886 J0.000 F1999.800
G0 Z21.000
G0 X21.674 Y0.000
G0 Z21.000
G1 Z18.000 F999.600
G3 X-21.674 Y0.000 Z17.300 I-21.674 J0.000 F1999.800
G3 X21.674 Y0.000 Z16.600 I21.674 J0.000 F1999.800
G3 X-21.674 Y0.000 Z15.900 I-21.674 J0.000 F1999.800
G3 X21.674 Y0.000 Z15.200 I21.674 J0.000 F1999.800
G3 X-21.674 Y0.000 Z14.500 I-21.674 J0.000 F1999.800
G3 X21.674 Y0.000 Z13.800 I21.674 J0.000 F1999.800
G3 X-21.674 Y0.000 Z13.100 I-21.674 J0.000 F1999.800
G3 X21.674 Y0.000 Z12.400 I21.674 J0.000 F1999.800
G3 X-21.674 Y0.000 Z11.700 I-21.674 J0.000 F1999.800
G3 X21.674 Y0.000 Z11.000 I21.674 J0.000 F1999.800
G3 X-21.674 Y0.000 Z11.000 I-21.674 J0.000 F1999.800
G3 X21.674 Y0.000 Z11.000 I21.674 J0.000 F1999.800
G0 Z21.000
G0 X22.462 Y0.000
G0 Z21.000
G1 Z18.000 F999.600
G3 X-22.462 Y0.000 Z17.300 I-22.462 J0.000 F1999.800
G3 X22.462 Y0.000 Z16.600 I22.462 J0.000 F1999.800
G3 X-22.462 Y0.000 Z15.900 I-22.462 J0.000 F1999.800
G3 X22.462 Y0.000 Z15.200 I22.462 J0.000 F1999.800
G3 X-22.462 Y0.000 Z14.500 I-22.462 J0.000 F1999.800
G3 X22.462 Y0.000 Z13.800 I22.462 J0.000 F1999.800
G3 X-22.462 Y0.000 Z13.100 I-22.462 J0.000 F1999.800
G3 X22.462 Y0.000 Z12.400 I22.462 J0.000 F1999.800
G3 X-22.462 Y0.000 Z11.700 I-22.462 J0.000 F1999.800
G3 X22.462 Y0.000 Z11.000 I22.462 J0.000 F1999.800
G3 X-22.462 Y0.000 Z11.000 I-22.462 J0.000 F1999.800
G3 X22.462 Y0.000 Z11.000 I22.462 J0.000 F1999.800
G0 Z21.000
G0 X23.250 Y0.000
G0 Z21.000
G1 Z18.000 F999.600
G3 X-23.250 Y0.000 Z17.300 I-23.250 J0.000 F1999.800
G3 X23.250 Y0.000 Z16.600 I23.250 J0.000 F1999.800
G3 X-23.250 Y0.000 Z15.900 I-23.250 J0.000 F1999.800
G3 X23.250 Y0.000 Z15.200 I23.250 J0.000 F1999.800
G3 X-23.250 Y0.000 Z14.500 I-23.250 J0.000 F1999.800
G3 X23.250 Y0.000 Z13.800 I23.250 J0.000 F1999.800
G3 X-23.250 Y0.000 Z13.100 I-23.250 J0.000 F1999.800
G3 X23.250 Y0.000 Z12.400 I23.250 J0.000 F1999.800
G3 X-23.250 Y0.000 Z11.700 I-23.250 J0.000 F1999.800
G3 X23.250 Y0.000 Z11.000 I23.250 J0.000 F1999.800
G3 X-23.250 Y0.000 Z11.000 I-23.250 J0.000 F1999.800
G3 X23.250 Y0.000 Z11.000 I23.250 J0.000 F1999.800
G0 Z21.000
G0 X24.038 Y0.000
G0 Z21.000
G1 Z18.000 F999.600
G3 X-24.038 Y0.000 Z17.300 I-24.038 J0.000 F1999.800
G3 X24.038 Y0.000 Z16.600 I24.038 J0.000 F1999.800
G3 X-24.038 Y0.000 Z15.900 I-24.038 J0.000 F1999.800
G3 X24.038 Y0.000 Z15.200 I24.038 J0.000 F1999.800
G3 X-24.038 Y0.000 Z14.500 I-24.038 J0.000 F1999.800
G3 X24.038 Y0.000 Z13.800 I24.038 J0.000 F1999.800
G3 X-24.038 Y0.000 Z13.100 I-24.038 J0.000 F1999.800
G3 X24.038 Y0.000 Z12.400 I24.038 J0.000 F1999.800
G3 X-24.038 Y0.000 Z11.700 I-24.038 J0.000 F1999.800
G3 X24.038 Y0.000 Z11.000 I24.038 J0.000 F1999.800
G3 X-24.038 Y0.000 Z11.000 I-24.038 J0.000 F1999.800
G3 X24.038 Y0.000 Z11.000 I24.038 J0.000 F1999.800
G0 Z21.000
G0 X24.826 Y0.000
G0 Z21.000
G1 Z18.000 F999.600
G3 X-24.826 Y0.000 Z17.300 I-24.826 J0.000 F1999.800
G3 X24.826 Y0.000 Z16.600 I24.826 J0.000 F1999.800
G3 X-24.826 Y0.000 Z15.900 I-24.826 J0.000 F1999.800
G3 X24.826 Y0.000 Z15.200 I24.826 J0.000 F1999.800
G3 X-24.826 Y0.000 Z14.500 I-24.826 J0.000 F1999.800
G3 X24.826 Y0.000 Z13.800 I24.826 J0.000 F1999.800
G3 X-24.826 Y0.000 Z13.100 I-24.826 J0.000 F1999.800
G3 X24.826 Y0.000 Z12.400 I24.826 J0.000 F1999.800
G3 X-24.826 Y0.000 Z11.700 I-24.826 J0.000 F1999.800
G3 X24.826 Y0.000 Z11.000 I24.826 J0.000 F1999.800
G3 X-24.826 Y0.000 Z11.000 I-24.826 J0.000 F1999.800
G3 X24.826 Y0.000 Z11.000 I24.826 J0.000 F1999.800
G0 Z21.000
G0 X25.614 Y0.000
G0 Z21.000
G1 Z18.000 F999.600
G3 X-25.614 Y0.000 Z17.300 I-25.614 J0.000 F1999.800
G3 X25.614 Y0.000 Z16.600 I25.614 J0.000 F1999.800
G3 X-25.614 Y0.000 Z15.900 I-25.614 J0.000 F1999.800
G3 X25.614 Y0.000 Z15.200 I25.614 J0.000 F1999.800
G3 X-25.614 Y0.000 Z14.500 I-25.614 J0.000 F1999.800
G3 X25.614 Y0.000 Z13.800 I25.614 J0.000 F1999.800
G3 X-25.614 Y0.000 Z13.100 I-25.614 J0.000 F1999.800
G3 X25.614 Y0.000 Z12.400 I25.614 J0.000 F1999.800
G3 X-25.614 Y0.000 Z11.700 I-25.614 J0.000 F1999.800
G3 X25.614 Y0.000 Z11.000 I25.614 J0.000 F1999.800
G3 X-25.614 Y0.000 Z11.000 I-25.614 J0.000 F1999.800
G3 X25.614 Y0.000 Z11.000 I25.614 J0.000 F1999.800
G0 Z21.000
G0 X26.402 Y0.000
G0 Z21.000
G1 Z18.000 F999.600
G3 X-26.402 Y0.000 Z17.300 I-26.402 J0.000 F1999.800
G3 X26.402 Y0.000 Z16.600 I26.402 J0.000 F1999.800
G3 X-26.402 Y0.000 Z15.900 I-26.402 J0.000 F1999.800
G3 X26.402 Y0.000 Z15.200 I26.402 J0.000 F1999.800
G3 X-26.402 Y0.000 Z14.500 I-26.402 J0.000 F1999.800
G3 X26.402 Y0.000 Z13.800 I26.402 J0.000 F1999.800
G3 X-26.402 Y0.000 Z13.100 I-26.402 J0.000 F1999.800
G3 X26.402 Y0.000 Z12.400 I26.402 J0.000 F1999.800
G3 X-26.402 Y0.000 Z11.700 I-26.402 J0.000 F1999.800
G3 X26.402 Y0.000 Z11.000 I26.402 J0.000 F1999.800
G3 X-26.402 Y0.000 Z11.000 I-26.402 J0.000 F1999.800
G3 X26.402 Y0.000 Z11.000 I26.402 J0.000 F1999.800
G0 Z21.000
G0 X27.190 Y0.000
G0 Z21.000
G1 Z18.000 F999.600
G3 X-27.190 Y0.000 Z17.300 I-27.190 J0.000 F1999.800
G3 X27.190 Y0.000 Z16.600 I27.190 J0.000 F1999.800
G3 X-27.190 Y0.000 Z15.900 I-27.190 J0.000 F1999.800
G3 X27.190 Y0.000 Z15.200 I27.190 J0.000 F1999.800
G3 X-27.190 Y0.000 Z14.500 I-27.190 J0.000 F1999.800
G3 X27.190 Y0.000 Z13.800 I27.190 J0.000 F1999.800
G3 X-27.190 Y0.000 Z13.100 I-27.190 J0.000 F1999.800
G3 X27.190 Y0.000 Z12.400 I27.190 J0.000 F1999.800
G3 X-27.190 Y0.000 Z11.700 I-27.190 J0.000 F1999.800
G3 X27.190 Y0.000 Z11.000 I27.190 J0.000 F1999.800
G3 X-27.190 Y0.000 Z11.000 I-27.190 J0.000 F1999.800
G3 X27.190 Y0.000 Z11.000 I27.190 J0.000 F1999.800
G0 Z21.000
G0 X27.978 Y0.000
G0 Z21.000
G1 Z18.000 F999.600
G3 X-27.978 Y0.000 Z17.300 I-27.978 J0.000 F1999.800
G3 X27.978 Y0.000 Z16.600 I27.978 J0.000 F1999.800
G3 X-27.978 Y0.000 Z15.900 I-27.978 J0.000 F1999.800
G3 X27.978 Y0.000 Z15.200 I27.978 J0.000 F1999.800
G3 X-27.978 Y0.000 Z14.500 I-27.978 J0.000 F1999.800
G3 X27.978 Y0.000 Z13.800 I27.978 J0.000 F1999.800
G3 X-27.978 Y0.000 Z13.100 I-27.978 J0.000 F1999.800
G3 X27.978 Y0.000 Z12.400 I27.978 J0.000 F1999.800
G3 X-27.978 Y0.000 Z11.700 I-27.978 J0.000 F1999.800
G3 X27.978 Y0.000 Z11.000 I27.978 J0.000 F1999.800
G3 X-27.978 Y0.000 Z11.000 I-27.978 J0.000 F1999.800
G3 X27.978 Y0.000 Z11.000 I27.978 J0.000 F1999.800
G0 Z21.000
G0 X28.766 Y0.000
G0 Z21.000
G1 Z18.000 F999.600
G3 X-28.766 Y0.000 Z17.300 I-28.766 J0.000 F1999.800
G3 X28.766 Y0.000 Z16.600 I28.766 J0.000 F1999.800
G3 X-28.766 Y0.000 Z15.900 I-28.766 J0.000 F1999.800
G3 X28.766 Y0.000 Z15.200 I28.766 J0.000 F1999.800
G3 X-28.766 Y0.000 Z14.500 I-28.766 J0.000 F1999.800
G3 X28.766 Y0.000 Z13.800 I28.766 J0.000 F1999.800
G3 X-28.766 Y0.000 Z13.100 I-28.766 J0.000 F1999.800
G3 X28.766 Y0.000 Z12.400 I28.766 J0.000 F1999.800
G3 X-28.766 Y0.000 Z11.700 I-28.766 J0.000 F1999.800
G3 X28.766 Y0.000 Z11.000 I28.766 J0.000 F1999.800
G3 X-28.766 Y0.000 Z11.000 I-28.766 J0.000 F1999.800
G3 X28.766 Y0.000 Z11.000 I28.766 J0.000 F1999.800
G0 Z21.000
G0 X29.554 Y0.000
G0 Z21.000
G1 Z18.000 F999.600
G3 X-29.554 Y0.000 Z17.300 I-29.554 J0.000 F1999.800
G3 X29.554 Y0.000 Z16.600 I29.554 J0.000 F1999.800
G3 X-29.554 Y0.000 Z15.900 I-29.554 J0.000 F1999.800
G3 X29.554 Y0.000 Z15.200 I29.554 J0.000 F1999.800
G3 X-29.554 Y0.000 Z14.500 I-29.554 J0.000 F1999.800
G3 X29.554 Y0.000 Z13.800 I29.554 J0.000 F1999.800
G3 X-29.554 Y0.000 Z13.100 I-29.554 J0.000 F1999.800
G3 X29.554 Y0.000 Z12.400 I29.554 J0.000 F1999.800
G3 X-29.554 Y0.000 Z11.700 I-29.554 J0.000 F1999.800
G3 X29.554 Y0.000 Z11.000 I29.554 J0.000 F1999.800
G3 X-29.554 Y0.000 Z11.000 I-29.554 J0.000 F1999.800
G3 X29.554 Y0.000 Z11.000 I29.554 J0.000 F1999.800
G0 Z21.000
G0 X30.342 Y0.000
G0 Z21.000
G1 Z18.000 F999.600
G3 X-30.342 Y0.000 Z17.300 I-30.342 J0.000 F1999.800
G3 X30.342 Y0.000 Z16.600 I30.342 J0.000 F1999.800
G3 X-30.342 Y0.000 Z15.900 I-30.342 J0.000 F1999.800
G3 X30.342 Y0.000 Z15.200 I30.342 J0.000 F1999.800
G3 X-30.342 Y0.000 Z14.500 I-30.342 J0.000 F1999.800
G3 X30.342 Y0.000 Z13.800 I30.342 J0.000 F1999.800
G3 X-30.342 Y0.000 Z13.100 I-30.342 J0.000 F1999.800
G3 X30.342 Y0.000 Z12.400 I30.342 J0.000 F1999.800
G3 X-30.342 Y0.000 Z11.700 I-30.342 J0.000 F1999.800
G3 X30.342 Y0.000 Z11.000 I30.342 J0.000 F1999.800
G3 X-30.342 Y0.000 Z11.000 I-30.342 J0.000 F1999.800
G3 X30.342 Y0.000 Z11.000 I30.342 J0.000 F1999.800
G0 Z21.000
G0 X31.130 Y0.000
G0 Z21.000
G1 Z18.000 F999.600
G3 X-31.130 Y0.000 Z17.300 I-31.130 J0.000 F1999.800
G3 X31.130 Y0.000 Z16.600 I31.130 J0.000 F1999.800
G3 X-31.130 Y0.000 Z15.900 I-31.130 J0.000 F1999.800
G3 X31.130 Y0.000 Z15.200 I31.130 J0.000 F1999.800
G3 X-31.130 Y0.000 Z14.500 I-31.130 J0.000 F1999.800
G3 X31.130 Y0.000 Z13.800 I31.130 J0.000 F1999.800
G3 X-31.130 Y0.000 Z13.100 I-31.130 J0.000 F1999.800
G3 X31.130 Y0.000 Z12.400 I31.130 J0.000 F1999.800
G3 X-31.130 Y0.000 Z11.700 I-31.130 J0.000 F1999.800
G3 X31.130 Y0.000 Z11.000 I31.130 J0.000 F1999.800
G3 X-31.130 Y0.000 Z11.000 I-31.130 J0.000 F1999.800
G3 X31.130 Y0.000 Z11.000 I31.130 J0.000 F1999.800
G0 Z21.000
G0 X31.918 Y0.000
G0 Z21.000
G1 Z18.000 F999.600
G3 X-31.918 Y0.000 Z17.300 I-31.918 J0.000 F1999.800
G3 X31.918 Y0.000 Z16.600 I31.918 J0.000 F1999.800
G3 X-31.918 Y0.000 Z15.900 I-31.918 J0.000 F1999.800
G3 X31.918 Y0.000 Z15.200 I31.918 J0.000 F1999.800
G3 X-31.918 Y0.000 Z14.500 I-31.918 J0.000 F1999.800
G3 X31.918 Y0.000 Z13.800 I31.918 J0.000 F1999.800
G3 X-31.918 Y0.000 Z13.100 I-31.918 J0.000 F1999.800
G3 X31.918 Y0.000 Z12.400 I31.918 J0.000 F1999.800
G3 X-31.918 Y0.000 Z11.700 I-31.918 J0.000 F1999.800
G3 X31.918 Y0.000 Z11.000 I31.918 J0.000 F1999.800
G3 X-31.918 Y0.000 Z11.000 I-31.918 J0.000 F1999.800
G3 X31.918 Y0.000 Z11.000 I31.918 J0.000 F1999.800
G0 Z21.000
G0 X32.706 Y0.000
G0 Z21.000
G1 Z18.000 F999.600
G3 X-32.706 Y0.000 Z17.300 I-32.706 J0.000 F1999.800
G3 X32.706 Y0.000 Z16.600 I32.706 J0.000 F1999.800
G3 X-32.706 Y0.000 Z15.900 I-32.706 J0.000 F1999.800
G3 X32.706 Y0.000 Z15.200 I32.706 J0.000 F1999.800
G3 X-32.706 Y0.000 Z14.500 I-32.706 J0.000 F1999.800
G3 X32.706 Y0.000 Z13.800 I32.706 J0.000 F1999.800
G3 X-32.706 Y0.000 Z13.100 I-32.706 J0.000 F1999.800
G3 X32.706 Y0.000 Z12.400 I32.706 J0.000 F1999.800
G3 X-32.706 Y0.000 Z11.700 I-32.706 J0.000 F1999.800
G3 X32.706 Y0.000 Z11.000 I32.706 J0.000 F1999.800
G3 X-32.706 Y0.000 Z11.000 I-32.706 J0.000 F1999.800
G3 X32.706 Y0.000 Z11.000 I32.706 J0.000 F1999.800
G0 Z21.000
G0 X33.494 Y0.000
G0 Z21.000
G1 Z18.000 F999.600
G3 X-33.494 Y0.000 Z17.300 I-33.494 J0.000 F1999.800
G3 X33.494 Y0.000 Z16.600 I33.494 J0.000 F1999.800
G3 X-33.494 Y0.000 Z15.900 I-33.494 J0.000 F1999.800
G3 X33.494 Y0.000 Z15.200 I33.494 J0.000 F1999.800
G3 X-33.494 Y0.000 Z14.500 I-33.494 J0.000 F1999.800
G3 X33.494 Y0.000 Z13.800 I33.494 J0.000 F1999.800
G3 X-33.494 Y0.000 Z13.100 I-33.494 J0.000 F1999.800
G3 X33.494 Y0.000 Z12.400 I33.494 J0.000 F1999.800
G3 X-33.494 Y0.000 Z11.700 I-33.494 J0.000 F1999.800
G3 X33.494 Y0.000 Z11.000 I33.494 J0.000 F1999.800
G3 X-33.494 Y0.000 Z11.000 I-33.494 J0.000 F1999.800
G3 X33.494 Y0.000 Z11.000 I33.494 J0.000 F1999.800
G0 Z21.000
G0 X34.282 Y0.000
G0 Z21.000
G1 Z18.000 F999.600
G3 X-34.282 Y0.000 Z17.300 I-34.282 J0.000 F1999.800
G3 X34.282 Y0.000 Z16.600 I34.282 J0.000 F1999.800
G3 X-34.282 Y0.000 Z15.900 I-34.282 J0.000 F1999.800
G3 X34.282 Y0.000 Z15.200 I34.282 J0.000 F1999.800
G3 X-34.282 Y0.000 Z14.500 I-34.282 J0.000 F1999.800
G3 X34.282 Y0.000 Z13.800 I34.282 J0.000 F1999.800
G3 X-34.282 Y0.000 Z13.100 I-34.282 J0.000 F1999.800
G3 X34.282 Y0.000 Z12.400 I34.282 J0.000 F1999.800
G3 X-34.282 Y0.000 Z11.700 I-34.282 J0.000 F1999.800
G3 X34.282 Y0.000 Z11.000 I34.282 J0.000 F1999.800
G3 X-34.282 Y0.000 Z11.000 I-34.282 J0.000 F1999.800
G3 X34.282 Y0.000 Z11.000 I34.282 J0.000 F1999.800
G0 Z21.000
G0 X35.070 Y0.000
G0 Z21.000
G1 Z18.000 F999.600
G3 X-35.070 Y0.000 Z17.300 I-35.070 J0.000 F1999.800
G3 X35.070 Y0.000 Z16.600 I35.070 J0.000 F1999.800
G3 X-35.070 Y0.000 Z15.900 I-35.070 J0.000 F1999.800
G3 X35.070 Y0.000 Z15.200 I35.070 J0.000 F1999.800
G3 X-35.070 Y0.000 Z14.500 I-35.070 J0.000 F1999.800
G3 X35.070 Y0.000 Z13.800 I35.070 J0.000 F1999.800
G3 X-35.070 Y0.000 Z13.100 I-35.070 J0.000 F1999.800
G3 X35.070 Y0.000 Z12.400 I35.070 J0.000 F1999.800
G3 X-35.070 Y0.000 Z11.700 I-35.070 J0.000 F1999.800
G3 X35.070 Y0.000 Z11.000 I35.070 J0.000 F1999.800
G3 X-35.070 Y0.000 Z11.000 I-35.070 J0.000 F1999.800
G3 X35.070 Y0.000 Z11.000 I35.070 J0.000 F1999.800
G0 Z21.000
G0 X35.859 Y0.000
G0 Z21.000
G1 Z18.000 F999.600
G3 X-35.859 Y0.000 Z17.300 I-35.859 J0.000 F1999.800
G3 X35.859 Y0.000 Z16.600 I35.859 J0.000 F1999.800
G3 X-35.859 Y0.000 Z15.900 I-35.859 J0.000 F1999.800
G3 X35.859 Y0.000 Z15.200 I35.859 J0.000 F1999.800
G3 X-35.859 Y0.000 Z14.500 I-35.859 J0.000 F1999.800
G3 X35.859 Y0.000 Z13.800 I35.859 J0.000 F1999.800
G3 X-35.859 Y0.000 Z13.100 I-35.859 J0.000 F1999.800
G3 X35.859 Y0.000 Z12.400 I35.859 J0.000 F1999.800
G3 X-35.859 Y0.000 Z11.700 I-35.859 J0.000 F1999.800
G3 X35.859 Y0.000 Z11.000 I35.859 J0.000 F1999.800
G3 X-35.859 Y0.000 Z11.000 I-35.859 J0.000 F1999.800
G3 X35.859 Y0.000 Z11.000 I35.859 J0.000 F1999.800
G0 Z21.000
G0 X36.647 Y0.000
G0 Z21.000
G1 Z18.000 F999.600
G3 X-36.647 Y0.000 Z17.300 I-36.647 J0.000 F1999.800
G3 X36.647 Y0.000 Z16.600 I36.647 J0.000 F1999.800
G3 X-36.647 Y0.000 Z15.900 I-36.647 J0.000 F1999.800
G3 X36.647 Y0.000 Z15.200 I36.647 J0.000 F1999.800
G3 X-36.647 Y0.000 Z14.500 I-36.647 J0.000 F1999.800
G3 X36.647 Y0.000 Z13.800 I36.647 J0.000 F1999.800
G3 X-36.647 Y0.000 Z13.100 I-36.647 J0.000 F1999.800
G3 X36.647 Y0.000 Z12.400 I36.647 J0.000 F1999.800
G3 X-36.647 Y0.000 Z11.700 I-36.647 J0.000 F1999.800
G3 X36.647 Y0.000 Z11.000 I36.647 J0.000 F1999.800
G3 X-36.647 Y0.000 Z11.000 I-36.647 J0.000 F1999.800
G3 X36.647 Y0.000 Z11.000 I36.647 J0.000 F1999.800
G0 Z21.000
G0 X37.435 Y0.000
G0 Z21.000
G1 Z18.000 F999.600
G3 X-37.435 Y0.000 Z17.300 I-37.435 J0.000 F1999.800
G3 X37.435 Y0.000 Z16.600 I37.435 J0.000 F1999.800
G3 X-37.435 Y0.000 Z15.900 I-37.435 J0.000 F1999.800
G3 X37.435 Y0.000 Z15.200 I37.435 J0.000 F1999.800
G3 X-37.435 Y0.000 Z14.500 I-37.435 J0.000 F1999.800
G3 X37.435 Y0.000 Z13.800 I37.435 J0.000 F1999.800
G3 X-37.435 Y0.000 Z13.100 I-37.435 J0.000 F1999.800
G3 X37.435 Y0.000 Z12.400 I37.435 J0.000 F1999.800
G3 X-37.435 Y0.000 Z11.700 I-37.435 J0.000 F1999.800
G3 X37.435 Y0.000 Z11.000 I37.435 J0.000 F1999.800
G3 X-37.435 Y0.000 Z11.000 I-37.435 J0.000 F1999.800
G3 X37.435 Y0.000 Z11.000 I37.435 J0.000 F1999.800
G0 Z21.000
G0 X38.223 Y0.000
G0 Z21.000
G1 Z18.000 F999.600
G3 X-38.223 Y0.000 Z17.300 I-38.223 J0.000 F1999.800
G3 X38.223 Y0.000 Z16.600 I38.223 J0.000 F1999.800
G3 X-38.223 Y0.000 Z15.900 I-38.223 J0.000 F1999.800
G3 X38.223 Y0.000 Z15.200 I38.223 J0.000 F1999.800
G3 X-38.223 Y0.000 Z14.500 I-38.223 J0.000 F1999.800
G3 X38.223 Y0.000 Z13.800 I38.223 J0.000 F1999.800
G3 X-38.223 Y0.000 Z13.100 I-38.223 J0.000 F1999.800
G3 X38.223 Y0.000 Z12.400 I38.223 J0.000 F1999.800
G3 X-38.223 Y0.000 Z11.700 I-38.223 J0.000 F1999.800
G3 X38.223 Y0.000 Z11.000 I38.223 J0.000 F1999.800
G3 X-38.223 Y0.000 Z11.000 I-38.223 J0.000 F1999.800
G3 X38.223 Y0.000 Z11.000 I38.223 J0.000 F1999.800
G0 Z21.000
G0 X39.011 Y0.000
G0 Z21.000
G1 Z18.000 F999.600
G3 X-39.011 Y0.000 Z17.300 I-39.011 J0.000 F1999.800
G3 X39.011 Y0.000 Z16.600 I39.011 J0.000 F1999.800
G3 X-39.011 Y0.000 Z15.900 I-39.011 J0.000 F1999.800
G3 X39.011 Y0.000 Z15.200 I39.011 J0.000 F1999.800
G3 X-39.011 Y0.000 Z14.500 I-39.011 J0.000 F1999.800
G3 X39.011 Y0.000 Z13.800 I39.011 J0.000 F1999.800
G3 X-39.011 Y0.000 Z13.100 I-39.011 J0.000 F1999.800
G3 X39.011 Y0.000 Z12.400 I39.011 J0.000 F1999.800
G3 X-39.011 Y0.000 Z11.700 I-39.011 J0.000 F1999.800
G3 X39.011 Y0.000 Z11.000 I39.011 J0.000 F1999.800
G3 X-39.011 Y0.000 Z11.000 I-39.011 J0.000 F1999.800
G3 X39.011 Y0.000 Z11.000 I39.011 J0.000 F1999.800
G0 Z21.000
G0 X39.799 Y0.000
G0 Z21.000
G1 Z18.000 F999.600
G3 X-39.799 Y0.000 Z17.300 I-39.799 J0.000 F1999.800
G3 X39.799 Y0.000 Z16.600 I39.799 J0.000 F1999.800
G3 X-39.799 Y0.000 Z15.900 I-39.799 J0.000 F1999.800
G3 X39.799 Y0.000 Z15.200 I39.799 J0.000 F1999.800
G3 X-39.799 Y0.000 Z14.500 I-39.799 J0.000 F1999.800
G3 X39.799 Y0.000 Z13.800 I39.799 J0.000 F1999.800
G3 X-39.799 Y0.000 Z13.100 I-39.799 J0.000 F1999.800
G3 X39.799 Y0.000 Z12.400 I39.799 J0.000 F1999.800
G3 X-39.799 Y0.000 Z11.700 I-39.799 J0.000 F1999.800
G3 X39.799 Y0.000 Z11.000 I39.799 J0.000 F1999.800
G3 X-39.799 Y0.000 Z11.000 I-39.799 J0.000 F1999.800
G3 X39.799 Y0.000 Z11.000 I39.799 J0.000 F1999.800
G0 Z21.000
G0 X40.587 Y0.000
G0 Z21.000
G1 Z18.000 F999.600
G3 X-40.587 Y0.000 Z17.300 I-40.587 J0.000 F1999.800
G3 X40.587 Y0.000 Z16.600 I40.587 J0.000 F1999.800
G3 X-40.587 Y0.000 Z15.900 I-40.587 J0.000 F1999.800
G3 X40.587 Y0.000 Z15.200 I40.587 J0.000 F1999.800
G3 X-40.587 Y0.000 Z14.500 I-40.587 J0.000 F1999.800
G3 X40.587 Y0.000 Z13.800 I40.587 J0.000 F1999.800
G3 X-40.587 Y0.000 Z13.100 I-40.587 J0.000 F1999.800
G3 X40.587 Y0.000 Z12.400 I40.587 J0.000 F1999.800
G3 X-40.587 Y0.000 Z11.700 I-40.587 J0.000 F1999.800
G3 X40.587 Y0.000 Z11.000 I40.587 J0.000 F1999.800
G3 X-40.587 Y0.000 Z11.000 I-40.587 J0.000 F1999.800
G3 X40.587 Y0.000 Z11.000 I40.587 J0.000 F1999.800
G0 Z21.000
G0 X41.375 Y0.000
G0 Z21.000
G1 Z18.000 F999.600
G3 X-41.375 Y0.000 Z17.300 I-41.375 J0.000 F1999.800
G3 X41.375 Y0.000 Z16.600 I41.375 J0.000 F1999.800
G3 X-41.375 Y0.000 Z15.900 I-41.375 J0.000 F1999.800
G3 X41.375 Y0.000 Z15.200 I41.375 J0.000 F1999.800
G3 X-41.375 Y0.000 Z14.500 I-41.375 J0.000 F1999.800
G3 X41.375 Y0.000 Z13.800 I41.375 J0.000 F1999.800
G3 X-41.375 Y0.000 Z13.100 I-41.375 J0.000 F1999.800
G3 X41.375 Y0.000 Z12.400 I41.375 J0.000 F1999.800
G3 X-41.375 Y0.000 Z11.700 I-41.375 J0.000 F1999.800
G3 X41.375 Y0.000 Z11.000 I41.375 J0.000 F1999.800
G3 X-41.375 Y0.000 Z11.000 I-41.375 J0.000 F1999.800
G3 X41.375 Y0.000 Z11.000 I41.375 J0.000 F1999.800
G0 Z21.000
G0 X42.163 Y0.000
G0 Z21.000
G1 Z18.000 F999.600
G3 X-42.163 Y0.000 Z17.300 I-42.163 J0.000 F1999.800
G3 X42.163 Y0.000 Z16.600 I42.163 J0.000 F1999.800
G3 X-42.163 Y0.000 Z15.900 I-42.163 J0.000 F1999.800
G3 X42.163 Y0.000 Z15.200 I42.163 J0.000 F1999.800
G3 X-42.163 Y0.000 Z14.500 I-42.163 J0.000 F1999.800
G3 X42.163 Y0.000 Z13.800 I42.163 J0.000 F1999.800
G3 X-42.163 Y0.000 Z13.100 I-42.163 J0.000 F1999.800
G3 X42.163 Y0.000 Z12.400 I42.163 J0.000 F1999.800
G3 X-42.163 Y0.000 Z11.700 I-42.163 J0.000 F1999.800
G3 X42.163 Y0.000 Z11.000 I42.163 J0.000 F1999.800
G3 X-42.163 Y0.000 Z11.000 I-42.163 J0.000 F1999.800
G3 X42.163 Y0.000 Z11.000 I42.163 J0.000 F1999.800
G0 Z21.000
G0 X42.951 Y0.000
G0 Z21.000
G1 Z18.000 F999.600
G3 X-42.951 Y0.000 Z17.300 I-42.951 J0.000 F1999.800
G3 X42.951 Y0.000 Z16.600 I42.951 J0.000 F1999.800
G3 X-42.951 Y0.000 Z15.900 I-42.951 J0.000 F1999.800
G3 X42.951 Y0.000 Z15.200 I42.951 J0.000 F1999.800
G3 X-42.951 Y0.000 Z14.500 I-42.951 J0.000 F1999.800
G3 X42.951 Y0.000 Z13.800 I42.951 J0.000 F1999.800
G3 X-42.951 Y0.000 Z13.100 I-42.951 J0.000 F1999.800
G3 X42.951 Y0.000 Z12.400 I42.951 J0.000 F1999.800
G3 X-42.951 Y0.000 Z11.700 I-42.951 J0.000 F1999.800
G3 X42.951 Y0.000 Z11.000 I42.951 J0.000 F1999.800
G3 X-42.951 Y0.000 Z11.000 I-42.951 J0.000 F1999.800
G3 X42.951 Y0.000 Z11.000 I42.951 J0.000 F1999.800
G0 Z21.000
G0 X43.739 Y0.000
G0 Z21.000
G1 Z18.000 F999.600
G3 X-43.739 Y0.000 Z17.300 I-43.739 J0.000 F1999.800
G3 X43.739 Y0.000 Z16.600 I43.739 J0.000 F1999.800
G3 X-43.739 Y0.000 Z15.900 I-43.739 J0.000 F1999.800
G3 X43.739 Y0.000 Z15.200 I43.739 J0.000 F1999.800
G3 X-43.739 Y0.000 Z14.500 I-43.739 J0.000 F1999.800
G3 X43.739 Y0.000 Z13.800 I43.739 J0.000 F1999.800
G3 X-43.739 Y0.000 Z13.100 I-43.739 J0.000 F1999.800
G3 X43.739 Y0.000 Z12.400 I43.739 J0.000 F1999.800
G3 X-43.739 Y0.000 Z11.700 I-43.739 J0.000 F1999.800
G3 X43.739 Y0.000 Z11.000 I43.739 J0.000 F1999.800
G3 X-43.739 Y0.000 Z11.000 I-43.739 J0.000 F1999.800
G3 X43.739 Y0.000 Z11.000 I43.739 J0.000 F1999.800
G0 Z21.000
G0 X44.527 Y0.000
G0 Z21.000
G1 Z18.000 F999.600
G3 X-44.527 Y0.000 Z17.300 I-44.527 J0.000 F1999.800
G3 X44.527 Y0.000 Z16.600 I44.527 J0.000 F1999.800
G3 X-44.527 Y0.000 Z15.900 I-44.527 J0.000 F1999.800
G3 X44.527 Y0.000 Z15.200 I44.527 J0.000 F1999.800
G3 X-44.527 Y0.000 Z14.500 I-44.527 J0.000 F1999.800
G3 X44.527 Y0.000 Z13.800 I44.527 J0.000 F1999.800
G3 X-44.527 Y0.000 Z13.100 I-44.527 J0.000 F1999.800
G3 X44.527 Y0.000 Z12.400 I44.527 J0.000 F1999.800
G3 X-44.527 Y0.000 Z11.700 I-44.527 J0.000 F1999.800
G3 X44.527 Y0.000 Z11.000 I44.527 J0.000 F1999.800
G3 X-44.527 Y0.000 Z11.000 I-44.527 J0.000 F1999.800
G3 X44.527 Y0.000 Z11.000 I44.527 J0.000 F1999.800
G0 Z21.000
G0 X45.315 Y0.000
G0 Z21.000
G1 Z18.000 F999.600
G3 X-45.315 Y0.000 Z17.300 I-45.315 J0.000 F1999.800
G3 X45.315 Y0.000 Z16.600 I45.315 J0.000 F1999.800
G3 X-45.315 Y0.000 Z15.900 I-45.315 J0.000 F1999.800
G3 X45.315 Y0.000 Z15.200 I45.315 J0.000 F1999.800
G3 X-45.315 Y0.000 Z14.500 I-45.315 J0.000 F1999.800
G3 X45.315 Y0.000 Z13.800 I45.315 J0.000 F1999.800
G3 X-45.315 Y0.000 Z13.100 I-45.315 J0.000 F1999.800
G3 X45.315 Y0.000 Z12.400 I45.315 J0.000 F1999.800
G3 X-45.315 Y0.000 Z11.700 I-45.315 J0.000 F1999.800
G3 X45.315 Y0.000 Z11.000 I45.315 J0.000 F1999.800
G3 X-45.315 Y0.000 Z11.000 I-45.315 J0.000 F1999.800
G3 X45.315 Y0.000 Z11.000 I45.315 J0.000 F1999.800
G0 Z21.000
G0 X46.103 Y0.000
G0 Z21.000
G1 Z18.000 F999.600
G3 X-46.103 Y0.000 Z17.300 I-46.103 J0.000 F1999.800
G3 X46.103 Y0.000 Z16.600 I46.103 J0.000 F1999.800
G3 X-46.103 Y0.000 Z15.900 I-46.103 J0.000 F1999.800
G3 X46.103 Y0.000 Z15.200 I46.103 J0.000 F1999.800
G3 X-46.103 Y0.000 Z14.500 I-46.103 J0.000 F1999.800
G3 X46.103 Y0.000 Z13.800 I46.103 J0.000 F1999.800
G3 X-46.103 Y0.000 Z13.100 I-46.103 J0.000 F1999.800
G3 X46.103 Y0.000 Z12.400 I46.103 J0.000 F1999.800
G3 X-46.103 Y0.000 Z11.700 I-46.103 J0.000 F1999.800
G3 X46.103 Y0.000 Z11.000 I46.103 J0.000 F1999.800
G3 X-46.103 Y0.000 Z11.000 I-46.103 J0.000 F1999.800
G3 X46.103 Y0.000 Z11.000 I46.103 J0.000 F1999.800
G0 Z21.000
G0 X46.891 Y0.000
G0 Z21.000
G1 Z18.000 F999.600
G3 X-46.891 Y0.000 Z17.300 I-46.891 J0.000 F1999.800
G3 X46.891 Y0.000 Z16.600 I46.891 J0.000 F1999.800
G3 X-46.891 Y0.000 Z15.900 I-46.891 J0.000 F1999.800
G3 X46.891 Y0.000 Z15.200 I46.891 J0.000 F1999.800
G3 X-46.891 Y0.000 Z14.500 I-46.891 J0.000 F1999.800
G3 X46.891 Y0.000 Z13.800 I46.891 J0.000 F1999.800
G3 X-46.891 Y0.000 Z13.100 I-46.891 J0.000 F1999.800
G3 X46.891 Y0.000 Z12.400 I46.891 J0.000 F1999.800
G3 X-46.891 Y0.000 Z11.700 I-46.891 J0.000 F1999.800
G3 X46.891 Y0.000 Z11.000 I46.891 J0.000 F1999.800
G3 X-46.891 Y0.000 Z11.000 I-46.891 J0.000 F1999.800
G3 X46.891 Y0.000 Z11.000 I46.891 J0.000 F1999.800
G0 Z21.000
G0 X47.679 Y0.000
G0 Z21.000
G1 Z18.000 F999.600
G3 X-47.679 Y0.000 Z17.300 I-47.679 J0.000 F1999.800
G3 X47.679 Y0.000 Z16.600 I47.679 J0.000 F1999.800
G3 X-47.679 Y0.000 Z15.900 I-47.679 J0.000 F1999.800
G3 X47.679 Y0.000 Z15.200 I47.679 J0.000 F1999.800
G3 X-47.679 Y0.000 Z14.500 I-47.679 J0.000 F1999.800
G3 X47.679 Y0.000 Z13.800 I47.679 J0.000 F1999.800
G3 X-47.679 Y0.000 Z13.100 I-47.679 J0.000 F1999.800
G3 X47.679 Y0.000 Z12.400 I47.679 J0.000 F1999.800
G3 X-47.679 Y0.000 Z11.700 I-47.679 J0.000 F1999.800
G3 X47.679 Y0.000 Z11.000 I47.679 J0.000 F1999.800
G3 X-47.679 Y0.000 Z11.000 I-47.679 J0.000 F1999.800
G3 X47.679 Y0.000 Z11.000 I47.679 J0.000 F1999.800
G0 Z21.000
G0 X48.467 Y0.000
G0 Z21.000
G1 Z18.000 F999.600
G3 X-48.467 Y0.000 Z17.300 I-48.467 J0.000 F1999.800
G3 X48.467 Y0.000 Z16.600 I48.467 J0.000 F1999.800
G3 X-48.467 Y0.000 Z15.900 I-48.467 J0.000 F1999.800
G3 X48.467 Y0.000 Z15.200 I48.467 J0.000 F1999.800
G3 X-48.467 Y0.000 Z14.500 I-48.467 J0.000 F1999.800
G3 X48.467 Y0.000 Z13.800 I48.467 J0.000 F1999.800
G3 X-48.467 Y0.000 Z13.100 I-48.467 J0.000 F1999.800
G3 X48.467 Y0.000 Z12.400 I48.467 J0.000 F1999.800
G3 X-48.467 Y0.000 Z11.700 I-48.467 J0.000 F1999.800
G3 X48.467 Y0.000 Z11.000 I48.467 J0.000 F1999.800
G3 X-48.467 Y0.000 Z11.000 I-48.467 J0.000 F1999.800
G3 X48.467 Y0.000 Z11.000 I48.467 J0.000 F1999.800
G0 Z21.000
G0 X49.255 Y0.000
G0 Z21.000
G1 Z18.000 F999.600
G3 X-49.255 Y0.000 Z17.300 I-49.255 J0.000 F1999.800
G3 X49.255 Y0.000 Z16.600 I49.255 J0.000 F1999.800
G3 X-49.255 Y0.000 Z15.900 I-49.255 J0.000 F1999.800
G3 X49.255 Y0.000 Z15.200 I49.255 J0.000 F1999.800
G3 X-49.255 Y0.000 Z14.500 I-49.255 J0.000 F1999.800
G3 X49.255 Y0.000 Z13.800 I49.255 J0.000 F1999.800
G3 X-49.255 Y0.000 Z13.100 I-49.255 J0.000 F1999.800
G3 X49.255 Y0.000 Z12.400 I49.255 J0.000 F1999.800
G3 X-49.255 Y0.000 Z11.700 I-49.255 J0.000 F1999.800
G3 X49.255 Y0.000 Z11.000 I49.255 J0.000 F1999.800
G3 X-49.255 Y0.000 Z11.000 I-49.255 J0.000 F1999.800
G3 X49.255 Y0.000 Z11.000 I49.255 J0.000 F1999.800
G0 Z21.000
G0 X50.043 Y0.000
G0 Z21.000
G1 Z18.000 F999.600
G3 X-50.043 Y0.000 Z17.300 I-50.043 J0.000 F1999.800
G3 X50.043 Y0.000 Z16.600 I50.043 J0.000 F1999.800
G3 X-50.043 Y0.000 Z15.900 I-50.043 J0.000 F1999.800
G3 X50.043 Y0.000 Z15.200 I50.043 J0.000 F1999.800
G3 X-50.043 Y0.000 Z14.500 I-50.043 J0.000 F1999.800
G3 X50.043 Y0.000 Z13.800 I50.043 J0.000 F1999.800
G3 X-50.043 Y0.000 Z13.100 I-50.043 J0.000 F1999.800
G3 X50.043 Y0.000 Z12.400 I50.043 J0.000 F1999.800
G3 X-50.043 Y0.000 Z11.700 I-50.043 J0.000 F1999.800
G3 X50.043 Y0.000 Z11.000 I50.043 J0.000 F1999.800
G3 X-50.043 Y0.000 Z11.000 I-50.043 J0.000 F1999.800
G3 X50.043 Y0.000 Z11.000 I50.043 J0.000 F1999.800
G0 Z21.000
G0 X50.831 Y0.000
G0 Z21.000
G1 Z18.000 F999.600
G3 X-50.831 Y0.000 Z17.300 I-50.831 J0.000 F1999.800
G3 X50.831 Y0.000 Z16.600 I50.831 J0.000 F1999.800
G3 X-50.831 Y0.000 Z15.900 I-50.831 J0.000 F1999.800
G3 X50.831 Y0.000 Z15.200 I50.831 J0.000 F1999.800
G3 X-50.831 Y0.000 Z14.500 I-50.831 J0.000 F1999.800
G3 X50.831 Y0.000 Z13.800 I50.831 J0.000 F1999.800
G3 X-50.831 Y0.000 Z13.100 I-50.831 J0.000 F1999.800
G3 X50.831 Y0.000 Z12.400 I50.831 J0.000 F1999.800
G3 X-50.831 Y0.000 Z11.700 I-50.831 J0.000 F1999.800
G3 X50.831 Y0.000 Z11.000 I50.831 J0.000 F1999.800
G3 X-50.831 Y0.000 Z11.000 I-50.831 J0.000 F1999.800
G3 X50.831 Y0.000 Z11.000 I50.831 J0.000 F1999.800
G0 Z21.000
G0 X51.619 Y0.000
G0 Z21.000
G1 Z18.000 F999.600
G3 X-51.619 Y0.000 Z17.300 I-51.619 J0.000 F1999.800
G3 X51.619 Y0.000 Z16.600 I51.619 J0.000 F1999.800
G3 X-51.619 Y0.000 Z15.900 I-51.619 J0.000 F1999.800
G3 X51.619 Y0.000 Z15.200 I51.619 J0.000 F1999.800
G3 X-51.619 Y0.000 Z14.500 I-51.619 J0.000 F1999.800
G3 X51.619 Y0.000 Z13.800 I51.619 J0.000 F1999.800
G3 X-51.619 Y0.000 Z13.100 I-51.619 J0.000 F1999.800
G3 X51.619 Y0.000 Z12.400 I51.619 J0.000 F1999.800
G3 X-51.619 Y0.000 Z11.700 I-51.619 J0.000 F1999.800
G3 X51.619 Y0.000 Z11.000 I51.619 J0.000 F1999.800
G3 X-51.619 Y0.000 Z11.000 I-51.619 J0.000 F1999.800
G3 X51.619 Y0.000 Z11.000 I51.619 J0.000 F1999.800
G0 Z21.000
G0 X52.407 Y0.000
G0 Z21.000
G1 Z18.000 F999.600
G3 X-52.407 Y0.000 Z17.300 I-52.407 J0.000 F1999.800
G3 X52.407 Y0.000 Z16.600 I52.407 J0.000 F1999.800
G3 X-52.407 Y0.000 Z15.900 I-52.407 J0.000 F1999.800
G3 X52.407 Y0.000 Z15.200 I52.407 J0.000 F1999.800
G3 X-52.407 Y0.000 Z14.500 I-52.407 J0.000 F1999.800
G3 X52.407 Y0.000 Z13.800 I52.407 J0.000 F1999.800
G3 X-52.407 Y0.000 Z13.100 I-52.407 J0.000 F1999.800
G3 X52.407 Y0.000 Z12.400 I52.407 J0.000 F1999.800
G3 X-52.407 Y0.000 Z11.700 I-52.407 J0.000 F1999.800
G3 X52.407 Y0.000 Z11.000 I52.407 J0.000 F1999.800
G3 X-52.407 Y0.000 Z11.000 I-52.407 J0.000 F1999.800
G3 X52.407 Y0.000 Z11.000 I52.407 J0.000 F1999.800
G0 Z21.000
G0 X53.195 Y0.000
G0 Z21.000
G1 Z18.000 F999.600
G3 X-53.195 Y0.000 Z17.300 I-53.195 J0.000 F1999.800
G3 X53.195 Y0.000 Z16.600 I53.195 J0.000 F1999.800
G3 X-53.195 Y0.000 Z15.900 I-53.195 J0.000 F1999.800
G3 X53.195 Y0.000 Z15.200 I53.195 J0.000 F1999.800
G3 X-53.195 Y0.000 Z14.500 I-53.195 J0.000 F1999.800
G3 X53.195 Y0.000 Z13.800 I53.195 J0.000 F1999.800
G3 X-53.195 Y0.000 Z13.100 I-53.195 J0.000 F1999.800
G3 X53.195 Y0.000 Z12.400 I53.195 J0.000 F1999.800
G3 X-53.195 Y0.000 Z11.700 I-53.195 J0.000 F1999.800
G3 X53.195 Y0.000 Z11.000 I53.195 J0.000 F1999.800
G3 X-53.195 Y0.000 Z11.000 I-53.195 J0.000 F1999.800
G3 X53.195 Y0.000 Z11.000 I53.195 J0.000 F1999.800
G0 Z21.000
G0 X53.983 Y0.000
G0 Z21.000
G1 Z18.000 F999.600
G3 X-53.983 Y0.000 Z17.300 I-53.983 J0.000 F1999.800
G3 X53.983 Y0.000 Z16.600 I53.983 J0.000 F1999.800
G3 X-53.983 Y0.000 Z15.900 I-53.983 J0.000 F1999.800
G3 X53.983 Y0.000 Z15.200 I53.983 J0.000 F1999.800
G3 X-53.983 Y0.000 Z14.500 I-53.983 J0.000 F1999.800
G3 X53.983 Y0.000 Z13.800 I53.983 J0.000 F1999.800
G3 X-53.983 Y0.000 Z13.100 I-53.983 J0.000 F1999.800
G3 X53.983 Y0.000 Z12.400 I53.983 J0.000 F1999.800
G3 X-53.983 Y0.000 Z11.700 I-53.983 J0.000 F1999.800
G3 X53.983 Y0.000 Z11.000 I53.983 J0.000 F1999.800
G3 X-53.983 Y0.000 Z11.000 I-53.983 J0.000 F1999.800
G3 X53.983 Y0.000 Z11.000 I53.983 J0.000 F1999.800
G0 Z21.000
G0 X54.771 Y0.000
G0 Z21.000
G1 Z18.000 F999.600
G3 X-54.771 Y0.000 Z17.300 I-54.771 J0.000 F1999.800
G3 X54.771 Y0.000 Z16.600 I54.771 J0.000 F1999.800
G3 X-54.771 Y0.000 Z15.900 I-54.771 J0.000 F1999.800
G3 X54.771 Y0.000 Z15.200 I54.771 J0.000 F1999.800
G3 X-54.771 Y0.000 Z14.500 I-54.771 J0.000 F1999.800
G3 X54.771 Y0.000 Z13.800 I54.771 J0.000 F1999.800
G3 X-54.771 Y0.000 Z13.100 I-54.771 J0.000 F1999.800
G3 X54.771 Y0.000 Z12.400 I54.771 J0.000 F1999.800
G3 X-54.771 Y0.000 Z11.700 I-54.771 J0.000 F1999.800
G3 X54.771 Y0.000 Z11.000 I54.771 J0.000 F1999.800
G3 X-54.771 Y0.000 Z11.000 I-54.771 J0.000 F1999.800
G3 X54.771 Y0.000 Z11.000 I54.771 J0.000 F1999.800
G0 Z21.000
G0 X55.559 Y0.000
G0 Z21.000
G1 Z18.000 F999.600
G3 X-55.559 Y0.000 Z17.300 I-55.559 J0.000 F1999.800
G3 X55.559 Y0.000 Z16.600 I55.559 J0.000 F1999.800
G3 X-55.559 Y0.000 Z15.900 I-55.559 J0.000 F1999.800
G3 X55.559 Y0.000 Z15.200 I55.559 J0.000 F1999.800
G3 X-55.559 Y0.000 Z14.500 I-55.559 J0.000 F1999.800
G3 X55.559 Y0.000 Z13.800 I55.559 J0.000 F1999.800
G3 X-55.559 Y0.000 Z13.100 I-55.559 J0.000 F1999.800
G3 X55.559 Y0.000 Z12.400 I55.559 J0.000 F1999.800
G3 X-55.559 Y0.000 Z11.700 I-55.559 J0.000 F1999.800
G3 X55.559 Y0.000 Z11.000 I55.559 J0.000 F1999.800
G3 X-55.559 Y0.000 Z11.000 I-55.559 J0.000 F1999.800
G3 X55.559 Y0.000 Z11.000 I55.559 J0.000 F1999.800
G0 Z21.000
G0 X56.347 Y0.000
G0 Z21.000
G1 Z18.000 F999.600
G3 X-56.347 Y0.000 Z17.300 I-56.347 J0.000 F1999.800
G3 X56.347 Y0.000 Z16.600 I56.347 J0.000 F1999.800
G3 X-56.347 Y0.000 Z15.900 I-56.347 J0.000 F1999.800
G3 X56.347 Y0.000 Z15.200 I56.347 J0.000 F1999.800
G3 X-56.347 Y0.000 Z14.500 I-56.347 J0.000 F1999.800
G3 X56.347 Y0.000 Z13.800 I56.347 J0.000 F1999.800
G3 X-56.347 Y0.000 Z13.100 I-56.347 J0.000 F1999.800
G3 X56.347 Y0.000 Z12.400 I56.347 J0.000 F1999.800
G3 X-56.347 Y0.000 Z11.700 I-56.347 J0.000 F1999.800
G3 X56.347 Y0.000 Z11.000 I56.347 J0.000 F1999.800
G3 X-56.347 Y0.000 Z11.000 I-56.347 J0.000 F1999.800
G3 X56.347 Y0.000 Z11.000 I56.347 J0.000 F1999.800
G0 Z21.000
G0 X57.136 Y0.000
G0 Z21.000
G1 Z18.000 F999.600
G3 X-57.136 Y0.000 Z17.300 I-57.136 J0.000 F1999.800
G3 X57.136 Y0.000 Z16.600 I57.136 J0.000 F1999.800
G3 X-57.136 Y0.000 Z15.900 I-57.136 J0.000 F1999.800
G3 X57.136 Y0.000 Z15.200 I57.136 J0.000 F1999.800
G3 X-57.136 Y0.000 Z14.500 I-57.136 J0.000 F1999.800
G3 X57.136 Y0.000 Z13.800 I57.136 J0.000 F1999.800
G3 X-57.136 Y0.000 Z13.100 I-57.136 J0.000 F1999.800
G3 X57.136 Y0.000 Z12.400 I57.136 J0.000 F1999.800
G3 X-57.136 Y0.000 Z11.700 I-57.136 J0.000 F1999.800
G3 X57.136 Y0.000 Z11.000 I57.136 J0.000 F1999.800
G3 X-57.136 Y0.000 Z11.000 I-57.136 J0.000 F1999.800
G3 X57.136 Y0.000 Z11.000 I57.136 J0.000 F1999.800
G0 Z21.000
G0 X57.924 Y0.000
G0 Z21.000
G1 Z18.000 F999.600
G3 X-57.924 Y0.000 Z17.300 I-57.924 J0.000 F1999.800
G3 X57.924 Y0.000 Z16.600 I57.924 J0.000 F1999.800
G3 X-57.924 Y0.000 Z15.900 I-57.924 J0.000 F1999.800
G3 X57.924 Y0.000 Z15.200 I57.924 J0.000 F1999.800
G3 X-57.924 Y0.000 Z14.500 I-57.924 J0.000 F1999.800
G3 X57.924 Y0.000 Z13.800 I57.924 J0.000 F1999.800
G3 X-57.924 Y0.000 Z13.100 I-57.924 J0.000 F1999.800
G3 X57.924 Y0.000 Z12.400 I57.924 J0.000 F1999.800
G3 X-57.924 Y0.000 Z11.700 I-57.924 J0.000 F1999.800
G3 X57.924 Y0.000 Z11.000 I57.924 J0.000 F1999.800
G3 X-57.924 Y0.000 Z11.000 I-57.924 J0.000 F1999.800
G3 X57.924 Y0.000 Z11.000 I57.924 J0.000 F1999.800
G0 Z21.000
G0 X58.712 Y0.000
G0 Z21.000
G1 Z18.000 F999.600
G3 X-58.712 Y0.000 Z17.300 I-58.712 J0.000 F1999.800
G3 X58.712 Y0.000 Z16.600 I58.712 J0.000 F1999.800
G3 X-58.712 Y0.000 Z15.900 I-58.712 J0.000 F1999.800
G3 X58.712 Y0.000 Z15.200 I58.712 J0.000 F1999.800
G3 X-58.712 Y0.000 Z14.500 I-58.712 J0.000 F1999.800
G3 X58.712 Y0.000 Z13.800 I58.712 J0.000 F1999.800
G3 X-58.712 Y0.000 Z13.100 I-58.712 J0.000 F1999.800
G3 X58.712 Y0.000 Z12.400 I58.712 J0.000 F1999.800
G3 X-58.712 Y0.000 Z11.700 I-58.712 J0.000 F1999.800
G3 X58.712 Y0.000 Z11.000 I58.712 J0.000 F1999.800
G3 X-58.712 Y0.000 Z11.000 I-58.712 J0.000 F1999.800
G3 X58.712 Y0.000 Z11.000 I58.712 J0.000 F1999.800
G0 Z21.000
G0 X59.500 Y0.000
G0 Z21.000
G1 Z18.000 F999.600
G3 X-59.500 Y0.000 Z17.300 I-59.500 J0.000 F1999.800
G3 X59.500 Y0.000 Z16.600 I59.500 J0.000 F1999.800
G3 X-59.500 Y0.000 Z15.900 I-59.500 J0.000 F1999.800
G3 X59.500 Y0.000 Z15.200 I59.500 J0.000 F1999.800
G3 X-59.500 Y0.000 Z14.500 I-59.500 J0.000 F1999.800
G3 X59.500 Y0.000 Z13.800 I59.500 J0.000 F1999.800
G3 X-59.500 Y0.000 Z13.100 I-59.500 J0.000 F1999.800
G3 X59.500 Y0.000 Z12.400 I59.500 J0.000 F1999.800
G3 X-59.500 Y0.000 Z11.700 I-59.500 J0.000 F1999.800
G3 X59.500 Y0.000 Z11.000 I59.500 J0.000 F1999.800
G3 X-59.500 Y0.000 Z11.000 I-59.500 J0.000 F1999.800
G3 X59.500 Y0.000 Z11.000 I59.500 J0.000 F1999.800
G0 Z21.000
G0 X60.288 Y0.000
G0 Z21.000
G1 Z18.000 F999.600
G3 X-60.288 Y0.000 Z17.300 I-60.288 J0.000 F1999.800
G3 X60.288 Y0.000 Z16.600 I60.288 J0.000 F1999.800
G3 X-60.288 Y0.000 Z15.900 I-60.288 J0.000 F1999.800
G3 X60.288 Y0.000 Z15.200 I60.288 J0.000 F1999.800
G3 X-60.288 Y0.000 Z14.500 I-60.288 J0.000 F1999.800
G3 X60.288 Y0.000 Z13.800 I60.288 J0.000 F1999.800
G3 X-60.288 Y0.000 Z13.100 I-60.288 J0.000 F1999.800
G3 X60.288 Y0.000 Z12.400 I60.288 J0.000 F1999.800
G3 X-60.288 Y0.000 Z11.700 I-60.288 J0.000 F1999.800
G3 X60.288 Y0.000 Z11.000 I60.288 J0.000 F1999.800
G3 X-60.288 Y0.000 Z11.000 I-60.288 J0.000 F1999.800
G3 X60.288 Y0.000 Z11.000 I60.288 J0.000 F1999.800
G0 Z21.000
G0 X61.076 Y0.000
G0 Z21.000
G1 Z18.000 F999.600
G3 X-61.076 Y0.000 Z17.300 I-61.076 J0.000 F1999.800
G3 X61.076 Y0.000 Z16.600 I61.076 J0.000 F1999.800
G3 X-61.076 Y0.000 Z15.900 I-61.076 J0.000 F1999.800
G3 X61.076 Y0.000 Z15.200 I61.076 J0.000 F1999.800
G3 X-61.076 Y0.000 Z14.500 I-61.076 J0.000 F1999.800
G3 X61.076 Y0.000 Z13.800 I61.076 J0.000 F1999.800
G3 X-61.076 Y0.000 Z13.100 I-61.076 J0.000 F1999.800
G3 X61.076 Y0.000 Z12.400 I61.076 J0.000 F1999.800
G3 X-61.076 Y0.000 Z11.700 I-61.076 J0.000 F1999.800
G3 X61.076 Y0.000 Z11.000 I61.076 J0.000 F1999.800
G3 X-61.076 Y0.000 Z11.000 I-61.076 J0.000 F1999.800
G3 X61.076 Y0.000 Z11.000 I61.076 J0.000 F1999.800
G0 Z21.000
G0 X61.864 Y0.000
G0 Z21.000
G1 Z18.000 F999.600
G3 X-61.864 Y0.000 Z17.300 I-61.864 J0.000 F1999.800
G3 X61.864 Y0.000 Z16.600 I61.864 J0.000 F1999.800
G3 X-61.864 Y0.000 Z15.900 I-61.864 J0.000 F1999.800
G3 X61.864 Y0.000 Z15.200 I61.864 J0.000 F1999.800
G3 X-61.864 Y0.000 Z14.500 I-61.864 J0.000 F1999.800
G3 X61.864 Y0.000 Z13.800 I61.864 J0.000 F1999.800
G3 X-61.864 Y0.000 Z13.100 I-61.864 J0.000 F1999.800
G3 X61.864 Y0.000 Z12.400 I61.864 J0.000 F1999.800
G3 X-61.864 Y0.000 Z11.700 I-61.864 J0.000 F1999.800
G3 X61.864 Y0.000 Z11.000 I61.864 J0.000 F1999.800
G3 X-61.864 Y0.000 Z11.000 I-61.864 J0.000 F1999.800
G3 X61.864 Y0.000 Z11.000 I61.864 J0.000 F1999.800
G0 Z21.000
G0 X62.652 Y0.000
G0 Z21.000
G1 Z18.000 F999.600
G3 X-62.652 Y0.000 Z17.300 I-62.652 J0.000 F1999.800
G3 X62.652 Y0.000 Z16.600 I62.652 J0.000 F1999.800
G3 X-62.652 Y0.000 Z15.900 I-62.652 J0.000 F1999.800
G3 X62.652 Y0.000 Z15.200 I62.652 J0.000 F1999.800
G3 X-62.652 Y0.000 Z14.500 I-62.652 J0.000 F1999.800
G3 X62.652 Y0.000 Z13.800 I62.652 J0.000 F1999.800
G3 X-62.652 Y0.000 Z13.100 I-62.652 J0.000 F1999.800
G3 X62.652 Y0.000 Z12.400 I62.652 J0.000 F1999.800
G3 X-62.652 Y0.000 Z11.700 I-62.652 J0.000 F1999.800
G3 X62.652 Y0.000 Z11.000 I62.652 J0.000 F1999.800
G3 X-62.652 Y0.000 Z11.000 I-62.652 J0.000 F1999.800
G3 X62.652 Y0.000 Z11.000 I62.652 J0.000 F1999.800
G0 Z21.000
G0 X63.440 Y0.000
G0 Z21.000
G1 Z18.000 F999.600
G3 X-63.440 Y0.000 Z17.300 I-63.440 J0.000 F1999.800
G3 X63.440 Y0.000 Z16.600 I63.440 J0.000 F1999.800
G3 X-63.440 Y0.000 Z15.900 I-63.440 J0.000 F1999.800
G3 X63.440 Y0.000 Z15.200 I63.440 J0.000 F1999.800
G3 X-63.440 Y0.000 Z14.500 I-63.440 J0.000 F1999.800
G3 X63.440 Y0.000 Z13.800 I63.440 J0.000 F1999.800
G3 X-63.440 Y0.000 Z13.100 I-63.440 J0.000 F1999.800
G3 X63.440 Y0.000 Z12.400 I63.440 J0.000 F1999.800
G3 X-63.440 Y0.000 Z11.700 I-63.440 J0.000 F1999.800
G3 X63.440 Y0.000 Z11.000 I63.440 J0.000 F1999.800
G3 X-63.440 Y0.000 Z11.000 I-63.440 J0.000 F1999.800
G3 X63.440 Y0.000 Z11.000 I63.440 J0.000 F1999.800
G0 Z21.000
G0 X64.228 Y0.000
G0 Z21.000
G1 Z18.000 F999.600
G3 X-64.228 Y0.000 Z17.300 I-64.228 J0.000 F1999.800
G3 X64.228 Y0.000 Z16.600 I64.228 J0.000 F1999.800
G3 X-64.228 Y0.000 Z15.900 I-64.228 J0.000 F1999.800
G3 X64.228 Y0.000 Z15.200 I64.228 J0.000 F1999.800
G3 X-64.228 Y0.000 Z14.500 I-64.228 J0.000 F1999.800
G3 X64.228 Y0.000 Z13.800 I64.228 J0.000 F1999.800
G3 X-64.228 Y0.000 Z13.100 I-64.228 J0.000 F1999.800
G3 X64.228 Y0.000 Z12.400 I64.228 J0.000 F1999.800
G3 X-64.228 Y0.000 Z11.700 I-64.228 J0.000 F1999.800
G3 X64.228 Y0.000 Z11.000 I64.228 J0.000 F1999.800
G3 X-64.228 Y0.000 Z11.000 I-64.228 J0.000 F1999.800
G3 X64.228 Y0.000 Z11.000 I64.228 J0.000 F1999.800
G0 Z21.000
G0 X65.016 Y0.000
G0 Z21.000
G1 Z18.000 F999.600
G3 X-65.016 Y0.000 Z17.300 I-65.016 J0.000 F1999.800
G3 X65.016 Y0.000 Z16.600 I65.016 J0.000 F1999.800
G3 X-65.016 Y0.000 Z15.900 I-65.016 J0.000 F1999.800
G3 X65.016 Y0.000 Z15.200 I65.016 J0.000 F1999.800
G3 X-65.016 Y0.000 Z14.500 I-65.016 J0.000 F1999.800
G3 X65.016 Y0.000 Z13.800 I65.016 J0.000 F1999.800
G3 X-65.016 Y0.000 Z13.100 I-65.016 J0.000 F1999.800
G3 X65.016 Y0.000 Z12.400 I65.016 J0.000 F1999.800
G3 X-65.016 Y0.000 Z11.700 I-65.016 J0.000 F1999.800
G3 X65.016 Y0.000 Z11.000 I65.016 J0.000 F1999.800
G3 X-65.016 Y0.000 Z11.000 I-65.016 J0.000 F1999.800
G3 X65.016 Y0.000 Z11.000 I65.016 J0.000 F1999.800
G0 Z21.000
G0 X65.804 Y0.000
G0 Z21.000
G1 Z18.000 F999.600
G3 X-65.804 Y0.000 Z17.300 I-65.804 J0.000 F1999.800
G3 X65.804 Y0.000 Z16.600 I65.804 J0.000 F1999.800
G3 X-65.804 Y0.000 Z15.900 I-65.804 J0.000 F1999.800
G3 X65.804 Y0.000 Z15.200 I65.804 J0.000 F1999.800
G3 X-65.804 Y0.000 Z14.500 I-65.804 J0.000 F1999.800
G3 X65.804 Y0.000 Z13.800 I65.804 J0.000 F1999.800
G3 X-65.804 Y0.000 Z13.100 I-65.804 J0.000 F1999.800
G3 X65.804 Y0.000 Z12.400 I65.804 J0.000 F1999.800
G3 X-65.804 Y0.000 Z11.700 I-65.804 J0.000 F1999.800
G3 X65.804 Y0.000 Z11.000 I65.804 J0.000 F1999.800
G3 X-65.804 Y0.000 Z11.000 I-65.804 J0.000 F1999.800
G3 X65.804 Y0.000 Z11.000 I65.804 J0.000 F1999.800
G0 Z21.000
G0 X66.592 Y0.000
G0 Z21.000
G1 Z18.000 F999.600
G3 X-66.592 Y0.000 Z17.300 I-66.592 J0.000 F1999.800
G3 X66.592 Y0.000 Z16.600 I66.592 J0.000 F1999.800
G3 X-66.592 Y0.000 Z15.900 I-66.592 J0.000 F1999.800
G3 X66.592 Y0.000 Z15.200 I66.592 J0.000 F1999.800
G3 X-66.592 Y0.000 Z14.500 I-66.592 J0.000 F1999.800
G3 X66.592 Y0.000 Z13.800 I66.592 J0.000 F1999.800
G3 X-66.592 Y0.000 Z13.100 I-66.592 J0.000 F1999.800
G3 X66.592 Y0.000 Z12.400 I66.592 J0.000 F1999.800
G3 X-66.592 Y0.000 Z11.700 I-66.592 J0.000 F1999.800
G3 X66.592 Y0.000 Z11.000 I66.592 J0.000 F1999.800
G3 X-66.592 Y0.000 Z11.000 I-66.592 J0.000 F1999.800
G3 X66.592 Y0.000 Z11.000 I66.592 J0.000 F1999.800
G0 Z21.000
G0 X67.380 Y0.000
G0 Z21.000
G1 Z18.000 F999.600
G3 X-67.380 Y0.000 Z17.300 I-67.380 J0.000 F1999.800
G3 X67.380 Y0.000 Z16.600 I67.380 J0.000 F1999.800
G3 X-67.380 Y0.000 Z15.900 I-67.380 J0.000 F1999.800
G3 X67.380 Y0.000 Z15.200 I67.380 J0.000 F1999.800
G3 X-67.380 Y0.000 Z14.500 I-67.380 J0.000 F1999.800
G3 X67.380 Y0.000 Z13.800 I67.380 J0.000 F1999.800
G3 X-67.380 Y0.000 Z13.100 I-67.380 J0.000 F1999.800
G3 X67.380 Y0.000 Z12.400 I67.380 J0.000 F1999.800
G3 X-67.380 Y0.000 Z11.700 I-67.380 J0.000 F1999.800
G3 X67.380 Y0.000 Z11.000 I67.380 J0.000 F1999.800
G3 X-67.380 Y0.000 Z11.000 I-67.380 J0.000 F1999.800
G3 X67.380 Y0.000 Z11.000 I67.380 J0.000 F1999.800
G0 Z21.000
G0 X68.168 Y0.000
G0 Z21.000
G1 Z18.000 F999.600
G3 X-68.168 Y0.000 Z17.300 I-68.168 J0.000 F1999.800
G3 X68.168 Y0.000 Z16.600 I68.168 J0.000 F1999.800
G3 X-68.168 Y0.000 Z15.900 I-68.168 J0.000 F1999.800
G3 X68.168 Y0.000 Z15.200 I68.168 J0.000 F1999.800
G3 X-68.168 Y0.000 Z14.500 I-68.168 J0.000 F1999.800
G3 X68.168 Y0.000 Z13.800 I68.168 J0.000 F1999.800
G3 X-68.168 Y0.000 Z13.100 I-68.168 J0.000 F1999.800
G3 X68.168 Y0.000 Z12.400 I68.168 J0.000 F1999.800
G3 X-68.168 Y0.000 Z11.700 I-68.168 J0.000 F1999.800
G3 X68.168 Y0.000 Z11.000 I68.168 J0.000 F1999.800
G3 X-68.168 Y0.000 Z11.000 I-68.168 J0.000 F1999.800
G3 X68.168 Y0.000 Z11.000 I68.168 J0.000 F1999.800
G0 Z21.000
G0 X68.956 Y0.000
G0 Z21.000
G1 Z18.000 F999.600
G3 X-68.956 Y0.000 Z17.300 I-68.956 J0.000 F1999.800
G3 X68.956 Y0.000 Z16.600 I68.956 J0.000 F1999.800
G3 X-68.956 Y0.000 Z15.900 I-68.956 J0.000 F1999.800
G3 X68.956 Y0.000 Z15.200 I68.956 J0.000 F1999.800
G3 X-68.956 Y0.000 Z14.500 I-68.956 J0.000 F1999.800
G3 X68.956 Y0.000 Z13.800 I68.956 J0.000 F1999.800
G3 X-68.956 Y0.000 Z13.100 I-68.956 J0.000 F1999.800
G3 X68.956 Y0.000 Z12.400 I68.956 J0.000 F1999.800
G3 X-68.956 Y0.000 Z11.700 I-68.956 J0.000 F1999.800
G3 X68.956 Y0.000 Z11.000 I68.956 J0.000 F1999.800
G3 X-68.956 Y0.000 Z11.000 I-68.956 J0.000 F1999.800
G3 X68.956 Y0.000 Z11.000 I68.956 J0.000 F1999.800
G0 Z21.000
G0 X69.744 Y0.000
G0 Z21.000
G1 Z18.000 F999.600
G3 X-69.744 Y0.000 Z17.300 I-69.744 J0.000 F1999.800
G3 X69.744 Y0.000 Z16.600 I69.744 J0.000 F1999.800
G3 X-69.744 Y0.000 Z15.900 I-69.744 J0.000 F1999.800
G3 X69.744 Y0.000 Z15.200 I69.744 J0.000 F1999.800
G3 X-69.744 Y0.000 Z14.500 I-69.744 J0.000 F1999.800
G3 X69.744 Y0.000 Z13.800 I69.744 J0.000 F1999.800
G3 X-69.744 Y0.000 Z13.100 I-69.744 J0.000 F1999.800
G3 X69.744 Y0.000 Z12.400 I69.744 J0.000 F1999.800
G3 X-69.744 Y0.000 Z11.700 I-69.744 J0.000 F1999.800
G3 X69.744 Y0.000 Z11.000 I69.744 J0.000 F1999.800
G3 X-69.744 Y0.000 Z11.000 I-69.744 J0.000 F1999.800
G3 X69.744 Y0.000 Z11.000 I69.744 J0.000 F1999.800
G0 Z21.000
G0 X70.532 Y0.000
G0 Z21.000
G1 Z18.000 F999.600
G3 X-70.532 Y0.000 Z17.300 I-70.532 J0.000 F1999.800
G3 X70.532 Y0.000 Z16.600 I70.532 J0.000 F1999.800
G3 X-70.532 Y0.000 Z15.900 I-70.532 J0.000 F1999.800
G3 X70.532 Y0.000 Z15.200 I70.532 J0.000 F1999.800
G3 X-70.532 Y0.000 Z14.500 I-70.532 J0.000 F1999.800
G3 X70.532 Y0.000 Z13.800 I70.532 J0.000 F1999.800
G3 X-70.532 Y0.000 Z13.100 I-70.532 J0.000 F1999.800
G3 X70.532 Y0.000 Z12.400 I70.532 J0.000 F1999.800
G3 X-70.532 Y0.000 Z11.700 I-70.532 J0.000 F1999.800
G3 X70.532 Y0.000 Z11.000 I70.532 J0.000 F1999.800
G3 X-70.532 Y0.000 Z11.000 I-70.532 J0.000 F1999.800
G3 X70.532 Y0.000 Z11.000 I70.532 J0.000 F1999.800
G0 Z21.000
G0 X71.320 Y0.000
G0 Z21.000
G1 Z18.000 F999.600
G3 X-71.320 Y0.000 Z17.300 I-71.320 J0.000 F1999.800
G3 X71.320 Y0.000 Z16.600 I71.320 J0.000 F1999.800
G3 X-71.320 Y0.000 Z15.900 I-71.320 J0.000 F1999.800
G3 X71.320 Y0.000 Z15.200 I71.320 J0.000 F1999.800
G3 X-71.320 Y0.000 Z14.500 I-71.320 J0.000 F1999.800
G3 X71.320 Y0.000 Z13.800 I71.320 J0.000 F1999.800
G3 X-71.320 Y0.000 Z13.100 I-71.320 J0.000 F1999.800
G3 X71.320 Y0.000 Z12.400 I71.320 J0.000 F1999.800
G3 X-71.320 Y0.000 Z11.700 I-71.320 J0.000 F1999.800
G3 X71.320 Y0.000 Z11.000 I71.320 J0.000 F1999.800
G3 X-71.320 Y0.000 Z11.000 I-71.320 J0.000 F1999.800
G3 X71.320 Y0.000 Z11.000 I71.320 J0.000 F1999.800
G0 Z21.000
G0 X72.108 Y0.000
G0 Z21.000
G1 Z18.000 F999.600
G3 X-72.108 Y0.000 Z17.300 I-72.108 J0.000 F1999.800
G3 X72.108 Y0.000 Z16.600 I72.108 J0.000 F1999.800
G3 X-72.108 Y0.000 Z15.900 I-72.108 J0.000 F1999.800
G3 X72.108 Y0.000 Z15.200 I72.108 J0.000 F1999.800
G3 X-72.108 Y0.000 Z14.500 I-72.108 J0.000 F1999.800
G3 X72.108 Y0.000 Z13.800 I72.108 J0.000 F1999.800
G3 X-72.108 Y0.000 Z13.100 I-72.108 J0.000 F1999.800
G3 X72.108 Y0.000 Z12.400 I72.108 J0.000 F1999.800
G3 X-72.108 Y0.000 Z11.700 I-72.108 J0.000 F1999.800
G3 X72.108 Y0.000 Z11.000 I72.108 J0.000 F1999.800
G3 X-72.108 Y0.000 Z11.000 I-72.108 J0.000 F1999.800
G3 X72.108 Y0.000 Z11.000 I72.108 J0.000 F1999.800
G0 Z21.000
G0 X72.896 Y0.000
G0 Z21.000
G1 Z18.000 F999.600
G3 X-72.896 Y0.000 Z17.300 I-72.896 J0.000 F1999.800
G3 X72.896 Y0.000 Z16.600 I72.896 J0.000 F1999.800
G3 X-72.896 Y0.000 Z15.900 I-72.896 J0.000 F1999.800
G3 X72.896 Y0.000 Z15.200 I72.896 J0.000 F1999.800
G3 X-72.896 Y0.000 Z14.500 I-72.896 J0.000 F1999.800
G3 X72.896 Y0.000 Z13.800 I72.896 J0.000 F1999.800
G3 X-72.896 Y0.000 Z13.100 I-72.896 J0.000 F1999.800
G3 X72.896 Y0.000 Z12.400 I72.896 J0.000 F1999.800
G3 X-72.896 Y0.000 Z11.700 I-72.896 J0.000 F1999.800
G3 X72.896 Y0.000 Z11.000 I72.896 J0.000 F1999.800
G3 X-72.896 Y0.000 Z11.000 I-72.896 J0.000 F1999.800
G3 X72.896 Y0.000 Z11.000 I72.896 J0.000 F1999.800
G0 Z21.000
G0 X73.684 Y0.000
G0 Z21.000
G1 Z18.000 F999.600
G3 X-73.684 Y0.000 Z17.300 I-73.684 J0.000 F1999.800
G3 X73.684 Y0.000 Z16.600 I73.684 J0.000 F1999.800
G3 X-73.684 Y0.000 Z15.900 I-73.684 J0.000 F1999.800
G3 X73.684 Y0.000 Z15.200 I73.684 J0.000 F1999.800
G3 X-73.684 Y0.000 Z14.500 I-73.684 J0.000 F1999.800
G3 X73.684 Y0.000 Z13.800 I73.684 J0.000 F1999.800
G3 X-73.684 Y0.000 Z13.100 I-73.684 J0.000 F1999.800
G3 X73.684 Y0.000 Z12.400 I73.684 J0.000 F1999.800
G3 X-73.684 Y0.000 Z11.700 I-73.684 J0.000 F1999.800
G3 X73.684 Y0.000 Z11.000 I73.684 J0.000 F1999.800
G3 X-73.684 Y0.000 Z11.000 I-73.684 J0.000 F1999.800
G3 X73.684 Y0.000 Z11.000 I73.684 J0.000 F1999.800
G0 Z21.000
G0 X74.472 Y0.000
G0 Z21.000
G1 Z18.000 F999.600
G3 X-74.472 Y0.000 Z17.300 I-74.472 J0.000 F1999.800
G3 X74.472 Y0.000 Z16.600 I74.472 J0.000 F1999.800
G3 X-74.472 Y0.000 Z15.900 I-74.472 J0.000 F1999.800
G3 X74.472 Y0.000 Z15.200 I74.472 J0.000 F1999.800
G3 X-74.472 Y0.000 Z14.500 I-74.472 J0.000 F1999.800
G3 X74.472 Y0.000 Z13.800 I74.472 J0.000 F1999.800
G3 X-74.472 Y0.000 Z13.100 I-74.472 J0.000 F1999.800
G3 X74.472 Y0.000 Z12.400 I74.472 J0.000 F1999.800
G3 X-74.472 Y0.000 Z11.700 I-74.472 J0.000 F1999.800
G3 X74.472 Y0.000 Z11.000 I74.472 J0.000 F1999.800
G3 X-74.472 Y0.000 Z11.000 I-74.472 J0.000 F1999.800
G3 X74.472 Y0.000 Z11.000 I74.472 J0.000 F1999.800
G0 Z21.000
G0 X75.260 Y0.000
G0 Z21.000
G1 Z18.000 F999.600
G3 X-75.260 Y0.000 Z17.300 I-75.260 J0.000 F1999.800
G3 X75.260 Y0.000 Z16.600 I75.260 J0.000 F1999.800
G3 X-75.260 Y0.000 Z15.900 I-75.260 J0.000 F1999.800
G3 X75.260 Y0.000 Z15.200 I75.260 J0.000 F1999.800
G3 X-75.260 Y0.000 Z14.500 I-75.260 J0.000 F1999.800
G3 X75.260 Y0.000 Z13.800 I75.260 J0.000 F1999.800
G3 X-75.260 Y0.000 Z13.100 I-75.260 J0.000 F1999.800
G3 X75.260 Y0.000 Z12.400 I75.260 J0.000 F1999.800
G3 X-75.260 Y0.000 Z11.700 I-75.260 J0.000 F1999.800
G3 X75.260 Y0.000 Z11.000 I75.260 J0.000 F1999.800
G3 X-75.260 Y0.000 Z11.000 I-75.260 J0.000 F1999.800
G3 X75.260 Y0.000 Z11.000 I75.260 J0.000 F1999.800
G0 Z21.000
G0 X76.048 Y0.000
G0 Z21.000
G1 Z18.000 F999.600
G3 X-76.048 Y0.000 Z17.300 I-76.048 J0.000 F1999.800
G3 X76.048 Y0.000 Z16.600 I76.048 J0.000 F1999.800
G3 X-76.048 Y0.000 Z15.900 I-76.048 J0.000 F1999.800
G3 X76.048 Y0.000 Z15.200 I76.048 J0.000 F1999.800
G3 X-76.048 Y0.000 Z14.500 I-76.048 J0.000 F1999.800
G3 X76.048 Y0.000 Z13.800 I76.048 J0.000 F1999.800
G3 X-76.048 Y0.000 Z13.100 I-76.048 J0.000 F1999.800
G3 X76.048 Y0.000 Z12.400 I76.048 J0.000 F1999.800
G3 X-76.048 Y0.000 Z11.700 I-76.048 J0.000 F1999.800
G3 X76.048 Y0.000 Z11.000 I76.048 J0.000 F1999.800
G3 X-76.048 Y0.000 Z11.000 I-76.048 J0.000 F1999.800
G3 X76.048 Y0.000 Z11.000 I76.048 J0.000 F1999.800
G0 Z21.000
G0 X76.836 Y0.000
G0 Z21.000
G1 Z18.000 F999.600
G3 X-76.836 Y0.000 Z17.300 I-76.836 J0.000 F1999.800
G3 X76.836 Y0.000 Z16.600 I76.836 J0.000 F1999.800
G3 X-76.836 Y0.000 Z15.900 I-76.836 J0.000 F1999.800
G3 X76.836 Y0.000 Z15.200 I76.836 J0.000 F1999.800
G3 X-76.836 Y0.000 Z14.500 I-76.836 J0.000 F1999.800
G3 X76.836 Y0.000 Z13.800 I76.836 J0.000 F1999.800
G3 X-76.836 Y0.000 Z13.100 I-76.836 J0.000 F1999.800
G3 X76.836 Y0.000 Z12.400 I76.836 J0.000 F1999.800
G3 X-76.836 Y0.000 Z11.700 I-76.836 J0.000 F1999.800
G3 X76.836 Y0.000 Z11.000 I76.836 J0.000 F1999.800
G3 X-76.836 Y0.000 Z11.000 I-76.836 J0.000 F1999.800
G3 X76.836 Y0.000 Z11.000 I76.836 J0.000 F1999.800
G0 Z21.000
G0 X77.624 Y0.000
G0 Z21.000
G1 Z18.000 F999.600
G3 X-77.624 Y0.000 Z17.300 I-77.624 J0.000 F1999.800
G3 X77.624 Y0.000 Z16.600 I77.624 J0.000 F1999.800
G3 X-77.624 Y0.000 Z15.900 I-77.624 J0.000 F1999.800
G3 X77.624 Y0.000 Z15.200 I77.624 J0.000 F1999.800
G3 X-77.624 Y0.000 Z14.500 I-77.624 J0.000 F1999.800
G3 X77.624 Y0.000 Z13.800 I77.624 J0.000 F1999.800
G3 X-77.624 Y0.000 Z13.100 I-77.624 J0.000 F1999.800
G3 X77.624 Y0.000 Z12.400 I77.624 J0.000 F1999.800
G3 X-77.624 Y0.000 Z11.700 I-77.624 J0.000 F1999.800
G3 X77.624 Y0.000 Z11.000 I77.624 J0.000 F1999.800
G3 X-77.624 Y0.000 Z11.000 I-77.624 J0.000 F1999.800
G3 X77.624 Y0.000 Z11.000 I77.624 J0.000 F1999.800
G0 Z21.000
G0 X78.412 Y0.000
G0 Z21.000
G1 Z18.000 F999.600
G3 X-78.412 Y0.000 Z17.300 I-78.412 J0.000 F1999.800
G3 X78.412 Y0.000 Z16.600 I78.412 J0.000 F1999.800
G3 X-78.412 Y0.000 Z15.900 I-78.412 J0.000 F1999.800
G3 X78.412 Y0.000 Z15.200 I78.412 J0.000 F1999.800
G3 X-78.412 Y0.000 Z14.500 I-78.412 J0.000 F1999.800
G3 X78.412 Y0.000 Z13.800 I78.412 J0.000 F1999.800
G3 X-78.412 Y0.000 Z13.100 I-78.412 J0.000 F1999.800
G3 X78.412 Y0.000 Z12.400 I78.412 J0.000 F1999.800
G3 X-78.412 Y0.000 Z11.700 I-78.412 J0.000 F1999.800
G3 X78.412 Y0.000 Z11.000 I78.412 J0.000 F1999.800
G3 X-78.412 Y0.000 Z11.000 I-78.412 J0.000 F1999.800
G3 X78.412 Y0.000 Z11.000 I78.412 J0.000 F1999.800
G0 Z21.000
G0 Z23.000
(Finish operation: Hinge_Pocket_Helix)
(Begin operation: Fixture)
(Path: Fixture)
G54
G0 Z23.000
(Finish operation: Fixture)
(Begin operation: Large_Groove_Pocket)
(Path: Large_Groove_Pocket)
(Large_Groove_Pocket)
G0 Z23.000
G0 X68.881 Y68.881
G0 Z21.000
G1 X68.881 Y68.881 Z17.471 F999.600
G2 X97.256 Y5.511 Z17.471 I-68.881 J-68.881 K0.000 F1999.800
G2 X5.511 Y-97.256 Z17.471 I-97.256 J-5.511 K0.000 F1999.800
G2 X-97.256 Y-5.511 Z17.471 I-5.511 J97.256 K0.000 F1999.800
G2 X68.881 Y68.881 Z17.471 I97.256 J5.511 K0.000 F1999.800
G0 Z23.000
G0 X67.085 Y67.085 Z23.000
G0 X67.085 Y67.085 Z21.000
G1 X67.085 Y67.085 Z17.471 F999.600
G2 X94.720 Y5.367 Z17.471 I-67.085 J-67.085 K0.000 F1999.800
G2 X5.367 Y-94.720 Z17.471 I-94.720 J-5.367 K0.000 F1999.800
G2 X-94.720 Y-5.367 Z17.471 I-5.367 J94.720 K0.000 F1999.800
G2 X67.085 Y67.085 Z17.471 I94.720 J5.367 K0.000 F1999.800
G0 Z23.000
G0 X65.288 Y65.288 Z23.000
G0 X65.288 Y65.288 Z21.000
G1 X65.288 Y65.288 Z17.471 F999.600
G2 X92.184 Y5.224 Z17.471 I-65.288 J-65.288 K0.000 F1999.800
G2 X-92.184 Y-5.224 Z17.471 I-92.184 J-5.224 K0.000 F1999.800
G2 X65.288 Y65.288 Z17.471 I92.184 J5.224 K0.000 F1999.800
G0 Z23.000
G0 X64.727 Y64.727 Z23.000
G0 X64.727 Y64.727 Z21.000
G1 X64.727 Y64.727 Z17.471 F999.600
G2 X91.391 Y5.179 Z17.471 I-64.727 J-64.727 K0.000 F1999.800
G2 X-91.391 Y-5.179 Z17.471 I-91.391 J-5.179 K0.000 F1999.800
G2 X64.727 Y64.727 Z17.471 I91.391 J5.179 K0.000 F1999.800
G0 Z23.000
G0 X63.965 Y63.965 Z23.000
G0 X63.965 Y63.965 Z21.000
G1 X63.965 Y63.965 Z17.471 F999.600
G2 X90.282 Y-5.684 Z17.471 I-63.965 J-63.965 K0.000 F1999.800
G2 X-90.282 Y5.684 Z17.471 I-90.282 J5.684 K0.000 F1999.800
G2 X63.965 Y63.965 Z17.471 I90.282 J-5.684 K0.000 F1999.800
G0 Z23.000
G0 X63.404 Y63.404 Z23.000
G0 X63.404 Y63.404 Z21.000
G1 X63.404 Y63.404 Z17.471 F999.600
G2 X89.490 Y-5.622 Z17.471 I-63.404 J-63.404 K0.000 F1999.800
G2 X-89.490 Y5.622 Z17.471 I-89.490 J5.622 K0.000 F1999.800
G2 X63.404 Y63.404 Z17.471 I89.490 J-5.622 K0.000 F1999.800
G0 Z23.000
G0 X61.608 Y61.608 Z23.000
G0 X61.608 Y61.608 Z21.000
G1 X61.608 Y61.608 Z17.471 F999.600
G2 X86.958 Y-5.427 Z17.471 I-61.608 J-61.608 K0.000 F1999.800
G2 X-86.958 Y5.427 Z17.471 I-86.958 J5.427 K0.000 F1999.800
G2 X61.608 Y61.608 Z17.471 I86.958 J-5.427 K0.000 F1999.800
G0 Z23.000
G0 X59.812 Y59.812 Z23.000
G0 X59.812 Y59.812 Z21.000
G1 X59.812 Y59.812 Z17.471 F999.600
G2 X84.425 Y-5.232 Z17.471 I-59.812 J-59.812 K0.000 F1999.800
G2 X-84.425 Y5.232 Z17.471 I-84.425 J5.232 K0.000 F1999.800
G2 X59.812 Y59.812 Z17.471 I84.425 J-5.232 K0.000 F1999.800
G1 X59.812 Y59.812 Z16.942 F999.600
G2 X84.425 Y-5.232 Z16.942 I-59.812 J-59.812 K0.000 F1999.800
G2 X-84.425 Y5.232 Z16.942 I-84.425 J5.232 K0.000 F1999.800
G2 X59.812 Y59.812 Z16.942 I84.425 J-5.232 K0.000 F1999.800
G0 Z23.000
G0 X61.608 Y61.608 Z23.000
G0 X61.608 Y61.608 Z21.000
G1 X61.608 Y61.608 Z16.942 F999.600
G2 X86.958 Y-5.427 Z16.942 I-61.608 J-61.608 K0.000 F1999.800
G2 X-86.958 Y5.427 Z16.942 I-86.958 J5.427 K0.000 F1999.800
G2 X61.608 Y61.608 Z16.942 I86.958 J-5.427 K0.000 F1999.800
G0 Z23.000
G0 X63.404 Y63.404 Z23.000
G0 X63.404 Y63.404 Z21.000
G1 X63.404 Y63.404 Z16.942 F999.600
G2 X89.490 Y-5.622 Z16.942 I-63.404 J-63.404 K0.000 F1999.800
G2 X-89.490 Y5.622 Z16.942 I-89.490 J5.622 K0.000 F1999.800
G2 X63.404 Y63.404 Z16.942 I89.490 J-5.622 K0.000 F1999.800
G0 Z23.000
G0 X63.965 Y63.965 Z23.000
G0 X63.965 Y63.965 Z21.000
G1 X63.965 Y63.965 Z16.942 F999.600
G2 X90.282 Y-5.684 Z16.942 I-63.965 J-63.965 K0.000 F1999.800
G2 X-90.282 Y5.684 Z16.942 I-90.282 J5.684 K0.000 F1999.800
G2 X63.965 Y63.965 Z16.942 I90.282 J-5.684 K0.000 F1999.800
G0 Z23.000
G0 X64.727 Y64.727 Z23.000
G0 X64.727 Y64.727 Z21.000
G1 X64.727 Y64.727 Z16.942 F999.600
G2 X91.391 Y5.179 Z16.942 I-64.727 J-64.727 K0.000 F1999.800
G2 X-91.391 Y-5.179 Z16.942 I-91.391 J-5.179 K0.000 F1999.800
G2 X64.727 Y64.727 Z16.942 I91.391 J5.179 K0.000 F1999.800
G0 Z23.000
G0 X65.288 Y65.288 Z23.000
G0 X65.288 Y65.288 Z21.000
G1 X65.288 Y65.288 Z16.942 F999.600
G2 X92.184 Y5.224 Z16.942 I-65.288 J-65.288 K0.000 F1999.800
G2 X-92.184 Y-5.224 Z16.942 I-92.184 J-5.224 K0.000 F1999.800
G2 X65.288 Y65.288 Z16.942 I92.184 J5.224 K0.000 F1999.800
G0 Z23.000
G0 X67.085 Y67.085 Z23.000
G0 X67.085 Y67.085 Z21.000
G1 X67.085 Y67.085 Z16.942 F999.600
G2 X94.720 Y5.367 Z16.942 I-67.085 J-67.085 K0.000 F1999.800
G2 X5.367 Y-94.720 Z16.942 I-94.720 J-5.367 K0.000 F1999.800
G2 X-94.720 Y-5.367 Z16.942 I-5.367 J94.720 K0.000 F1999.800
G2 X67.085 Y67.085 Z16.942 I94.720 J5.367 K0.000 F1999.800
G0 Z23.000
G0 X68.881 Y68.881 Z23.000
G0 X68.881 Y68.881 Z21.000
G1 X68.881 Y68.881 Z16.942 F999.600
G2 X97.256 Y5.511 Z16.942 I-68.881 J-68.881 K0.000 F1999.800
G2 X5.511 Y-97.256 Z16.942 I-97.256 J-5.511 K0.000 F1999.800
G2 X-97.256 Y-5.511 Z16.942 I-5.511 J97.256 K0.000 F1999.800
G2 X68.881 Y68.881 Z16.942 I97.256 J5.511 K0.000 F1999.800
G1 X68.881 Y68.881 Z16.413 F999.600
G2 X97.256 Y5.511 Z16.413 I-68.881 J-68.881 K0.000 F1999.800
G2 X5.511 Y-97.256 Z16.413 I-97.256 J-5.511 K0.000 F1999.800
G2 X-97.256 Y-5.511 Z16.413 I-5.511 J97.256 K0.000 F1999.800
G2 X68.881 Y68.881 Z16.413 I97.256 J5.511 K0.000 F1999.800
G0 Z23.000
G0 X67.085 Y67.085 Z23.000
G0 X67.085 Y67.085 Z21.000
G1 X67.085 Y67.085 Z16.413 F999.600
G2 X94.720 Y5.367 Z16.413 I-67.085 J-67.085 K0.000 F1999.800
G2 X5.367 Y-94.720 Z16.413 I-94.720 J-5.367 K0.000 F1999.800
G2 X-94.720 Y-5.367 Z16.413 I-5.367 J94.720 K0.000 F1999.800
G2 X67.085 Y67.085 Z16.413 I94.720 J5.367 K0.000 F1999.800
G0 Z23.000
G0 X65.288 Y65.288 Z23.000
G0 X65.288 Y65.288 Z21.000
G1 X65.288 Y65.288 Z16.413 F999.600
G2 X92.184 Y5.224 Z16.413 I-65.288 J-65.288 K0.000 F1999.800
G2 X-92.184 Y-5.224 Z16.413 I-92.184 J-5.224 K0.000 F1999.800
G2 X65.288 Y65.288 Z16.413 I92.184 J5.224 K0.000 F1999.800
G0 Z23.000
G0 X64.727 Y64.727 Z23.000
G0 X64.727 Y64.727 Z21.000
G1 X64.727 Y64.727 Z16.413 F999.600
G2 X91.391 Y5.179 Z16.413 I-64.727 J-64.727 K0.000 F1999.800
G2 X-91.391 Y-5.179 Z16.413 I-91.391 J-5.179 K0.000 F1999.800
G2 X64.727 Y64.727 Z16.413 I91.391 J5.179 K0.000 F1999.800
G0 Z23.000
G0 X63.965 Y63.965 Z23.000
G0 X63.965 Y63.965 Z21.000
G1 X63.965 Y63.965 Z16.413 F999.600
G2 X90.282 Y-5.684 Z16.413 I-63.965 J-63.965 K0.000 F1999.800
G2 X-90.282 Y5.684 Z16.413 I-90.282 J5.684 K0.000 F1999.800
G2 X63.965 Y63.965 Z16.413 I90.282 J-5.684 K0.000 F1999.800
G0 Z23.000
G0 X63.404 Y63.404 Z23.000
G0 X63.404 Y63.404 Z21.000
G1 X63.404 Y63.404 Z16.413 F999.600
G2 X89.490 Y-5.622 Z16.413 I-63.404 J-63.404 K0.000 F1999.800
G2 X-89.490 Y5.622 Z16.413 I-89.490 J5.622 K0.000 F1999.800
G2 X63.404 Y63.404 Z16.413 I89.490 J-5.622 K0.000 F1999.800
G0 Z23.000
G0 X61.608 Y61.608 Z23.000
G0 X61.608 Y61.608 Z21.000
G1 X61.608 Y61.608 Z16.413 F999.600
G2 X86.958 Y-5.427 Z16.413 I-61.608 J-61.608 K0.000 F1999.800
G2 X-86.958 Y5.427 Z16.413 I-86.958 J5.427 K0.000 F1999.800
G2 X61.608 Y61.608 Z16.413 I86.958 J-5.427 K0.000 F1999.800
G0 Z23.000
G0 X59.812 Y59.812 Z23.000
G0 X59.812 Y59.812 Z21.000
G1 X59.812 Y59.812 Z16.413 F999.600
G2 X84.425 Y-5.232 Z16.413 I-59.812 J-59.812 K0.000 F1999.800
G2 X-84.425 Y5.232 Z16.413 I-84.425 J5.232 K0.000 F1999.800
G2 X59.812 Y59.812 Z16.413 I84.425 J-5.232 K0.000 F1999.800
G1 X59.812 Y59.812 Z15.883 F999.600
G2 X84.425 Y-5.232 Z15.883 I-59.812 J-59.812 K0.000 F1999.800
G2 X-84.425 Y5.232 Z15.883 I-84.425 J5.232 K0.000 F1999.800
G2 X59.812 Y59.812 Z15.883 I84.425 J-5.232 K0.000 F1999.800
G0 Z23.000
G0 X61.608 Y61.608 Z23.000
G0 X61.608 Y61.608 Z21.000
G1 X61.608 Y61.608 Z15.883 F999.600
G2 X86.958 Y-5.427 Z15.883 I-61.608 J-61.608 K0.000 F1999.800
G2 X-86.958 Y5.427 Z15.883 I-86.958 J5.427 K0.000 F1999.800
G2 X61.608 Y61.608 Z15.883 I86.958 J-5.427 K0.000 F1999.800
G0 Z23.000
G0 X63.404 Y63.404 Z23.000
G0 X63.404 Y63.404 Z21.000
G1 X63.404 Y63.404 Z15.883 F999.600
G2 X89.490 Y-5.622 Z15.883 I-63.404 J-63.404 K0.000 F1999.800
G2 X-89.490 Y5.622 Z15.883 I-89.490 J5.622 K0.000 F1999.800
G2 X63.404 Y63.404 Z15.883 I89.490 J-5.622 K0.000 F1999.800
G0 Z23.000
G0 X63.965 Y63.965 Z23.000
G0 X63.965 Y63.965 Z21.000
G1 X63.965 Y63.965 Z15.883 F999.600
G2 X90.282 Y-5.684 Z15.883 I-63.965 J-63.965 K0.000 F1999.800
G2 X-90.282 Y5.684 Z15.883 I-90.282 J5.684 K0.000 F1999.800
G2 X63.965 Y63.965 Z15.883 I90.282 J-5.684 K0.000 F1999.800
G0 Z23.000
G0 X64.727 Y64.727 Z23.000
G0 X64.727 Y64.727 Z21.000
G1 X64.727 Y64.727 Z15.883 F999.600
G2 X91.391 Y5.179 Z15.883 I-64.727 J-64.727 K0.000 F1999.800
G2 X-91.391 Y-5.179 Z15.883 I-91.391 J-5.179 K0.000 F1999.800
G2 X64.727 Y64.727 Z15.883 I91.391 J5.179 K0.000 F1999.800
G0 Z23.000
G0 X65.288 Y65.288 Z23.000
G0 X65.288 Y65.288 Z21.000
G1 X65.288 Y65.288 Z15.883 F999.600
G2 X92.184 Y5.224 Z15.883 I-65.288 J-65.288 K0.000 F1999.800
G2 X-92.184 Y-5.224 Z15.883 I-92.184 J-5.224 K0.000 F1999.800
G2 X65.288 Y65.288 Z15.883 I92.184 J5.224 K0.000 F1999.800
G0 Z23.000
G0 X67.085 Y67.085 Z23.000
G0 X67.085 Y67.085 Z21.000
G1 X67.085 Y67.085 Z15.883 F999.600
G2 X94.720 Y5.367 Z15.883 I-67.085 J-67.085 K0.000 F1999.800
G2 X5.367 Y-94.720 Z15.883 I-94.720 J-5.367 K0.000 F1999.800
G2 X-94.720 Y-5.367 Z15.883 I-5.367 J94.720 K0.000 F1999.800
G2 X67.085 Y67.085 Z15.883 I94.720 J5.367 K0.000 F1999.800
G0 Z23.000
G0 X68.881 Y68.881 Z23.000
G0 X68.881 Y68.881 Z21.000
G1 X68.881 Y68.881 Z15.883 F999.600
G2 X97.256 Y5.511 Z15.883 I-68.881 J-68.881 K0.000 F1999.800
G2 X5.511 Y-97.256 Z15.883 I-97.256 J-5.511 K0.000 F1999.800
G2 X-97.256 Y-5.511 Z15.883 I-5.511 J97.256 K0.000 F1999.800
G2 X68.881 Y68.881 Z15.883 I97.256 J5.511 K0.000 F1999.800
G1 X68.881 Y68.881 Z15.354 F999.600
G2 X97.256 Y5.511 Z15.354 I-68.881 J-68.881 K0.000 F1999.800
G2 X5.511 Y-97.256 Z15.354 I-97.256 J-5.511 K0.000 F1999.800
G2 X-97.256 Y-5.511 Z15.354 I-5.511 J97.256 K0.000 F1999.800
G2 X68.881 Y68.881 Z15.354 I97.256 J5.511 K0.000 F1999.800
G0 Z23.000
G0 X67.085 Y67.085 Z23.000
G0 X67.085 Y67.085 Z21.000
G1 X67.085 Y67.085 Z15.354 F999.600
G2 X94.720 Y5.367 Z15.354 I-67.085 J-67.085 K0.000 F1999.800
G2 X5.367 Y-94.720 Z15.354 I-94.720 J-5.367 K0.000 F1999.800
G2 X-94.720 Y-5.367 Z15.354 I-5.367 J94.720 K0.000 F1999.800
G2 X67.085 Y67.085 Z15.354 I94.720 J5.367 K0.000 F1999.800
G0 Z23.000
G0 X65.288 Y65.288 Z23.000
G0 X65.288 Y65.288 Z21.000
G1 X65.288 Y65.288 Z15.354 F999.600
G2 X92.184 Y5.224 Z15.354 I-65.288 J-65.288 K0.000 F1999.800
G2 X-92.184 Y-5.224 Z15.354 I-92.184 J-5.224 K0.000 F1999.800
G2 X65.288 Y65.288 Z15.354 I92.184 J5.224 K0.000 F1999.800
G0 Z23.000
G0 X64.727 Y64.727 Z23.000
G0 X64.727 Y64.727 Z21.000
G1 X64.727 Y64.727 Z15.354 F999.600
G2 X91.391 Y5.179 Z15.354 I-64.727 J-64.727 K0.000 F1999.800
G2 X-91.391 Y-5.179 Z15.354 I-91.391 J-5.179 K0.000 F1999.800
G2 X64.727 Y64.727 Z15.354 I91.391 J5.179 K0.000 F1999.800
G0 Z23.000
G0 X63.965 Y63.965 Z23.000
G0 X63.965 Y63.965 Z21.000
G1 X63.965 Y63.965 Z15.354 F999.600
G2 X90.282 Y-5.684 Z15.354 I-63.965 J-63.965 K0.000 F1999.800
G2 X-90.282 Y5.684 Z15.354 I-90.282 J5.684 K0.000 F1999.800
G2 X63.965 Y63.965 Z15.354 I90.282 J-5.684 K0.000 F1999.800
G0 Z23.000
G0 X63.404 Y63.404 Z23.000
G0 X63.404 Y63.404 Z21.000
G1 X63.404 Y63.404 Z15.354 F999.600
G2 X89.490 Y-5.622 Z15.354 I-63.404 J-63.404 K0.000 F1999.800
G2 X-89.490 Y5.622 Z15.354 I-89.490 J5.622 K0.000 F1999.800
G2 X63.404 Y63.404 Z15.354 I89.490 J-5.622 K0.000 F1999.800
G0 Z23.000
G0 X61.608 Y61.608 Z23.000
G0 X61.608 Y61.608 Z21.000
G1 X61.608 Y61.608 Z15.354 F999.600
G2 X86.958 Y-5.427 Z15.354 I-61.608 J-61.608 K0.000 F1999.800
G2 X-86.958 Y5.427 Z15.354 I-86.958 J5.427 K0.000 F1999.800
G2 X61.608 Y61.608 Z15.354 I86.958 J-5.427 K0.000 F1999.800
G0 Z23.000
G0 X59.812 Y59.812 Z23.000
G0 X59.812 Y59.812 Z21.000
G1 X59.812 Y59.812 Z15.354 F999.600
G2 X84.425 Y-5.232 Z15.354 I-59.812 J-59.812 K0.000 F1999.800
G2 X-84.425 Y5.232 Z15.354 I-84.425 J5.232 K0.000 F1999.800
G2 X59.812 Y59.812 Z15.354 I84.425 J-5.232 K0.000 F1999.800
G1 X59.812 Y59.812 Z14.825 F999.600
G2 X84.425 Y-5.232 Z14.825 I-59.812 J-59.812 K0.000 F1999.800
G2 X-84.425 Y5.232 Z14.825 I-84.425 J5.232 K0.000 F1999.800
G2 X59.812 Y59.812 Z14.825 I84.425 J-5.232 K0.000 F1999.800
G0 Z23.000
G0 X61.608 Y61.608 Z23.000
G0 X61.608 Y61.608 Z21.000
G1 X61.608 Y61.608 Z14.825 F999.600
G2 X86.958 Y-5.427 Z14.825 I-61.608 J-61.608 K0.000 F1999.800
G2 X-86.958 Y5.427 Z14.825 I-86.958 J5.427 K0.000 F1999.800
G2 X61.608 Y61.608 Z14.825 I86.958 J-5.427 K0.000 F1999.800
G0 Z23.000
G0 X63.404 Y63.404 Z23.000
G0 X63.404 Y63.404 Z21.000
G1 X63.404 Y63.404 Z14.825 F999.600
G2 X89.490 Y-5.622 Z14.825 I-63.404 J-63.404 K0.000 F1999.800
G2 X-89.490 Y5.622 Z14.825 I-89.490 J5.622 K0.000 F1999.800
G2 X63.404 Y63.404 Z14.825 I89.490 J-5.622 K0.000 F1999.800
G0 Z23.000
G0 X63.965 Y63.965 Z23.000
G0 X63.965 Y63.965 Z21.000
G1 X63.965 Y63.965 Z14.825 F999.600
G2 X90.282 Y-5.684 Z14.825 I-63.965 J-63.965 K0.000 F1999.800
G2 X-90.282 Y5.684 Z14.825 I-90.282 J5.684 K0.000 F1999.800
G2 X63.965 Y63.965 Z14.825 I90.282 J-5.684 K0.000 F1999.800
G0 Z23.000
G0 X64.727 Y64.727 Z23.000
G0 X64.727 Y64.727 Z21.000
G1 X64.727 Y64.727 Z14.825 F999.600
G2 X91.391 Y5.179 Z14.825 I-64.727 J-64.727 K0.000 F1999.800
G2 X-91.391 Y-5.179 Z14.825 I-91.391 J-5.179 K0.000 F1999.800
G2 X64.727 Y64.727 Z14.825 I91.391 J5.179 K0.000 F1999.800
G0 Z23.000
G0 X65.288 Y65.288 Z23.000
G0 X65.288 Y65.288 Z21.000
G1 X65.288 Y65.288 Z14.825 F999.600
G2 X92.184 Y5.224 Z14.825 I-65.288 J-65.288 K0.000 F1999.800
G2 X-92.184 Y-5.224 Z14.825 I-92.184 J-5.224 K0.000 F1999.800
G2 X65.288 Y65.288 Z14.825 I92.184 J5.224 K0.000 F1999.800
G0 Z23.000
G0 X67.085 Y67.085 Z23.000
G0 X67.085 Y67.085 Z21.000
G1 X67.085 Y67.085 Z14.825 F999.600
G2 X94.720 Y5.367 Z14.825 I-67.085 J-67.085 K0.000 F1999.800
G2 X5.367 Y-94.720 Z14.825 I-94.720 J-5.367 K0.000 F1999.800
G2 X-94.720 Y-5.367 Z14.825 I-5.367 J94.720 K0.000 F1999.800
G2 X67.085 Y67.085 Z14.825 I94.720 J5.367 K0.000 F1999.800
G0 Z23.000
G0 X68.881 Y68.881 Z23.000
G0 X68.881 Y68.881 Z21.000
G1 X68.881 Y68.881 Z14.825 F999.600
G2 X97.256 Y5.511 Z14.825 I-68.881 J-68.881 K0.000 F1999.800
G2 X5.511 Y-97.256 Z14.825 I-97.256 J-5.511 K0.000 F1999.800
G2 X-97.256 Y-5.511 Z14.825 I-5.511 J97.256 K0.000 F1999.800
G2 X68.881 Y68.881 Z14.825 I97.256 J5.511 K0.000 F1999.800
G1 X68.881 Y68.881 Z14.296 F999.600
G2 X97.256 Y5.511 Z14.296 I-68.881 J-68.881 K0.000 F1999.800
G2 X5.511 Y-97.256 Z14.296 I-97.256 J-5.511 K0.000 F1999.800
G2 X-97.256 Y-5.511 Z14.296 I-5.511 J97.256 K0.000 F1999.800
G2 X68.881 Y68.881 Z14.296 I97.256 J5.511 K0.000 F1999.800
G0 Z23.000
G0 X67.085 Y67.085 Z23.000
G0 X67.085 Y67.085 Z21.000
G1 X67.085 Y67.085 Z14.296 F999.600
G2 X94.720 Y5.367 Z14.296 I-67.085 J-67.085 K0.000 F1999.800
G2 X5.367 Y-94.720 Z14.296 I-94.720 J-5.367 K0.000 F1999.800
G2 X-94.720 Y-5.367 Z14.296 I-5.367 J94.720 K0.000 F1999.800
G2 X67.085 Y67.085 Z14.296 I94.720 J5.367 K0.000 F1999.800
G0 Z23.000
G0 X65.288 Y65.288 Z23.000
G0 X65.288 Y65.288 Z21.000
G1 X65.288 Y65.288 Z14.296 F999.600
G2 X92.184 Y5.224 Z14.296 I-65.288 J-65.288 K0.000 F1999.800
G2 X-92.184 Y-5.224 Z14.296 I-92.184 J-5.224 K0.000 F1999.800
G2 X65.288 Y65.288 Z14.296 I92.184 J5.224 K0.000 F1999.800
G0 Z23.000
G0 X64.727 Y64.727 Z23.000
G0 X64.727 Y64.727 Z21.000
G1 X64.727 Y64.727 Z14.296 F999.600
G2 X91.391 Y5.179 Z14.296 I-64.727 J-64.727 K0.000 F1999.800
G2 X-91.391 Y-5.179 Z14.296 I-91.391 J-5.179 K0.000 F1999.800
G2 X64.727 Y64.727 Z14.296 I91.391 J5.179 K0.000 F1999.800
G0 Z23.000
G0 X63.965 Y63.965 Z23.000
G0 X63.965 Y63.965 Z21.000
G1 X63.965 Y63.965 Z14.296 F999.600
G2 X90.282 Y-5.684 Z14.296 I-63.965 J-63.965 K0.000 F1999.800
G2 X-90.282 Y5.684 Z14.296 I-90.282 J5.684 K0.000 F1999.800
G2 X63.965 Y63.965 Z14.296 I90.282 J-5.684 K0.000 F1999.800
G0 Z23.000
G0 X63.404 Y63.404 Z23.000
G0 X63.404 Y63.404 Z21.000
G1 X63.404 Y63.404 Z14.296 F999.600
G2 X89.490 Y-5.622 Z14.296 I-63.404 J-63.404 K0.000 F1999.800
G2 X-89.490 Y5.622 Z14.296 I-89.490 J5.622 K0.000 F1999.800
G2 X63.404 Y63.404 Z14.296 I89.490 J-5.622 K0.000 F1999.800
G0 Z23.000
G0 X61.608 Y61.608 Z23.000
G0 X61.608 Y61.608 Z21.000
G1 X61.608 Y61.608 Z14.296 F999.600
G2 X86.958 Y-5.427 Z14.296 I-61.608 J-61.608 K0.000 F1999.800
G2 X-86.958 Y5.427 Z14.296 I-86.958 J5.427 K0.000 F1999.800
G2 X61.608 Y61.608 Z14.296 I86.958 J-5.427 K0.000 F1999.800
G0 Z23.000
G0 X59.812 Y59.812 Z23.000
G0 X59.812 Y59.812 Z21.000
G1 X59.812 Y59.812 Z14.296 F999.600
G2 X84.425 Y-5.232 Z14.296 I-59.812 J-59.812 K0.000 F1999.800
G2 X-84.425 Y5.232 Z14.296 I-84.425 J5.232 K0.000 F1999.800
G2 X59.812 Y59.812 Z14.296 I84.425 J-5.232 K0.000 F1999.800
G1 X59.812 Y59.812 Z13.767 F999.600
G2 X84.425 Y-5.232 Z13.767 I-59.812 J-59.812 K0.000 F1999.800
G2 X-84.425 Y5.232 Z13.767 I-84.425 J5.232 K0.000 F1999.800
G2 X59.812 Y59.812 Z13.767 I84.425 J-5.232 K0.000 F1999.800
G0 Z23.000
G0 X61.608 Y61.608 Z23.000
G0 X61.608 Y61.608 Z21.000
G1 X61.608 Y61.608 Z13.767 F999.600
G2 X86.958 Y-5.427 Z13.767 I-61.608 J-61.608 K0.000 F1999.800
G2 X-86.958 Y5.427 Z13.767 I-86.958 J5.427 K0.000 F1999.800
G2 X61.608 Y61.608 Z13.767 I86.958 J-5.427 K0.000 F1999.800
G0 Z23.000
G0 X63.404 Y63.404 Z23.000
G0 X63.404 Y63.404 Z21.000
G1 X63.404 Y63.404 Z13.767 F999.600
G2 X89.490 Y-5.622 Z13.767 I-63.404 J-63.404 K0.000 F1999.800
G2 X-89.490 Y5.622 Z13.767 I-89.490 J5.622 K0.000 F1999.800
G2 X63.404 Y63.404 Z13.767 I89.490 J-5.622 K0.000 F1999.800
G0 Z23.000
G0 X63.965 Y63.965 Z23.000
G0 X63.965 Y63.965 Z21.000
G1 X63.965 Y63.965 Z13.767 F999.600
G2 X90.282 Y-5.684 Z13.767 I-63.965 J-63.965 K0.000 F1999.800
G2 X-90.282 Y5.684 Z13.767 I-90.282 J5.684 K0.000 F1999.800
G2 X63.965 Y63.965 Z13.767 I90.282 J-5.684 K0.000 F1999.800
G0 Z23.000
G0 X64.727 Y64.727 Z23.000
G0 X64.727 Y64.727 Z21.000
G1 X64.727 Y64.727 Z13.767 F999.600
G2 X91.391 Y5.179 Z13.767 I-64.727 J-64.727 K0.000 F1999.800
G2 X-91.391 Y-5.179 Z13.767 I-91.391 J-5.179 K0.000 F1999.800
G2 X64.727 Y64.727 Z13.767 I91.391 J5.179 K0.000 F1999.800
G0 Z23.000
G0 X65.288 Y65.288 Z23.000
G0 X65.288 Y65.288 Z21.000
G1 X65.288 Y65.288 Z13.767 F999.600
G2 X92.184 Y5.224 Z13.767 I-65.288 J-65.288 K0.000 F1999.800
G2 X-92.184 Y-5.224 Z13.767 I-92.184 J-5.224 K0.000 F1999.800
G2 X65.288 Y65.288 Z13.767 I92.184 J5.224 K0.000 F1999.800
G0 Z23.000
G0 X67.085 Y67.085 Z23.000
G0 X67.085 Y67.085 Z21.000
G1 X67.085 Y67.085 Z13.767 F999.600
G2 X94.720 Y5.367 Z13.767 I-67.085 J-67.085 K0.000 F1999.800
G2 X5.367 Y-94.720 Z13.767 I-94.720 J-5.367 K0.000 F1999.800
G2 X-94.720 Y-5.367 Z13.767 I-5.367 J94.720 K0.000 F1999.800
G2 X67.085 Y67.085 Z13.767 I94.720 J5.367 K0.000 F1999.800
G0 Z23.000
G0 X68.881 Y68.881 Z23.000
G0 X68.881 Y68.881 Z21.000
G1 X68.881 Y68.881 Z13.767 F999.600
G2 X97.256 Y5.511 Z13.767 I-68.881 J-68.881 K0.000 F1999.800
G2 X5.511 Y-97.256 Z13.767 I-97.256 J-5.511 K0.000 F1999.800
G2 X-97.256 Y-5.511 Z13.767 I-5.511 J97.256 K0.000 F1999.800
G2 X68.881 Y68.881 Z13.767 I97.256 J5.511 K0.000 F1999.800
G1 X68.881 Y68.881 Z13.238 F999.600
G2 X97.256 Y5.511 Z13.238 I-68.881 J-68.881 K0.000 F1999.800
G2 X5.511 Y-97.256 Z13.238 I-97.256 J-5.511 K0.000 F1999.800
G2 X-97.256 Y-5.511 Z13.238 I-5.511 J97.256 K0.000 F1999.800
G2 X68.881 Y68.881 Z13.238 I97.256 J5.511 K0.000 F1999.800
G0 Z23.000
G0 X67.085 Y67.085 Z23.000
G0 X67.085 Y67.085 Z21.000
G1 X67.085 Y67.085 Z13.238 F999.600
G2 X94.720 Y5.367 Z13.238 I-67.085 J-67.085 K0.000 F1999.800
G2 X5.367 Y-94.720 Z13.238 I-94.720 J-5.367 K0.000 F1999.800
G2 X-94.720 Y-5.367 Z13.238 I-5.367 J94.720 K0.000 F1999.800
G2 X67.085 Y67.085 Z13.238 I94.720 J5.367 K0.000 F1999.800
G0 Z23.000
G0 X65.288 Y65.288 Z23.000
G0 X65.288 Y65.288 Z21.000
G1 X65.288 Y65.288 Z13.238 F999.600
G2 X92.184 Y5.224 Z13.238 I-65.288 J-65.288 K0.000 F1999.800
G2 X-92.184 Y-5.224 Z13.238 I-92.184 J-5.224 K0.000 F1999.800
G2 X65.288 Y65.288 Z13.238 I92.184 J5.224 K0.000 F1999.800
G0 Z23.000
G0 X64.727 Y64.727 Z23.000
G0 X64.727 Y64.727 Z21.000
G1 X64.727 Y64.727 Z13.238 F999.600
G2 X91.391 Y5.179 Z13.238 I-64.727 J-64.727 K0.000 F1999.800
G2 X-91.391 Y-5.179 Z13.238 I-91.391 J-5.179 K0.000 F1999.800
G2 X64.727 Y64.727 Z13.238 I91.391 J5.179 K0.000 F1999.800
G0 Z23.000
G0 X63.965 Y63.965 Z23.000
G0 X63.965 Y63.965 Z21.000
G1 X63.965 Y63.965 Z13.238 F999.600
G2 X90.282 Y-5.684 Z13.238 I-63.965 J-63.965 K0.000 F1999.800
G2 X-90.282 Y5.684 Z13.238 I-90.282 J5.684 K0.000 F1999.800
G2 X63.965 Y63.965 Z13.238 I90.282 J-5.684 K0.000 F1999.800
G0 Z23.000
G0 X63.404 Y63.404 Z23.000
G0 X63.404 Y63.404 Z21.000
G1 X63.404 Y63.404 Z13.238 F999.600
G2 X89.490 Y-5.622 Z13.238 I-63.404 J-63.404 K0.000 F1999.800
G2 X-89.490 Y5.622 Z13.238 I-89.490 J5.622 K0.000 F1999.800
G2 X63.404 Y63.404 Z13.238 I89.490 J-5.622 K0.000 F1999.800
G0 Z23.000
G0 X61.608 Y61.608 Z23.000
G0 X61.608 Y61.608 Z21.000
G1 X61.608 Y61.608 Z13.238 F999.600
G2 X86.958 Y-5.427 Z13.238 I-61.608 J-61.608 K0.000 F1999.800
G2 X-86.958 Y5.427 Z13.238 I-86.958 J5.427 K0.000 F1999.800
G2 X61.608 Y61.608 Z13.238 I86.958 J-5.427 K0.000 F1999.800
G0 Z23.000
G0 X59.812 Y59.812 Z23.000
G0 X59.812 Y59.812 Z21.000
G1 X59.812 Y59.812 Z13.238 F999.600
G2 X84.425 Y-5.232 Z13.238 I-59.812 J-59.812 K0.000 F1999.800
G2 X-84.425 Y5.232 Z13.238 I-84.425 J5.232 K0.000 F1999.800
G2 X59.812 Y59.812 Z13.238 I84.425 J-5.232 K0.000 F1999.800
G1 X59.812 Y59.812 Z12.708 F999.600
G2 X84.425 Y-5.232 Z12.708 I-59.812 J-59.812 K0.000 F1999.800
G2 X-84.425 Y5.232 Z12.708 I-84.425 J5.232 K0.000 F1999.800
G2 X59.812 Y59.812 Z12.708 I84.425 J-5.232 K0.000 F1999.800
G0 Z23.000
G0 X61.608 Y61.608 Z23.000
G0 X61.608 Y61.608 Z21.000
G1 X61.608 Y61.608 Z12.708 F999.600
G2 X86.958 Y-5.427 Z12.708 I-61.608 J-61.608 K0.000 F1999.800
G2 X-86.958 Y5.427 Z12.708 I-86.958 J5.427 K0.000 F1999.800
G2 X61.608 Y61.608 Z12.708 I86.958 J-5.427 K0.000 F1999.800
G0 Z23.000
G0 X63.404 Y63.404 Z23.000
G0 X63.404 Y63.404 Z21.000
G1 X63.404 Y63.404 Z12.708 F999.600
G2 X89.490 Y-5.622 Z12.708 I-63.404 J-63.404 K0.000 F1999.800
G2 X-89.490 Y5.622 Z12.708 I-89.490 J5.622 K0.000 F1999.800
G2 X63.404 Y63.404 Z12.708 I89.490 J-5.622 K0.000 F1999.800
G0 Z23.000
G0 X63.965 Y63.965 Z23.000
G0 X63.965 Y63.965 Z21.000
G1 X63.965 Y63.965 Z12.708 F999.600
G2 X90.282 Y-5.684 Z12.708 I-63.965 J-63.965 K0.000 F1999.800
G2 X-90.282 Y5.684 Z12.708 I-90.282 J5.684 K0.000 F1999.800
G2 X63.965 Y63.965 Z12.708 I90.282 J-5.684 K0.000 F1999.800
G0 Z23.000
G0 X64.727 Y64.727 Z23.000
G0 X64.727 Y64.727 Z21.000
G1 X64.727 Y64.727 Z12.708 F999.600
G2 X91.391 Y5.179 Z12.708 I-64.727 J-64.727 K0.000 F1999.800
G2 X-91.391 Y-5.179 Z12.708 I-91.391 J-5.179 K0.000 F1999.800
G2 X64.727 Y64.727 Z12.708 I91.391 J5.179 K0.000 F1999.800
G0 Z23.000
G0 X65.288 Y65.288 Z23.000
G0 X65.288 Y65.288 Z21.000
G1 X65.288 Y65.288 Z12.708 F999.600
G2 X92.184 Y5.224 Z12.708 I-65.288 J-65.288 K0.000 F1999.800
G2 X-92.184 Y-5.224 Z12.708 I-92.184 J-5.224 K0.000 F1999.800
G2 X65.288 Y65.288 Z12.708 I92.184 J5.224 K0.000 F1999.800
G0 Z23.000
G0 X67.085 Y67.085 Z23.000
G0 X67.085 Y67.085 Z21.000
G1 X67.085 Y67.085 Z12.708 F999.600
G2 X94.720 Y5.367 Z12.708 I-67.085 J-67.085 K0.000 F1999.800
G2 X5.367 Y-94.720 Z12.708 I-94.720 J-5.367 K0.000 F1999.800
G2 X-94.720 Y-5.367 Z12.708 I-5.367 J94.720 K0.000 F1999.800
G2 X67.085 Y67.085 Z12.708 I94.720 J5.367 K0.000 F1999.800
G0 Z23.000
G0 X68.881 Y68.881 Z23.000
G0 X68.881 Y68.881 Z21.000
G1 X68.881 Y68.881 Z12.708 F999.600
G2 X97.256 Y5.511 Z12.708 I-68.881 J-68.881 K0.000 F1999.800
G2 X5.511 Y-97.256 Z12.708 I-97.256 J-5.511 K0.000 F1999.800
G2 X-97.256 Y-5.511 Z12.708 I-5.511 J97.256 K0.000 F1999.800
G2 X68.881 Y68.881 Z12.708 I97.256 J5.511 K0.000 F1999.800
G1 X68.881 Y68.881 Z12.179 F999.600
G2 X97.256 Y5.511 Z12.179 I-68.881 J-68.881 K0.000 F1999.800
G2 X5.511 Y-97.256 Z12.179 I-97.256 J-5.511 K0.000 F1999.800
G2 X-97.256 Y-5.511 Z12.179 I-5.511 J97.256 K0.000 F1999.800
G2 X68.881 Y68.881 Z12.179 I97.256 J5.511 K0.000 F1999.800
G0 Z23.000
G0 X67.085 Y67.085 Z23.000
G0 X67.085 Y67.085 Z21.000
G1 X67.085 Y67.085 Z12.179 F999.600
G2 X94.720 Y5.367 Z12.179 I-67.085 J-67.085 K0.000 F1999.800
G2 X5.367 Y-94.720 Z12.179 I-94.720 J-5.367 K0.000 F1999.800
G2 X-94.720 Y-5.367 Z12.179 I-5.367 J94.720 K0.000 F1999.800
G2 X67.085 Y67.085 Z12.179 I94.720 J5.367 K0.000 F1999.800
G0 Z23.000
G0 X65.288 Y65.288 Z23.000
G0 X65.288 Y65.288 Z21.000
G1 X65.288 Y65.288 Z12.179 F999.600
G2 X92.184 Y5.224 Z12.179 I-65.288 J-65.288 K0.000 F1999.800
G2 X-92.184 Y-5.224 Z12.179 I-92.184 J-5.224 K0.000 F1999.800
G2 X65.288 Y65.288 Z12.179 I92.184 J5.224 K0.000 F1999.800
G0 Z23.000
G0 X64.727 Y64.727 Z23.000
G0 X64.727 Y64.727 Z21.000
G1 X64.727 Y64.727 Z12.179 F999.600
G2 X91.391 Y5.179 Z12.179 I-64.727 J-64.727 K0.000 F1999.800
G2 X-91.391 Y-5.179 Z12.179 I-91.391 J-5.179 K0.000 F1999.800
G2 X64.727 Y64.727 Z12.179 I91.391 J5.179 K0.000 F1999.800
G0 Z23.000
G0 X63.965 Y63.965 Z23.000
G0 X63.965 Y63.965 Z21.000
G1 X63.965 Y63.965 Z12.179 F999.600
G2 X90.282 Y-5.684 Z12.179 I-63.965 J-63.965 K0.000 F1999.800
G2 X-90.282 Y5.684 Z12.179 I-90.282 J5.684 K0.000 F1999.800
G2 X63.965 Y63.965 Z12.179 I90.282 J-5.684 K0.000 F1999.800
G0 Z23.000
G0 X63.404 Y63.404 Z23.000
G0 X63.404 Y63.404 Z21.000
G1 X63.404 Y63.404 Z12.179 F999.600
G2 X89.490 Y-5.622 Z12.179 I-63.404 J-63.404 K0.000 F1999.800
G2 X-89.490 Y5.622 Z12.179 I-89.490 J5.622 K0.000 F1999.800
G2 X63.404 Y63.404 Z12.179 I89.490 J-5.622 K0.000 F1999.800
G0 Z23.000
G0 X61.608 Y61.608 Z23.000
G0 X61.608 Y61.608 Z21.000
G1 X61.608 Y61.608 Z12.179 F999.600
G2 X86.958 Y-5.427 Z12.179 I-61.608 J-61.608 K0.000 F1999.800
G2 X-86.958 Y5.427 Z12.179 I-86.958 J5.427 K0.000 F1999.800
G2 X61.608 Y61.608 Z12.179 I86.958 J-5.427 K0.000 F1999.800
G0 Z23.000
G0 X59.812 Y59.812 Z23.000
G0 X59.812 Y59.812 Z21.000
G1 X59.812 Y59.812 Z12.179 F999.600
G2 X84.425 Y-5.232 Z12.179 I-59.812 J-59.812 K0.000 F1999.800
G2 X-84.425 Y5.232 Z12.179 I-84.425 J5.232 K0.000 F1999.800
G2 X59.812 Y59.812 Z12.179 I84.425 J-5.232 K0.000 F1999.800
G1 X59.812 Y59.812 Z11.650 F999.600
G2 X84.425 Y-5.232 Z11.650 I-59.812 J-59.812 K0.000 F1999.800
G2 X-84.425 Y5.232 Z11.650 I-84.425 J5.232 K0.000 F1999.800
G2 X59.812 Y59.812 Z11.650 I84.425 J-5.232 K0.000 F1999.800
G0 Z23.000
G0 X61.608 Y61.608 Z23.000
G0 X61.608 Y61.608 Z21.000
G1 X61.608 Y61.608 Z11.650 F999.600
G2 X86.958 Y-5.427 Z11.650 I-61.608 J-61.608 K0.000 F1999.800
G2 X-86.958 Y5.427 Z11.650 I-86.958 J5.427 K0.000 F1999.800
G2 X61.608 Y61.608 Z11.650 I86.958 J-5.427 K0.000 F1999.800
G0 Z23.000
G0 X63.404 Y63.404 Z23.000
G0 X63.404 Y63.404 Z21.000
G1 X63.404 Y63.404 Z11.650 F999.600
G2 X89.490 Y-5.622 Z11.650 I-63.404 J-63.404 K0.000 F1999.800
G2 X-89.490 Y5.622 Z11.650 I-89.490 J5.622 K0.000 F1999.800
G2 X63.404 Y63.404 Z11.650 I89.490 J-5.622 K0.000 F1999.800
G0 Z23.000
G0 X63.965 Y63.965 Z23.000
G0 X63.965 Y63.965 Z21.000
G1 X63.965 Y63.965 Z11.650 F999.600
G2 X90.282 Y-5.684 Z11.650 I-63.965 J-63.965 K0.000 F1999.800
G2 X-90.282 Y5.684 Z11.650 I-90.282 J5.684 K0.000 F1999.800
G2 X63.965 Y63.965 Z11.650 I90.282 J-5.684 K0.000 F1999.800
G0 Z23.000
G0 X64.727 Y64.727 Z23.000
G0 X64.727 Y64.727 Z21.000
G1 X64.727 Y64.727 Z11.650 F999.600
G2 X91.391 Y5.179 Z11.650 I-64.727 J-64.727 K0.000 F1999.800
G2 X-91.391 Y-5.179 Z11.650 I-91.391 J-5.179 K0.000 F1999.800
G2 X64.727 Y64.727 Z11.650 I91.391 J5.179 K0.000 F1999.800
G0 Z23.000
G0 X65.288 Y65.288 Z23.000
G0 X65.288 Y65.288 Z21.000
G1 X65.288 Y65.288 Z11.650 F999.600
G2 X92.184 Y5.224 Z11.650 I-65.288 J-65.288 K0.000 F1999.800
G2 X-92.184 Y-5.224 Z11.650 I-92.184 J-5.224 K0.000 F1999.800
G2 X65.288 Y65.288 Z11.650 I92.184 J5.224 K0.000 F1999.800
G0 Z23.000
G0 X67.085 Y67.085 Z23.000
G0 X67.085 Y67.085 Z21.000
G1 X67.085 Y67.085 Z11.650 F999.600
G2 X94.720 Y5.367 Z11.650 I-67.085 J-67.085 K0.000 F1999.800
G2 X5.367 Y-94.720 Z11.650 I-94.720 J-5.367 K0.000 F1999.800
G2 X-94.720 Y-5.367 Z11.650 I-5.367 J94.720 K0.000 F1999.800
G2 X67.085 Y67.085 Z11.650 I94.720 J5.367 K0.000 F1999.800
G0 Z23.000
G0 X68.881 Y68.881 Z23.000
G0 X68.881 Y68.881 Z21.000
G1 X68.881 Y68.881 Z11.650 F999.600
G2 X97.256 Y5.511 Z11.650 I-68.881 J-68.881 K0.000 F1999.800
G2 X5.511 Y-97.256 Z11.650 I-97.256 J-5.511 K0.000 F1999.800
G2 X-97.256 Y-5.511 Z11.650 I-5.511 J97.256 K0.000 F1999.800
G2 X68.881 Y68.881 Z11.650 I97.256 J5.511 K0.000 F1999.800
G1 X68.881 Y68.881 Z11.121 F999.600
G2 X97.256 Y5.511 Z11.121 I-68.881 J-68.881 K0.000 F1999.800
G2 X5.511 Y-97.256 Z11.121 I-97.256 J-5.511 K0.000 F1999.800
G2 X-97.256 Y-5.511 Z11.121 I-5.511 J97.256 K0.000 F1999.800
G2 X68.881 Y68.881 Z11.121 I97.256 J5.511 K0.000 F1999.800
G0 Z23.000
G0 X67.085 Y67.085 Z23.000
G0 X67.085 Y67.085 Z21.000
G1 X67.085 Y67.085 Z11.121 F999.600
G2 X94.720 Y5.367 Z11.121 I-67.085 J-67.085 K0.000 F1999.800
G2 X5.367 Y-94.720 Z11.121 I-94.720 J-5.367 K0.000 F1999.800
G2 X-94.720 Y-5.367 Z11.121 I-5.367 J94.720 K0.000 F1999.800
G2 X67.085 Y67.085 Z11.121 I94.720 J5.367 K0.000 F1999.800
G0 Z23.000
G0 X65.288 Y65.288 Z23.000
G0 X65.288 Y65.288 Z21.000
G1 X65.288 Y65.288 Z11.121 F999.600
G2 X92.184 Y5.224 Z11.121 I-65.288 J-65.288 K0.000 F1999.800
G2 X-92.184 Y-5.224 Z11.121 I-92.184 J-5.224 K0.000 F1999.800
G2 X65.288 Y65.288 Z11.121 I92.184 J5.224 K0.000 F1999.800
G0 Z23.000
G0 X64.727 Y64.727 Z23.000
G0 X64.727 Y64.727 Z21.000
G1 X64.727 Y64.727 Z11.121 F999.600
G2 X91.391 Y5.179 Z11.121 I-64.727 J-64.727 K0.000 F1999.800
G2 X-91.391 Y-5.179 Z11.121 I-91.391 J-5.179 K0.000 F1999.800
G2 X64.727 Y64.727 Z11.121 I91.391 J5.179 K0.000 F1999.800
G0 Z23.000
G0 X63.965 Y63.965 Z23.000
G0 X63.965 Y63.965 Z21.000
G1 X63.965 Y63.965 Z11.121 F999.600
G2 X90.282 Y-5.684 Z11.121 I-63.965 J-63.965 K0.000 F1999.800
G2 X-90.282 Y5.684 Z11.121 I-90.282 J5.684 K0.000 F1999.800
G2 X63.965 Y63.965 Z11.121 I90.282 J-5.684 K0.000 F1999.800
G0 Z23.000
G0 X63.404 Y63.404 Z23.000
G0 X63.404 Y63.404 Z21.000
G1 X63.404 Y63.404 Z11.121 F999.600
G2 X89.490 Y-5.622 Z11.121 I-63.404 J-63.404 K0.000 F1999.800
G2 X-89.490 Y5.622 Z11.121 I-89.490 J5.622 K0.000 F1999.800
G2 X63.404 Y63.404 Z11.121 I89.490 J-5.622 K0.000 F1999.800
G0 Z23.000
G0 X61.608 Y61.608 Z23.000
G0 X61.608 Y61.608 Z21.000
G1 X61.608 Y61.608 Z11.121 F999.600
G2 X86.958 Y-5.427 Z11.121 I-61.608 J-61.608 K0.000 F1999.800
G2 X-86.958 Y5.427 Z11.121 I-86.958 J5.427 K0.000 F1999.800
G2 X61.608 Y61.608 Z11.121 I86.958 J-5.427 K0.000 F1999.800
G0 Z23.000
G0 X59.812 Y59.812 Z23.000
G0 X59.812 Y59.812 Z21.000
G1 X59.812 Y59.812 Z11.121 F999.600
G2 X84.425 Y-5.232 Z11.121 I-59.812 J-59.812 K0.000 F1999.800
G2 X-84.425 Y5.232 Z11.121 I-84.425 J5.232 K0.000 F1999.800
G2 X59.812 Y59.812 Z11.121 I84.425 J-5.232 K0.000 F1999.800
G1 X59.812 Y59.812 Z10.592 F999.600
G2 X84.425 Y-5.232 Z10.592 I-59.812 J-59.812 K0.000 F1999.800
G2 X-84.425 Y5.232 Z10.592 I-84.425 J5.232 K0.000 F1999.800
G2 X59.812 Y59.812 Z10.592 I84.425 J-5.232 K0.000 F1999.800
G0 Z23.000
G0 X61.608 Y61.608 Z23.000
G0 X61.608 Y61.608 Z21.000
G1 X61.608 Y61.608 Z10.592 F999.600
G2 X86.958 Y-5.427 Z10.592 I-61.608 J-61.608 K0.000 F1999.800
G2 X-86.958 Y5.427 Z10.592 I-86.958 J5.427 K0.000 F1999.800
G2 X61.608 Y61.608 Z10.592 I86.958 J-5.427 K0.000 F1999.800
G0 Z23.000
G0 X63.404 Y63.404 Z23.000
G0 X63.404 Y63.404 Z21.000
G1 X63.404 Y63.404 Z10.592 F999.600
G2 X89.490 Y-5.622 Z10.592 I-63.404 J-63.404 K0.000 F1999.800
G2 X-89.490 Y5.622 Z10.592 I-89.490 J5.622 K0.000 F1999.800
G2 X63.404 Y63.404 Z10.592 I89.490 J-5.622 K0.000 F1999.800
G0 Z23.000
G0 X63.965 Y63.965 Z23.000
G0 X63.965 Y63.965 Z21.000
G1 X63.965 Y63.965 Z10.592 F999.600
G2 X90.282 Y-5.684 Z10.592 I-63.965 J-63.965 K0.000 F1999.800
G2 X-90.282 Y5.684 Z10.592 I-90.282 J5.684 K0.000 F1999.800
