(Exported by FreeCAD)
(Post Processor: grbl_post)
(Output Time:2020-01-31 20:34:06.186622)
(begin preamble)
G17 G90
G21
(begin operation: T3: AluminiumMill)
(Path: T3: AluminiumMill)
(T3: AluminiumMill)
(begin toolchange)
; M6 T3
M3 S17000.0000
(finish operation: T3: AluminiumMill)
(begin operation: Profile_Faces001)
(Path: Profile_Faces001)
(Profile_Faces001)
(Compensated Tool Path. Diameter: 3.0)
G0 Z8.0000
G0 X9.0574 Y107.3390
G0 Z6.0000
G1 X9.0574 Y107.3390 Z2.9000 F799.80
G2 X8.4621 Y104.8595 Z2.9000 I-1.0574 J-1.0574 F800.00
G2 X7.5379 Y107.7038 Z2.9000 I-0.4621 J1.4222 F800.00
G2 X9.0574 Y107.3390 Z2.9000 I0.4621 J-1.4222 F800.00
G1 X9.0574 Y107.3390 Z2.6000 F799.80
G2 X8.4621 Y104.8595 Z2.6000 I-1.0574 J-1.0574 F800.00
G2 X7.5379 Y107.7038 Z2.6000 I-0.4621 J1.4222 F800.00
G2 X9.0574 Y107.3390 Z2.6000 I0.4621 J-1.4222 F800.00
G1 X9.0574 Y107.3390 Z2.3000 F799.80
G2 X8.4621 Y104.8595 Z2.3000 I-1.0574 J-1.0574 F800.00
G2 X7.5379 Y107.7038 Z2.3000 I-0.4621 J1.4222 F800.00
G2 X9.0574 Y107.3390 Z2.3000 I0.4621 J-1.4222 F800.00
G1 X9.0574 Y107.3390 Z2.0000 F799.80
G2 X8.4621 Y104.8595 Z2.0000 I-1.0574 J-1.0574 F800.00
G2 X7.5379 Y107.7038 Z2.0000 I-0.4621 J1.4222 F800.00
G2 X9.0574 Y107.3390 Z2.0000 I0.4621 J-1.4222 F800.00
G1 X9.0574 Y107.3390 Z1.7000 F799.80
G2 X8.4621 Y104.8595 Z1.7000 I-1.0574 J-1.0574 F800.00
G2 X7.5379 Y107.7038 Z1.7000 I-0.4621 J1.4222 F800.00
G2 X9.0574 Y107.3390 Z1.7000 I0.4621 J-1.4222 F800.00
G1 X9.0574 Y107.3390 Z1.4000 F799.80
G2 X8.4621 Y104.8595 Z1.4000 I-1.0574 J-1.0574 F800.00
G2 X7.5379 Y107.7038 Z1.4000 I-0.4621 J1.4222 F800.00
G2 X9.0574 Y107.3390 Z1.4000 I0.4621 J-1.4222 F800.00
G1 X9.0574 Y107.3390 Z1.1000 F799.80
G2 X8.4621 Y104.8595 Z1.1000 I-1.0574 J-1.0574 F800.00
G2 X7.5379 Y107.7038 Z1.1000 I-0.4621 J1.4222 F800.00
G2 X9.0574 Y107.3390 Z1.1000 I0.4621 J-1.4222 F800.00
G1 X9.0574 Y107.3390 Z0.8000 F799.80
G2 X8.4621 Y104.8595 Z0.8000 I-1.0574 J-1.0574 F800.00
G2 X7.5379 Y107.7038 Z0.8000 I-0.4621 J1.4222 F800.00
G2 X9.0574 Y107.3390 Z0.8000 I0.4621 J-1.4222 F800.00
G1 X9.0574 Y107.3390 Z0.5000 F799.80
G2 X8.4621 Y104.8595 Z0.5000 I-1.0574 J-1.0574 F800.00
G2 X7.5379 Y107.7038 Z0.5000 I-0.4621 J1.4222 F800.00
G2 X9.0574 Y107.3390 Z0.5000 I0.4621 J-1.4222 F800.00
G1 X9.0574 Y107.3390 Z0.2000 F799.80
G2 X8.4621 Y104.8595 Z0.2000 I-1.0574 J-1.0574 F800.00
G2 X7.5379 Y107.7038 Z0.2000 I-0.4621 J1.4222 F800.00
G2 X9.0574 Y107.3390 Z0.2000 I0.4621 J-1.4222 F800.00
G1 X9.0574 Y107.3390 Z-0.1000 F799.80
G2 X8.4621 Y104.8595 Z-0.1000 I-1.0574 J-1.0574 F800.00
G2 X7.5379 Y107.7038 Z-0.1000 I-0.4621 J1.4222 F800.00
G2 X9.0574 Y107.3390 Z-0.1000 I0.4621 J-1.4222 F800.00
G1 X9.0574 Y107.3390 Z-0.2000 F799.80
G2 X8.4621 Y104.8595 Z-0.2000 I-1.0574 J-1.0574 F800.00
G2 X7.5379 Y107.7038 Z-0.2000 I-0.4621 J1.4222 F800.00
G2 X9.0574 Y107.3390 Z-0.2000 I0.4621 J-1.4222 F800.00
G0 Z8.0000
G0 X9.0574 Y76.0574
G0 Z6.0000
G1 X9.0574 Y76.0574 Z2.9000 F799.80
G2 X8.4621 Y73.5778 Z2.9000 I-1.0574 J-1.0574 F800.00
G2 X7.5379 Y76.4222 Z2.9000 I-0.4621 J1.4222 F800.00
G2 X9.0574 Y76.0574 Z2.9000 I0.4621 J-1.4222 F800.00
G1 X9.0574 Y76.0574 Z2.6000 F799.80
G2 X8.4621 Y73.5778 Z2.6000 I-1.0574 J-1.0574 F800.00
G2 X7.5379 Y76.4222 Z2.6000 I-0.4621 J1.4222 F800.00
G2 X9.0574 Y76.0574 Z2.6000 I0.4621 J-1.4222 F800.00
G1 X9.0574 Y76.0574 Z2.3000 F799.80
G2 X8.4621 Y73.5778 Z2.3000 I-1.0574 J-1.0574 F800.00
G2 X7.5379 Y76.4222 Z2.3000 I-0.4621 J1.4222 F800.00
G2 X9.0574 Y76.0574 Z2.3000 I0.4621 J-1.4222 F800.00
G1 X9.0574 Y76.0574 Z2.0000 F799.80
G2 X8.4621 Y73.5778 Z2.0000 I-1.0574 J-1.0574 F800.00
G2 X7.5379 Y76.4222 Z2.0000 I-0.4621 J1.4222 F800.00
G2 X9.0574 Y76.0574 Z2.0000 I0.4621 J-1.4222 F800.00
G1 X9.0574 Y76.0574 Z1.7000 F799.80
G2 X8.4621 Y73.5778 Z1.7000 I-1.0574 J-1.0574 F800.00
G2 X7.5379 Y76.4222 Z1.7000 I-0.4621 J1.4222 F800.00
G2 X9.0574 Y76.0574 Z1.7000 I0.4621 J-1.4222 F800.00
G1 X9.0574 Y76.0574 Z1.4000 F799.80
G2 X8.4621 Y73.5778 Z1.4000 I-1.0574 J-1.0574 F800.00
G2 X7.5379 Y76.4222 Z1.4000 I-0.4621 J1.4222 F800.00
G2 X9.0574 Y76.0574 Z1.4000 I0.4621 J-1.4222 F800.00
G1 X9.0574 Y76.0574 Z1.1000 F799.80
G2 X8.4621 Y73.5778 Z1.1000 I-1.0574 J-1.0574 F800.00
G2 X7.5379 Y76.4222 Z1.1000 I-0.4621 J1.4222 F800.00
G2 X9.0574 Y76.0574 Z1.1000 I0.4621 J-1.4222 F800.00
G1 X9.0574 Y76.0574 Z0.8000 F799.80
G2 X8.4621 Y73.5778 Z0.8000 I-1.0574 J-1.0574 F800.00
G2 X7.5379 Y76.4222 Z0.8000 I-0.4621 J1.4222 F800.00
G2 X9.0574 Y76.0574 Z0.8000 I0.4621 J-1.4222 F800.00
G1 X9.0574 Y76.0574 Z0.5000 F799.80
G2 X8.4621 Y73.5778 Z0.5000 I-1.0574 J-1.0574 F800.00
G2 X7.5379 Y76.4222 Z0.5000 I-0.4621 J1.4222 F800.00
G2 X9.0574 Y76.0574 Z0.5000 I0.4621 J-1.4222 F800.00
G1 X9.0574 Y76.0574 Z0.2000 F799.80
G2 X8.4621 Y73.5778 Z0.2000 I-1.0574 J-1.0574 F800.00
G2 X7.5379 Y76.4222 Z0.2000 I-0.4621 J1.4222 F800.00
G2 X9.0574 Y76.0574 Z0.2000 I0.4621 J-1.4222 F800.00
G1 X9.0574 Y76.0574 Z-0.1000 F799.80
G2 X8.4621 Y73.5778 Z-0.1000 I-1.0574 J-1.0574 F800.00
G2 X7.5379 Y76.4222 Z-0.1000 I-0.4621 J1.4222 F800.00
G2 X9.0574 Y76.0574 Z-0.1000 I0.4621 J-1.4222 F800.00
G1 X9.0574 Y76.0574 Z-0.2000 F799.80
G2 X8.4621 Y73.5778 Z-0.2000 I-1.0574 J-1.0574 F800.00
G2 X7.5379 Y76.4222 Z-0.2000 I-0.4621 J1.4222 F800.00
G2 X9.0574 Y76.0574 Z-0.2000 I0.4621 J-1.4222 F800.00
G0 Z8.0000
G0 X9.0574 Y44.7757
G0 Z6.0000
G1 X9.0574 Y44.7757 Z2.9000 F799.80
G2 X8.4621 Y42.2962 Z2.9000 I-1.0574 J-1.0574 F800.00
G2 X7.5379 Y45.1405 Z2.9000 I-0.4621 J1.4222 F800.00
G2 X9.0574 Y44.7757 Z2.9000 I0.4621 J-1.4222 F800.00
G1 X9.0574 Y44.7757 Z2.6000 F799.80
G2 X8.4621 Y42.2962 Z2.6000 I-1.0574 J-1.0574 F800.00
G2 X7.5379 Y45.1405 Z2.6000 I-0.4621 J1.4222 F800.00
G2 X9.0574 Y44.7757 Z2.6000 I0.4621 J-1.4222 F800.00
G1 X9.0574 Y44.7757 Z2.3000 F799.80
G2 X8.4621 Y42.2962 Z2.3000 I-1.0574 J-1.0574 F800.00
G2 X7.5379 Y45.1405 Z2.3000 I-0.4621 J1.4222 F800.00
G2 X9.0574 Y44.7757 Z2.3000 I0.4621 J-1.4222 F800.00
G1 X9.0574 Y44.7757 Z2.0000 F799.80
G2 X8.4621 Y42.2962 Z2.0000 I-1.0574 J-1.0574 F800.00
G2 X7.5379 Y45.1405 Z2.0000 I-0.4621 J1.4222 F800.00
G2 X9.0574 Y44.7757 Z2.0000 I0.4621 J-1.4222 F800.00
G1 X9.0574 Y44.7757 Z1.7000 F799.80
G2 X8.4621 Y42.2962 Z1.7000 I-1.0574 J-1.0574 F800.00
G2 X7.5379 Y45.1405 Z1.7000 I-0.4621 J1.4222 F800.00
G2 X9.0574 Y44.7757 Z1.7000 I0.4621 J-1.4222 F800.00
G1 X9.0574 Y44.7757 Z1.4000 F799.80
G2 X8.4621 Y42.2962 Z1.4000 I-1.0574 J-1.0574 F800.00
G2 X7.5379 Y45.1405 Z1.4000 I-0.4621 J1.4222 F800.00
G2 X9.0574 Y44.7757 Z1.4000 I0.4621 J-1.4222 F800.00
G1 X9.0574 Y44.7757 Z1.1000 F799.80
G2 X8.4621 Y42.2962 Z1.1000 I-1.0574 J-1.0574 F800.00
G2 X7.5379 Y45.1405 Z1.1000 I-0.4621 J1.4222 F800.00
G2 X9.0574 Y44.7757 Z1.1000 I0.4621 J-1.4222 F800.00
G1 X9.0574 Y44.7757 Z0.8000 F799.80
G2 X8.4621 Y42.2962 Z0.8000 I-1.0574 J-1.0574 F800.00
G2 X7.5379 Y45.1405 Z0.8000 I-0.4621 J1.4222 F800.00
G2 X9.0574 Y44.7757 Z0.8000 I0.4621 J-1.4222 F800.00
G1 X9.0574 Y44.7757 Z0.5000 F799.80
G2 X8.4621 Y42.2962 Z0.5000 I-1.0574 J-1.0574 F800.00
G2 X7.5379 Y45.1405 Z0.5000 I-0.4621 J1.4222 F800.00
G2 X9.0574 Y44.7757 Z0.5000 I0.4621 J-1.4222 F800.00
G1 X9.0574 Y44.7757 Z0.2000 F799.80
G2 X8.4621 Y42.2962 Z0.2000 I-1.0574 J-1.0574 F800.00
G2 X7.5379 Y45.1405 Z0.2000 I-0.4621 J1.4222 F800.00
G2 X9.0574 Y44.7757 Z0.2000 I0.4621 J-1.4222 F800.00
G1 X9.0574 Y44.7757 Z-0.1000 F799.80
G2 X8.4621 Y42.2962 Z-0.1000 I-1.0574 J-1.0574 F800.00
G2 X7.5379 Y45.1405 Z-0.1000 I-0.4621 J1.4222 F800.00
G2 X9.0574 Y44.7757 Z-0.1000 I0.4621 J-1.4222 F800.00
G1 X9.0574 Y44.7757 Z-0.2000 F799.80
G2 X8.4621 Y42.2962 Z-0.2000 I-1.0574 J-1.0574 F800.00
G2 X7.5379 Y45.1405 Z-0.2000 I-0.4621 J1.4222 F800.00
G2 X9.0574 Y44.7757 Z-0.2000 I0.4621 J-1.4222 F800.00
G0 Z8.0000
(finish operation: Profile_Faces001)
(begin operation: TagDressup)
(Path: TagDressup)
G0 Z8.0000
G0 X17.0607 Y151.0607 Z8.0000
G0 X17.0607 Y151.0607 Z6.0000
G1 X17.0607 Y151.0607 Z2.9000 F799.80
G3 X16.0000 Y151.5000 Z2.9000 I-1.0607 J-1.0607 F800.00
G1 X9.7500 Y151.5000 Z2.9000 F800.00
G3 X8.2500 Y150.0000 Z2.9000 I0.0000 J-1.5000 F800.00
G1 X8.2500 Y140.0000 Z2.9000 F800.00
G3 X9.0519 Y138.6261 Z2.9000 I1.6945 J0.0681 F800.00
G2 X9.0592 Y136.5078 Z2.9000 I-1.0519 J-1.0628 F800.00
G2 X6.9408 Y136.5078 Z2.9000 I-1.0592 J1.0555 F800.00
G2 X7.2181 Y138.8542 Z2.9000 I1.0794 J1.0621 F800.00
G3 X7.7500 Y140.0000 Z2.9000 I-0.9681 J1.1458 F800.00
G1 X7.7500 Y150.0000 Z2.9000 F800.00
G3 X6.2500 Y151.5000 Z2.9000 I-1.5000 J-0.0000 F800.00
G1 X0.0000 Y151.5000 Z2.9000 F800.00
G3 X-1.5000 Y150.0000 Z2.9000 I0.0000 J-1.5000 F800.00
G1 X-1.5000 Y0.0000 Z2.9000 F800.00
G3 X-0.0000 Y-1.5000 Z2.9000 I1.5000 J0.0000 F800.00
G1 X6.2500 Y-1.5000 Z2.9000 F800.00
G3 X7.7500 Y0.0000 Z2.9000 I-0.0000 J1.5000 F800.00
G1 X7.7500 Y10.0000 Z2.9000 F800.00
G3 X6.9481 Y11.3739 Z2.9000 I-1.6945 J-0.0681 F800.00
G2 X6.9408 Y13.4922 Z2.9000 I1.0519 J1.0628 F800.00
G2 X9.0592 Y13.4922 Z2.9000 I1.0592 J-1.0555 F800.00
G2 X8.7819 Y11.1458 Z2.9000 I-1.0794 J-1.0621 F800.00
G3 X8.2500 Y10.0000 Z2.9000 I0.9681 J-1.1458 F800.00
G1 X8.2500 Y0.0000 Z2.9000 F800.00
G3 X9.7500 Y-1.5000 Z2.9000 I1.5000 J0.0000 F800.00
G1 X16.0000 Y-1.5000 Z2.9000 F800.00
G3 X17.5000 Y0.0000 Z2.9000 I-0.0000 J1.5000 F800.00
G1 X17.5000 Y150.0000 Z2.9000 F800.00
G3 X17.0607 Y151.0607 Z2.9000 I-1.5000 J-0.0000 F800.00
G1 X17.0607 Y151.0607 Z2.6000 F799.80
G3 X16.0000 Y151.5000 Z2.6000 I-1.0607 J-1.0607 F800.00
G1 X9.7500 Y151.5000 Z2.6000 F800.00
G3 X8.2500 Y150.0000 Z2.6000 I0.0000 J-1.5000 F800.00
G1 X8.2500 Y140.0000 Z2.6000 F800.00
G3 X9.0519 Y138.6261 Z2.6000 I1.6945 J0.0681 F800.00
G2 X9.0592 Y136.5078 Z2.6000 I-1.0519 J-1.0628 F800.00
G2 X6.9408 Y136.5078 Z2.6000 I-1.0592 J1.0555 F800.00
G2 X7.2181 Y138.8542 Z2.6000 I1.0794 J1.0621 F800.00
G3 X7.7500 Y140.0000 Z2.6000 I-0.9681 J1.1458 F800.00
G1 X7.7500 Y150.0000 Z2.6000 F800.00
G3 X6.2500 Y151.5000 Z2.6000 I-1.5000 J-0.0000 F800.00
G1 X0.0000 Y151.5000 Z2.6000 F800.00
G3 X-1.5000 Y150.0000 Z2.6000 I0.0000 J-1.5000 F800.00
G1 X-1.5000 Y0.0000 Z2.6000 F800.00
G3 X-0.0000 Y-1.5000 Z2.6000 I1.5000 J0.0000 F800.00
G1 X6.2500 Y-1.5000 Z2.6000 F800.00
G3 X7.7500 Y0.0000 Z2.6000 I-0.0000 J1.5000 F800.00
G1 X7.7500 Y10.0000 Z2.6000 F800.00
G3 X6.9481 Y11.3739 Z2.6000 I-1.6945 J-0.0681 F800.00
G2 X6.9408 Y13.4922 Z2.6000 I1.0519 J1.0628 F800.00
G2 X9.0592 Y13.4922 Z2.6000 I1.0592 J-1.0555 F800.00
G2 X8.7819 Y11.1458 Z2.6000 I-1.0794 J-1.0621 F800.00
G3 X8.2500 Y10.0000 Z2.6000 I0.9681 J-1.1458 F800.00
G1 X8.2500 Y0.0000 Z2.6000 F800.00
G3 X9.7500 Y-1.5000 Z2.6000 I1.5000 J0.0000 F800.00
G1 X16.0000 Y-1.5000 Z2.6000 F800.00
G3 X17.5000 Y0.0000 Z2.6000 I-0.0000 J1.5000 F800.00
G1 X17.5000 Y150.0000 Z2.6000 F800.00
G3 X17.0607 Y151.0607 Z2.6000 I-1.5000 J-0.0000 F800.00
G1 X17.0607 Y151.0607 Z2.3000 F799.80
G3 X16.0000 Y151.5000 Z2.3000 I-1.0607 J-1.0607 F800.00
G1 X9.7500 Y151.5000 Z2.3000 F800.00
G3 X8.2500 Y150.0000 Z2.3000 I0.0000 J-1.5000 F800.00
G1 X8.2500 Y140.0000 Z2.3000 F800.00
G3 X9.0519 Y138.6261 Z2.3000 I1.6945 J0.0681 F800.00
G2 X9.0592 Y136.5078 Z2.3000 I-1.0519 J-1.0628 F800.00
G2 X6.9408 Y136.5078 Z2.3000 I-1.0592 J1.0555 F800.00
G2 X7.2181 Y138.8542 Z2.3000 I1.0794 J1.0621 F800.00
G3 X7.7500 Y140.0000 Z2.3000 I-0.9681 J1.1458 F800.00
G1 X7.7500 Y150.0000 Z2.3000 F800.00
G3 X6.2500 Y151.5000 Z2.3000 I-1.5000 J-0.0000 F800.00
G1 X0.0000 Y151.5000 Z2.3000 F800.00
G3 X-1.5000 Y150.0000 Z2.3000 I0.0000 J-1.5000 F800.00
G1 X-1.5000 Y0.0000 Z2.3000 F800.00
G3 X-0.0000 Y-1.5000 Z2.3000 I1.5000 J0.0000 F800.00
G1 X6.2500 Y-1.5000 Z2.3000 F800.00
G3 X7.7500 Y0.0000 Z2.3000 I-0.0000 J1.5000 F800.00
G1 X7.7500 Y10.0000 Z2.3000 F800.00
G3 X6.9481 Y11.3739 Z2.3000 I-1.6945 J-0.0681 F800.00
G2 X6.9408 Y13.4922 Z2.3000 I1.0519 J1.0628 F800.00
G2 X9.0592 Y13.4922 Z2.3000 I1.0592 J-1.0555 F800.00
G2 X8.7819 Y11.1458 Z2.3000 I-1.0794 J-1.0621 F800.00
G3 X8.2500 Y10.0000 Z2.3000 I0.9681 J-1.1458 F800.00
G1 X8.2500 Y0.0000 Z2.3000 F800.00
G3 X9.7500 Y-1.5000 Z2.3000 I1.5000 J0.0000 F800.00
G1 X16.0000 Y-1.5000 Z2.3000 F800.00
G3 X17.5000 Y0.0000 Z2.3000 I-0.0000 J1.5000 F800.00
G1 X17.5000 Y150.0000 Z2.3000 F800.00
G3 X17.0607 Y151.0607 Z2.3000 I-1.5000 J-0.0000 F800.00
G1 X17.0607 Y151.0607 Z2.0000 F799.80
G3 X16.0000 Y151.5000 Z2.0000 I-1.0607 J-1.0607 F800.00
G1 X9.7500 Y151.5000 Z2.0000 F800.00
G3 X8.2500 Y150.0000 Z2.0000 I0.0000 J-1.5000 F800.00
G1 X8.2500 Y140.0000 Z2.0000 F800.00
G3 X9.0519 Y138.6261 Z2.0000 I1.6945 J0.0681 F800.00
G2 X9.0592 Y136.5078 Z2.0000 I-1.0519 J-1.0628 F800.00
G2 X6.9408 Y136.5078 Z2.0000 I-1.0592 J1.0555 F800.00
G2 X7.2181 Y138.8542 Z2.0000 I1.0794 J1.0621 F800.00
G3 X7.7500 Y140.0000 Z2.0000 I-0.9681 J1.1458 F800.00
G1 X7.7500 Y150.0000 Z2.0000 F800.00
G3 X6.2500 Y151.5000 Z2.0000 I-1.5000 J-0.0000 F800.00
G1 X0.0000 Y151.5000 Z2.0000 F800.00
G3 X-1.5000 Y150.0000 Z2.0000 I0.0000 J-1.5000 F800.00
G1 X-1.5000 Y0.0000 Z2.0000 F800.00
G3 X-0.0000 Y-1.5000 Z2.0000 I1.5000 J0.0000 F800.00
G1 X6.2500 Y-1.5000 Z2.0000 F800.00
G3 X7.7500 Y0.0000 Z2.0000 I-0.0000 J1.5000 F800.00
G1 X7.7500 Y10.0000 Z2.0000 F800.00
G3 X6.9481 Y11.3739 Z2.0000 I-1.6945 J-0.0681 F800.00
G2 X6.9408 Y13.4922 Z2.0000 I1.0519 J1.0628 F800.00
G2 X9.0592 Y13.4922 Z2.0000 I1.0592 J-1.0555 F800.00
G2 X8.7819 Y11.1458 Z2.0000 I-1.0794 J-1.0621 F800.00
G3 X8.2500 Y10.0000 Z2.0000 I0.9681 J-1.1458 F800.00
G1 X8.2500 Y0.0000 Z2.0000 F800.00
G3 X9.7500 Y-1.5000 Z2.0000 I1.5000 J0.0000 F800.00
G1 X16.0000 Y-1.5000 Z2.0000 F800.00
G3 X17.5000 Y0.0000 Z2.0000 I-0.0000 J1.5000 F800.00
G1 X17.5000 Y150.0000 Z2.0000 F800.00
G3 X17.0607 Y151.0607 Z2.0000 I-1.5000 J-0.0000 F800.00
G1 X17.0607 Y151.0607 Z1.7000 F799.80
G3 X16.0000 Y151.5000 Z1.7000 I-1.0607 J-1.0607 F800.00
G1 X9.7500 Y151.5000 Z1.7000 F800.00
G3 X8.2500 Y150.0000 Z1.7000 I0.0000 J-1.5000 F800.00
G1 X8.2500 Y140.0000 Z1.7000 F800.00
G3 X9.0519 Y138.6261 Z1.7000 I1.6945 J0.0681 F800.00
G2 X9.0592 Y136.5078 Z1.7000 I-1.0519 J-1.0628 F800.00
G2 X6.9408 Y136.5078 Z1.7000 I-1.0592 J1.0555 F800.00
G2 X7.2181 Y138.8542 Z1.7000 I1.0794 J1.0621 F800.00
G3 X7.7500 Y140.0000 Z1.7000 I-0.9681 J1.1458 F800.00
G1 X7.7500 Y150.0000 Z1.7000 F800.00
G3 X6.2500 Y151.5000 Z1.7000 I-1.5000 J-0.0000 F800.00
G1 X0.0000 Y151.5000 Z1.7000 F800.00
G3 X-1.5000 Y150.0000 Z1.7000 I0.0000 J-1.5000 F800.00
G1 X-1.5000 Y0.0000 Z1.7000 F800.00
G3 X-0.0000 Y-1.5000 Z1.7000 I1.5000 J0.0000 F800.00
G1 X6.2500 Y-1.5000 Z1.7000 F800.00
G3 X7.7500 Y0.0000 Z1.7000 I-0.0000 J1.5000 F800.00
G1 X7.7500 Y10.0000 Z1.7000 F800.00
G3 X6.9481 Y11.3739 Z1.7000 I-1.6945 J-0.0681 F800.00
G2 X6.9408 Y13.4922 Z1.7000 I1.0519 J1.0628 F800.00
G2 X9.0592 Y13.4922 Z1.7000 I1.0592 J-1.0555 F800.00
G2 X8.7819 Y11.1458 Z1.7000 I-1.0794 J-1.0621 F800.00
G3 X8.2500 Y10.0000 Z1.7000 I0.9681 J-1.1458 F800.00
G1 X8.2500 Y0.0000 Z1.7000 F800.00
G3 X9.7500 Y-1.5000 Z1.7000 I1.5000 J0.0000 F800.00
G1 X16.0000 Y-1.5000 Z1.7000 F800.00
G3 X17.5000 Y0.0000 Z1.7000 I-0.0000 J1.5000 F800.00
G1 X17.5000 Y150.0000 Z1.7000 F800.00
G3 X17.0607 Y151.0607 Z1.7000 I-1.5000 J-0.0000 F800.00
G1 X17.0607 Y151.0607 Z1.4000 F799.80
G3 X16.0000 Y151.5000 Z1.4000 I-1.0607 J-1.0607 F800.00
G1 X9.7500 Y151.5000 Z1.4000 F800.00
G3 X8.2500 Y150.0000 Z1.4000 I0.0000 J-1.5000 F800.00
G1 X8.2500 Y140.0000 Z1.4000 F800.00
G3 X9.0519 Y138.6261 Z1.4000 I1.6945 J0.0681 F800.00
G2 X9.0592 Y136.5078 Z1.4000 I-1.0519 J-1.0628 F800.00
G2 X6.9408 Y136.5078 Z1.4000 I-1.0592 J1.0555 F800.00
G2 X7.2181 Y138.8542 Z1.4000 I1.0794 J1.0621 F800.00
G3 X7.7500 Y140.0000 Z1.4000 I-0.9681 J1.1458 F800.00
G1 X7.7500 Y150.0000 Z1.4000 F800.00
G3 X6.2500 Y151.5000 Z1.4000 I-1.5000 J-0.0000 F800.00
G1 X0.0000 Y151.5000 Z1.4000 F800.00
G3 X-1.5000 Y150.0000 Z1.4000 I0.0000 J-1.5000 F800.00
G1 X-1.5000 Y0.0000 Z1.4000 F800.00
G3 X-0.0000 Y-1.5000 Z1.4000 I1.5000 J0.0000 F800.00
G1 X6.2500 Y-1.5000 Z1.4000 F800.00
G3 X7.7500 Y0.0000 Z1.4000 I-0.0000 J1.5000 F800.00
G1 X7.7500 Y10.0000 Z1.4000 F800.00
G3 X6.9481 Y11.3739 Z1.4000 I-1.6945 J-0.0681 F800.00
G2 X6.9408 Y13.4922 Z1.4000 I1.0519 J1.0628 F800.00
G2 X9.0592 Y13.4922 Z1.4000 I1.0592 J-1.0555 F800.00
G2 X8.7819 Y11.1458 Z1.4000 I-1.0794 J-1.0621 F800.00
G3 X8.2500 Y10.0000 Z1.4000 I0.9681 J-1.1458 F800.00
G1 X8.2500 Y0.0000 Z1.4000 F800.00
G3 X9.7500 Y-1.5000 Z1.4000 I1.5000 J0.0000 F800.00
G1 X16.0000 Y-1.5000 Z1.4000 F800.00
G3 X17.5000 Y0.0000 Z1.4000 I-0.0000 J1.5000 F800.00
G1 X17.5000 Y150.0000 Z1.4000 F800.00
G3 X17.0607 Y151.0607 Z1.4000 I-1.5000 J-0.0000 F800.00
G1 X17.0607 Y151.0607 Z1.1000 F799.80
G3 X16.0000 Y151.5000 Z1.1000 I-1.0607 J-1.0607 F800.00
G1 X9.7500 Y151.5000 Z1.1000 F800.00
G3 X8.2500 Y150.0000 Z1.1000 I0.0000 J-1.5000 F800.00
G1 X8.2500 Y140.0000 Z1.1000 F800.00
G3 X9.0519 Y138.6261 Z1.1000 I1.6945 J0.0681 F800.00
G2 X9.0592 Y136.5078 Z1.1000 I-1.0519 J-1.0628 F800.00
G2 X6.9408 Y136.5078 Z1.1000 I-1.0592 J1.0555 F800.00
G2 X7.2181 Y138.8542 Z1.1000 I1.0794 J1.0621 F800.00
G3 X7.7500 Y140.0000 Z1.1000 I-0.9681 J1.1458 F800.00
G1 X7.7500 Y150.0000 Z1.1000 F800.00
G3 X6.2500 Y151.5000 Z1.1000 I-1.5000 J-0.0000 F800.00
G1 X0.0000 Y151.5000 Z1.1000 F800.00
G3 X-1.5000 Y150.0000 Z1.1000 I0.0000 J-1.5000 F800.00
G1 X-1.5000 Y0.0000 Z1.1000 F800.00
G3 X-0.0000 Y-1.5000 Z1.1000 I1.5000 J0.0000 F800.00
G1 X6.2500 Y-1.5000 Z1.1000 F800.00
G3 X7.7500 Y0.0000 Z1.1000 I-0.0000 J1.5000 F800.00
G1 X7.7500 Y10.0000 Z1.1000 F800.00
G3 X6.9481 Y11.3739 Z1.1000 I-1.6945 J-0.0681 F800.00
G2 X6.9408 Y13.4922 Z1.1000 I1.0519 J1.0628 F800.00
G2 X9.0592 Y13.4922 Z1.1000 I1.0592 J-1.0555 F800.00
G2 X8.7819 Y11.1458 Z1.1000 I-1.0794 J-1.0621 F800.00
G3 X8.2500 Y10.0000 Z1.1000 I0.9681 J-1.1458 F800.00
G1 X8.2500 Y0.0000 Z1.1000 F800.00
G3 X9.7500 Y-1.5000 Z1.1000 I1.5000 J0.0000 F800.00
G1 X16.0000 Y-1.5000 Z1.1000 F800.00
G3 X17.5000 Y0.0000 Z1.1000 I-0.0000 J1.5000 F800.00
G1 X17.5000 Y150.0000 Z1.1000 F800.00
G3 X17.0607 Y151.0607 Z1.1000 I-1.5000 J-0.0000 F800.00
G1 X17.0607 Y151.0607 Z0.8000 F799.80
G3 X16.0000 Y151.5000 Z0.8000 I-1.0607 J-1.0607 F800.00
G1 X9.7500 Y151.5000 Z0.8000 F800.00
G3 X8.2500 Y150.0000 Z0.8000 I0.0000 J-1.5000 F800.00
G1 X8.2500 Y140.0000 Z0.8000 F800.00
G3 X9.0519 Y138.6261 Z0.8000 I1.6945 J0.0681 F800.00
G2 X9.0592 Y136.5078 Z0.8000 I-1.0519 J-1.0628 F800.00
G2 X6.9408 Y136.5078 Z0.8000 I-1.0592 J1.0555 F800.00
G2 X7.2181 Y138.8542 Z0.8000 I1.0794 J1.0621 F800.00
G3 X7.7500 Y140.0000 Z0.8000 I-0.9681 J1.1458 F800.00
G1 X7.7500 Y150.0000 Z0.8000 F800.00
G3 X6.2500 Y151.5000 Z0.8000 I-1.5000 J-0.0000 F800.00
G1 X0.0000 Y151.5000 Z0.8000 F800.00
G3 X-1.5000 Y150.0000 Z0.8000 I0.0000 J-1.5000 F800.00
G1 X-1.5000 Y0.0000 Z0.8000 F800.00
G3 X-0.0000 Y-1.5000 Z0.8000 I1.5000 J0.0000 F800.00
G1 X6.2500 Y-1.5000 Z0.8000 F800.00
G3 X7.7500 Y0.0000 Z0.8000 I-0.0000 J1.5000 F800.00
G1 X7.7500 Y10.0000 Z0.8000 F800.00
G3 X6.9481 Y11.3739 Z0.8000 I-1.6945 J-0.0681 F800.00
G2 X6.9408 Y13.4922 Z0.8000 I1.0519 J1.0628 F800.00
G2 X9.0592 Y13.4922 Z0.8000 I1.0592 J-1.0555 F800.00
G2 X8.7819 Y11.1458 Z0.8000 I-1.0794 J-1.0621 F800.00
G3 X8.2500 Y10.0000 Z0.8000 I0.9681 J-1.1458 F800.00
G1 X8.2500 Y0.0000 Z0.8000 F800.00
G3 X9.7500 Y-1.5000 Z0.8000 I1.5000 J0.0000 F800.00
G1 X16.0000 Y-1.5000 Z0.8000 F800.00
G3 X17.5000 Y0.0000 Z0.8000 I-0.0000 J1.5000 F800.00
G1 X17.5000 Y150.0000 Z0.8000 F800.00
G3 X17.0607 Y151.0607 Z0.8000 I-1.5000 J-0.0000 F800.00
G1 X17.0607 Y151.0607 Z0.5000 F799.80
G3 X16.0000 Y151.5000 Z0.5000 I-1.0607 J-1.0607 F800.00
G1 X9.7500 Y151.5000 Z0.5000 F800.00
G3 X8.2500 Y150.0000 Z0.5000 I0.0000 J-1.5000 F800.00
G1 X8.2500 Y140.0000 Z0.5000 F800.00
G3 X9.0519 Y138.6261 Z0.5000 I1.6945 J0.0681 F800.00
G2 X9.0592 Y136.5078 Z0.5000 I-1.0519 J-1.0628 F800.00
G2 X6.9408 Y136.5078 Z0.5000 I-1.0592 J1.0555 F800.00
G2 X7.2181 Y138.8542 Z0.5000 I1.0794 J1.0621 F800.00
G3 X7.7500 Y140.0000 Z0.5000 I-0.9681 J1.1458 F800.00
G1 X7.7500 Y150.0000 Z0.5000 F800.00
G3 X6.2500 Y151.5000 Z0.5000 I-1.5000 J-0.0000 F800.00
G1 X0.0000 Y151.5000 Z0.5000 F800.00
G3 X-1.5000 Y150.0000 Z0.5000 I0.0000 J-1.5000 F800.00
G1 X-1.5000 Y126.7920 Z0.5000 F800.00
G1 X-1.5000 Y126.6920 Z0.6000 F799.90
G1 X-1.5000 Y123.3080 Z0.6000 F800.00
G1 X-1.5000 Y123.2080 Z0.5000 F799.90
G1 X-1.5000 Y76.7920 Z0.5000 F800.00
G1 X-1.5000 Y76.6920 Z0.6000 F799.90
G1 X-1.5000 Y73.3080 Z0.6000 F800.00
G1 X-1.5000 Y73.2080 Z0.5000 F799.90
G1 X-1.5000 Y26.7920 Z0.5000 F800.00
G1 X-1.5000 Y26.6920 Z0.6000 F799.90
G1 X-1.5000 Y23.3080 Z0.6000 F800.00
G1 X-1.5000 Y23.2080 Z0.5000 F799.90
G1 X-1.5000 Y0.0000 Z0.5000 F800.00
G3 X-0.0000 Y-1.5000 Z0.5000 I1.5000 J0.0000 F800.00
G1 X6.2500 Y-1.5000 Z0.5000 F800.00
G3 X7.7500 Y0.0000 Z0.5000 I-0.0000 J1.5000 F800.00
G1 X7.7500 Y10.0000 Z0.5000 F800.00
G3 X6.9481 Y11.3739 Z0.5000 I-1.6945 J-0.0681 F800.00
G2 X6.9408 Y13.4922 Z0.5000 I1.0519 J1.0628 F800.00
G2 X9.0592 Y13.4922 Z0.5000 I1.0592 J-1.0555 F800.00
G2 X8.7819 Y11.1458 Z0.5000 I-1.0794 J-1.0621 F800.00
G3 X8.2500 Y10.0000 Z0.5000 I0.9681 J-1.1458 F800.00
G1 X8.2500 Y0.0000 Z0.5000 F800.00
G3 X9.7500 Y-1.5000 Z0.5000 I1.5000 J0.0000 F800.00
G1 X16.0000 Y-1.5000 Z0.5000 F800.00
G3 X17.5000 Y0.0000 Z0.5000 I-0.0000 J1.5000 F800.00
G1 X17.5000 Y23.2080 Z0.5000 F800.00
G1 X17.5000 Y23.3080 Z0.6000 F799.90
G1 X17.5000 Y26.6920 Z0.6000 F800.00
G1 X17.5000 Y26.7920 Z0.5000 F799.90
G1 X17.5000 Y73.2080 Z0.5000 F800.00
G1 X17.5000 Y73.3080 Z0.6000 F799.90
G1 X17.5000 Y76.6920 Z0.6000 F800.00
G1 X17.5000 Y76.7920 Z0.5000 F799.90
G1 X17.5000 Y123.2080 Z0.5000 F800.00
G1 X17.5000 Y123.3080 Z0.6000 F799.90
G1 X17.5000 Y126.6920 Z0.6000 F800.00
G1 X17.5000 Y126.7920 Z0.5000 F799.90
G1 X17.5000 Y150.0000 Z0.5000 F800.00
G3 X17.0607 Y151.0607 Z0.5000 I-1.5000 J-0.0000 F800.00
G1 X17.0607 Y151.0607 Z0.2000 F799.80
G3 X16.0000 Y151.5000 Z0.2000 I-1.0607 J-1.0607 F800.00
G1 X9.7500 Y151.5000 Z0.2000 F800.00
G3 X8.2500 Y150.0000 Z0.2000 I0.0000 J-1.5000 F800.00
G1 X8.2500 Y140.0000 Z0.2000 F800.00
G3 X9.0519 Y138.6261 Z0.2000 I1.6945 J0.0681 F800.00
G2 X9.0592 Y136.5078 Z0.2000 I-1.0519 J-1.0628 F800.00
G2 X6.9408 Y136.5078 Z0.2000 I-1.0592 J1.0555 F800.00
G2 X7.2181 Y138.8542 Z0.2000 I1.0794 J1.0621 F800.00
G3 X7.7500 Y140.0000 Z0.2000 I-0.9681 J1.1458 F800.00
G1 X7.7500 Y150.0000 Z0.2000 F800.00
G3 X6.2500 Y151.5000 Z0.2000 I-1.5000 J-0.0000 F800.00
G1 X0.0000 Y151.5000 Z0.2000 F800.00
G3 X-1.5000 Y150.0000 Z0.2000 I0.0000 J-1.5000 F800.00
G1 X-1.5000 Y127.0920 Z0.2000 F800.00
G1 X-1.5000 Y126.6920 Z0.6000 F799.90
G1 X-1.5000 Y123.3080 Z0.6000 F800.00
G1 X-1.5000 Y122.9080 Z0.2000 F799.90
G1 X-1.5000 Y77.0920 Z0.2000 F800.00
G1 X-1.5000 Y76.6920 Z0.6000 F799.90
G1 X-1.5000 Y73.3080 Z0.6000 F800.00
G1 X-1.5000 Y72.9080 Z0.2000 F799.90
G1 X-1.5000 Y27.0920 Z0.2000 F800.00
G1 X-1.5000 Y26.6920 Z0.6000 F799.90
G1 X-1.5000 Y23.3080 Z0.6000 F800.00
G1 X-1.5000 Y22.9080 Z0.2000 F799.90
G1 X-1.5000 Y0.0000 Z0.2000 F800.00
G3 X-0.0000 Y-1.5000 Z0.2000 I1.5000 J0.0000 F800.00
G1 X6.2500 Y-1.5000 Z0.2000 F800.00
G3 X7.7500 Y0.0000 Z0.2000 I-0.0000 J1.5000 F800.00
G1 X7.7500 Y10.0000 Z0.2000 F800.00
G3 X6.9481 Y11.3739 Z0.2000 I-1.6945 J-0.0681 F800.00
G2 X6.9408 Y13.4922 Z0.2000 I1.0519 J1.0628 F800.00
G2 X9.0592 Y13.4922 Z0.2000 I1.0592 J-1.0555 F800.00
G2 X8.7819 Y11.1458 Z0.2000 I-1.0794 J-1.0621 F800.00
G3 X8.2500 Y10.0000 Z0.2000 I0.9681 J-1.1458 F800.00
G1 X8.2500 Y0.0000 Z0.2000 F800.00
G3 X9.7500 Y-1.5000 Z0.2000 I1.5000 J0.0000 F800.00
G1 X16.0000 Y-1.5000 Z0.2000 F800.00
G3 X17.5000 Y0.0000 Z0.2000 I-0.0000 J1.5000 F800.00
G1 X17.5000 Y22.9080 Z0.2000 F800.00
G1 X17.5000 Y23.3080 Z0.6000 F799.90
G1 X17.5000 Y26.6920 Z0.6000 F800.00
G1 X17.5000 Y27.0920 Z0.2000 F799.90
G1 X17.5000 Y72.9080 Z0.2000 F800.00
G1 X17.5000 Y73.3080 Z0.6000 F799.90
G1 X17.5000 Y76.6920 Z0.6000 F800.00
G1 X17.5000 Y77.0920 Z0.2000 F799.90
G1 X17.5000 Y122.9080 Z0.2000 F800.00
G1 X17.5000 Y123.3080 Z0.6000 F799.90
G1 X17.5000 Y126.6920 Z0.6000 F800.00
G1 X17.5000 Y127.0920 Z0.2000 F799.90
G1 X17.5000 Y150.0000 Z0.2000 F800.00
G3 X17.0607 Y151.0607 Z0.2000 I-1.5000 J-0.0000 F800.00
G1 X17.0607 Y151.0607 Z-0.1000 F799.80
G3 X16.0000 Y151.5000 Z-0.1000 I-1.0607 J-1.0607 F800.00
G1 X9.7500 Y151.5000 Z-0.1000 F800.00
G3 X8.2500 Y150.0000 Z-0.1000 I0.0000 J-1.5000 F800.00
G1 X8.2500 Y140.0000 Z-0.1000 F800.00
G3 X9.0519 Y138.6261 Z-0.1000 I1.6945 J0.0681 F800.00
G2 X9.0592 Y136.5078 Z-0.1000 I-1.0519 J-1.0628 F800.00
G2 X6.9408 Y136.5078 Z-0.1000 I-1.0592 J1.0555 F800.00
G2 X7.2181 Y138.8542 Z-0.1000 I1.0794 J1.0621 F800.00
G3 X7.7500 Y140.0000 Z-0.1000 I-0.9681 J1.1458 F800.00
G1 X7.7500 Y150.0000 Z-0.1000 F800.00
G3 X6.2500 Y151.5000 Z-0.1000 I-1.5000 J-0.0000 F800.00
G1 X0.0000 Y151.5000 Z-0.1000 F800.00
G3 X-1.5000 Y150.0000 Z-0.1000 I0.0000 J-1.5000 F800.00
G1 X-1.5000 Y127.3920 Z-0.1000 F800.00
G1 X-1.5000 Y126.6920 Z0.6000 F799.90
G1 X-1.5000 Y123.3080 Z0.6000 F800.00
G1 X-1.5000 Y122.6080 Z-0.1000 F799.90
G1 X-1.5000 Y77.3920 Z-0.1000 F800.00
G1 X-1.5000 Y76.6920 Z0.6000 F799.90
G1 X-1.5000 Y73.3080 Z0.6000 F800.00
G1 X-1.5000 Y72.6080 Z-0.1000 F799.90
G1 X-1.5000 Y27.3920 Z-0.1000 F800.00
G1 X-1.5000 Y26.6920 Z0.6000 F799.90
G1 X-1.5000 Y23.3080 Z0.6000 F800.00
G1 X-1.5000 Y22.6080 Z-0.1000 F799.90
G1 X-1.5000 Y0.0000 Z-0.1000 F800.00
G3 X-0.0000 Y-1.5000 Z-0.1000 I1.5000 J0.0000 F800.00
G1 X6.2500 Y-1.5000 Z-0.1000 F800.00
G3 X7.7500 Y0.0000 Z-0.1000 I-0.0000 J1.5000 F800.00
G1 X7.7500 Y10.0000 Z-0.1000 F800.00
G3 X6.9481 Y11.3739 Z-0.1000 I-1.6945 J-0.0681 F800.00
G2 X6.9408 Y13.4922 Z-0.1000 I1.0519 J1.0628 F800.00
G2 X9.0592 Y13.4922 Z-0.1000 I1.0592 J-1.0555 F800.00
G2 X8.7819 Y11.1458 Z-0.1000 I-1.0794 J-1.0621 F800.00
G3 X8.2500 Y10.0000 Z-0.1000 I0.9681 J-1.1458 F800.00
G1 X8.2500 Y0.0000 Z-0.1000 F800.00
G3 X9.7500 Y-1.5000 Z-0.1000 I1.5000 J0.0000 F800.00
G1 X16.0000 Y-1.5000 Z-0.1000 F800.00
G3 X17.5000 Y0.0000 Z-0.1000 I-0.0000 J1.5000 F800.00
G1 X17.5000 Y22.6080 Z-0.1000 F800.00
G1 X17.5000 Y23.3080 Z0.6000 F799.90
G1 X17.5000 Y26.6920 Z0.6000 F800.00
G1 X17.5000 Y27.3920 Z-0.1000 F799.90
G1 X17.5000 Y72.6080 Z-0.1000 F800.00
G1 X17.5000 Y73.3080 Z0.6000 F799.90
G1 X17.5000 Y76.6920 Z0.6000 F800.00
G1 X17.5000 Y77.3920 Z-0.1000 F799.90
G1 X17.5000 Y122.6080 Z-0.1000 F800.00
G1 X17.5000 Y123.3080 Z0.6000 F799.90
G1 X17.5000 Y126.6920 Z0.6000 F800.00
G1 X17.5000 Y127.3920 Z-0.1000 F799.90
G1 X17.5000 Y150.0000 Z-0.1000 F800.00
G3 X17.0607 Y151.0607 Z-0.1000 I-1.5000 J-0.0000 F800.00
G1 X17.0607 Y151.0607 Z-0.2000 F799.80
G3 X16.0000 Y151.5000 Z-0.2000 I-1.0607 J-1.0607 F800.00
G1 X9.7500 Y151.5000 Z-0.2000 F800.00
G3 X8.2500 Y150.0000 Z-0.2000 I0.0000 J-1.5000 F800.00
G1 X8.2500 Y140.0000 Z-0.2000 F800.00
G3 X9.0519 Y138.6261 Z-0.2000 I1.6945 J0.0681 F800.00
G2 X9.0592 Y136.5078 Z-0.2000 I-1.0519 J-1.0628 F800.00
G2 X6.9408 Y136.5078 Z-0.2000 I-1.0592 J1.0555 F800.00
G2 X7.2181 Y138.8542 Z-0.2000 I1.0794 J1.0621 F800.00
G3 X7.7500 Y140.0000 Z-0.2000 I-0.9681 J1.1458 F800.00
G1 X7.7500 Y150.0000 Z-0.2000 F800.00
G3 X6.2500 Y151.5000 Z-0.2000 I-1.5000 J-0.0000 F800.00
G1 X0.0000 Y151.5000 Z-0.2000 F800.00
G3 X-1.5000 Y150.0000 Z-0.2000 I0.0000 J-1.5000 F800.00
G1 X-1.5000 Y127.4920 Z-0.2000 F800.00
G1 X-1.5000 Y126.6920 Z0.6000 F799.90
G1 X-1.5000 Y123.3080 Z0.6000 F800.00
G1 X-1.5000 Y122.5080 Z-0.2000 F799.90
G1 X-1.5000 Y77.4920 Z-0.2000 F800.00
G1 X-1.5000 Y76.6920 Z0.6000 F799.90
G1 X-1.5000 Y73.3080 Z0.6000 F800.00
G1 X-1.5000 Y72.5080 Z-0.2000 F799.90
G1 X-1.5000 Y27.4920 Z-0.2000 F800.00
G1 X-1.5000 Y26.6920 Z0.6000 F799.90
G1 X-1.5000 Y23.3080 Z0.6000 F800.00
G1 X-1.5000 Y22.5080 Z-0.2000 F799.90
G1 X-1.5000 Y0.0000 Z-0.2000 F800.00
G3 X-0.0000 Y-1.5000 Z-0.2000 I1.5000 J0.0000 F800.00
G1 X6.2500 Y-1.5000 Z-0.2000 F800.00
G3 X7.7500 Y0.0000 Z-0.2000 I-0.0000 J1.5000 F800.00
G1 X7.7500 Y10.0000 Z-0.2000 F800.00
G3 X6.9481 Y11.3739 Z-0.2000 I-1.6945 J-0.0681 F800.00
G2 X6.9408 Y13.4922 Z-0.2000 I1.0519 J1.0628 F800.00
G2 X9.0592 Y13.4922 Z-0.2000 I1.0592 J-1.0555 F800.00
G2 X8.7819 Y11.1458 Z-0.2000 I-1.0794 J-1.0621 F800.00
G3 X8.2500 Y10.0000 Z-0.2000 I0.9681 J-1.1458 F800.00
G1 X8.2500 Y0.0000 Z-0.2000 F800.00
G3 X9.7500 Y-1.5000 Z-0.2000 I1.5000 J0.0000 F800.00
G1 X16.0000 Y-1.5000 Z-0.2000 F800.00
G3 X17.5000 Y0.0000 Z-0.2000 I-0.0000 J1.5000 F800.00
G1 X17.5000 Y22.5080 Z-0.2000 F800.00
G1 X17.5000 Y23.3080 Z0.6000 F799.90
G1 X17.5000 Y26.6920 Z0.6000 F800.00
G1 X17.5000 Y27.4920 Z-0.2000 F799.90
G1 X17.5000 Y72.5080 Z-0.2000 F800.00
G1 X17.5000 Y73.3080 Z0.6000 F799.90
G1 X17.5000 Y76.6920 Z0.6000 F800.00
G1 X17.5000 Y77.4920 Z-0.2000 F799.90
G1 X17.5000 Y122.5080 Z-0.2000 F800.00
G1 X17.5000 Y123.3080 Z0.6000 F799.90
G1 X17.5000 Y126.6920 Z0.6000 F800.00
G1 X17.5000 Y127.4920 Z-0.2000 F799.90
G1 X17.5000 Y150.0000 Z-0.2000 F800.00
G3 X17.0607 Y151.0607 Z-0.2000 I-1.5000 J-0.0000 F800.00
G0 X17.0607 Y151.0607 Z8.0000
(finish operation: TagDressup)
(begin postamble)
M5
G17 G90
; M2
