(Exported by FreeCAD)
(Post Processor: grbl_post)
(Output Time:2020-05-16 15:48:09.734427)
(Begin preamble)
G17 G90
G21
(Begin operation: Fixture)
(Path: Fixture)
G54
(Finish operation: Fixture)
(Begin operation: T3: AluminiumMill)
(Path: T3: AluminiumMill)
(T3: AluminiumMill)
(Begin toolchange)
(M6 T3.0)
M3 S17000.0
(Finish operation: T3: AluminiumMill)
(Begin operation: Helix)
(Path: Helix)
(Helix)
(helix cut operation)
G0 Z13.000
G0 X1.500 Y-45.750
G0 Z15.000
G1 Z3.200 F399.600
G2 X-1.500 Y-45.750 Z2.957 I-1.500 J0.000 F1800.000
G2 X1.500 Y-45.750 Z2.714 I1.500 J0.000 F1800.000
G2 X-1.500 Y-45.750 Z2.471 I-1.500 J0.000 F1800.000
G2 X1.500 Y-45.750 Z2.229 I1.500 J0.000 F1800.000
G2 X-1.500 Y-45.750 Z1.986 I-1.500 J0.000 F1800.000
G2 X1.500 Y-45.750 Z1.743 I1.500 J0.000 F1800.000
G2 X-1.500 Y-45.750 Z1.500 I-1.500 J0.000 F1800.000
G2 X1.500 Y-45.750 Z1.257 I1.500 J0.000 F1800.000
G2 X-1.500 Y-45.750 Z1.014 I-1.500 J0.000 F1800.000
G2 X1.500 Y-45.750 Z0.771 I1.500 J0.000 F1800.000
G2 X-1.500 Y-45.750 Z0.529 I-1.500 J0.000 F1800.000
G2 X1.500 Y-45.750 Z0.286 I1.500 J0.000 F1800.000
G2 X-1.500 Y-45.750 Z0.043 I-1.500 J0.000 F1800.000
G2 X1.500 Y-45.750 Z-0.200 I1.500 J0.000 F1800.000
G2 X-1.500 Y-45.750 Z-0.200 I-1.500 J0.000 F1800.000
G2 X1.500 Y-45.750 Z-0.200 I1.500 J0.000 F1800.000
G0 Z15.000
G0 X47.250 Y-0.000
G0 Z15.000
G1 Z3.200 F399.600
G2 X44.250 Y-0.000 Z2.957 I-1.500 J0.000 F1800.000
G2 X47.250 Y-0.000 Z2.714 I1.500 J0.000 F1800.000
G2 X44.250 Y-0.000 Z2.471 I-1.500 J0.000 F1800.000
G2 X47.250 Y-0.000 Z2.229 I1.500 J0.000 F1800.000
G2 X44.250 Y-0.000 Z1.986 I-1.500 J0.000 F1800.000
G2 X47.250 Y-0.000 Z1.743 I1.500 J0.000 F1800.000
G2 X44.250 Y-0.000 Z1.500 I-1.500 J0.000 F1800.000
G2 X47.250 Y-0.000 Z1.257 I1.500 J0.000 F1800.000
G2 X44.250 Y-0.000 Z1.014 I-1.500 J0.000 F1800.000
G2 X47.250 Y-0.000 Z0.771 I1.500 J0.000 F1800.000
G2 X44.250 Y-0.000 Z0.529 I-1.500 J0.000 F1800.000
G2 X47.250 Y-0.000 Z0.286 I1.500 J0.000 F1800.000
G2 X44.250 Y-0.000 Z0.043 I-1.500 J0.000 F1800.000
G2 X47.250 Y-0.000 Z-0.200 I1.500 J0.000 F1800.000
G2 X44.250 Y-0.000 Z-0.200 I-1.500 J0.000 F1800.000
G2 X47.250 Y-0.000 Z-0.200 I1.500 J0.000 F1800.000
G0 Z15.000
G0 X1.500 Y45.750
G0 Z15.000
G1 Z3.200 F399.600
G2 X-1.500 Y45.750 Z2.957 I-1.500 J0.000 F1800.000
G2 X1.500 Y45.750 Z2.714 I1.500 J0.000 F1800.000
G2 X-1.500 Y45.750 Z2.471 I-1.500 J0.000 F1800.000
G2 X1.500 Y45.750 Z2.229 I1.500 J0.000 F1800.000
G2 X-1.500 Y45.750 Z1.986 I-1.500 J0.000 F1800.000
G2 X1.500 Y45.750 Z1.743 I1.500 J0.000 F1800.000
G2 X-1.500 Y45.750 Z1.500 I-1.500 J0.000 F1800.000
G2 X1.500 Y45.750 Z1.257 I1.500 J0.000 F1800.000
G2 X-1.500 Y45.750 Z1.014 I-1.500 J0.000 F1800.000
G2 X1.500 Y45.750 Z0.771 I1.500 J0.000 F1800.000
G2 X-1.500 Y45.750 Z0.529 I-1.500 J0.000 F1800.000
G2 X1.500 Y45.750 Z0.286 I1.500 J0.000 F1800.000
G2 X-1.500 Y45.750 Z0.043 I-1.500 J0.000 F1800.000
G2 X1.500 Y45.750 Z-0.200 I1.500 J0.000 F1800.000
G2 X-1.500 Y45.750 Z-0.200 I-1.500 J0.000 F1800.000
G2 X1.500 Y45.750 Z-0.200 I1.500 J0.000 F1800.000
G0 Z15.000
G0 X-44.250 Y0.000
G0 Z15.000
G1 Z3.200 F399.600
G2 X-47.250 Y0.000 Z2.957 I-1.500 J0.000 F1800.000
G2 X-44.250 Y0.000 Z2.714 I1.500 J0.000 F1800.000
G2 X-47.250 Y0.000 Z2.471 I-1.500 J0.000 F1800.000
G2 X-44.250 Y0.000 Z2.229 I1.500 J0.000 F1800.000
G2 X-47.250 Y0.000 Z1.986 I-1.500 J0.000 F1800.000
G2 X-44.250 Y0.000 Z1.743 I1.500 J0.000 F1800.000
G2 X-47.250 Y0.000 Z1.500 I-1.500 J0.000 F1800.000
G2 X-44.250 Y0.000 Z1.257 I1.500 J0.000 F1800.000
G2 X-47.250 Y0.000 Z1.014 I-1.500 J0.000 F1800.000
G2 X-44.250 Y0.000 Z0.771 I1.500 J0.000 F1800.000
G2 X-47.250 Y0.000 Z0.529 I-1.500 J0.000 F1800.000
G2 X-44.250 Y0.000 Z0.286 I1.500 J0.000 F1800.000
G2 X-47.250 Y0.000 Z0.043 I-1.500 J0.000 F1800.000
G2 X-44.250 Y0.000 Z-0.200 I1.500 J0.000 F1800.000
G2 X-47.250 Y0.000 Z-0.200 I-1.500 J0.000 F1800.000
G2 X-44.250 Y0.000 Z-0.200 I1.500 J0.000 F1800.000
G0 Z15.000
G0 Z13.000
(Finish operation: Helix)
(Begin operation: DressupTag)
(Path: DressupTag)
G0 Z15.000
G0 X20.506 Y20.506 Z13.000
G0 X20.506 Y20.506 Z15.000
G1 X20.506 Y20.506 Z2.700 F399.600
G2 X28.851 Y2.934 Z2.700 I-20.506 J-20.506 K0.000 F1800.000
G2 X-28.851 Y-2.934 Z2.700 I-28.851 J-2.934 K0.000 F1800.000
G2 X20.506 Y20.506 Z2.700 I28.851 J2.934 K0.000 F1800.000
G1 X20.506 Y20.506 Z2.200 F399.600
G2 X28.851 Y2.934 Z2.200 I-20.506 J-20.506 K0.000 F1800.000
G2 X-28.851 Y-2.934 Z2.200 I-28.851 J-2.934 K0.000 F1800.000
G2 X20.506 Y20.506 Z2.200 I28.851 J2.934 K0.000 F1800.000
G1 X20.506 Y20.506 Z1.700 F399.600
G2 X27.760 Y8.388 Z1.700 I-20.506 J-20.506 K0.000 F1800.000
G1 X27.789 Y8.292 Z1.800
G2 X28.659 Y4.431 Z1.800 I-27.789 J-8.292 K0.000 F1800.000
G1 X28.674 Y4.332 Z1.700
G2 X28.851 Y2.934 Z1.700 I-28.674 J-4.332 K0.000 F1800.000
G2 X19.485 Y-21.478 Z1.700 I-28.851 J-2.934 K0.000 F1800.000
G1 X19.411 Y-21.545 Z1.800
G2 X16.297 Y-23.987 Z1.800 I-19.411 J21.545 K0.000 F1800.000
G1 X16.214 Y-24.043 Z1.700
G2 X-16.668 Y-23.731 Z1.700 I-16.214 J24.043 K0.000 F1800.000
G1 X-16.750 Y-23.673 Z1.800
G2 X-19.817 Y-21.172 Z1.800 I16.750 J23.673 K0.000 F1800.000
G1 X-19.890 Y-21.104 Z1.700
G2 X-28.851 Y-2.934 Z1.700 I19.890 J21.104 K0.000 F1800.000
G2 X-23.731 Y16.668 Z1.700 I28.851 J2.934 K0.000 F1800.000
G1 X-23.673 Y16.750 Z1.800
G2 X-21.172 Y19.817 Z1.800 I23.673 J-16.750 K0.000 F1800.000
G1 X-21.104 Y19.890 Z1.700
G2 X20.506 Y20.506 Z1.700 I21.104 J-19.890 K0.000 F1800.000
G1 X20.506 Y20.506 Z1.200 F399.600
G2 X27.611 Y8.865 Z1.200 I-20.506 J-20.506 K0.000 F1800.000
G1 X27.789 Y8.292 Z1.800
G2 X28.659 Y4.431 Z1.800 I-27.789 J-8.292 K0.000 F1800.000
G1 X28.745 Y3.837 Z1.200
G2 X28.851 Y2.934 Z1.200 I-28.745 J-3.837 K0.000 F1800.000
G2 X19.853 Y-21.138 Z1.200 I-28.851 J-2.934 K0.000 F1800.000
G1 X19.411 Y-21.545 Z1.800
G2 X16.297 Y-23.987 Z1.800 I-19.411 J21.545 K0.000 F1800.000
G1 X15.797 Y-24.319 Z1.200
G2 X-16.256 Y-24.015 Z1.200 I-15.797 J24.319 K0.000 F1800.000
G1 X-16.750 Y-23.673 Z1.800
G2 X-19.817 Y-21.172 Z1.800 I16.750 J23.673 K0.000 F1800.000
G1 X-20.251 Y-20.757 Z1.200
G2 X-28.851 Y-2.934 Z1.200 I20.251 J20.757 K0.000 F1800.000
G2 X-24.015 Y16.256 Z1.200 I28.851 J2.934 K0.000 F1800.000
G1 X-23.673 Y16.750 Z1.800
G2 X-21.172 Y19.817 Z1.800 I23.673 J-16.750 K0.000 F1800.000
G1 X-20.757 Y20.251 Z1.200
G2 X20.506 Y20.506 Z1.200 I20.757 J-20.251 K0.000 F1800.000
G1 X20.506 Y20.506 Z0.700 F399.600
G2 X27.454 Y9.341 Z0.700 I-20.506 J-20.506 K0.000 F1800.000
G1 X27.789 Y8.292 Z1.800
G2 X28.659 Y4.431 Z1.800 I-27.789 J-8.292 K0.000 F1800.000
G1 X28.807 Y3.340 Z0.700
G2 X28.851 Y2.934 Z0.700 I-28.807 J-3.340 K0.000 F1800.000
G2 X20.215 Y-20.793 Z0.700 I-28.851 J-2.934 K0.000 F1800.000
G1 X19.411 Y-21.545 Z1.800
G2 X16.297 Y-23.987 Z1.800 I-19.411 J21.545 K0.000 F1800.000
G1 X15.375 Y-24.589 Z0.700
G2 X-15.839 Y-24.292 Z0.700 I-15.375 J24.589 K0.000 F1800.000
G1 X-16.750 Y-23.673 Z1.800
G2 X-19.817 Y-21.172 Z1.800 I16.750 J23.673 K0.000 F1800.000
G1 X-20.606 Y-20.405 Z0.700
G2 X-28.851 Y-2.934 Z0.700 I20.606 J20.405 K0.000 F1800.000
G2 X-24.292 Y15.839 Z0.700 I28.851 J2.934 K0.000 F1800.000
G1 X-23.673 Y16.750 Z1.800
G2 X-21.172 Y19.817 Z1.800 I23.673 J-16.750 K0.000 F1800.000
G1 X-20.405 Y20.606 Z0.700
G2 X20.506 Y20.506 Z0.700 I20.405 J-20.606 K0.000 F1800.000
G1 X20.506 Y20.506 Z0.200 F399.600
G2 X27.289 Y9.813 Z0.200 I-20.506 J-20.506 K0.000 F1800.000
G1 X27.789 Y8.292 Z1.800
G2 X28.659 Y4.431 Z1.800 I-27.789 J-8.292 K0.000 F1800.000
G1 X28.851 Y2.934 Z0.292
G1 X28.860 Y2.842 Z0.200
G2 X20.571 Y-20.440 Z0.200 I-28.860 J-2.842 K0.000 F1800.000
G1 X19.411 Y-21.545 Z1.800
G2 X16.297 Y-23.987 Z1.800 I-19.411 J21.545 K0.000 F1800.000
G1 X14.948 Y-24.850 Z0.200
G2 X-15.417 Y-24.562 Z0.200 I-14.948 J24.850 K0.000 F1800.000
G1 X-16.750 Y-23.673 Z1.800
G2 X-19.817 Y-21.172 Z1.800 I16.750 J23.673 K0.000 F1800.000
G1 X-20.956 Y-20.046 Z0.200
G2 X-28.851 Y-2.934 Z0.200 I20.956 J20.046 K0.000 F1800.000
G2 X-24.562 Y15.417 Z0.200 I28.851 J2.934 K0.000 F1800.000
G1 X-23.673 Y16.750 Z1.800
G2 X-21.172 Y19.817 Z1.800 I23.673 J-16.750 K0.000 F1800.000
G1 X-20.046 Y20.956 Z0.200
G2 X20.506 Y20.506 Z0.200 I20.046 J-20.956 K0.000 F1800.000
G1 X20.506 Y20.506 Z-0.200 F399.600
G2 X27.150 Y10.190 Z-0.200 I-20.506 J-20.506 K0.000 F1800.000
G1 X27.789 Y8.292 Z1.800
G2 X28.659 Y4.431 Z1.800 I-27.789 J-8.292 K0.000 F1800.000
G1 X28.851 Y2.934 Z0.292
G1 X28.896 Y2.443 Z-0.200
G2 X20.852 Y-20.154 Z-0.200 I-28.896 J-2.443 K0.000 F1800.000
G1 X19.411 Y-21.545 Z1.800
G2 X16.297 Y-23.987 Z1.800 I-19.411 J21.545 K0.000 F1800.000
G1 X14.603 Y-25.055 Z-0.200
G2 X-15.076 Y-24.773 Z-0.200 I-14.603 J25.055 K0.000 F1800.000
G1 X-16.750 Y-23.673 Z1.800
G2 X-19.817 Y-21.172 Z1.800 I16.750 J23.673 K0.000 F1800.000
G1 X-21.231 Y-19.754 Z-0.200
G2 X-28.851 Y-2.934 Z-0.200 I21.231 J19.754 K0.000 F1800.000
G2 X-24.773 Y15.076 Z-0.200 I28.851 J2.934 K0.000 F1800.000
G1 X-23.673 Y16.750 Z1.800
G2 X-21.172 Y19.817 Z1.800 I23.673 J-16.750 K0.000 F1800.000
G1 X-19.754 Y21.231 Z-0.200
G2 X20.506 Y20.506 Z-0.200 I19.754 J-21.231 K0.000 F1800.000
G0 X20.506 Y20.506 Z13.000
(Finish operation: DressupTag)
(Begin postamble)
M5
G17 G90
M2
