(Exported by FreeCAD)
(Post Processor: grbl_post)
(Output Time:2020-03-30 20:33:37.006615)
(begin preamble)
G17 G90
G21
(begin operation: T6: 2FluteWoodMill003)
(Path: T6: 2FluteWoodMill003)
(T6: 2FluteWoodMill003)
(begin toolchange)
; M6 T6
M3 S12000.0000
(finish operation: T6: 2FluteWoodMill003)
(begin operation: Contour003)
(Path: Contour003)
(Contour003)
(Compensated Tool Path. Diameter: 3.0)
G0 Z23.0000
G0 X325.0607 Y138.0607
G0 Z21.0000
G1 X325.0607 Y138.0607 Z17.6000 F999.60
G3 X324.0000 Y138.5000 Z17.6000 I-1.0607 J-1.0607 F1999.80
G1 X0.0000 Y138.5000 Z17.6000 F1999.80
G3 X-1.5000 Y137.0000 Z17.6000 I0.0000 J-1.5000 F1999.80
G1 X-1.5000 Y0.0000 Z17.6000 F1999.80
G3 X0.0000 Y-1.5000 Z17.6000 I1.5000 J0.0000 F1999.80
G1 X50.0000 Y-1.5000 Z17.6000 F1999.80
G3 X51.4465 Y-0.3969 Z17.6000 I-0.0000 J1.5000 F1999.80
G1 X65.2247 Y49.8188 Z17.6000 F1999.80
G2 X112.0148 Y85.5000 Z17.6000 I46.7762 J-12.8200 F1999.80
G1 X211.9852 Y85.5000 Z17.6000 F1999.80
G2 X258.7753 Y49.8188 Z17.6000 I0.0139 J-48.5011 F1999.80
G1 X272.5535 Y-0.3969 Z17.6000 F1999.80
G3 X274.0000 Y-1.5000 Z17.6000 I1.4465 J0.3969 F1999.80
G1 X324.0000 Y-1.5000 Z17.6000 F1999.80
G3 X325.5000 Y0.0000 Z17.6000 I-0.0000 J1.5000 F1999.80
G1 X325.5000 Y137.0000 Z17.6000 F1999.80
G3 X325.0607 Y138.0607 Z17.6000 I-1.5000 J-0.0000 F1999.80
G1 X325.0607 Y138.0607 Z17.2000 F999.60
G3 X324.0000 Y138.5000 Z17.2000 I-1.0607 J-1.0607 F1999.80
G1 X0.0000 Y138.5000 Z17.2000 F1999.80
G3 X-1.5000 Y137.0000 Z17.2000 I0.0000 J-1.5000 F1999.80
G1 X-1.5000 Y0.0000 Z17.2000 F1999.80
G3 X0.0000 Y-1.5000 Z17.2000 I1.5000 J0.0000 F1999.80
G1 X50.0000 Y-1.5000 Z17.2000 F1999.80
G3 X51.4465 Y-0.3969 Z17.2000 I-0.0000 J1.5000 F1999.80
G1 X65.2247 Y49.8188 Z17.2000 F1999.80
G2 X112.0148 Y85.5000 Z17.2000 I46.7762 J-12.8200 F1999.80
G1 X211.9852 Y85.5000 Z17.2000 F1999.80
G2 X258.7753 Y49.8188 Z17.2000 I0.0139 J-48.5011 F1999.80
G1 X272.5535 Y-0.3969 Z17.2000 F1999.80
G3 X274.0000 Y-1.5000 Z17.2000 I1.4465 J0.3969 F1999.80
G1 X324.0000 Y-1.5000 Z17.2000 F1999.80
G3 X325.5000 Y0.0000 Z17.2000 I-0.0000 J1.5000 F1999.80
G1 X325.5000 Y137.0000 Z17.2000 F1999.80
G3 X325.0607 Y138.0607 Z17.2000 I-1.5000 J-0.0000 F1999.80
G1 X325.0607 Y138.0607 Z16.8000 F999.60
G3 X324.0000 Y138.5000 Z16.8000 I-1.0607 J-1.0607 F1999.80
G1 X0.0000 Y138.5000 Z16.8000 F1999.80
G3 X-1.5000 Y137.0000 Z16.8000 I0.0000 J-1.5000 F1999.80
G1 X-1.5000 Y0.0000 Z16.8000 F1999.80
G3 X0.0000 Y-1.5000 Z16.8000 I1.5000 J0.0000 F1999.80
G1 X50.0000 Y-1.5000 Z16.8000 F1999.80
G3 X51.4465 Y-0.3969 Z16.8000 I-0.0000 J1.5000 F1999.80
G1 X65.2247 Y49.8188 Z16.8000 F1999.80
G2 X112.0148 Y85.5000 Z16.8000 I46.7762 J-12.8200 F1999.80
G1 X211.9852 Y85.5000 Z16.8000 F1999.80
G2 X258.7753 Y49.8188 Z16.8000 I0.0139 J-48.5011 F1999.80
G1 X272.5535 Y-0.3969 Z16.8000 F1999.80
G3 X274.0000 Y-1.5000 Z16.8000 I1.4465 J0.3969 F1999.80
G1 X324.0000 Y-1.5000 Z16.8000 F1999.80
G3 X325.5000 Y0.0000 Z16.8000 I-0.0000 J1.5000 F1999.80
G1 X325.5000 Y137.0000 Z16.8000 F1999.80
G3 X325.0607 Y138.0607 Z16.8000 I-1.5000 J-0.0000 F1999.80
G1 X325.0607 Y138.0607 Z16.4000 F999.60
G3 X324.0000 Y138.5000 Z16.4000 I-1.0607 J-1.0607 F1999.80
G1 X0.0000 Y138.5000 Z16.4000 F1999.80
G3 X-1.5000 Y137.0000 Z16.4000 I0.0000 J-1.5000 F1999.80
G1 X-1.5000 Y0.0000 Z16.4000 F1999.80
G3 X0.0000 Y-1.5000 Z16.4000 I1.5000 J0.0000 F1999.80
G1 X50.0000 Y-1.5000 Z16.4000 F1999.80
G3 X51.4465 Y-0.3969 Z16.4000 I-0.0000 J1.5000 F1999.80
G1 X65.2247 Y49.8188 Z16.4000 F1999.80
G2 X112.0148 Y85.5000 Z16.4000 I46.7762 J-12.8200 F1999.80
G1 X211.9852 Y85.5000 Z16.4000 F1999.80
G2 X258.7753 Y49.8188 Z16.4000 I0.0139 J-48.5011 F1999.80
G1 X272.5535 Y-0.3969 Z16.4000 F1999.80
G3 X274.0000 Y-1.5000 Z16.4000 I1.4465 J0.3969 F1999.80
G1 X324.0000 Y-1.5000 Z16.4000 F1999.80
G3 X325.5000 Y0.0000 Z16.4000 I-0.0000 J1.5000 F1999.80
G1 X325.5000 Y137.0000 Z16.4000 F1999.80
G3 X325.0607 Y138.0607 Z16.4000 I-1.5000 J-0.0000 F1999.80
G1 X325.0607 Y138.0607 Z16.0000 F999.60
G3 X324.0000 Y138.5000 Z16.0000 I-1.0607 J-1.0607 F1999.80
G1 X0.0000 Y138.5000 Z16.0000 F1999.80
G3 X-1.5000 Y137.0000 Z16.0000 I0.0000 J-1.5000 F1999.80
G1 X-1.5000 Y0.0000 Z16.0000 F1999.80
G3 X0.0000 Y-1.5000 Z16.0000 I1.5000 J0.0000 F1999.80
G1 X50.0000 Y-1.5000 Z16.0000 F1999.80
G3 X51.4465 Y-0.3969 Z16.0000 I-0.0000 J1.5000 F1999.80
G1 X65.2247 Y49.8188 Z16.0000 F1999.80
G2 X112.0148 Y85.5000 Z16.0000 I46.7762 J-12.8200 F1999.80
G1 X211.9852 Y85.5000 Z16.0000 F1999.80
G2 X258.7753 Y49.8188 Z16.0000 I0.0139 J-48.5011 F1999.80
G1 X272.5535 Y-0.3969 Z16.0000 F1999.80
G3 X274.0000 Y-1.5000 Z16.0000 I1.4465 J0.3969 F1999.80
G1 X324.0000 Y-1.5000 Z16.0000 F1999.80
G3 X325.5000 Y0.0000 Z16.0000 I-0.0000 J1.5000 F1999.80
G1 X325.5000 Y137.0000 Z16.0000 F1999.80
G3 X325.0607 Y138.0607 Z16.0000 I-1.5000 J-0.0000 F1999.80
G1 X325.0607 Y138.0607 Z15.6000 F999.60
G3 X324.0000 Y138.5000 Z15.6000 I-1.0607 J-1.0607 F1999.80
G1 X0.0000 Y138.5000 Z15.6000 F1999.80
G3 X-1.5000 Y137.0000 Z15.6000 I0.0000 J-1.5000 F1999.80
G1 X-1.5000 Y0.0000 Z15.6000 F1999.80
G3 X0.0000 Y-1.5000 Z15.6000 I1.5000 J0.0000 F1999.80
G1 X50.0000 Y-1.5000 Z15.6000 F1999.80
G3 X51.4465 Y-0.3969 Z15.6000 I-0.0000 J1.5000 F1999.80
G1 X65.2247 Y49.8188 Z15.6000 F1999.80
G2 X112.0148 Y85.5000 Z15.6000 I46.7762 J-12.8200 F1999.80
G1 X211.9852 Y85.5000 Z15.6000 F1999.80
G2 X258.7753 Y49.8188 Z15.6000 I0.0139 J-48.5011 F1999.80
G1 X272.5535 Y-0.3969 Z15.6000 F1999.80
G3 X274.0000 Y-1.5000 Z15.6000 I1.4465 J0.3969 F1999.80
G1 X324.0000 Y-1.5000 Z15.6000 F1999.80
G3 X325.5000 Y0.0000 Z15.6000 I-0.0000 J1.5000 F1999.80
G1 X325.5000 Y137.0000 Z15.6000 F1999.80
G3 X325.0607 Y138.0607 Z15.6000 I-1.5000 J-0.0000 F1999.80
G1 X325.0607 Y138.0607 Z15.2000 F999.60
G3 X324.0000 Y138.5000 Z15.2000 I-1.0607 J-1.0607 F1999.80
G1 X0.0000 Y138.5000 Z15.2000 F1999.80
G3 X-1.5000 Y137.0000 Z15.2000 I0.0000 J-1.5000 F1999.80
G1 X-1.5000 Y0.0000 Z15.2000 F1999.80
G3 X0.0000 Y-1.5000 Z15.2000 I1.5000 J0.0000 F1999.80
G1 X50.0000 Y-1.5000 Z15.2000 F1999.80
G3 X51.4465 Y-0.3969 Z15.2000 I-0.0000 J1.5000 F1999.80
G1 X65.2247 Y49.8188 Z15.2000 F1999.80
G2 X112.0148 Y85.5000 Z15.2000 I46.7762 J-12.8200 F1999.80
G1 X211.9852 Y85.5000 Z15.2000 F1999.80
G2 X258.7753 Y49.8188 Z15.2000 I0.0139 J-48.5011 F1999.80
G1 X272.5535 Y-0.3969 Z15.2000 F1999.80
G3 X274.0000 Y-1.5000 Z15.2000 I1.4465 J0.3969 F1999.80
G1 X324.0000 Y-1.5000 Z15.2000 F1999.80
G3 X325.5000 Y0.0000 Z15.2000 I-0.0000 J1.5000 F1999.80
G1 X325.5000 Y137.0000 Z15.2000 F1999.80
G3 X325.0607 Y138.0607 Z15.2000 I-1.5000 J-0.0000 F1999.80
G1 X325.0607 Y138.0607 Z14.8000 F999.60
G3 X324.0000 Y138.5000 Z14.8000 I-1.0607 J-1.0607 F1999.80
G1 X0.0000 Y138.5000 Z14.8000 F1999.80
G3 X-1.5000 Y137.0000 Z14.8000 I0.0000 J-1.5000 F1999.80
G1 X-1.5000 Y0.0000 Z14.8000 F1999.80
G3 X0.0000 Y-1.5000 Z14.8000 I1.5000 J0.0000 F1999.80
G1 X50.0000 Y-1.5000 Z14.8000 F1999.80
G3 X51.4465 Y-0.3969 Z14.8000 I-0.0000 J1.5000 F1999.80
G1 X65.2247 Y49.8188 Z14.8000 F1999.80
G2 X112.0148 Y85.5000 Z14.8000 I46.7762 J-12.8200 F1999.80
G1 X211.9852 Y85.5000 Z14.8000 F1999.80
G2 X258.7753 Y49.8188 Z14.8000 I0.0139 J-48.5011 F1999.80
G1 X272.5535 Y-0.3969 Z14.8000 F1999.80
G3 X274.0000 Y-1.5000 Z14.8000 I1.4465 J0.3969 F1999.80
G1 X324.0000 Y-1.5000 Z14.8000 F1999.80
G3 X325.5000 Y0.0000 Z14.8000 I-0.0000 J1.5000 F1999.80
G1 X325.5000 Y137.0000 Z14.8000 F1999.80
G3 X325.0607 Y138.0607 Z14.8000 I-1.5000 J-0.0000 F1999.80
G1 X325.0607 Y138.0607 Z14.4000 F999.60
G3 X324.0000 Y138.5000 Z14.4000 I-1.0607 J-1.0607 F1999.80
G1 X0.0000 Y138.5000 Z14.4000 F1999.80
G3 X-1.5000 Y137.0000 Z14.4000 I0.0000 J-1.5000 F1999.80
G1 X-1.5000 Y0.0000 Z14.4000 F1999.80
G3 X0.0000 Y-1.5000 Z14.4000 I1.5000 J0.0000 F1999.80
G1 X50.0000 Y-1.5000 Z14.4000 F1999.80
G3 X51.4465 Y-0.3969 Z14.4000 I-0.0000 J1.5000 F1999.80
G1 X65.2247 Y49.8188 Z14.4000 F1999.80
G2 X112.0148 Y85.5000 Z14.4000 I46.7762 J-12.8200 F1999.80
G1 X211.9852 Y85.5000 Z14.4000 F1999.80
G2 X258.7753 Y49.8188 Z14.4000 I0.0139 J-48.5011 F1999.80
G1 X272.5535 Y-0.3969 Z14.4000 F1999.80
G3 X274.0000 Y-1.5000 Z14.4000 I1.4465 J0.3969 F1999.80
G1 X324.0000 Y-1.5000 Z14.4000 F1999.80
G3 X325.5000 Y0.0000 Z14.4000 I-0.0000 J1.5000 F1999.80
G1 X325.5000 Y137.0000 Z14.4000 F1999.80
G3 X325.0607 Y138.0607 Z14.4000 I-1.5000 J-0.0000 F1999.80
G1 X325.0607 Y138.0607 Z14.0000 F999.60
G3 X324.0000 Y138.5000 Z14.0000 I-1.0607 J-1.0607 F1999.80
G1 X0.0000 Y138.5000 Z14.0000 F1999.80
G3 X-1.5000 Y137.0000 Z14.0000 I0.0000 J-1.5000 F1999.80
G1 X-1.5000 Y0.0000 Z14.0000 F1999.80
G3 X0.0000 Y-1.5000 Z14.0000 I1.5000 J0.0000 F1999.80
G1 X50.0000 Y-1.5000 Z14.0000 F1999.80
G3 X51.4465 Y-0.3969 Z14.0000 I-0.0000 J1.5000 F1999.80
G1 X65.2247 Y49.8188 Z14.0000 F1999.80
G2 X112.0148 Y85.5000 Z14.0000 I46.7762 J-12.8200 F1999.80
G1 X211.9852 Y85.5000 Z14.0000 F1999.80
G2 X258.7753 Y49.8188 Z14.0000 I0.0139 J-48.5011 F1999.80
G1 X272.5535 Y-0.3969 Z14.0000 F1999.80
G3 X274.0000 Y-1.5000 Z14.0000 I1.4465 J0.3969 F1999.80
G1 X324.0000 Y-1.5000 Z14.0000 F1999.80
G3 X325.5000 Y0.0000 Z14.0000 I-0.0000 J1.5000 F1999.80
G1 X325.5000 Y137.0000 Z14.0000 F1999.80
G3 X325.0607 Y138.0607 Z14.0000 I-1.5000 J-0.0000 F1999.80
G1 X325.0607 Y138.0607 Z13.6000 F999.60
G3 X324.0000 Y138.5000 Z13.6000 I-1.0607 J-1.0607 F1999.80
G1 X0.0000 Y138.5000 Z13.6000 F1999.80
G3 X-1.5000 Y137.0000 Z13.6000 I0.0000 J-1.5000 F1999.80
G1 X-1.5000 Y0.0000 Z13.6000 F1999.80
G3 X0.0000 Y-1.5000 Z13.6000 I1.5000 J0.0000 F1999.80
G1 X50.0000 Y-1.5000 Z13.6000 F1999.80
G3 X51.4465 Y-0.3969 Z13.6000 I-0.0000 J1.5000 F1999.80
G1 X65.2247 Y49.8188 Z13.6000 F1999.80
G2 X112.0148 Y85.5000 Z13.6000 I46.7762 J-12.8200 F1999.80
G1 X211.9852 Y85.5000 Z13.6000 F1999.80
G2 X258.7753 Y49.8188 Z13.6000 I0.0139 J-48.5011 F1999.80
G1 X272.5535 Y-0.3969 Z13.6000 F1999.80
G3 X274.0000 Y-1.5000 Z13.6000 I1.4465 J0.3969 F1999.80
G1 X324.0000 Y-1.5000 Z13.6000 F1999.80
G3 X325.5000 Y0.0000 Z13.6000 I-0.0000 J1.5000 F1999.80
G1 X325.5000 Y137.0000 Z13.6000 F1999.80
G3 X325.0607 Y138.0607 Z13.6000 I-1.5000 J-0.0000 F1999.80
G1 X325.0607 Y138.0607 Z13.2000 F999.60
G3 X324.0000 Y138.5000 Z13.2000 I-1.0607 J-1.0607 F1999.80
G1 X0.0000 Y138.5000 Z13.2000 F1999.80
G3 X-1.5000 Y137.0000 Z13.2000 I0.0000 J-1.5000 F1999.80
G1 X-1.5000 Y0.0000 Z13.2000 F1999.80
G3 X0.0000 Y-1.5000 Z13.2000 I1.5000 J0.0000 F1999.80
G1 X50.0000 Y-1.5000 Z13.2000 F1999.80
G3 X51.4465 Y-0.3969 Z13.2000 I-0.0000 J1.5000 F1999.80
G1 X65.2247 Y49.8188 Z13.2000 F1999.80
G2 X112.0148 Y85.5000 Z13.2000 I46.7762 J-12.8200 F1999.80
G1 X211.9852 Y85.5000 Z13.2000 F1999.80
G2 X258.7753 Y49.8188 Z13.2000 I0.0139 J-48.5011 F1999.80
G1 X272.5535 Y-0.3969 Z13.2000 F1999.80
G3 X274.0000 Y-1.5000 Z13.2000 I1.4465 J0.3969 F1999.80
G1 X324.0000 Y-1.5000 Z13.2000 F1999.80
G3 X325.5000 Y0.0000 Z13.2000 I-0.0000 J1.5000 F1999.80
G1 X325.5000 Y137.0000 Z13.2000 F1999.80
G3 X325.0607 Y138.0607 Z13.2000 I-1.5000 J-0.0000 F1999.80
G1 X325.0607 Y138.0607 Z12.8000 F999.60
G3 X324.0000 Y138.5000 Z12.8000 I-1.0607 J-1.0607 F1999.80
G1 X0.0000 Y138.5000 Z12.8000 F1999.80
G3 X-1.5000 Y137.0000 Z12.8000 I0.0000 J-1.5000 F1999.80
G1 X-1.5000 Y0.0000 Z12.8000 F1999.80
G3 X0.0000 Y-1.5000 Z12.8000 I1.5000 J0.0000 F1999.80
G1 X50.0000 Y-1.5000 Z12.8000 F1999.80
G3 X51.4465 Y-0.3969 Z12.8000 I-0.0000 J1.5000 F1999.80
G1 X65.2247 Y49.8188 Z12.8000 F1999.80
G2 X112.0148 Y85.5000 Z12.8000 I46.7762 J-12.8200 F1999.80
G1 X211.9852 Y85.5000 Z12.8000 F1999.80
G2 X258.7753 Y49.8188 Z12.8000 I0.0139 J-48.5011 F1999.80
G1 X272.5535 Y-0.3969 Z12.8000 F1999.80
G3 X274.0000 Y-1.5000 Z12.8000 I1.4465 J0.3969 F1999.80
G1 X324.0000 Y-1.5000 Z12.8000 F1999.80
G3 X325.5000 Y0.0000 Z12.8000 I-0.0000 J1.5000 F1999.80
G1 X325.5000 Y137.0000 Z12.8000 F1999.80
G3 X325.0607 Y138.0607 Z12.8000 I-1.5000 J-0.0000 F1999.80
G1 X325.0607 Y138.0607 Z12.4000 F999.60
G3 X324.0000 Y138.5000 Z12.4000 I-1.0607 J-1.0607 F1999.80
G1 X0.0000 Y138.5000 Z12.4000 F1999.80
G3 X-1.5000 Y137.0000 Z12.4000 I0.0000 J-1.5000 F1999.80
G1 X-1.5000 Y0.0000 Z12.4000 F1999.80
G3 X0.0000 Y-1.5000 Z12.4000 I1.5000 J0.0000 F1999.80
G1 X50.0000 Y-1.5000 Z12.4000 F1999.80
G3 X51.4465 Y-0.3969 Z12.4000 I-0.0000 J1.5000 F1999.80
G1 X65.2247 Y49.8188 Z12.4000 F1999.80
G2 X112.0148 Y85.5000 Z12.4000 I46.7762 J-12.8200 F1999.80
G1 X211.9852 Y85.5000 Z12.4000 F1999.80
G2 X258.7753 Y49.8188 Z12.4000 I0.0139 J-48.5011 F1999.80
G1 X272.5535 Y-0.3969 Z12.4000 F1999.80
G3 X274.0000 Y-1.5000 Z12.4000 I1.4465 J0.3969 F1999.80
G1 X324.0000 Y-1.5000 Z12.4000 F1999.80
G3 X325.5000 Y0.0000 Z12.4000 I-0.0000 J1.5000 F1999.80
G1 X325.5000 Y137.0000 Z12.4000 F1999.80
G3 X325.0607 Y138.0607 Z12.4000 I-1.5000 J-0.0000 F1999.80
G1 X325.0607 Y138.0607 Z12.0000 F999.60
G3 X324.0000 Y138.5000 Z12.0000 I-1.0607 J-1.0607 F1999.80
G1 X0.0000 Y138.5000 Z12.0000 F1999.80
G3 X-1.5000 Y137.0000 Z12.0000 I0.0000 J-1.5000 F1999.80
G1 X-1.5000 Y0.0000 Z12.0000 F1999.80
G3 X0.0000 Y-1.5000 Z12.0000 I1.5000 J0.0000 F1999.80
G1 X50.0000 Y-1.5000 Z12.0000 F1999.80
G3 X51.4465 Y-0.3969 Z12.0000 I-0.0000 J1.5000 F1999.80
G1 X65.2247 Y49.8188 Z12.0000 F1999.80
G2 X112.0148 Y85.5000 Z12.0000 I46.7762 J-12.8200 F1999.80
G1 X211.9852 Y85.5000 Z12.0000 F1999.80
G2 X258.7753 Y49.8188 Z12.0000 I0.0139 J-48.5011 F1999.80
G1 X272.5535 Y-0.3969 Z12.0000 F1999.80
G3 X274.0000 Y-1.5000 Z12.0000 I1.4465 J0.3969 F1999.80
G1 X324.0000 Y-1.5000 Z12.0000 F1999.80
G3 X325.5000 Y0.0000 Z12.0000 I-0.0000 J1.5000 F1999.80
G1 X325.5000 Y137.0000 Z12.0000 F1999.80
G3 X325.0607 Y138.0607 Z12.0000 I-1.5000 J-0.0000 F1999.80
G1 X325.0607 Y138.0607 Z11.6000 F999.60
G3 X324.0000 Y138.5000 Z11.6000 I-1.0607 J-1.0607 F1999.80
G1 X0.0000 Y138.5000 Z11.6000 F1999.80
G3 X-1.5000 Y137.0000 Z11.6000 I0.0000 J-1.5000 F1999.80
G1 X-1.5000 Y0.0000 Z11.6000 F1999.80
G3 X0.0000 Y-1.5000 Z11.6000 I1.5000 J0.0000 F1999.80
G1 X50.0000 Y-1.5000 Z11.6000 F1999.80
G3 X51.4465 Y-0.3969 Z11.6000 I-0.0000 J1.5000 F1999.80
G1 X65.2247 Y49.8188 Z11.6000 F1999.80
G2 X112.0148 Y85.5000 Z11.6000 I46.7762 J-12.8200 F1999.80
G1 X211.9852 Y85.5000 Z11.6000 F1999.80
G2 X258.7753 Y49.8188 Z11.6000 I0.0139 J-48.5011 F1999.80
G1 X272.5535 Y-0.3969 Z11.6000 F1999.80
G3 X274.0000 Y-1.5000 Z11.6000 I1.4465 J0.3969 F1999.80
G1 X324.0000 Y-1.5000 Z11.6000 F1999.80
G3 X325.5000 Y0.0000 Z11.6000 I-0.0000 J1.5000 F1999.80
G1 X325.5000 Y137.0000 Z11.6000 F1999.80
G3 X325.0607 Y138.0607 Z11.6000 I-1.5000 J-0.0000 F1999.80
G1 X325.0607 Y138.0607 Z11.2000 F999.60
G3 X324.0000 Y138.5000 Z11.2000 I-1.0607 J-1.0607 F1999.80
G1 X0.0000 Y138.5000 Z11.2000 F1999.80
G3 X-1.5000 Y137.0000 Z11.2000 I0.0000 J-1.5000 F1999.80
G1 X-1.5000 Y0.0000 Z11.2000 F1999.80
G3 X0.0000 Y-1.5000 Z11.2000 I1.5000 J0.0000 F1999.80
G1 X50.0000 Y-1.5000 Z11.2000 F1999.80
G3 X51.4465 Y-0.3969 Z11.2000 I-0.0000 J1.5000 F1999.80
G1 X65.2247 Y49.8188 Z11.2000 F1999.80
G2 X112.0148 Y85.5000 Z11.2000 I46.7762 J-12.8200 F1999.80
G1 X211.9852 Y85.5000 Z11.2000 F1999.80
G2 X258.7753 Y49.8188 Z11.2000 I0.0139 J-48.5011 F1999.80
G1 X272.5535 Y-0.3969 Z11.2000 F1999.80
G3 X274.0000 Y-1.5000 Z11.2000 I1.4465 J0.3969 F1999.80
G1 X324.0000 Y-1.5000 Z11.2000 F1999.80
G3 X325.5000 Y0.0000 Z11.2000 I-0.0000 J1.5000 F1999.80
G1 X325.5000 Y137.0000 Z11.2000 F1999.80
G3 X325.0607 Y138.0607 Z11.2000 I-1.5000 J-0.0000 F1999.80
G1 X325.0607 Y138.0607 Z10.8000 F999.60
G3 X324.0000 Y138.5000 Z10.8000 I-1.0607 J-1.0607 F1999.80
G1 X0.0000 Y138.5000 Z10.8000 F1999.80
G3 X-1.5000 Y137.0000 Z10.8000 I0.0000 J-1.5000 F1999.80
G1 X-1.5000 Y0.0000 Z10.8000 F1999.80
G3 X0.0000 Y-1.5000 Z10.8000 I1.5000 J0.0000 F1999.80
G1 X50.0000 Y-1.5000 Z10.8000 F1999.80
G3 X51.4465 Y-0.3969 Z10.8000 I-0.0000 J1.5000 F1999.80
G1 X65.2247 Y49.8188 Z10.8000 F1999.80
G2 X112.0148 Y85.5000 Z10.8000 I46.7762 J-12.8200 F1999.80
G1 X211.9852 Y85.5000 Z10.8000 F1999.80
G2 X258.7753 Y49.8188 Z10.8000 I0.0139 J-48.5011 F1999.80
G1 X272.5535 Y-0.3969 Z10.8000 F1999.80
G3 X274.0000 Y-1.5000 Z10.8000 I1.4465 J0.3969 F1999.80
G1 X324.0000 Y-1.5000 Z10.8000 F1999.80
G3 X325.5000 Y0.0000 Z10.8000 I-0.0000 J1.5000 F1999.80
G1 X325.5000 Y137.0000 Z10.8000 F1999.80
G3 X325.0607 Y138.0607 Z10.8000 I-1.5000 J-0.0000 F1999.80
G1 X325.0607 Y138.0607 Z10.4000 F999.60
G3 X324.0000 Y138.5000 Z10.4000 I-1.0607 J-1.0607 F1999.80
G1 X0.0000 Y138.5000 Z10.4000 F1999.80
G3 X-1.5000 Y137.0000 Z10.4000 I0.0000 J-1.5000 F1999.80
G1 X-1.5000 Y0.0000 Z10.4000 F1999.80
G3 X0.0000 Y-1.5000 Z10.4000 I1.5000 J0.0000 F1999.80
G1 X50.0000 Y-1.5000 Z10.4000 F1999.80
G3 X51.4465 Y-0.3969 Z10.4000 I-0.0000 J1.5000 F1999.80
G1 X65.2247 Y49.8188 Z10.4000 F1999.80
G2 X112.0148 Y85.5000 Z10.4000 I46.7762 J-12.8200 F1999.80
G1 X211.9852 Y85.5000 Z10.4000 F1999.80
G2 X258.7753 Y49.8188 Z10.4000 I0.0139 J-48.5011 F1999.80
G1 X272.5535 Y-0.3969 Z10.4000 F1999.80
G3 X274.0000 Y-1.5000 Z10.4000 I1.4465 J0.3969 F1999.80
G1 X324.0000 Y-1.5000 Z10.4000 F1999.80
G3 X325.5000 Y0.0000 Z10.4000 I-0.0000 J1.5000 F1999.80
G1 X325.5000 Y137.0000 Z10.4000 F1999.80
G3 X325.0607 Y138.0607 Z10.4000 I-1.5000 J-0.0000 F1999.80
G1 X325.0607 Y138.0607 Z10.0000 F999.60
G3 X324.0000 Y138.5000 Z10.0000 I-1.0607 J-1.0607 F1999.80
G1 X0.0000 Y138.5000 Z10.0000 F1999.80
G3 X-1.5000 Y137.0000 Z10.0000 I0.0000 J-1.5000 F1999.80
G1 X-1.5000 Y0.0000 Z10.0000 F1999.80
G3 X0.0000 Y-1.5000 Z10.0000 I1.5000 J0.0000 F1999.80
G1 X50.0000 Y-1.5000 Z10.0000 F1999.80
G3 X51.4465 Y-0.3969 Z10.0000 I-0.0000 J1.5000 F1999.80
G1 X65.2247 Y49.8188 Z10.0000 F1999.80
G2 X112.0148 Y85.5000 Z10.0000 I46.7762 J-12.8200 F1999.80
G1 X211.9852 Y85.5000 Z10.0000 F1999.80
G2 X258.7753 Y49.8188 Z10.0000 I0.0139 J-48.5011 F1999.80
G1 X272.5535 Y-0.3969 Z10.0000 F1999.80
G3 X274.0000 Y-1.5000 Z10.0000 I1.4465 J0.3969 F1999.80
G1 X324.0000 Y-1.5000 Z10.0000 F1999.80
G3 X325.5000 Y0.0000 Z10.0000 I-0.0000 J1.5000 F1999.80
G1 X325.5000 Y137.0000 Z10.0000 F1999.80
G3 X325.0607 Y138.0607 Z10.0000 I-1.5000 J-0.0000 F1999.80
G1 X325.0607 Y138.0607 Z9.6000 F999.60
G3 X324.0000 Y138.5000 Z9.6000 I-1.0607 J-1.0607 F1999.80
G1 X0.0000 Y138.5000 Z9.6000 F1999.80
G3 X-1.5000 Y137.0000 Z9.6000 I0.0000 J-1.5000 F1999.80
G1 X-1.5000 Y0.0000 Z9.6000 F1999.80
G3 X0.0000 Y-1.5000 Z9.6000 I1.5000 J0.0000 F1999.80
G1 X50.0000 Y-1.5000 Z9.6000 F1999.80
G3 X51.4465 Y-0.3969 Z9.6000 I-0.0000 J1.5000 F1999.80
G1 X65.2247 Y49.8188 Z9.6000 F1999.80
G2 X112.0148 Y85.5000 Z9.6000 I46.7762 J-12.8200 F1999.80
G1 X211.9852 Y85.5000 Z9.6000 F1999.80
G2 X258.7753 Y49.8188 Z9.6000 I0.0139 J-48.5011 F1999.80
G1 X272.5535 Y-0.3969 Z9.6000 F1999.80
G3 X274.0000 Y-1.5000 Z9.6000 I1.4465 J0.3969 F1999.80
G1 X324.0000 Y-1.5000 Z9.6000 F1999.80
G3 X325.5000 Y0.0000 Z9.6000 I-0.0000 J1.5000 F1999.80
G1 X325.5000 Y137.0000 Z9.6000 F1999.80
G3 X325.0607 Y138.0607 Z9.6000 I-1.5000 J-0.0000 F1999.80
G1 X325.0607 Y138.0607 Z9.2000 F999.60
G3 X324.0000 Y138.5000 Z9.2000 I-1.0607 J-1.0607 F1999.80
G1 X0.0000 Y138.5000 Z9.2000 F1999.80
G3 X-1.5000 Y137.0000 Z9.2000 I0.0000 J-1.5000 F1999.80
G1 X-1.5000 Y0.0000 Z9.2000 F1999.80
G3 X0.0000 Y-1.5000 Z9.2000 I1.5000 J0.0000 F1999.80
G1 X50.0000 Y-1.5000 Z9.2000 F1999.80
G3 X51.4465 Y-0.3969 Z9.2000 I-0.0000 J1.5000 F1999.80
G1 X65.2247 Y49.8188 Z9.2000 F1999.80
G2 X112.0148 Y85.5000 Z9.2000 I46.7762 J-12.8200 F1999.80
G1 X211.9852 Y85.5000 Z9.2000 F1999.80
G2 X258.7753 Y49.8188 Z9.2000 I0.0139 J-48.5011 F1999.80
G1 X272.5535 Y-0.3969 Z9.2000 F1999.80
G3 X274.0000 Y-1.5000 Z9.2000 I1.4465 J0.3969 F1999.80
G1 X324.0000 Y-1.5000 Z9.2000 F1999.80
G3 X325.5000 Y0.0000 Z9.2000 I-0.0000 J1.5000 F1999.80
G1 X325.5000 Y137.0000 Z9.2000 F1999.80
G3 X325.0607 Y138.0607 Z9.2000 I-1.5000 J-0.0000 F1999.80
G1 X325.0607 Y138.0607 Z8.8000 F999.60
G3 X324.0000 Y138.5000 Z8.8000 I-1.0607 J-1.0607 F1999.80
G1 X0.0000 Y138.5000 Z8.8000 F1999.80
G3 X-1.5000 Y137.0000 Z8.8000 I0.0000 J-1.5000 F1999.80
G1 X-1.5000 Y0.0000 Z8.8000 F1999.80
G3 X0.0000 Y-1.5000 Z8.8000 I1.5000 J0.0000 F1999.80
G1 X50.0000 Y-1.5000 Z8.8000 F1999.80
G3 X51.4465 Y-0.3969 Z8.8000 I-0.0000 J1.5000 F1999.80
G1 X65.2247 Y49.8188 Z8.8000 F1999.80
G2 X112.0148 Y85.5000 Z8.8000 I46.7762 J-12.8200 F1999.80
G1 X211.9852 Y85.5000 Z8.8000 F1999.80
G2 X258.7753 Y49.8188 Z8.8000 I0.0139 J-48.5011 F1999.80
G1 X272.5535 Y-0.3969 Z8.8000 F1999.80
G3 X274.0000 Y-1.5000 Z8.8000 I1.4465 J0.3969 F1999.80
G1 X324.0000 Y-1.5000 Z8.8000 F1999.80
G3 X325.5000 Y0.0000 Z8.8000 I-0.0000 J1.5000 F1999.80
G1 X325.5000 Y137.0000 Z8.8000 F1999.80
G3 X325.0607 Y138.0607 Z8.8000 I-1.5000 J-0.0000 F1999.80
G1 X325.0607 Y138.0607 Z8.4000 F999.60
G3 X324.0000 Y138.5000 Z8.4000 I-1.0607 J-1.0607 F1999.80
G1 X0.0000 Y138.5000 Z8.4000 F1999.80
G3 X-1.5000 Y137.0000 Z8.4000 I0.0000 J-1.5000 F1999.80
G1 X-1.5000 Y0.0000 Z8.4000 F1999.80
G3 X0.0000 Y-1.5000 Z8.4000 I1.5000 J0.0000 F1999.80
G1 X50.0000 Y-1.5000 Z8.4000 F1999.80
G3 X51.4465 Y-0.3969 Z8.4000 I-0.0000 J1.5000 F1999.80
G1 X65.2247 Y49.8188 Z8.4000 F1999.80
G2 X112.0148 Y85.5000 Z8.4000 I46.7762 J-12.8200 F1999.80
G1 X211.9852 Y85.5000 Z8.4000 F1999.80
G2 X258.7753 Y49.8188 Z8.4000 I0.0139 J-48.5011 F1999.80
G1 X272.5535 Y-0.3969 Z8.4000 F1999.80
G3 X274.0000 Y-1.5000 Z8.4000 I1.4465 J0.3969 F1999.80
G1 X324.0000 Y-1.5000 Z8.4000 F1999.80
G3 X325.5000 Y0.0000 Z8.4000 I-0.0000 J1.5000 F1999.80
G1 X325.5000 Y137.0000 Z8.4000 F1999.80
G3 X325.0607 Y138.0607 Z8.4000 I-1.5000 J-0.0000 F1999.80
G1 X325.0607 Y138.0607 Z8.0000 F999.60
G3 X324.0000 Y138.5000 Z8.0000 I-1.0607 J-1.0607 F1999.80
G1 X0.0000 Y138.5000 Z8.0000 F1999.80
G3 X-1.5000 Y137.0000 Z8.0000 I0.0000 J-1.5000 F1999.80
G1 X-1.5000 Y0.0000 Z8.0000 F1999.80
G3 X0.0000 Y-1.5000 Z8.0000 I1.5000 J0.0000 F1999.80
G1 X50.0000 Y-1.5000 Z8.0000 F1999.80
G3 X51.4465 Y-0.3969 Z8.0000 I-0.0000 J1.5000 F1999.80
G1 X65.2247 Y49.8188 Z8.0000 F1999.80
G2 X112.0148 Y85.5000 Z8.0000 I46.7762 J-12.8200 F1999.80
G1 X211.9852 Y85.5000 Z8.0000 F1999.80
G2 X258.7753 Y49.8188 Z8.0000 I0.0139 J-48.5011 F1999.80
G1 X272.5535 Y-0.3969 Z8.0000 F1999.80
G3 X274.0000 Y-1.5000 Z8.0000 I1.4465 J0.3969 F1999.80
G1 X324.0000 Y-1.5000 Z8.0000 F1999.80
G3 X325.5000 Y0.0000 Z8.0000 I-0.0000 J1.5000 F1999.80
G1 X325.5000 Y137.0000 Z8.0000 F1999.80
G3 X325.0607 Y138.0607 Z8.0000 I-1.5000 J-0.0000 F1999.80
G1 X325.0607 Y138.0607 Z7.6000 F999.60
G3 X324.0000 Y138.5000 Z7.6000 I-1.0607 J-1.0607 F1999.80
G1 X0.0000 Y138.5000 Z7.6000 F1999.80
G3 X-1.5000 Y137.0000 Z7.6000 I0.0000 J-1.5000 F1999.80
G1 X-1.5000 Y0.0000 Z7.6000 F1999.80
G3 X0.0000 Y-1.5000 Z7.6000 I1.5000 J0.0000 F1999.80
G1 X50.0000 Y-1.5000 Z7.6000 F1999.80
G3 X51.4465 Y-0.3969 Z7.6000 I-0.0000 J1.5000 F1999.80
G1 X65.2247 Y49.8188 Z7.6000 F1999.80
G2 X112.0148 Y85.5000 Z7.6000 I46.7762 J-12.8200 F1999.80
G1 X211.9852 Y85.5000 Z7.6000 F1999.80
G2 X258.7753 Y49.8188 Z7.6000 I0.0139 J-48.5011 F1999.80
G1 X272.5535 Y-0.3969 Z7.6000 F1999.80
G3 X274.0000 Y-1.5000 Z7.6000 I1.4465 J0.3969 F1999.80
G1 X324.0000 Y-1.5000 Z7.6000 F1999.80
G3 X325.5000 Y0.0000 Z7.6000 I-0.0000 J1.5000 F1999.80
G1 X325.5000 Y137.0000 Z7.6000 F1999.80
G3 X325.0607 Y138.0607 Z7.6000 I-1.5000 J-0.0000 F1999.80
G1 X325.0607 Y138.0607 Z7.2000 F999.60
G3 X324.0000 Y138.5000 Z7.2000 I-1.0607 J-1.0607 F1999.80
G1 X0.0000 Y138.5000 Z7.2000 F1999.80
G3 X-1.5000 Y137.0000 Z7.2000 I0.0000 J-1.5000 F1999.80
G1 X-1.5000 Y0.0000 Z7.2000 F1999.80
G3 X0.0000 Y-1.5000 Z7.2000 I1.5000 J0.0000 F1999.80
G1 X50.0000 Y-1.5000 Z7.2000 F1999.80
G3 X51.4465 Y-0.3969 Z7.2000 I-0.0000 J1.5000 F1999.80
G1 X65.2247 Y49.8188 Z7.2000 F1999.80
G2 X112.0148 Y85.5000 Z7.2000 I46.7762 J-12.8200 F1999.80
G1 X211.9852 Y85.5000 Z7.2000 F1999.80
G2 X258.7753 Y49.8188 Z7.2000 I0.0139 J-48.5011 F1999.80
G1 X272.5535 Y-0.3969 Z7.2000 F1999.80
G3 X274.0000 Y-1.5000 Z7.2000 I1.4465 J0.3969 F1999.80
G1 X324.0000 Y-1.5000 Z7.2000 F1999.80
G3 X325.5000 Y0.0000 Z7.2000 I-0.0000 J1.5000 F1999.80
G1 X325.5000 Y137.0000 Z7.2000 F1999.80
G3 X325.0607 Y138.0607 Z7.2000 I-1.5000 J-0.0000 F1999.80
G1 X325.0607 Y138.0607 Z6.8000 F999.60
G3 X324.0000 Y138.5000 Z6.8000 I-1.0607 J-1.0607 F1999.80
G1 X0.0000 Y138.5000 Z6.8000 F1999.80
G3 X-1.5000 Y137.0000 Z6.8000 I0.0000 J-1.5000 F1999.80
G1 X-1.5000 Y0.0000 Z6.8000 F1999.80
G3 X0.0000 Y-1.5000 Z6.8000 I1.5000 J0.0000 F1999.80
G1 X50.0000 Y-1.5000 Z6.8000 F1999.80
G3 X51.4465 Y-0.3969 Z6.8000 I-0.0000 J1.5000 F1999.80
G1 X65.2247 Y49.8188 Z6.8000 F1999.80
G2 X112.0148 Y85.5000 Z6.8000 I46.7762 J-12.8200 F1999.80
G1 X211.9852 Y85.5000 Z6.8000 F1999.80
G2 X258.7753 Y49.8188 Z6.8000 I0.0139 J-48.5011 F1999.80
G1 X272.5535 Y-0.3969 Z6.8000 F1999.80
G3 X274.0000 Y-1.5000 Z6.8000 I1.4465 J0.3969 F1999.80
G1 X324.0000 Y-1.5000 Z6.8000 F1999.80
G3 X325.5000 Y0.0000 Z6.8000 I-0.0000 J1.5000 F1999.80
G1 X325.5000 Y137.0000 Z6.8000 F1999.80
G3 X325.0607 Y138.0607 Z6.8000 I-1.5000 J-0.0000 F1999.80
G1 X325.0607 Y138.0607 Z6.4000 F999.60
G3 X324.0000 Y138.5000 Z6.4000 I-1.0607 J-1.0607 F1999.80
G1 X0.0000 Y138.5000 Z6.4000 F1999.80
G3 X-1.5000 Y137.0000 Z6.4000 I0.0000 J-1.5000 F1999.80
G1 X-1.5000 Y0.0000 Z6.4000 F1999.80
G3 X0.0000 Y-1.5000 Z6.4000 I1.5000 J0.0000 F1999.80
G1 X50.0000 Y-1.5000 Z6.4000 F1999.80
G3 X51.4465 Y-0.3969 Z6.4000 I-0.0000 J1.5000 F1999.80
G1 X65.2247 Y49.8188 Z6.4000 F1999.80
G2 X112.0148 Y85.5000 Z6.4000 I46.7762 J-12.8200 F1999.80
G1 X211.9852 Y85.5000 Z6.4000 F1999.80
G2 X258.7753 Y49.8188 Z6.4000 I0.0139 J-48.5011 F1999.80
G1 X272.5535 Y-0.3969 Z6.4000 F1999.80
G3 X274.0000 Y-1.5000 Z6.4000 I1.4465 J0.3969 F1999.80
G1 X324.0000 Y-1.5000 Z6.4000 F1999.80
G3 X325.5000 Y0.0000 Z6.4000 I-0.0000 J1.5000 F1999.80
G1 X325.5000 Y137.0000 Z6.4000 F1999.80
G3 X325.0607 Y138.0607 Z6.4000 I-1.5000 J-0.0000 F1999.80
G1 X325.0607 Y138.0607 Z6.0000 F999.60
G3 X324.0000 Y138.5000 Z6.0000 I-1.0607 J-1.0607 F1999.80
G1 X0.0000 Y138.5000 Z6.0000 F1999.80
G3 X-1.5000 Y137.0000 Z6.0000 I0.0000 J-1.5000 F1999.80
G1 X-1.5000 Y0.0000 Z6.0000 F1999.80
G3 X0.0000 Y-1.5000 Z6.0000 I1.5000 J0.0000 F1999.80
G1 X50.0000 Y-1.5000 Z6.0000 F1999.80
G3 X51.4465 Y-0.3969 Z6.0000 I-0.0000 J1.5000 F1999.80
G1 X65.2247 Y49.8188 Z6.0000 F1999.80
G2 X112.0148 Y85.5000 Z6.0000 I46.7762 J-12.8200 F1999.80
G1 X211.9852 Y85.5000 Z6.0000 F1999.80
G2 X258.7753 Y49.8188 Z6.0000 I0.0139 J-48.5011 F1999.80
G1 X272.5535 Y-0.3969 Z6.0000 F1999.80
G3 X274.0000 Y-1.5000 Z6.0000 I1.4465 J0.3969 F1999.80
G1 X324.0000 Y-1.5000 Z6.0000 F1999.80
G3 X325.5000 Y0.0000 Z6.0000 I-0.0000 J1.5000 F1999.80
G1 X325.5000 Y137.0000 Z6.0000 F1999.80
G3 X325.0607 Y138.0607 Z6.0000 I-1.5000 J-0.0000 F1999.80
G1 X325.0607 Y138.0607 Z5.6000 F999.60
G3 X324.0000 Y138.5000 Z5.6000 I-1.0607 J-1.0607 F1999.80
G1 X0.0000 Y138.5000 Z5.6000 F1999.80
G3 X-1.5000 Y137.0000 Z5.6000 I0.0000 J-1.5000 F1999.80
G1 X-1.5000 Y0.0000 Z5.6000 F1999.80
G3 X0.0000 Y-1.5000 Z5.6000 I1.5000 J0.0000 F1999.80
G1 X50.0000 Y-1.5000 Z5.6000 F1999.80
G3 X51.4465 Y-0.3969 Z5.6000 I-0.0000 J1.5000 F1999.80
G1 X65.2247 Y49.8188 Z5.6000 F1999.80
G2 X112.0148 Y85.5000 Z5.6000 I46.7762 J-12.8200 F1999.80
G1 X211.9852 Y85.5000 Z5.6000 F1999.80
G2 X258.7753 Y49.8188 Z5.6000 I0.0139 J-48.5011 F1999.80
G1 X272.5535 Y-0.3969 Z5.6000 F1999.80
G3 X274.0000 Y-1.5000 Z5.6000 I1.4465 J0.3969 F1999.80
G1 X324.0000 Y-1.5000 Z5.6000 F1999.80
G3 X325.5000 Y0.0000 Z5.6000 I-0.0000 J1.5000 F1999.80
G1 X325.5000 Y137.0000 Z5.6000 F1999.80
G3 X325.0607 Y138.0607 Z5.6000 I-1.5000 J-0.0000 F1999.80
G1 X325.0607 Y138.0607 Z5.2000 F999.60
G3 X324.0000 Y138.5000 Z5.2000 I-1.0607 J-1.0607 F1999.80
G1 X0.0000 Y138.5000 Z5.2000 F1999.80
G3 X-1.5000 Y137.0000 Z5.2000 I0.0000 J-1.5000 F1999.80
G1 X-1.5000 Y0.0000 Z5.2000 F1999.80
G3 X0.0000 Y-1.5000 Z5.2000 I1.5000 J0.0000 F1999.80
G1 X50.0000 Y-1.5000 Z5.2000 F1999.80
G3 X51.4465 Y-0.3969 Z5.2000 I-0.0000 J1.5000 F1999.80
G1 X65.2247 Y49.8188 Z5.2000 F1999.80
G2 X112.0148 Y85.5000 Z5.2000 I46.7762 J-12.8200 F1999.80
G1 X211.9852 Y85.5000 Z5.2000 F1999.80
G2 X258.7753 Y49.8188 Z5.2000 I0.0139 J-48.5011 F1999.80
G1 X272.5535 Y-0.3969 Z5.2000 F1999.80
G3 X274.0000 Y-1.5000 Z5.2000 I1.4465 J0.3969 F1999.80
G1 X324.0000 Y-1.5000 Z5.2000 F1999.80
G3 X325.5000 Y0.0000 Z5.2000 I-0.0000 J1.5000 F1999.80
G1 X325.5000 Y137.0000 Z5.2000 F1999.80
G3 X325.0607 Y138.0607 Z5.2000 I-1.5000 J-0.0000 F1999.80
G1 X325.0607 Y138.0607 Z4.8000 F999.60
G3 X324.0000 Y138.5000 Z4.8000 I-1.0607 J-1.0607 F1999.80
G1 X0.0000 Y138.5000 Z4.8000 F1999.80
G3 X-1.5000 Y137.0000 Z4.8000 I0.0000 J-1.5000 F1999.80
G1 X-1.5000 Y0.0000 Z4.8000 F1999.80
G3 X0.0000 Y-1.5000 Z4.8000 I1.5000 J0.0000 F1999.80
G1 X50.0000 Y-1.5000 Z4.8000 F1999.80
G3 X51.4465 Y-0.3969 Z4.8000 I-0.0000 J1.5000 F1999.80
G1 X65.2247 Y49.8188 Z4.8000 F1999.80
G2 X112.0148 Y85.5000 Z4.8000 I46.7762 J-12.8200 F1999.80
G1 X211.9852 Y85.5000 Z4.8000 F1999.80
G2 X258.7753 Y49.8188 Z4.8000 I0.0139 J-48.5011 F1999.80
G1 X272.5535 Y-0.3969 Z4.8000 F1999.80
G3 X274.0000 Y-1.5000 Z4.8000 I1.4465 J0.3969 F1999.80
G1 X324.0000 Y-1.5000 Z4.8000 F1999.80
G3 X325.5000 Y0.0000 Z4.8000 I-0.0000 J1.5000 F1999.80
G1 X325.5000 Y137.0000 Z4.8000 F1999.80
G3 X325.0607 Y138.0607 Z4.8000 I-1.5000 J-0.0000 F1999.80
G1 X325.0607 Y138.0607 Z4.4000 F999.60
G3 X324.0000 Y138.5000 Z4.4000 I-1.0607 J-1.0607 F1999.80
G1 X0.0000 Y138.5000 Z4.4000 F1999.80
G3 X-1.5000 Y137.0000 Z4.4000 I0.0000 J-1.5000 F1999.80
G1 X-1.5000 Y0.0000 Z4.4000 F1999.80
G3 X0.0000 Y-1.5000 Z4.4000 I1.5000 J0.0000 F1999.80
G1 X50.0000 Y-1.5000 Z4.4000 F1999.80
G3 X51.4465 Y-0.3969 Z4.4000 I-0.0000 J1.5000 F1999.80
G1 X65.2247 Y49.8188 Z4.4000 F1999.80
G2 X112.0148 Y85.5000 Z4.4000 I46.7762 J-12.8200 F1999.80
G1 X211.9852 Y85.5000 Z4.4000 F1999.80
G2 X258.7753 Y49.8188 Z4.4000 I0.0139 J-48.5011 F1999.80
G1 X272.5535 Y-0.3969 Z4.4000 F1999.80
G3 X274.0000 Y-1.5000 Z4.4000 I1.4465 J0.3969 F1999.80
G1 X324.0000 Y-1.5000 Z4.4000 F1999.80
G3 X325.5000 Y0.0000 Z4.4000 I-0.0000 J1.5000 F1999.80
G1 X325.5000 Y137.0000 Z4.4000 F1999.80
G3 X325.0607 Y138.0607 Z4.4000 I-1.5000 J-0.0000 F1999.80
G1 X325.0607 Y138.0607 Z4.0000 F999.60
G3 X324.0000 Y138.5000 Z4.0000 I-1.0607 J-1.0607 F1999.80
G1 X0.0000 Y138.5000 Z4.0000 F1999.80
G3 X-1.5000 Y137.0000 Z4.0000 I0.0000 J-1.5000 F1999.80
G1 X-1.5000 Y0.0000 Z4.0000 F1999.80
G3 X0.0000 Y-1.5000 Z4.0000 I1.5000 J0.0000 F1999.80
G1 X50.0000 Y-1.5000 Z4.0000 F1999.80
G3 X51.4465 Y-0.3969 Z4.0000 I-0.0000 J1.5000 F1999.80
G1 X65.2247 Y49.8188 Z4.0000 F1999.80
G2 X112.0148 Y85.5000 Z4.0000 I46.7762 J-12.8200 F1999.80
G1 X211.9852 Y85.5000 Z4.0000 F1999.80
G2 X258.7753 Y49.8188 Z4.0000 I0.0139 J-48.5011 F1999.80
G1 X272.5535 Y-0.3969 Z4.0000 F1999.80
G3 X274.0000 Y-1.5000 Z4.0000 I1.4465 J0.3969 F1999.80
G1 X324.0000 Y-1.5000 Z4.0000 F1999.80
G3 X325.5000 Y0.0000 Z4.0000 I-0.0000 J1.5000 F1999.80
G1 X325.5000 Y137.0000 Z4.0000 F1999.80
G3 X325.0607 Y138.0607 Z4.0000 I-1.5000 J-0.0000 F1999.80
G1 X325.0607 Y138.0607 Z3.6000 F999.60
G3 X324.0000 Y138.5000 Z3.6000 I-1.0607 J-1.0607 F1999.80
G1 X0.0000 Y138.5000 Z3.6000 F1999.80
G3 X-1.5000 Y137.0000 Z3.6000 I0.0000 J-1.5000 F1999.80
G1 X-1.5000 Y0.0000 Z3.6000 F1999.80
G3 X0.0000 Y-1.5000 Z3.6000 I1.5000 J0.0000 F1999.80
G1 X50.0000 Y-1.5000 Z3.6000 F1999.80
G3 X51.4465 Y-0.3969 Z3.6000 I-0.0000 J1.5000 F1999.80
G1 X65.2247 Y49.8188 Z3.6000 F1999.80
G2 X112.0148 Y85.5000 Z3.6000 I46.7762 J-12.8200 F1999.80
G1 X211.9852 Y85.5000 Z3.6000 F1999.80
G2 X258.7753 Y49.8188 Z3.6000 I0.0139 J-48.5011 F1999.80
G1 X272.5535 Y-0.3969 Z3.6000 F1999.80
G3 X274.0000 Y-1.5000 Z3.6000 I1.4465 J0.3969 F1999.80
G1 X324.0000 Y-1.5000 Z3.6000 F1999.80
G3 X325.5000 Y0.0000 Z3.6000 I-0.0000 J1.5000 F1999.80
G1 X325.5000 Y137.0000 Z3.6000 F1999.80
G3 X325.0607 Y138.0607 Z3.6000 I-1.5000 J-0.0000 F1999.80
G1 X325.0607 Y138.0607 Z3.2000 F999.60
G3 X324.0000 Y138.5000 Z3.2000 I-1.0607 J-1.0607 F1999.80
G1 X0.0000 Y138.5000 Z3.2000 F1999.80
G3 X-1.5000 Y137.0000 Z3.2000 I0.0000 J-1.5000 F1999.80
G1 X-1.5000 Y0.0000 Z3.2000 F1999.80
G3 X0.0000 Y-1.5000 Z3.2000 I1.5000 J0.0000 F1999.80
G1 X50.0000 Y-1.5000 Z3.2000 F1999.80
G3 X51.4465 Y-0.3969 Z3.2000 I-0.0000 J1.5000 F1999.80
G1 X65.2247 Y49.8188 Z3.2000 F1999.80
G2 X112.0148 Y85.5000 Z3.2000 I46.7762 J-12.8200 F1999.80
G1 X211.9852 Y85.5000 Z3.2000 F1999.80
G2 X258.7753 Y49.8188 Z3.2000 I0.0139 J-48.5011 F1999.80
G1 X272.5535 Y-0.3969 Z3.2000 F1999.80
G3 X274.0000 Y-1.5000 Z3.2000 I1.4465 J0.3969 F1999.80
G1 X324.0000 Y-1.5000 Z3.2000 F1999.80
G3 X325.5000 Y0.0000 Z3.2000 I-0.0000 J1.5000 F1999.80
G1 X325.5000 Y137.0000 Z3.2000 F1999.80
G3 X325.0607 Y138.0607 Z3.2000 I-1.5000 J-0.0000 F1999.80
G1 X325.0607 Y138.0607 Z2.8000 F999.60
G3 X324.0000 Y138.5000 Z2.8000 I-1.0607 J-1.0607 F1999.80
G1 X0.0000 Y138.5000 Z2.8000 F1999.80
G3 X-1.5000 Y137.0000 Z2.8000 I0.0000 J-1.5000 F1999.80
G1 X-1.5000 Y0.0000 Z2.8000 F1999.80
G3 X0.0000 Y-1.5000 Z2.8000 I1.5000 J0.0000 F1999.80
G1 X50.0000 Y-1.5000 Z2.8000 F1999.80
G3 X51.4465 Y-0.3969 Z2.8000 I-0.0000 J1.5000 F1999.80
G1 X65.2247 Y49.8188 Z2.8000 F1999.80
G2 X112.0148 Y85.5000 Z2.8000 I46.7762 J-12.8200 F1999.80
G1 X211.9852 Y85.5000 Z2.8000 F1999.80
G2 X258.7753 Y49.8188 Z2.8000 I0.0139 J-48.5011 F1999.80
G1 X272.5535 Y-0.3969 Z2.8000 F1999.80
G3 X274.0000 Y-1.5000 Z2.8000 I1.4465 J0.3969 F1999.80
G1 X324.0000 Y-1.5000 Z2.8000 F1999.80
G3 X325.5000 Y0.0000 Z2.8000 I-0.0000 J1.5000 F1999.80
G1 X325.5000 Y137.0000 Z2.8000 F1999.80
G3 X325.0607 Y138.0607 Z2.8000 I-1.5000 J-0.0000 F1999.80
G1 X325.0607 Y138.0607 Z2.4000 F999.60
G3 X324.0000 Y138.5000 Z2.4000 I-1.0607 J-1.0607 F1999.80
G1 X0.0000 Y138.5000 Z2.4000 F1999.80
G3 X-1.5000 Y137.0000 Z2.4000 I0.0000 J-1.5000 F1999.80
G1 X-1.5000 Y0.0000 Z2.4000 F1999.80
G3 X0.0000 Y-1.5000 Z2.4000 I1.5000 J0.0000 F1999.80
G1 X50.0000 Y-1.5000 Z2.4000 F1999.80
G3 X51.4465 Y-0.3969 Z2.4000 I-0.0000 J1.5000 F1999.80
G1 X65.2247 Y49.8188 Z2.4000 F1999.80
G2 X112.0148 Y85.5000 Z2.4000 I46.7762 J-12.8200 F1999.80
G1 X211.9852 Y85.5000 Z2.4000 F1999.80
G2 X258.7753 Y49.8188 Z2.4000 I0.0139 J-48.5011 F1999.80
G1 X272.5535 Y-0.3969 Z2.4000 F1999.80
G3 X274.0000 Y-1.5000 Z2.4000 I1.4465 J0.3969 F1999.80
G1 X324.0000 Y-1.5000 Z2.4000 F1999.80
G3 X325.5000 Y0.0000 Z2.4000 I-0.0000 J1.5000 F1999.80
G1 X325.5000 Y137.0000 Z2.4000 F1999.80
G3 X325.0607 Y138.0607 Z2.4000 I-1.5000 J-0.0000 F1999.80
G1 X325.0607 Y138.0607 Z2.0000 F999.60
G3 X324.0000 Y138.5000 Z2.0000 I-1.0607 J-1.0607 F1999.80
G1 X0.0000 Y138.5000 Z2.0000 F1999.80
G3 X-1.5000 Y137.0000 Z2.0000 I0.0000 J-1.5000 F1999.80
G1 X-1.5000 Y0.0000 Z2.0000 F1999.80
G3 X0.0000 Y-1.5000 Z2.0000 I1.5000 J0.0000 F1999.80
G1 X50.0000 Y-1.5000 Z2.0000 F1999.80
G3 X51.4465 Y-0.3969 Z2.0000 I-0.0000 J1.5000 F1999.80
G1 X65.2247 Y49.8188 Z2.0000 F1999.80
G2 X112.0148 Y85.5000 Z2.0000 I46.7762 J-12.8200 F1999.80
G1 X211.9852 Y85.5000 Z2.0000 F1999.80
G2 X258.7753 Y49.8188 Z2.0000 I0.0139 J-48.5011 F1999.80
G1 X272.5535 Y-0.3969 Z2.0000 F1999.80
G3 X274.0000 Y-1.5000 Z2.0000 I1.4465 J0.3969 F1999.80
G1 X324.0000 Y-1.5000 Z2.0000 F1999.80
G3 X325.5000 Y0.0000 Z2.0000 I-0.0000 J1.5000 F1999.80
G1 X325.5000 Y137.0000 Z2.0000 F1999.80
G3 X325.0607 Y138.0607 Z2.0000 I-1.5000 J-0.0000 F1999.80
G1 X325.0607 Y138.0607 Z1.6000 F999.60
G3 X324.0000 Y138.5000 Z1.6000 I-1.0607 J-1.0607 F1999.80
G1 X0.0000 Y138.5000 Z1.6000 F1999.80
G3 X-1.5000 Y137.0000 Z1.6000 I0.0000 J-1.5000 F1999.80
G1 X-1.5000 Y0.0000 Z1.6000 F1999.80
G3 X0.0000 Y-1.5000 Z1.6000 I1.5000 J0.0000 F1999.80
G1 X50.0000 Y-1.5000 Z1.6000 F1999.80
G3 X51.4465 Y-0.3969 Z1.6000 I-0.0000 J1.5000 F1999.80
G1 X65.2247 Y49.8188 Z1.6000 F1999.80
G2 X112.0148 Y85.5000 Z1.6000 I46.7762 J-12.8200 F1999.80
G1 X211.9852 Y85.5000 Z1.6000 F1999.80
G2 X258.7753 Y49.8188 Z1.6000 I0.0139 J-48.5011 F1999.80
G1 X272.5535 Y-0.3969 Z1.6000 F1999.80
G3 X274.0000 Y-1.5000 Z1.6000 I1.4465 J0.3969 F1999.80
G1 X324.0000 Y-1.5000 Z1.6000 F1999.80
G3 X325.5000 Y0.0000 Z1.6000 I-0.0000 J1.5000 F1999.80
G1 X325.5000 Y137.0000 Z1.6000 F1999.80
G3 X325.0607 Y138.0607 Z1.6000 I-1.5000 J-0.0000 F1999.80
G1 X325.0607 Y138.0607 Z1.2000 F999.60
G3 X324.0000 Y138.5000 Z1.2000 I-1.0607 J-1.0607 F1999.80
G1 X0.0000 Y138.5000 Z1.2000 F1999.80
G3 X-1.5000 Y137.0000 Z1.2000 I0.0000 J-1.5000 F1999.80
G1 X-1.5000 Y0.0000 Z1.2000 F1999.80
G3 X0.0000 Y-1.5000 Z1.2000 I1.5000 J0.0000 F1999.80
G1 X50.0000 Y-1.5000 Z1.2000 F1999.80
G3 X51.4465 Y-0.3969 Z1.2000 I-0.0000 J1.5000 F1999.80
G1 X65.2247 Y49.8188 Z1.2000 F1999.80
G2 X112.0148 Y85.5000 Z1.2000 I46.7762 J-12.8200 F1999.80
G1 X211.9852 Y85.5000 Z1.2000 F1999.80
G2 X258.7753 Y49.8188 Z1.2000 I0.0139 J-48.5011 F1999.80
G1 X272.5535 Y-0.3969 Z1.2000 F1999.80
G3 X274.0000 Y-1.5000 Z1.2000 I1.4465 J0.3969 F1999.80
G1 X324.0000 Y-1.5000 Z1.2000 F1999.80
G3 X325.5000 Y0.0000 Z1.2000 I-0.0000 J1.5000 F1999.80
G1 X325.5000 Y137.0000 Z1.2000 F1999.80
G3 X325.0607 Y138.0607 Z1.2000 I-1.5000 J-0.0000 F1999.80
G1 X325.0607 Y138.0607 Z0.8000 F999.60
G3 X324.0000 Y138.5000 Z0.8000 I-1.0607 J-1.0607 F1999.80
G1 X0.0000 Y138.5000 Z0.8000 F1999.80
G3 X-1.5000 Y137.0000 Z0.8000 I0.0000 J-1.5000 F1999.80
G1 X-1.5000 Y0.0000 Z0.8000 F1999.80
G3 X0.0000 Y-1.5000 Z0.8000 I1.5000 J0.0000 F1999.80
G1 X50.0000 Y-1.5000 Z0.8000 F1999.80
G3 X51.4465 Y-0.3969 Z0.8000 I-0.0000 J1.5000 F1999.80
G1 X65.2247 Y49.8188 Z0.8000 F1999.80
G2 X112.0148 Y85.5000 Z0.8000 I46.7762 J-12.8200 F1999.80
G1 X211.9852 Y85.5000 Z0.8000 F1999.80
G2 X258.7753 Y49.8188 Z0.8000 I0.0139 J-48.5011 F1999.80
G1 X272.5535 Y-0.3969 Z0.8000 F1999.80
G3 X274.0000 Y-1.5000 Z0.8000 I1.4465 J0.3969 F1999.80
G1 X324.0000 Y-1.5000 Z0.8000 F1999.80
G3 X325.5000 Y0.0000 Z0.8000 I-0.0000 J1.5000 F1999.80
G1 X325.5000 Y137.0000 Z0.8000 F1999.80
G3 X325.0607 Y138.0607 Z0.8000 I-1.5000 J-0.0000 F1999.80
G1 X325.0607 Y138.0607 Z0.4000 F999.60
G3 X324.0000 Y138.5000 Z0.4000 I-1.0607 J-1.0607 F1999.80
G1 X0.0000 Y138.5000 Z0.4000 F1999.80
G3 X-1.5000 Y137.0000 Z0.4000 I0.0000 J-1.5000 F1999.80
G1 X-1.5000 Y0.0000 Z0.4000 F1999.80
G3 X0.0000 Y-1.5000 Z0.4000 I1.5000 J0.0000 F1999.80
G1 X50.0000 Y-1.5000 Z0.4000 F1999.80
G3 X51.4465 Y-0.3969 Z0.4000 I-0.0000 J1.5000 F1999.80
G1 X65.2247 Y49.8188 Z0.4000 F1999.80
G2 X112.0148 Y85.5000 Z0.4000 I46.7762 J-12.8200 F1999.80
G1 X211.9852 Y85.5000 Z0.4000 F1999.80
G2 X258.7753 Y49.8188 Z0.4000 I0.0139 J-48.5011 F1999.80
G1 X272.5535 Y-0.3969 Z0.4000 F1999.80
G3 X274.0000 Y-1.5000 Z0.4000 I1.4465 J0.3969 F1999.80
G1 X324.0000 Y-1.5000 Z0.4000 F1999.80
G3 X325.5000 Y0.0000 Z0.4000 I-0.0000 J1.5000 F1999.80
G1 X325.5000 Y137.0000 Z0.4000 F1999.80
G3 X325.0607 Y138.0607 Z0.4000 I-1.5000 J-0.0000 F1999.80
G1 X325.0607 Y138.0607 Z0.0000 F999.60
G3 X324.0000 Y138.5000 Z0.0000 I-1.0607 J-1.0607 F1999.80
G1 X0.0000 Y138.5000 Z-0.0000 F1999.80
G3 X-1.5000 Y137.0000 Z-0.0000 I0.0000 J-1.5000 F1999.80
G1 X-1.5000 Y0.0000 Z-0.0000 F1999.80
G3 X0.0000 Y-1.5000 Z-0.0000 I1.5000 J0.0000 F1999.80
G1 X50.0000 Y-1.5000 Z-0.0000 F1999.80
G3 X51.4465 Y-0.3969 Z-0.0000 I-0.0000 J1.5000 F1999.80
G1 X65.2247 Y49.8188 Z-0.0000 F1999.80
G2 X112.0148 Y85.5000 Z-0.0000 I46.7762 J-12.8200 F1999.80
G1 X211.9852 Y85.5000 Z0.0000 F1999.80
G2 X258.7753 Y49.8188 Z0.0000 I0.0139 J-48.5011 F1999.80
G1 X272.5535 Y-0.3969 Z0.0000 F1999.80
G3 X274.0000 Y-1.5000 Z0.0000 I1.4465 J0.3969 F1999.80
G1 X324.0000 Y-1.5000 Z0.0000 F1999.80
G3 X325.5000 Y0.0000 Z0.0000 I-0.0000 J1.5000 F1999.80
G1 X325.5000 Y137.0000 Z0.0000 F1999.80
G3 X325.0607 Y138.0607 Z0.0000 I-1.5000 J-0.0000 F1999.80
G1 X325.0607 Y138.0607 Z-0.2000 F999.60
G3 X324.0000 Y138.5000 Z-0.2000 I-1.0607 J-1.0607 F1999.80
G1 X0.0000 Y138.5000 Z-0.2000 F1999.80
G3 X-1.5000 Y137.0000 Z-0.2000 I0.0000 J-1.5000 F1999.80
G1 X-1.5000 Y0.0000 Z-0.2000 F1999.80
G3 X0.0000 Y-1.5000 Z-0.2000 I1.5000 J0.0000 F1999.80
G1 X50.0000 Y-1.5000 Z-0.2000 F1999.80
G3 X51.4465 Y-0.3969 Z-0.2000 I-0.0000 J1.5000 F1999.80
G1 X65.2247 Y49.8188 Z-0.2000 F1999.80
G2 X112.0148 Y85.5000 Z-0.2000 I46.7762 J-12.8200 F1999.80
G1 X211.9852 Y85.5000 Z-0.2000 F1999.80
G2 X258.7753 Y49.8188 Z-0.2000 I0.0139 J-48.5011 F1999.80
G1 X272.5535 Y-0.3969 Z-0.2000 F1999.80
G3 X274.0000 Y-1.5000 Z-0.2000 I1.4465 J0.3969 F1999.80
G1 X324.0000 Y-1.5000 Z-0.2000 F1999.80
G3 X325.5000 Y0.0000 Z-0.2000 I-0.0000 J1.5000 F1999.80
G1 X325.5000 Y137.0000 Z-0.2000 F1999.80
G3 X325.0607 Y138.0607 Z-0.2000 I-1.5000 J-0.0000 F1999.80
G0 Z23.0000
(finish operation: Contour003)
(begin operation: Stop003)
(Path: Stop003)
M0
(finish operation: Stop003)
(begin operation: Helix003)
(Path: Helix003)
(Helix003)
(helix cut operation)
G0 Z23.0000
G0 X30.0500 Y107.0000
G0 Z21.0000
G1 Z18.0000 F999.60
G2 X29.9500 Y107.0000 Z17.8022 I-0.0500 J0.0000 F1999.80
G2 X30.0500 Y107.0000 Z17.6043 I0.0500 J0.0000 F1999.80
G2 X29.9500 Y107.0000 Z17.4065 I-0.0500 J0.0000 F1999.80
G2 X30.0500 Y107.0000 Z17.2087 I0.0500 J0.0000 F1999.80
G2 X29.9500 Y107.0000 Z17.0109 I-0.0500 J0.0000 F1999.80
G2 X30.0500 Y107.0000 Z16.8130 I0.0500 J0.0000 F1999.80
G2 X29.9500 Y107.0000 Z16.6152 I-0.0500 J0.0000 F1999.80
G2 X30.0500 Y107.0000 Z16.4174 I0.0500 J0.0000 F1999.80
G2 X29.9500 Y107.0000 Z16.2196 I-0.0500 J0.0000 F1999.80
G2 X30.0500 Y107.0000 Z16.0217 I0.0500 J0.0000 F1999.80
G2 X29.9500 Y107.0000 Z15.8239 I-0.0500 J0.0000 F1999.80
G2 X30.0500 Y107.0000 Z15.6261 I0.0500 J0.0000 F1999.80
G2 X29.9500 Y107.0000 Z15.4283 I-0.0500 J0.0000 F1999.80
G2 X30.0500 Y107.0000 Z15.2304 I0.0500 J0.0000 F1999.80
G2 X29.9500 Y107.0000 Z15.0326 I-0.0500 J0.0000 F1999.80
G2 X30.0500 Y107.0000 Z14.8348 I0.0500 J0.0000 F1999.80
G2 X29.9500 Y107.0000 Z14.6370 I-0.0500 J0.0000 F1999.80
G2 X30.0500 Y107.0000 Z14.4391 I0.0500 J0.0000 F1999.80
G2 X29.9500 Y107.0000 Z14.2413 I-0.0500 J0.0000 F1999.80
G2 X30.0500 Y107.0000 Z14.0435 I0.0500 J0.0000 F1999.80
G2 X29.9500 Y107.0000 Z13.8457 I-0.0500 J0.0000 F1999.80
G2 X30.0500 Y107.0000 Z13.6478 I0.0500 J0.0000 F1999.80
G2 X29.9500 Y107.0000 Z13.4500 I-0.0500 J0.0000 F1999.80
G2 X30.0500 Y107.0000 Z13.2522 I0.0500 J0.0000 F1999.80
G2 X29.9500 Y107.0000 Z13.0543 I-0.0500 J0.0000 F1999.80
G2 X30.0500 Y107.0000 Z12.8565 I0.0500 J0.0000 F1999.80
G2 X29.9500 Y107.0000 Z12.6587 I-0.0500 J0.0000 F1999.80
G2 X30.0500 Y107.0000 Z12.4609 I0.0500 J0.0000 F1999.80
G2 X29.9500 Y107.0000 Z12.2630 I-0.0500 J0.0000 F1999.80
G2 X30.0500 Y107.0000 Z12.0652 I0.0500 J0.0000 F1999.80
G2 X29.9500 Y107.0000 Z11.8674 I-0.0500 J0.0000 F1999.80
G2 X30.0500 Y107.0000 Z11.6696 I0.0500 J0.0000 F1999.80
G2 X29.9500 Y107.0000 Z11.4717 I-0.0500 J0.0000 F1999.80
G2 X30.0500 Y107.0000 Z11.2739 I0.0500 J0.0000 F1999.80
G2 X29.9500 Y107.0000 Z11.0761 I-0.0500 J0.0000 F1999.80
G2 X30.0500 Y107.0000 Z10.8783 I0.0500 J0.0000 F1999.80
G2 X29.9500 Y107.0000 Z10.6804 I-0.0500 J0.0000 F1999.80
G2 X30.0500 Y107.0000 Z10.4826 I0.0500 J0.0000 F1999.80
G2 X29.9500 Y107.0000 Z10.2848 I-0.0500 J0.0000 F1999.80
G2 X30.0500 Y107.0000 Z10.0870 I0.0500 J0.0000 F1999.80
G2 X29.9500 Y107.0000 Z9.8891 I-0.0500 J0.0000 F1999.80
G2 X30.0500 Y107.0000 Z9.6913 I0.0500 J0.0000 F1999.80
G2 X29.9500 Y107.0000 Z9.4935 I-0.0500 J0.0000 F1999.80
G2 X30.0500 Y107.0000 Z9.2957 I0.0500 J0.0000 F1999.80
G2 X29.9500 Y107.0000 Z9.0978 I-0.0500 J0.0000 F1999.80
G2 X30.0500 Y107.0000 Z8.9000 I0.0500 J0.0000 F1999.80
G2 X29.9500 Y107.0000 Z8.7022 I-0.0500 J0.0000 F1999.80
G2 X30.0500 Y107.0000 Z8.5043 I0.0500 J0.0000 F1999.80
G2 X29.9500 Y107.0000 Z8.3065 I-0.0500 J0.0000 F1999.80
G2 X30.0500 Y107.0000 Z8.1087 I0.0500 J0.0000 F1999.80
G2 X29.9500 Y107.0000 Z7.9109 I-0.0500 J0.0000 F1999.80
G2 X30.0500 Y107.0000 Z7.7130 I0.0500 J0.0000 F1999.80
G2 X29.9500 Y107.0000 Z7.5152 I-0.0500 J0.0000 F1999.80
G2 X30.0500 Y107.0000 Z7.3174 I0.0500 J0.0000 F1999.80
G2 X29.9500 Y107.0000 Z7.1196 I-0.0500 J0.0000 F1999.80
G2 X30.0500 Y107.0000 Z6.9217 I0.0500 J0.0000 F1999.80
G2 X29.9500 Y107.0000 Z6.7239 I-0.0500 J0.0000 F1999.80
G2 X30.0500 Y107.0000 Z6.5261 I0.0500 J0.0000 F1999.80
G2 X29.9500 Y107.0000 Z6.3283 I-0.0500 J0.0000 F1999.80
G2 X30.0500 Y107.0000 Z6.1304 I0.0500 J0.0000 F1999.80
G2 X29.9500 Y107.0000 Z5.9326 I-0.0500 J0.0000 F1999.80
G2 X30.0500 Y107.0000 Z5.7348 I0.0500 J0.0000 F1999.80
G2 X29.9500 Y107.0000 Z5.5370 I-0.0500 J0.0000 F1999.80
G2 X30.0500 Y107.0000 Z5.3391 I0.0500 J0.0000 F1999.80
G2 X29.9500 Y107.0000 Z5.1413 I-0.0500 J0.0000 F1999.80
G2 X30.0500 Y107.0000 Z4.9435 I0.0500 J0.0000 F1999.80
G2 X29.9500 Y107.0000 Z4.7457 I-0.0500 J0.0000 F1999.80
G2 X30.0500 Y107.0000 Z4.5478 I0.0500 J0.0000 F1999.80
G2 X29.9500 Y107.0000 Z4.3500 I-0.0500 J0.0000 F1999.80
G2 X30.0500 Y107.0000 Z4.1522 I0.0500 J0.0000 F1999.80
G2 X29.9500 Y107.0000 Z3.9543 I-0.0500 J0.0000 F1999.80
G2 X30.0500 Y107.0000 Z3.7565 I0.0500 J0.0000 F1999.80
G2 X29.9500 Y107.0000 Z3.5587 I-0.0500 J0.0000 F1999.80
G2 X30.0500 Y107.0000 Z3.3609 I0.0500 J0.0000 F1999.80
G2 X29.9500 Y107.0000 Z3.1630 I-0.0500 J0.0000 F1999.80
G2 X30.0500 Y107.0000 Z2.9652 I0.0500 J0.0000 F1999.80
G2 X29.9500 Y107.0000 Z2.7674 I-0.0500 J0.0000 F1999.80
G2 X30.0500 Y107.0000 Z2.5696 I0.0500 J0.0000 F1999.80
G2 X29.9500 Y107.0000 Z2.3717 I-0.0500 J0.0000 F1999.80
G2 X30.0500 Y107.0000 Z2.1739 I0.0500 J0.0000 F1999.80
G2 X29.9500 Y107.0000 Z1.9761 I-0.0500 J0.0000 F1999.80
G2 X30.0500 Y107.0000 Z1.7783 I0.0500 J0.0000 F1999.80
G2 X29.9500 Y107.0000 Z1.5804 I-0.0500 J0.0000 F1999.80
G2 X30.0500 Y107.0000 Z1.3826 I0.0500 J0.0000 F1999.80
G2 X29.9500 Y107.0000 Z1.1848 I-0.0500 J0.0000 F1999.80
G2 X30.0500 Y107.0000 Z0.9870 I0.0500 J0.0000 F1999.80
G2 X29.9500 Y107.0000 Z0.7891 I-0.0500 J0.0000 F1999.80
G2 X30.0500 Y107.0000 Z0.5913 I0.0500 J0.0000 F1999.80
G2 X29.9500 Y107.0000 Z0.3935 I-0.0500 J0.0000 F1999.80
G2 X30.0500 Y107.0000 Z0.1957 I0.0500 J0.0000 F1999.80
G2 X29.9500 Y107.0000 Z-0.0022 I-0.0500 J0.0000 F1999.80
G2 X30.0500 Y107.0000 Z-0.2000 I0.0500 J0.0000 F1999.80
G2 X29.9500 Y107.0000 Z-0.2000 I-0.0500 J0.0000 F1999.80
G2 X30.0500 Y107.0000 Z-0.2000 I0.0500 J0.0000 F1999.80
G0 Z21.0000
G0 X30.0500 Y37.0000
G0 Z21.0000
G1 Z18.0000 F999.60
G2 X29.9500 Y37.0000 Z17.8022 I-0.0500 J0.0000 F1999.80
G2 X30.0500 Y37.0000 Z17.6043 I0.0500 J0.0000 F1999.80
G2 X29.9500 Y37.0000 Z17.4065 I-0.0500 J0.0000 F1999.80
G2 X30.0500 Y37.0000 Z17.2087 I0.0500 J0.0000 F1999.80
G2 X29.9500 Y37.0000 Z17.0109 I-0.0500 J0.0000 F1999.80
G2 X30.0500 Y37.0000 Z16.8130 I0.0500 J0.0000 F1999.80
G2 X29.9500 Y37.0000 Z16.6152 I-0.0500 J0.0000 F1999.80
G2 X30.0500 Y37.0000 Z16.4174 I0.0500 J0.0000 F1999.80
G2 X29.9500 Y37.0000 Z16.2196 I-0.0500 J0.0000 F1999.80
G2 X30.0500 Y37.0000 Z16.0217 I0.0500 J0.0000 F1999.80
G2 X29.9500 Y37.0000 Z15.8239 I-0.0500 J0.0000 F1999.80
G2 X30.0500 Y37.0000 Z15.6261 I0.0500 J0.0000 F1999.80
G2 X29.9500 Y37.0000 Z15.4283 I-0.0500 J0.0000 F1999.80
G2 X30.0500 Y37.0000 Z15.2304 I0.0500 J0.0000 F1999.80
G2 X29.9500 Y37.0000 Z15.0326 I-0.0500 J0.0000 F1999.80
G2 X30.0500 Y37.0000 Z14.8348 I0.0500 J0.0000 F1999.80
G2 X29.9500 Y37.0000 Z14.6370 I-0.0500 J0.0000 F1999.80
G2 X30.0500 Y37.0000 Z14.4391 I0.0500 J0.0000 F1999.80
G2 X29.9500 Y37.0000 Z14.2413 I-0.0500 J0.0000 F1999.80
G2 X30.0500 Y37.0000 Z14.0435 I0.0500 J0.0000 F1999.80
G2 X29.9500 Y37.0000 Z13.8457 I-0.0500 J0.0000 F1999.80
G2 X30.0500 Y37.0000 Z13.6478 I0.0500 J0.0000 F1999.80
G2 X29.9500 Y37.0000 Z13.4500 I-0.0500 J0.0000 F1999.80
G2 X30.0500 Y37.0000 Z13.2522 I0.0500 J0.0000 F1999.80
G2 X29.9500 Y37.0000 Z13.0543 I-0.0500 J0.0000 F1999.80
G2 X30.0500 Y37.0000 Z12.8565 I0.0500 J0.0000 F1999.80
G2 X29.9500 Y37.0000 Z12.6587 I-0.0500 J0.0000 F1999.80
G2 X30.0500 Y37.0000 Z12.4609 I0.0500 J0.0000 F1999.80
G2 X29.9500 Y37.0000 Z12.2630 I-0.0500 J0.0000 F1999.80
G2 X30.0500 Y37.0000 Z12.0652 I0.0500 J0.0000 F1999.80
G2 X29.9500 Y37.0000 Z11.8674 I-0.0500 J0.0000 F1999.80
G2 X30.0500 Y37.0000 Z11.6696 I0.0500 J0.0000 F1999.80
G2 X29.9500 Y37.0000 Z11.4717 I-0.0500 J0.0000 F1999.80
G2 X30.0500 Y37.0000 Z11.2739 I0.0500 J0.0000 F1999.80
G2 X29.9500 Y37.0000 Z11.0761 I-0.0500 J0.0000 F1999.80
G2 X30.0500 Y37.0000 Z10.8783 I0.0500 J0.0000 F1999.80
G2 X29.9500 Y37.0000 Z10.6804 I-0.0500 J0.0000 F1999.80
G2 X30.0500 Y37.0000 Z10.4826 I0.0500 J0.0000 F1999.80
G2 X29.9500 Y37.0000 Z10.2848 I-0.0500 J0.0000 F1999.80
G2 X30.0500 Y37.0000 Z10.0870 I0.0500 J0.0000 F1999.80
G2 X29.9500 Y37.0000 Z9.8891 I-0.0500 J0.0000 F1999.80
G2 X30.0500 Y37.0000 Z9.6913 I0.0500 J0.0000 F1999.80
G2 X29.9500 Y37.0000 Z9.4935 I-0.0500 J0.0000 F1999.80
G2 X30.0500 Y37.0000 Z9.2957 I0.0500 J0.0000 F1999.80
G2 X29.9500 Y37.0000 Z9.0978 I-0.0500 J0.0000 F1999.80
G2 X30.0500 Y37.0000 Z8.9000 I0.0500 J0.0000 F1999.80
G2 X29.9500 Y37.0000 Z8.7022 I-0.0500 J0.0000 F1999.80
G2 X30.0500 Y37.0000 Z8.5043 I0.0500 J0.0000 F1999.80
G2 X29.9500 Y37.0000 Z8.3065 I-0.0500 J0.0000 F1999.80
G2 X30.0500 Y37.0000 Z8.1087 I0.0500 J0.0000 F1999.80
G2 X29.9500 Y37.0000 Z7.9109 I-0.0500 J0.0000 F1999.80
G2 X30.0500 Y37.0000 Z7.7130 I0.0500 J0.0000 F1999.80
G2 X29.9500 Y37.0000 Z7.5152 I-0.0500 J0.0000 F1999.80
G2 X30.0500 Y37.0000 Z7.3174 I0.0500 J0.0000 F1999.80
G2 X29.9500 Y37.0000 Z7.1196 I-0.0500 J0.0000 F1999.80
G2 X30.0500 Y37.0000 Z6.9217 I0.0500 J0.0000 F1999.80
G2 X29.9500 Y37.0000 Z6.7239 I-0.0500 J0.0000 F1999.80
G2 X30.0500 Y37.0000 Z6.5261 I0.0500 J0.0000 F1999.80
G2 X29.9500 Y37.0000 Z6.3283 I-0.0500 J0.0000 F1999.80
G2 X30.0500 Y37.0000 Z6.1304 I0.0500 J0.0000 F1999.80
G2 X29.9500 Y37.0000 Z5.9326 I-0.0500 J0.0000 F1999.80
G2 X30.0500 Y37.0000 Z5.7348 I0.0500 J0.0000 F1999.80
G2 X29.9500 Y37.0000 Z5.5370 I-0.0500 J0.0000 F1999.80
G2 X30.0500 Y37.0000 Z5.3391 I0.0500 J0.0000 F1999.80
G2 X29.9500 Y37.0000 Z5.1413 I-0.0500 J0.0000 F1999.80
G2 X30.0500 Y37.0000 Z4.9435 I0.0500 J0.0000 F1999.80
G2 X29.9500 Y37.0000 Z4.7457 I-0.0500 J0.0000 F1999.80
G2 X30.0500 Y37.0000 Z4.5478 I0.0500 J0.0000 F1999.80
G2 X29.9500 Y37.0000 Z4.3500 I-0.0500 J0.0000 F1999.80
G2 X30.0500 Y37.0000 Z4.1522 I0.0500 J0.0000 F1999.80
G2 X29.9500 Y37.0000 Z3.9543 I-0.0500 J0.0000 F1999.80
G2 X30.0500 Y37.0000 Z3.7565 I0.0500 J0.0000 F1999.80
G2 X29.9500 Y37.0000 Z3.5587 I-0.0500 J0.0000 F1999.80
G2 X30.0500 Y37.0000 Z3.3609 I0.0500 J0.0000 F1999.80
G2 X29.9500 Y37.0000 Z3.1630 I-0.0500 J0.0000 F1999.80
G2 X30.0500 Y37.0000 Z2.9652 I0.0500 J0.0000 F1999.80
G2 X29.9500 Y37.0000 Z2.7674 I-0.0500 J0.0000 F1999.80
G2 X30.0500 Y37.0000 Z2.5696 I0.0500 J0.0000 F1999.80
G2 X29.9500 Y37.0000 Z2.3717 I-0.0500 J0.0000 F1999.80
G2 X30.0500 Y37.0000 Z2.1739 I0.0500 J0.0000 F1999.80
G2 X29.9500 Y37.0000 Z1.9761 I-0.0500 J0.0000 F1999.80
G2 X30.0500 Y37.0000 Z1.7783 I0.0500 J0.0000 F1999.80
G2 X29.9500 Y37.0000 Z1.5804 I-0.0500 J0.0000 F1999.80
G2 X30.0500 Y37.0000 Z1.3826 I0.0500 J0.0000 F1999.80
G2 X29.9500 Y37.0000 Z1.1848 I-0.0500 J0.0000 F1999.80
G2 X30.0500 Y37.0000 Z0.9870 I0.0500 J0.0000 F1999.80
G2 X29.9500 Y37.0000 Z0.7891 I-0.0500 J0.0000 F1999.80
G2 X30.0500 Y37.0000 Z0.5913 I0.0500 J0.0000 F1999.80
G2 X29.9500 Y37.0000 Z0.3935 I-0.0500 J0.0000 F1999.80
G2 X30.0500 Y37.0000 Z0.1957 I0.0500 J0.0000 F1999.80
G2 X29.9500 Y37.0000 Z-0.0022 I-0.0500 J0.0000 F1999.80
G2 X30.0500 Y37.0000 Z-0.2000 I0.0500 J0.0000 F1999.80
G2 X29.9500 Y37.0000 Z-0.2000 I-0.0500 J0.0000 F1999.80
G2 X30.0500 Y37.0000 Z-0.2000 I0.0500 J0.0000 F1999.80
G0 Z21.0000
G0 X294.0500 Y107.0000
G0 Z21.0000
G1 Z18.0000 F999.60
G2 X293.9500 Y107.0000 Z17.8022 I-0.0500 J0.0000 F1999.80
G2 X294.0500 Y107.0000 Z17.6043 I0.0500 J0.0000 F1999.80
G2 X293.9500 Y107.0000 Z17.4065 I-0.0500 J0.0000 F1999.80
G2 X294.0500 Y107.0000 Z17.2087 I0.0500 J0.0000 F1999.80
G2 X293.9500 Y107.0000 Z17.0109 I-0.0500 J0.0000 F1999.80
G2 X294.0500 Y107.0000 Z16.8130 I0.0500 J0.0000 F1999.80
G2 X293.9500 Y107.0000 Z16.6152 I-0.0500 J0.0000 F1999.80
G2 X294.0500 Y107.0000 Z16.4174 I0.0500 J0.0000 F1999.80
G2 X293.9500 Y107.0000 Z16.2196 I-0.0500 J0.0000 F1999.80
G2 X294.0500 Y107.0000 Z16.0217 I0.0500 J0.0000 F1999.80
G2 X293.9500 Y107.0000 Z15.8239 I-0.0500 J0.0000 F1999.80
G2 X294.0500 Y107.0000 Z15.6261 I0.0500 J0.0000 F1999.80
G2 X293.9500 Y107.0000 Z15.4283 I-0.0500 J0.0000 F1999.80
G2 X294.0500 Y107.0000 Z15.2304 I0.0500 J0.0000 F1999.80
G2 X293.9500 Y107.0000 Z15.0326 I-0.0500 J0.0000 F1999.80
G2 X294.0500 Y107.0000 Z14.8348 I0.0500 J0.0000 F1999.80
G2 X293.9500 Y107.0000 Z14.6370 I-0.0500 J0.0000 F1999.80
G2 X294.0500 Y107.0000 Z14.4391 I0.0500 J0.0000 F1999.80
G2 X293.9500 Y107.0000 Z14.2413 I-0.0500 J0.0000 F1999.80
G2 X294.0500 Y107.0000 Z14.0435 I0.0500 J0.0000 F1999.80
G2 X293.9500 Y107.0000 Z13.8457 I-0.0500 J0.0000 F1999.80
G2 X294.0500 Y107.0000 Z13.6478 I0.0500 J0.0000 F1999.80
G2 X293.9500 Y107.0000 Z13.4500 I-0.0500 J0.0000 F1999.80
G2 X294.0500 Y107.0000 Z13.2522 I0.0500 J0.0000 F1999.80
G2 X293.9500 Y107.0000 Z13.0543 I-0.0500 J0.0000 F1999.80
G2 X294.0500 Y107.0000 Z12.8565 I0.0500 J0.0000 F1999.80
G2 X293.9500 Y107.0000 Z12.6587 I-0.0500 J0.0000 F1999.80
G2 X294.0500 Y107.0000 Z12.4609 I0.0500 J0.0000 F1999.80
G2 X293.9500 Y107.0000 Z12.2630 I-0.0500 J0.0000 F1999.80
G2 X294.0500 Y107.0000 Z12.0652 I0.0500 J0.0000 F1999.80
G2 X293.9500 Y107.0000 Z11.8674 I-0.0500 J0.0000 F1999.80
G2 X294.0500 Y107.0000 Z11.6696 I0.0500 J0.0000 F1999.80
G2 X293.9500 Y107.0000 Z11.4717 I-0.0500 J0.0000 F1999.80
G2 X294.0500 Y107.0000 Z11.2739 I0.0500 J0.0000 F1999.80
G2 X293.9500 Y107.0000 Z11.0761 I-0.0500 J0.0000 F1999.80
G2 X294.0500 Y107.0000 Z10.8783 I0.0500 J0.0000 F1999.80
G2 X293.9500 Y107.0000 Z10.6804 I-0.0500 J0.0000 F1999.80
G2 X294.0500 Y107.0000 Z10.4826 I0.0500 J0.0000 F1999.80
G2 X293.9500 Y107.0000 Z10.2848 I-0.0500 J0.0000 F1999.80
G2 X294.0500 Y107.0000 Z10.0870 I0.0500 J0.0000 F1999.80
G2 X293.9500 Y107.0000 Z9.8891 I-0.0500 J0.0000 F1999.80
G2 X294.0500 Y107.0000 Z9.6913 I0.0500 J0.0000 F1999.80
G2 X293.9500 Y107.0000 Z9.4935 I-0.0500 J0.0000 F1999.80
G2 X294.0500 Y107.0000 Z9.2957 I0.0500 J0.0000 F1999.80
G2 X293.9500 Y107.0000 Z9.0978 I-0.0500 J0.0000 F1999.80
G2 X294.0500 Y107.0000 Z8.9000 I0.0500 J0.0000 F1999.80
G2 X293.9500 Y107.0000 Z8.7022 I-0.0500 J0.0000 F1999.80
G2 X294.0500 Y107.0000 Z8.5043 I0.0500 J0.0000 F1999.80
G2 X293.9500 Y107.0000 Z8.3065 I-0.0500 J0.0000 F1999.80
G2 X294.0500 Y107.0000 Z8.1087 I0.0500 J0.0000 F1999.80
G2 X293.9500 Y107.0000 Z7.9109 I-0.0500 J0.0000 F1999.80
G2 X294.0500 Y107.0000 Z7.7130 I0.0500 J0.0000 F1999.80
G2 X293.9500 Y107.0000 Z7.5152 I-0.0500 J0.0000 F1999.80
G2 X294.0500 Y107.0000 Z7.3174 I0.0500 J0.0000 F1999.80
G2 X293.9500 Y107.0000 Z7.1196 I-0.0500 J0.0000 F1999.80
G2 X294.0500 Y107.0000 Z6.9217 I0.0500 J0.0000 F1999.80
G2 X293.9500 Y107.0000 Z6.7239 I-0.0500 J0.0000 F1999.80
G2 X294.0500 Y107.0000 Z6.5261 I0.0500 J0.0000 F1999.80
G2 X293.9500 Y107.0000 Z6.3283 I-0.0500 J0.0000 F1999.80
G2 X294.0500 Y107.0000 Z6.1304 I0.0500 J0.0000 F1999.80
G2 X293.9500 Y107.0000 Z5.9326 I-0.0500 J0.0000 F1999.80
G2 X294.0500 Y107.0000 Z5.7348 I0.0500 J0.0000 F1999.80
G2 X293.9500 Y107.0000 Z5.5370 I-0.0500 J0.0000 F1999.80
G2 X294.0500 Y107.0000 Z5.3391 I0.0500 J0.0000 F1999.80
G2 X293.9500 Y107.0000 Z5.1413 I-0.0500 J0.0000 F1999.80
G2 X294.0500 Y107.0000 Z4.9435 I0.0500 J0.0000 F1999.80
G2 X293.9500 Y107.0000 Z4.7457 I-0.0500 J0.0000 F1999.80
G2 X294.0500 Y107.0000 Z4.5478 I0.0500 J0.0000 F1999.80
G2 X293.9500 Y107.0000 Z4.3500 I-0.0500 J0.0000 F1999.80
G2 X294.0500 Y107.0000 Z4.1522 I0.0500 J0.0000 F1999.80
G2 X293.9500 Y107.0000 Z3.9543 I-0.0500 J0.0000 F1999.80
G2 X294.0500 Y107.0000 Z3.7565 I0.0500 J0.0000 F1999.80
G2 X293.9500 Y107.0000 Z3.5587 I-0.0500 J0.0000 F1999.80
G2 X294.0500 Y107.0000 Z3.3609 I0.0500 J0.0000 F1999.80
G2 X293.9500 Y107.0000 Z3.1630 I-0.0500 J0.0000 F1999.80
G2 X294.0500 Y107.0000 Z2.9652 I0.0500 J0.0000 F1999.80
G2 X293.9500 Y107.0000 Z2.7674 I-0.0500 J0.0000 F1999.80
G2 X294.0500 Y107.0000 Z2.5696 I0.0500 J0.0000 F1999.80
G2 X293.9500 Y107.0000 Z2.3717 I-0.0500 J0.0000 F1999.80
G2 X294.0500 Y107.0000 Z2.1739 I0.0500 J0.0000 F1999.80
G2 X293.9500 Y107.0000 Z1.9761 I-0.0500 J0.0000 F1999.80
G2 X294.0500 Y107.0000 Z1.7783 I0.0500 J0.0000 F1999.80
G2 X293.9500 Y107.0000 Z1.5804 I-0.0500 J0.0000 F1999.80
G2 X294.0500 Y107.0000 Z1.3826 I0.0500 J0.0000 F1999.80
G2 X293.9500 Y107.0000 Z1.1848 I-0.0500 J0.0000 F1999.80
G2 X294.0500 Y107.0000 Z0.9870 I0.0500 J0.0000 F1999.80
G2 X293.9500 Y107.0000 Z0.7891 I-0.0500 J0.0000 F1999.80
G2 X294.0500 Y107.0000 Z0.5913 I0.0500 J0.0000 F1999.80
G2 X293.9500 Y107.0000 Z0.3935 I-0.0500 J0.0000 F1999.80
G2 X294.0500 Y107.0000 Z0.1957 I0.0500 J0.0000 F1999.80
G2 X293.9500 Y107.0000 Z-0.0022 I-0.0500 J0.0000 F1999.80
G2 X294.0500 Y107.0000 Z-0.2000 I0.0500 J0.0000 F1999.80
G2 X293.9500 Y107.0000 Z-0.2000 I-0.0500 J0.0000 F1999.80
G2 X294.0500 Y107.0000 Z-0.2000 I0.0500 J0.0000 F1999.80
G0 Z21.0000
G0 X294.0500 Y37.0000
G0 Z21.0000
G1 Z18.0000 F999.60
G2 X293.9500 Y37.0000 Z17.8022 I-0.0500 J0.0000 F1999.80
G2 X294.0500 Y37.0000 Z17.6043 I0.0500 J0.0000 F1999.80
G2 X293.9500 Y37.0000 Z17.4065 I-0.0500 J0.0000 F1999.80
G2 X294.0500 Y37.0000 Z17.2087 I0.0500 J0.0000 F1999.80
G2 X293.9500 Y37.0000 Z17.0109 I-0.0500 J0.0000 F1999.80
G2 X294.0500 Y37.0000 Z16.8130 I0.0500 J0.0000 F1999.80
G2 X293.9500 Y37.0000 Z16.6152 I-0.0500 J0.0000 F1999.80
G2 X294.0500 Y37.0000 Z16.4174 I0.0500 J0.0000 F1999.80
G2 X293.9500 Y37.0000 Z16.2196 I-0.0500 J0.0000 F1999.80
G2 X294.0500 Y37.0000 Z16.0217 I0.0500 J0.0000 F1999.80
G2 X293.9500 Y37.0000 Z15.8239 I-0.0500 J0.0000 F1999.80
G2 X294.0500 Y37.0000 Z15.6261 I0.0500 J0.0000 F1999.80
G2 X293.9500 Y37.0000 Z15.4283 I-0.0500 J0.0000 F1999.80
G2 X294.0500 Y37.0000 Z15.2304 I0.0500 J0.0000 F1999.80
G2 X293.9500 Y37.0000 Z15.0326 I-0.0500 J0.0000 F1999.80
G2 X294.0500 Y37.0000 Z14.8348 I0.0500 J0.0000 F1999.80
G2 X293.9500 Y37.0000 Z14.6370 I-0.0500 J0.0000 F1999.80
G2 X294.0500 Y37.0000 Z14.4391 I0.0500 J0.0000 F1999.80
G2 X293.9500 Y37.0000 Z14.2413 I-0.0500 J0.0000 F1999.80
G2 X294.0500 Y37.0000 Z14.0435 I0.0500 J0.0000 F1999.80
G2 X293.9500 Y37.0000 Z13.8457 I-0.0500 J0.0000 F1999.80
G2 X294.0500 Y37.0000 Z13.6478 I0.0500 J0.0000 F1999.80
G2 X293.9500 Y37.0000 Z13.4500 I-0.0500 J0.0000 F1999.80
G2 X294.0500 Y37.0000 Z13.2522 I0.0500 J0.0000 F1999.80
G2 X293.9500 Y37.0000 Z13.0543 I-0.0500 J0.0000 F1999.80
G2 X294.0500 Y37.0000 Z12.8565 I0.0500 J0.0000 F1999.80
G2 X293.9500 Y37.0000 Z12.6587 I-0.0500 J0.0000 F1999.80
G2 X294.0500 Y37.0000 Z12.4609 I0.0500 J0.0000 F1999.80
G2 X293.9500 Y37.0000 Z12.2630 I-0.0500 J0.0000 F1999.80
G2 X294.0500 Y37.0000 Z12.0652 I0.0500 J0.0000 F1999.80
G2 X293.9500 Y37.0000 Z11.8674 I-0.0500 J0.0000 F1999.80
G2 X294.0500 Y37.0000 Z11.6696 I0.0500 J0.0000 F1999.80
G2 X293.9500 Y37.0000 Z11.4717 I-0.0500 J0.0000 F1999.80
G2 X294.0500 Y37.0000 Z11.2739 I0.0500 J0.0000 F1999.80
G2 X293.9500 Y37.0000 Z11.0761 I-0.0500 J0.0000 F1999.80
G2 X294.0500 Y37.0000 Z10.8783 I0.0500 J0.0000 F1999.80
G2 X293.9500 Y37.0000 Z10.6804 I-0.0500 J0.0000 F1999.80
G2 X294.0500 Y37.0000 Z10.4826 I0.0500 J0.0000 F1999.80
G2 X293.9500 Y37.0000 Z10.2848 I-0.0500 J0.0000 F1999.80
G2 X294.0500 Y37.0000 Z10.0870 I0.0500 J0.0000 F1999.80
G2 X293.9500 Y37.0000 Z9.8891 I-0.0500 J0.0000 F1999.80
G2 X294.0500 Y37.0000 Z9.6913 I0.0500 J0.0000 F1999.80
G2 X293.9500 Y37.0000 Z9.4935 I-0.0500 J0.0000 F1999.80
G2 X294.0500 Y37.0000 Z9.2957 I0.0500 J0.0000 F1999.80
G2 X293.9500 Y37.0000 Z9.0978 I-0.0500 J0.0000 F1999.80
G2 X294.0500 Y37.0000 Z8.9000 I0.0500 J0.0000 F1999.80
G2 X293.9500 Y37.0000 Z8.7022 I-0.0500 J0.0000 F1999.80
G2 X294.0500 Y37.0000 Z8.5043 I0.0500 J0.0000 F1999.80
G2 X293.9500 Y37.0000 Z8.3065 I-0.0500 J0.0000 F1999.80
G2 X294.0500 Y37.0000 Z8.1087 I0.0500 J0.0000 F1999.80
G2 X293.9500 Y37.0000 Z7.9109 I-0.0500 J0.0000 F1999.80
G2 X294.0500 Y37.0000 Z7.7130 I0.0500 J0.0000 F1999.80
G2 X293.9500 Y37.0000 Z7.5152 I-0.0500 J0.0000 F1999.80
G2 X294.0500 Y37.0000 Z7.3174 I0.0500 J0.0000 F1999.80
G2 X293.9500 Y37.0000 Z7.1196 I-0.0500 J0.0000 F1999.80
G2 X294.0500 Y37.0000 Z6.9217 I0.0500 J0.0000 F1999.80
G2 X293.9500 Y37.0000 Z6.7239 I-0.0500 J0.0000 F1999.80
G2 X294.0500 Y37.0000 Z6.5261 I0.0500 J0.0000 F1999.80
G2 X293.9500 Y37.0000 Z6.3283 I-0.0500 J0.0000 F1999.80
G2 X294.0500 Y37.0000 Z6.1304 I0.0500 J0.0000 F1999.80
G2 X293.9500 Y37.0000 Z5.9326 I-0.0500 J0.0000 F1999.80
G2 X294.0500 Y37.0000 Z5.7348 I0.0500 J0.0000 F1999.80
G2 X293.9500 Y37.0000 Z5.5370 I-0.0500 J0.0000 F1999.80
G2 X294.0500 Y37.0000 Z5.3391 I0.0500 J0.0000 F1999.80
G2 X293.9500 Y37.0000 Z5.1413 I-0.0500 J0.0000 F1999.80
G2 X294.0500 Y37.0000 Z4.9435 I0.0500 J0.0000 F1999.80
G2 X293.9500 Y37.0000 Z4.7457 I-0.0500 J0.0000 F1999.80
G2 X294.0500 Y37.0000 Z4.5478 I0.0500 J0.0000 F1999.80
G2 X293.9500 Y37.0000 Z4.3500 I-0.0500 J0.0000 F1999.80
G2 X294.0500 Y37.0000 Z4.1522 I0.0500 J0.0000 F1999.80
G2 X293.9500 Y37.0000 Z3.9543 I-0.0500 J0.0000 F1999.80
G2 X294.0500 Y37.0000 Z3.7565 I0.0500 J0.0000 F1999.80
G2 X293.9500 Y37.0000 Z3.5587 I-0.0500 J0.0000 F1999.80
G2 X294.0500 Y37.0000 Z3.3609 I0.0500 J0.0000 F1999.80
G2 X293.9500 Y37.0000 Z3.1630 I-0.0500 J0.0000 F1999.80
G2 X294.0500 Y37.0000 Z2.9652 I0.0500 J0.0000 F1999.80
G2 X293.9500 Y37.0000 Z2.7674 I-0.0500 J0.0000 F1999.80
G2 X294.0500 Y37.0000 Z2.5696 I0.0500 J0.0000 F1999.80
G2 X293.9500 Y37.0000 Z2.3717 I-0.0500 J0.0000 F1999.80
G2 X294.0500 Y37.0000 Z2.1739 I0.0500 J0.0000 F1999.80
G2 X293.9500 Y37.0000 Z1.9761 I-0.0500 J0.0000 F1999.80
G2 X294.0500 Y37.0000 Z1.7783 I0.0500 J0.0000 F1999.80
G2 X293.9500 Y37.0000 Z1.5804 I-0.0500 J0.0000 F1999.80
G2 X294.0500 Y37.0000 Z1.3826 I0.0500 J0.0000 F1999.80
G2 X293.9500 Y37.0000 Z1.1848 I-0.0500 J0.0000 F1999.80
G2 X294.0500 Y37.0000 Z0.9870 I0.0500 J0.0000 F1999.80
G2 X293.9500 Y37.0000 Z0.7891 I-0.0500 J0.0000 F1999.80
G2 X294.0500 Y37.0000 Z0.5913 I0.0500 J0.0000 F1999.80
G2 X293.9500 Y37.0000 Z0.3935 I-0.0500 J0.0000 F1999.80
G2 X294.0500 Y37.0000 Z0.1957 I0.0500 J0.0000 F1999.80
G2 X293.9500 Y37.0000 Z-0.0022 I-0.0500 J0.0000 F1999.80
G2 X294.0500 Y37.0000 Z-0.2000 I0.0500 J0.0000 F1999.80
G2 X293.9500 Y37.0000 Z-0.2000 I-0.0500 J0.0000 F1999.80
G2 X294.0500 Y37.0000 Z-0.2000 I0.0500 J0.0000 F1999.80
G0 Z21.0000
G0 Z23.0000
(finish operation: Helix003)
(begin postamble)
M5
G17 G90
; M2
