(Exported by FreeCAD)
(Post Processor: grbl_post)
(Output Time:2020-03-30 20:33:19.276843)
(begin preamble)
G17 G90
G21
(begin operation: T6: 2FluteWoodMill001)
(Path: T6: 2FluteWoodMill001)
(T6: 2FluteWoodMill001)
(begin toolchange)
; M6 T6
M3 S12000.0000
(finish operation: T6: 2FluteWoodMill001)
(begin operation: Pocket_Shape001)
(Path: Pocket_Shape001)
(Pocket_Shape001)
G0 Z24.0000
G0 X135.5000 Y148.5000
G0 Z22.0000
G1 X135.5000 Y148.5000 Z17.8000 F999.60
G1 X135.5000 Y133.5000 Z17.8000 F1999.80
G1 X1.5000 Y133.5000 Z17.8000 F1999.80
G1 X1.5000 Y148.5000 Z17.8000 F1999.80
G1 X135.5000 Y148.5000 Z17.8000 F1999.80
G0 X135.5000 Y148.5000 Z24.0000
G0 X133.2500 Y146.2500 Z24.0000
G1 X133.2500 Y146.2500 Z17.8000 F999.60
G1 X133.2500 Y135.7500 Z17.8000 F1999.80
G1 X3.7500 Y135.7500 Z17.8000 F1999.80
G1 X3.7500 Y146.2500 Z17.8000 F1999.80
G1 X133.2500 Y146.2500 Z17.8000 F1999.80
G0 X133.2500 Y146.2500 Z24.0000
G0 X131.0000 Y144.0000 Z24.0000
G1 X131.0000 Y144.0000 Z17.8000 F999.60
G1 X131.0000 Y138.0000 Z17.8000 F1999.80
G1 X6.0000 Y138.0000 Z17.8000 F1999.80
G1 X6.0000 Y144.0000 Z17.8000 F1999.80
G1 X131.0000 Y144.0000 Z17.8000 F1999.80
G0 X131.0000 Y144.0000 Z24.0000
G0 X128.7500 Y141.7500 Z24.0000
G1 X128.7500 Y141.7500 Z17.8000 F999.60
G1 X128.7500 Y140.2500 Z17.8000 F1999.80
G1 X8.2500 Y140.2500 Z17.8000 F1999.80
G1 X8.2500 Y141.7500 Z17.8000 F1999.80
G1 X128.7500 Y141.7500 Z17.8000 F1999.80
G1 X128.7500 Y141.7500 Z17.4000 F999.60
G1 X128.7500 Y140.2500 Z17.4000 F1999.80
G1 X8.2500 Y140.2500 Z17.4000 F1999.80
G1 X8.2500 Y141.7500 Z17.4000 F1999.80
G1 X128.7500 Y141.7500 Z17.4000 F1999.80
G0 X128.7500 Y141.7500 Z24.0000
G0 X131.0000 Y141.7500 Z24.0000
G1 X131.0000 Y141.7500 Z17.4000 F999.60
G1 X131.0000 Y138.0000 Z17.4000 F1999.80
G1 X6.0000 Y138.0000 Z17.4000 F1999.80
G1 X6.0000 Y144.0000 Z17.4000 F1999.80
G1 X131.0000 Y144.0000 Z17.4000 F1999.80
G1 X131.0000 Y141.7500 Z17.4000 F1999.80
G0 X131.0000 Y141.7500 Z24.0000
G0 X133.2500 Y141.7500 Z24.0000
G1 X133.2500 Y141.7500 Z17.4000 F999.60
G1 X133.2500 Y135.7500 Z17.4000 F1999.80
G1 X3.7500 Y135.7500 Z17.4000 F1999.80
G1 X3.7500 Y146.2500 Z17.4000 F1999.80
G1 X133.2500 Y146.2500 Z17.4000 F1999.80
G1 X133.2500 Y141.7500 Z17.4000 F1999.80
G0 X133.2500 Y141.7500 Z24.0000
G0 X135.5000 Y141.7500 Z24.0000
G1 X135.5000 Y141.7500 Z17.4000 F999.60
G1 X135.5000 Y133.5000 Z17.4000 F1999.80
G1 X1.5000 Y133.5000 Z17.4000 F1999.80
G1 X1.5000 Y148.5000 Z17.4000 F1999.80
G1 X135.5000 Y148.5000 Z17.4000 F1999.80
G1 X135.5000 Y141.7500 Z17.4000 F1999.80
G1 X135.5000 Y141.7500 Z17.0000 F999.60
G1 X135.5000 Y133.5000 Z17.0000 F1999.80
G1 X1.5000 Y133.5000 Z17.0000 F1999.80
G1 X1.5000 Y148.5000 Z17.0000 F1999.80
G1 X135.5000 Y148.5000 Z17.0000 F1999.80
G1 X135.5000 Y141.7500 Z17.0000 F1999.80
G0 X135.5000 Y141.7500 Z24.0000
G0 X133.2500 Y141.7500 Z24.0000
G1 X133.2500 Y141.7500 Z17.0000 F999.60
G1 X133.2500 Y135.7500 Z17.0000 F1999.80
G1 X3.7500 Y135.7500 Z17.0000 F1999.80
G1 X3.7500 Y146.2500 Z17.0000 F1999.80
G1 X133.2500 Y146.2500 Z17.0000 F1999.80
G1 X133.2500 Y141.7500 Z17.0000 F1999.80
G0 X133.2500 Y141.7500 Z24.0000
G0 X131.0000 Y141.7500 Z24.0000
G1 X131.0000 Y141.7500 Z17.0000 F999.60
G1 X131.0000 Y138.0000 Z17.0000 F1999.80
G1 X6.0000 Y138.0000 Z17.0000 F1999.80
G1 X6.0000 Y144.0000 Z17.0000 F1999.80
G1 X131.0000 Y144.0000 Z17.0000 F1999.80
G1 X131.0000 Y141.7500 Z17.0000 F1999.80
G0 X131.0000 Y141.7500 Z24.0000
G0 X128.7500 Y141.7500 Z24.0000
G1 X128.7500 Y141.7500 Z17.0000 F999.60
G1 X128.7500 Y140.2500 Z17.0000 F1999.80
G1 X8.2500 Y140.2500 Z17.0000 F1999.80
G1 X8.2500 Y141.7500 Z17.0000 F1999.80
G1 X128.7500 Y141.7500 Z17.0000 F1999.80
G1 X128.7500 Y141.7500 Z16.6000 F999.60
G1 X128.7500 Y140.2500 Z16.6000 F1999.80
G1 X8.2500 Y140.2500 Z16.6000 F1999.80
G1 X8.2500 Y141.7500 Z16.6000 F1999.80
G1 X128.7500 Y141.7500 Z16.6000 F1999.80
G0 X128.7500 Y141.7500 Z24.0000
G0 X131.0000 Y141.7500 Z24.0000
G1 X131.0000 Y141.7500 Z16.6000 F999.60
G1 X131.0000 Y138.0000 Z16.6000 F1999.80
G1 X6.0000 Y138.0000 Z16.6000 F1999.80
G1 X6.0000 Y144.0000 Z16.6000 F1999.80
G1 X131.0000 Y144.0000 Z16.6000 F1999.80
G1 X131.0000 Y141.7500 Z16.6000 F1999.80
G0 X131.0000 Y141.7500 Z24.0000
G0 X133.2500 Y141.7500 Z24.0000
G1 X133.2500 Y141.7500 Z16.6000 F999.60
G1 X133.2500 Y135.7500 Z16.6000 F1999.80
G1 X3.7500 Y135.7500 Z16.6000 F1999.80
G1 X3.7500 Y146.2500 Z16.6000 F1999.80
G1 X133.2500 Y146.2500 Z16.6000 F1999.80
G1 X133.2500 Y141.7500 Z16.6000 F1999.80
G0 X133.2500 Y141.7500 Z24.0000
G0 X135.5000 Y141.7500 Z24.0000
G1 X135.5000 Y141.7500 Z16.6000 F999.60
G1 X135.5000 Y133.5000 Z16.6000 F1999.80
G1 X1.5000 Y133.5000 Z16.6000 F1999.80
G1 X1.5000 Y148.5000 Z16.6000 F1999.80
G1 X135.5000 Y148.5000 Z16.6000 F1999.80
G1 X135.5000 Y141.7500 Z16.6000 F1999.80
G1 X135.5000 Y141.7500 Z16.2000 F999.60
G1 X135.5000 Y133.5000 Z16.2000 F1999.80
G1 X1.5000 Y133.5000 Z16.2000 F1999.80
G1 X1.5000 Y148.5000 Z16.2000 F1999.80
G1 X135.5000 Y148.5000 Z16.2000 F1999.80
G1 X135.5000 Y141.7500 Z16.2000 F1999.80
G0 X135.5000 Y141.7500 Z24.0000
G0 X133.2500 Y141.7500 Z24.0000
G1 X133.2500 Y141.7500 Z16.2000 F999.60
G1 X133.2500 Y135.7500 Z16.2000 F1999.80
G1 X3.7500 Y135.7500 Z16.2000 F1999.80
G1 X3.7500 Y146.2500 Z16.2000 F1999.80
G1 X133.2500 Y146.2500 Z16.2000 F1999.80
G1 X133.2500 Y141.7500 Z16.2000 F1999.80
G0 X133.2500 Y141.7500 Z24.0000
G0 X131.0000 Y141.7500 Z24.0000
G1 X131.0000 Y141.7500 Z16.2000 F999.60
G1 X131.0000 Y138.0000 Z16.2000 F1999.80
G1 X6.0000 Y138.0000 Z16.2000 F1999.80
G1 X6.0000 Y144.0000 Z16.2000 F1999.80
G1 X131.0000 Y144.0000 Z16.2000 F1999.80
G1 X131.0000 Y141.7500 Z16.2000 F1999.80
G0 X131.0000 Y141.7500 Z24.0000
G0 X128.7500 Y141.7500 Z24.0000
G1 X128.7500 Y141.7500 Z16.2000 F999.60
G1 X128.7500 Y140.2500 Z16.2000 F1999.80
G1 X8.2500 Y140.2500 Z16.2000 F1999.80
G1 X8.2500 Y141.7500 Z16.2000 F1999.80
G1 X128.7500 Y141.7500 Z16.2000 F1999.80
G1 X128.7500 Y141.7500 Z15.8000 F999.60
G1 X128.7500 Y140.2500 Z15.8000 F1999.80
G1 X8.2500 Y140.2500 Z15.8000 F1999.80
G1 X8.2500 Y141.7500 Z15.8000 F1999.80
G1 X128.7500 Y141.7500 Z15.8000 F1999.80
G0 X128.7500 Y141.7500 Z24.0000
G0 X131.0000 Y141.7500 Z24.0000
G1 X131.0000 Y141.7500 Z15.8000 F999.60
G1 X131.0000 Y138.0000 Z15.8000 F1999.80
G1 X6.0000 Y138.0000 Z15.8000 F1999.80
G1 X6.0000 Y144.0000 Z15.8000 F1999.80
G1 X131.0000 Y144.0000 Z15.8000 F1999.80
G1 X131.0000 Y141.7500 Z15.8000 F1999.80
G0 X131.0000 Y141.7500 Z24.0000
G0 X133.2500 Y141.7500 Z24.0000
G1 X133.2500 Y141.7500 Z15.8000 F999.60
G1 X133.2500 Y135.7500 Z15.8000 F1999.80
G1 X3.7500 Y135.7500 Z15.8000 F1999.80
G1 X3.7500 Y146.2500 Z15.8000 F1999.80
G1 X133.2500 Y146.2500 Z15.8000 F1999.80
G1 X133.2500 Y141.7500 Z15.8000 F1999.80
G0 X133.2500 Y141.7500 Z24.0000
G0 X135.5000 Y141.7500 Z24.0000
G1 X135.5000 Y141.7500 Z15.8000 F999.60
G1 X135.5000 Y133.5000 Z15.8000 F1999.80
G1 X1.5000 Y133.5000 Z15.8000 F1999.80
G1 X1.5000 Y148.5000 Z15.8000 F1999.80
G1 X135.5000 Y148.5000 Z15.8000 F1999.80
G1 X135.5000 Y141.7500 Z15.8000 F1999.80
G1 X135.5000 Y141.7500 Z15.4000 F999.60
G1 X135.5000 Y133.5000 Z15.4000 F1999.80
G1 X1.5000 Y133.5000 Z15.4000 F1999.80
G1 X1.5000 Y148.5000 Z15.4000 F1999.80
G1 X135.5000 Y148.5000 Z15.4000 F1999.80
G1 X135.5000 Y141.7500 Z15.4000 F1999.80
G0 X135.5000 Y141.7500 Z24.0000
G0 X133.2500 Y141.7500 Z24.0000
G1 X133.2500 Y141.7500 Z15.4000 F999.60
G1 X133.2500 Y135.7500 Z15.4000 F1999.80
G1 X3.7500 Y135.7500 Z15.4000 F1999.80
G1 X3.7500 Y146.2500 Z15.4000 F1999.80
G1 X133.2500 Y146.2500 Z15.4000 F1999.80
G1 X133.2500 Y141.7500 Z15.4000 F1999.80
G0 X133.2500 Y141.7500 Z24.0000
G0 X131.0000 Y141.7500 Z24.0000
G1 X131.0000 Y141.7500 Z15.4000 F999.60
G1 X131.0000 Y138.0000 Z15.4000 F1999.80
G1 X6.0000 Y138.0000 Z15.4000 F1999.80
G1 X6.0000 Y144.0000 Z15.4000 F1999.80
G1 X131.0000 Y144.0000 Z15.4000 F1999.80
G1 X131.0000 Y141.7500 Z15.4000 F1999.80
G0 X131.0000 Y141.7500 Z24.0000
G0 X128.7500 Y141.7500 Z24.0000
G1 X128.7500 Y141.7500 Z15.4000 F999.60
G1 X128.7500 Y140.2500 Z15.4000 F1999.80
G1 X8.2500 Y140.2500 Z15.4000 F1999.80
G1 X8.2500 Y141.7500 Z15.4000 F1999.80
G1 X128.7500 Y141.7500 Z15.4000 F1999.80
G1 X128.7500 Y141.7500 Z15.0000 F999.60
G1 X128.7500 Y140.2500 Z15.0000 F1999.80
G1 X8.2500 Y140.2500 Z15.0000 F1999.80
G1 X8.2500 Y141.7500 Z15.0000 F1999.80
G1 X128.7500 Y141.7500 Z15.0000 F1999.80
G0 X128.7500 Y141.7500 Z24.0000
G0 X131.0000 Y141.7500 Z24.0000
G1 X131.0000 Y141.7500 Z15.0000 F999.60
G1 X131.0000 Y138.0000 Z15.0000 F1999.80
G1 X6.0000 Y138.0000 Z15.0000 F1999.80
G1 X6.0000 Y144.0000 Z15.0000 F1999.80
G1 X131.0000 Y144.0000 Z15.0000 F1999.80
G1 X131.0000 Y141.7500 Z15.0000 F1999.80
G0 X131.0000 Y141.7500 Z24.0000
G0 X133.2500 Y141.7500 Z24.0000
G1 X133.2500 Y141.7500 Z15.0000 F999.60
G1 X133.2500 Y135.7500 Z15.0000 F1999.80
G1 X3.7500 Y135.7500 Z15.0000 F1999.80
G1 X3.7500 Y146.2500 Z15.0000 F1999.80
G1 X133.2500 Y146.2500 Z15.0000 F1999.80
G1 X133.2500 Y141.7500 Z15.0000 F1999.80
G0 X133.2500 Y141.7500 Z24.0000
G0 X135.5000 Y141.7500 Z24.0000
G1 X135.5000 Y141.7500 Z15.0000 F999.60
G1 X135.5000 Y133.5000 Z15.0000 F1999.80
G1 X1.5000 Y133.5000 Z15.0000 F1999.80
G1 X1.5000 Y148.5000 Z15.0000 F1999.80
G1 X135.5000 Y148.5000 Z15.0000 F1999.80
G1 X135.5000 Y141.7500 Z15.0000 F1999.80
G1 X135.5000 Y141.7500 Z14.6000 F999.60
G1 X135.5000 Y133.5000 Z14.6000 F1999.80
G1 X1.5000 Y133.5000 Z14.6000 F1999.80
G1 X1.5000 Y148.5000 Z14.6000 F1999.80
G1 X135.5000 Y148.5000 Z14.6000 F1999.80
G1 X135.5000 Y141.7500 Z14.6000 F1999.80
G0 X135.5000 Y141.7500 Z24.0000
G0 X133.2500 Y141.7500 Z24.0000
G1 X133.2500 Y141.7500 Z14.6000 F999.60
G1 X133.2500 Y135.7500 Z14.6000 F1999.80
G1 X3.7500 Y135.7500 Z14.6000 F1999.80
G1 X3.7500 Y146.2500 Z14.6000 F1999.80
G1 X133.2500 Y146.2500 Z14.6000 F1999.80
G1 X133.2500 Y141.7500 Z14.6000 F1999.80
G0 X133.2500 Y141.7500 Z24.0000
G0 X131.0000 Y141.7500 Z24.0000
G1 X131.0000 Y141.7500 Z14.6000 F999.60
G1 X131.0000 Y138.0000 Z14.6000 F1999.80
G1 X6.0000 Y138.0000 Z14.6000 F1999.80
G1 X6.0000 Y144.0000 Z14.6000 F1999.80
G1 X131.0000 Y144.0000 Z14.6000 F1999.80
G1 X131.0000 Y141.7500 Z14.6000 F1999.80
G0 X131.0000 Y141.7500 Z24.0000
G0 X128.7500 Y141.7500 Z24.0000
G1 X128.7500 Y141.7500 Z14.6000 F999.60
G1 X128.7500 Y140.2500 Z14.6000 F1999.80
G1 X8.2500 Y140.2500 Z14.6000 F1999.80
G1 X8.2500 Y141.7500 Z14.6000 F1999.80
G1 X128.7500 Y141.7500 Z14.6000 F1999.80
G1 X128.7500 Y141.7500 Z14.2000 F999.60
G1 X128.7500 Y140.2500 Z14.2000 F1999.80
G1 X8.2500 Y140.2500 Z14.2000 F1999.80
G1 X8.2500 Y141.7500 Z14.2000 F1999.80
G1 X128.7500 Y141.7500 Z14.2000 F1999.80
G0 X128.7500 Y141.7500 Z24.0000
G0 X131.0000 Y141.7500 Z24.0000
G1 X131.0000 Y141.7500 Z14.2000 F999.60
G1 X131.0000 Y138.0000 Z14.2000 F1999.80
G1 X6.0000 Y138.0000 Z14.2000 F1999.80
G1 X6.0000 Y144.0000 Z14.2000 F1999.80
G1 X131.0000 Y144.0000 Z14.2000 F1999.80
G1 X131.0000 Y141.7500 Z14.2000 F1999.80
G0 X131.0000 Y141.7500 Z24.0000
G0 X133.2500 Y141.7500 Z24.0000
G1 X133.2500 Y141.7500 Z14.2000 F999.60
G1 X133.2500 Y135.7500 Z14.2000 F1999.80
G1 X3.7500 Y135.7500 Z14.2000 F1999.80
G1 X3.7500 Y146.2500 Z14.2000 F1999.80
G1 X133.2500 Y146.2500 Z14.2000 F1999.80
G1 X133.2500 Y141.7500 Z14.2000 F1999.80
G0 X133.2500 Y141.7500 Z24.0000
G0 X135.5000 Y141.7500 Z24.0000
G1 X135.5000 Y141.7500 Z14.2000 F999.60
G1 X135.5000 Y133.5000 Z14.2000 F1999.80
G1 X1.5000 Y133.5000 Z14.2000 F1999.80
G1 X1.5000 Y148.5000 Z14.2000 F1999.80
G1 X135.5000 Y148.5000 Z14.2000 F1999.80
G1 X135.5000 Y141.7500 Z14.2000 F1999.80
G1 X135.5000 Y141.7500 Z13.8000 F999.60
G1 X135.5000 Y133.5000 Z13.8000 F1999.80
G1 X1.5000 Y133.5000 Z13.8000 F1999.80
G1 X1.5000 Y148.5000 Z13.8000 F1999.80
G1 X135.5000 Y148.5000 Z13.8000 F1999.80
G1 X135.5000 Y141.7500 Z13.8000 F1999.80
G0 X135.5000 Y141.7500 Z24.0000
G0 X133.2500 Y141.7500 Z24.0000
G1 X133.2500 Y141.7500 Z13.8000 F999.60
G1 X133.2500 Y135.7500 Z13.8000 F1999.80
G1 X3.7500 Y135.7500 Z13.8000 F1999.80
G1 X3.7500 Y146.2500 Z13.8000 F1999.80
G1 X133.2500 Y146.2500 Z13.8000 F1999.80
G1 X133.2500 Y141.7500 Z13.8000 F1999.80
G0 X133.2500 Y141.7500 Z24.0000
G0 X131.0000 Y141.7500 Z24.0000
G1 X131.0000 Y141.7500 Z13.8000 F999.60
G1 X131.0000 Y138.0000 Z13.8000 F1999.80
G1 X6.0000 Y138.0000 Z13.8000 F1999.80
G1 X6.0000 Y144.0000 Z13.8000 F1999.80
G1 X131.0000 Y144.0000 Z13.8000 F1999.80
G1 X131.0000 Y141.7500 Z13.8000 F1999.80
G0 X131.0000 Y141.7500 Z24.0000
G0 X128.7500 Y141.7500 Z24.0000
G1 X128.7500 Y141.7500 Z13.8000 F999.60
G1 X128.7500 Y140.2500 Z13.8000 F1999.80
G1 X8.2500 Y140.2500 Z13.8000 F1999.80
G1 X8.2500 Y141.7500 Z13.8000 F1999.80
G1 X128.7500 Y141.7500 Z13.8000 F1999.80
G1 X128.7500 Y141.7500 Z13.4000 F999.60
G1 X128.7500 Y140.2500 Z13.4000 F1999.80
G1 X8.2500 Y140.2500 Z13.4000 F1999.80
G1 X8.2500 Y141.7500 Z13.4000 F1999.80
G1 X128.7500 Y141.7500 Z13.4000 F1999.80
G0 X128.7500 Y141.7500 Z24.0000
G0 X131.0000 Y141.7500 Z24.0000
G1 X131.0000 Y141.7500 Z13.4000 F999.60
G1 X131.0000 Y138.0000 Z13.4000 F1999.80
G1 X6.0000 Y138.0000 Z13.4000 F1999.80
G1 X6.0000 Y144.0000 Z13.4000 F1999.80
G1 X131.0000 Y144.0000 Z13.4000 F1999.80
G1 X131.0000 Y141.7500 Z13.4000 F1999.80
G0 X131.0000 Y141.7500 Z24.0000
G0 X133.2500 Y141.7500 Z24.0000
G1 X133.2500 Y141.7500 Z13.4000 F999.60
G1 X133.2500 Y135.7500 Z13.4000 F1999.80
G1 X3.7500 Y135.7500 Z13.4000 F1999.80
G1 X3.7500 Y146.2500 Z13.4000 F1999.80
G1 X133.2500 Y146.2500 Z13.4000 F1999.80
G1 X133.2500 Y141.7500 Z13.4000 F1999.80
G0 X133.2500 Y141.7500 Z24.0000
G0 X135.5000 Y141.7500 Z24.0000
G1 X135.5000 Y141.7500 Z13.4000 F999.60
G1 X135.5000 Y133.5000 Z13.4000 F1999.80
G1 X1.5000 Y133.5000 Z13.4000 F1999.80
G1 X1.5000 Y148.5000 Z13.4000 F1999.80
G1 X135.5000 Y148.5000 Z13.4000 F1999.80
G1 X135.5000 Y141.7500 Z13.4000 F1999.80
G1 X135.5000 Y141.7500 Z13.0000 F999.60
G1 X135.5000 Y133.5000 Z13.0000 F1999.80
G1 X1.5000 Y133.5000 Z13.0000 F1999.80
G1 X1.5000 Y148.5000 Z13.0000 F1999.80
G1 X135.5000 Y148.5000 Z13.0000 F1999.80
G1 X135.5000 Y141.7500 Z13.0000 F1999.80
G0 X135.5000 Y141.7500 Z24.0000
G0 X133.2500 Y141.7500 Z24.0000
G1 X133.2500 Y141.7500 Z13.0000 F999.60
G1 X133.2500 Y135.7500 Z13.0000 F1999.80
G1 X3.7500 Y135.7500 Z13.0000 F1999.80
G1 X3.7500 Y146.2500 Z13.0000 F1999.80
G1 X133.2500 Y146.2500 Z13.0000 F1999.80
G1 X133.2500 Y141.7500 Z13.0000 F1999.80
G0 X133.2500 Y141.7500 Z24.0000
G0 X131.0000 Y141.7500 Z24.0000
G1 X131.0000 Y141.7500 Z13.0000 F999.60
G1 X131.0000 Y138.0000 Z13.0000 F1999.80
G1 X6.0000 Y138.0000 Z13.0000 F1999.80
G1 X6.0000 Y144.0000 Z13.0000 F1999.80
G1 X131.0000 Y144.0000 Z13.0000 F1999.80
G1 X131.0000 Y141.7500 Z13.0000 F1999.80
G0 X131.0000 Y141.7500 Z24.0000
G0 X128.7500 Y141.7500 Z24.0000
G1 X128.7500 Y141.7500 Z13.0000 F999.60
G1 X128.7500 Y140.2500 Z13.0000 F1999.80
G1 X8.2500 Y140.2500 Z13.0000 F1999.80
G1 X8.2500 Y141.7500 Z13.0000 F1999.80
G1 X128.7500 Y141.7500 Z13.0000 F1999.80
G0 Z24.0000
(finish operation: Pocket_Shape001)
(begin operation: Helix001)
(Path: Helix001)
(Helix001)
(helix cut operation)
G0 Z24.0000
G0 X40.0500 Y141.0000
G0 Z22.0000
G1 Z18.0000 F999.60
G2 X39.9500 Y141.0000 Z17.8022 I-0.0500 J0.0000 F1999.80
G2 X40.0500 Y141.0000 Z17.6043 I0.0500 J0.0000 F1999.80
G2 X39.9500 Y141.0000 Z17.4065 I-0.0500 J0.0000 F1999.80
G2 X40.0500 Y141.0000 Z17.2087 I0.0500 J0.0000 F1999.80
G2 X39.9500 Y141.0000 Z17.0109 I-0.0500 J0.0000 F1999.80
G2 X40.0500 Y141.0000 Z16.8130 I0.0500 J0.0000 F1999.80
G2 X39.9500 Y141.0000 Z16.6152 I-0.0500 J0.0000 F1999.80
G2 X40.0500 Y141.0000 Z16.4174 I0.0500 J0.0000 F1999.80
G2 X39.9500 Y141.0000 Z16.2196 I-0.0500 J0.0000 F1999.80
G2 X40.0500 Y141.0000 Z16.0217 I0.0500 J0.0000 F1999.80
G2 X39.9500 Y141.0000 Z15.8239 I-0.0500 J0.0000 F1999.80
G2 X40.0500 Y141.0000 Z15.6261 I0.0500 J0.0000 F1999.80
G2 X39.9500 Y141.0000 Z15.4283 I-0.0500 J0.0000 F1999.80
G2 X40.0500 Y141.0000 Z15.2304 I0.0500 J0.0000 F1999.80
G2 X39.9500 Y141.0000 Z15.0326 I-0.0500 J0.0000 F1999.80
G2 X40.0500 Y141.0000 Z14.8348 I0.0500 J0.0000 F1999.80
G2 X39.9500 Y141.0000 Z14.6370 I-0.0500 J0.0000 F1999.80
G2 X40.0500 Y141.0000 Z14.4391 I0.0500 J0.0000 F1999.80
G2 X39.9500 Y141.0000 Z14.2413 I-0.0500 J0.0000 F1999.80
G2 X40.0500 Y141.0000 Z14.0435 I0.0500 J0.0000 F1999.80
G2 X39.9500 Y141.0000 Z13.8457 I-0.0500 J0.0000 F1999.80
G2 X40.0500 Y141.0000 Z13.6478 I0.0500 J0.0000 F1999.80
G2 X39.9500 Y141.0000 Z13.4500 I-0.0500 J0.0000 F1999.80
G2 X40.0500 Y141.0000 Z13.2522 I0.0500 J0.0000 F1999.80
G2 X39.9500 Y141.0000 Z13.0543 I-0.0500 J0.0000 F1999.80
G2 X40.0500 Y141.0000 Z12.8565 I0.0500 J0.0000 F1999.80
G2 X39.9500 Y141.0000 Z12.6587 I-0.0500 J0.0000 F1999.80
G2 X40.0500 Y141.0000 Z12.4609 I0.0500 J0.0000 F1999.80
G2 X39.9500 Y141.0000 Z12.2630 I-0.0500 J0.0000 F1999.80
G2 X40.0500 Y141.0000 Z12.0652 I0.0500 J0.0000 F1999.80
G2 X39.9500 Y141.0000 Z11.8674 I-0.0500 J0.0000 F1999.80
G2 X40.0500 Y141.0000 Z11.6696 I0.0500 J0.0000 F1999.80
G2 X39.9500 Y141.0000 Z11.4717 I-0.0500 J0.0000 F1999.80
G2 X40.0500 Y141.0000 Z11.2739 I0.0500 J0.0000 F1999.80
G2 X39.9500 Y141.0000 Z11.0761 I-0.0500 J0.0000 F1999.80
G2 X40.0500 Y141.0000 Z10.8783 I0.0500 J0.0000 F1999.80
G2 X39.9500 Y141.0000 Z10.6804 I-0.0500 J0.0000 F1999.80
G2 X40.0500 Y141.0000 Z10.4826 I0.0500 J0.0000 F1999.80
G2 X39.9500 Y141.0000 Z10.2848 I-0.0500 J0.0000 F1999.80
G2 X40.0500 Y141.0000 Z10.0870 I0.0500 J0.0000 F1999.80
G2 X39.9500 Y141.0000 Z9.8891 I-0.0500 J0.0000 F1999.80
G2 X40.0500 Y141.0000 Z9.6913 I0.0500 J0.0000 F1999.80
G2 X39.9500 Y141.0000 Z9.4935 I-0.0500 J0.0000 F1999.80
G2 X40.0500 Y141.0000 Z9.2957 I0.0500 J0.0000 F1999.80
G2 X39.9500 Y141.0000 Z9.0978 I-0.0500 J0.0000 F1999.80
G2 X40.0500 Y141.0000 Z8.9000 I0.0500 J0.0000 F1999.80
G2 X39.9500 Y141.0000 Z8.7022 I-0.0500 J0.0000 F1999.80
G2 X40.0500 Y141.0000 Z8.5043 I0.0500 J0.0000 F1999.80
G2 X39.9500 Y141.0000 Z8.3065 I-0.0500 J0.0000 F1999.80
G2 X40.0500 Y141.0000 Z8.1087 I0.0500 J0.0000 F1999.80
G2 X39.9500 Y141.0000 Z7.9109 I-0.0500 J0.0000 F1999.80
G2 X40.0500 Y141.0000 Z7.7130 I0.0500 J0.0000 F1999.80
G2 X39.9500 Y141.0000 Z7.5152 I-0.0500 J0.0000 F1999.80
G2 X40.0500 Y141.0000 Z7.3174 I0.0500 J0.0000 F1999.80
G2 X39.9500 Y141.0000 Z7.1196 I-0.0500 J0.0000 F1999.80
G2 X40.0500 Y141.0000 Z6.9217 I0.0500 J0.0000 F1999.80
G2 X39.9500 Y141.0000 Z6.7239 I-0.0500 J0.0000 F1999.80
G2 X40.0500 Y141.0000 Z6.5261 I0.0500 J0.0000 F1999.80
G2 X39.9500 Y141.0000 Z6.3283 I-0.0500 J0.0000 F1999.80
G2 X40.0500 Y141.0000 Z6.1304 I0.0500 J0.0000 F1999.80
G2 X39.9500 Y141.0000 Z5.9326 I-0.0500 J0.0000 F1999.80
G2 X40.0500 Y141.0000 Z5.7348 I0.0500 J0.0000 F1999.80
G2 X39.9500 Y141.0000 Z5.5370 I-0.0500 J0.0000 F1999.80
G2 X40.0500 Y141.0000 Z5.3391 I0.0500 J0.0000 F1999.80
G2 X39.9500 Y141.0000 Z5.1413 I-0.0500 J0.0000 F1999.80
G2 X40.0500 Y141.0000 Z4.9435 I0.0500 J0.0000 F1999.80
G2 X39.9500 Y141.0000 Z4.7457 I-0.0500 J0.0000 F1999.80
G2 X40.0500 Y141.0000 Z4.5478 I0.0500 J0.0000 F1999.80
G2 X39.9500 Y141.0000 Z4.3500 I-0.0500 J0.0000 F1999.80
G2 X40.0500 Y141.0000 Z4.1522 I0.0500 J0.0000 F1999.80
G2 X39.9500 Y141.0000 Z3.9543 I-0.0500 J0.0000 F1999.80
G2 X40.0500 Y141.0000 Z3.7565 I0.0500 J0.0000 F1999.80
G2 X39.9500 Y141.0000 Z3.5587 I-0.0500 J0.0000 F1999.80
G2 X40.0500 Y141.0000 Z3.3609 I0.0500 J0.0000 F1999.80
G2 X39.9500 Y141.0000 Z3.1630 I-0.0500 J0.0000 F1999.80
G2 X40.0500 Y141.0000 Z2.9652 I0.0500 J0.0000 F1999.80
G2 X39.9500 Y141.0000 Z2.7674 I-0.0500 J0.0000 F1999.80
G2 X40.0500 Y141.0000 Z2.5696 I0.0500 J0.0000 F1999.80
G2 X39.9500 Y141.0000 Z2.3717 I-0.0500 J0.0000 F1999.80
G2 X40.0500 Y141.0000 Z2.1739 I0.0500 J0.0000 F1999.80
G2 X39.9500 Y141.0000 Z1.9761 I-0.0500 J0.0000 F1999.80
G2 X40.0500 Y141.0000 Z1.7783 I0.0500 J0.0000 F1999.80
G2 X39.9500 Y141.0000 Z1.5804 I-0.0500 J0.0000 F1999.80
G2 X40.0500 Y141.0000 Z1.3826 I0.0500 J0.0000 F1999.80
G2 X39.9500 Y141.0000 Z1.1848 I-0.0500 J0.0000 F1999.80
G2 X40.0500 Y141.0000 Z0.9870 I0.0500 J0.0000 F1999.80
G2 X39.9500 Y141.0000 Z0.7891 I-0.0500 J0.0000 F1999.80
G2 X40.0500 Y141.0000 Z0.5913 I0.0500 J0.0000 F1999.80
G2 X39.9500 Y141.0000 Z0.3935 I-0.0500 J0.0000 F1999.80
G2 X40.0500 Y141.0000 Z0.1957 I0.0500 J0.0000 F1999.80
G2 X39.9500 Y141.0000 Z-0.0022 I-0.0500 J0.0000 F1999.80
G2 X40.0500 Y141.0000 Z-0.2000 I0.0500 J0.0000 F1999.80
G2 X39.9500 Y141.0000 Z-0.2000 I-0.0500 J0.0000 F1999.80
G2 X40.0500 Y141.0000 Z-0.2000 I0.0500 J0.0000 F1999.80
G0 Z22.0000
G0 X80.0500 Y141.0000
G0 Z22.0000
G1 Z18.0000 F999.60
G2 X79.9500 Y141.0000 Z17.8022 I-0.0500 J0.0000 F1999.80
G2 X80.0500 Y141.0000 Z17.6043 I0.0500 J0.0000 F1999.80
G2 X79.9500 Y141.0000 Z17.4065 I-0.0500 J0.0000 F1999.80
G2 X80.0500 Y141.0000 Z17.2087 I0.0500 J0.0000 F1999.80
G2 X79.9500 Y141.0000 Z17.0109 I-0.0500 J0.0000 F1999.80
G2 X80.0500 Y141.0000 Z16.8130 I0.0500 J0.0000 F1999.80
G2 X79.9500 Y141.0000 Z16.6152 I-0.0500 J0.0000 F1999.80
G2 X80.0500 Y141.0000 Z16.4174 I0.0500 J0.0000 F1999.80
G2 X79.9500 Y141.0000 Z16.2196 I-0.0500 J0.0000 F1999.80
G2 X80.0500 Y141.0000 Z16.0217 I0.0500 J0.0000 F1999.80
G2 X79.9500 Y141.0000 Z15.8239 I-0.0500 J0.0000 F1999.80
G2 X80.0500 Y141.0000 Z15.6261 I0.0500 J0.0000 F1999.80
G2 X79.9500 Y141.0000 Z15.4283 I-0.0500 J0.0000 F1999.80
G2 X80.0500 Y141.0000 Z15.2304 I0.0500 J0.0000 F1999.80
G2 X79.9500 Y141.0000 Z15.0326 I-0.0500 J0.0000 F1999.80
G2 X80.0500 Y141.0000 Z14.8348 I0.0500 J0.0000 F1999.80
G2 X79.9500 Y141.0000 Z14.6370 I-0.0500 J0.0000 F1999.80
G2 X80.0500 Y141.0000 Z14.4391 I0.0500 J0.0000 F1999.80
G2 X79.9500 Y141.0000 Z14.2413 I-0.0500 J0.0000 F1999.80
G2 X80.0500 Y141.0000 Z14.0435 I0.0500 J0.0000 F1999.80
G2 X79.9500 Y141.0000 Z13.8457 I-0.0500 J0.0000 F1999.80
G2 X80.0500 Y141.0000 Z13.6478 I0.0500 J0.0000 F1999.80
G2 X79.9500 Y141.0000 Z13.4500 I-0.0500 J0.0000 F1999.80
G2 X80.0500 Y141.0000 Z13.2522 I0.0500 J0.0000 F1999.80
G2 X79.9500 Y141.0000 Z13.0543 I-0.0500 J0.0000 F1999.80
G2 X80.0500 Y141.0000 Z12.8565 I0.0500 J0.0000 F1999.80
G2 X79.9500 Y141.0000 Z12.6587 I-0.0500 J0.0000 F1999.80
G2 X80.0500 Y141.0000 Z12.4609 I0.0500 J0.0000 F1999.80
G2 X79.9500 Y141.0000 Z12.2630 I-0.0500 J0.0000 F1999.80
G2 X80.0500 Y141.0000 Z12.0652 I0.0500 J0.0000 F1999.80
G2 X79.9500 Y141.0000 Z11.8674 I-0.0500 J0.0000 F1999.80
G2 X80.0500 Y141.0000 Z11.6696 I0.0500 J0.0000 F1999.80
G2 X79.9500 Y141.0000 Z11.4717 I-0.0500 J0.0000 F1999.80
G2 X80.0500 Y141.0000 Z11.2739 I0.0500 J0.0000 F1999.80
G2 X79.9500 Y141.0000 Z11.0761 I-0.0500 J0.0000 F1999.80
G2 X80.0500 Y141.0000 Z10.8783 I0.0500 J0.0000 F1999.80
G2 X79.9500 Y141.0000 Z10.6804 I-0.0500 J0.0000 F1999.80
G2 X80.0500 Y141.0000 Z10.4826 I0.0500 J0.0000 F1999.80
G2 X79.9500 Y141.0000 Z10.2848 I-0.0500 J0.0000 F1999.80
G2 X80.0500 Y141.0000 Z10.0870 I0.0500 J0.0000 F1999.80
G2 X79.9500 Y141.0000 Z9.8891 I-0.0500 J0.0000 F1999.80
G2 X80.0500 Y141.0000 Z9.6913 I0.0500 J0.0000 F1999.80
G2 X79.9500 Y141.0000 Z9.4935 I-0.0500 J0.0000 F1999.80
G2 X80.0500 Y141.0000 Z9.2957 I0.0500 J0.0000 F1999.80
G2 X79.9500 Y141.0000 Z9.0978 I-0.0500 J0.0000 F1999.80
G2 X80.0500 Y141.0000 Z8.9000 I0.0500 J0.0000 F1999.80
G2 X79.9500 Y141.0000 Z8.7022 I-0.0500 J0.0000 F1999.80
G2 X80.0500 Y141.0000 Z8.5043 I0.0500 J0.0000 F1999.80
G2 X79.9500 Y141.0000 Z8.3065 I-0.0500 J0.0000 F1999.80
G2 X80.0500 Y141.0000 Z8.1087 I0.0500 J0.0000 F1999.80
G2 X79.9500 Y141.0000 Z7.9109 I-0.0500 J0.0000 F1999.80
G2 X80.0500 Y141.0000 Z7.7130 I0.0500 J0.0000 F1999.80
G2 X79.9500 Y141.0000 Z7.5152 I-0.0500 J0.0000 F1999.80
G2 X80.0500 Y141.0000 Z7.3174 I0.0500 J0.0000 F1999.80
G2 X79.9500 Y141.0000 Z7.1196 I-0.0500 J0.0000 F1999.80
G2 X80.0500 Y141.0000 Z6.9217 I0.0500 J0.0000 F1999.80
G2 X79.9500 Y141.0000 Z6.7239 I-0.0500 J0.0000 F1999.80
G2 X80.0500 Y141.0000 Z6.5261 I0.0500 J0.0000 F1999.80
G2 X79.9500 Y141.0000 Z6.3283 I-0.0500 J0.0000 F1999.80
G2 X80.0500 Y141.0000 Z6.1304 I0.0500 J0.0000 F1999.80
G2 X79.9500 Y141.0000 Z5.9326 I-0.0500 J0.0000 F1999.80
G2 X80.0500 Y141.0000 Z5.7348 I0.0500 J0.0000 F1999.80
G2 X79.9500 Y141.0000 Z5.5370 I-0.0500 J0.0000 F1999.80
G2 X80.0500 Y141.0000 Z5.3391 I0.0500 J0.0000 F1999.80
G2 X79.9500 Y141.0000 Z5.1413 I-0.0500 J0.0000 F1999.80
G2 X80.0500 Y141.0000 Z4.9435 I0.0500 J0.0000 F1999.80
G2 X79.9500 Y141.0000 Z4.7457 I-0.0500 J0.0000 F1999.80
G2 X80.0500 Y141.0000 Z4.5478 I0.0500 J0.0000 F1999.80
G2 X79.9500 Y141.0000 Z4.3500 I-0.0500 J0.0000 F1999.80
G2 X80.0500 Y141.0000 Z4.1522 I0.0500 J0.0000 F1999.80
G2 X79.9500 Y141.0000 Z3.9543 I-0.0500 J0.0000 F1999.80
G2 X80.0500 Y141.0000 Z3.7565 I0.0500 J0.0000 F1999.80
G2 X79.9500 Y141.0000 Z3.5587 I-0.0500 J0.0000 F1999.80
G2 X80.0500 Y141.0000 Z3.3609 I0.0500 J0.0000 F1999.80
G2 X79.9500 Y141.0000 Z3.1630 I-0.0500 J0.0000 F1999.80
G2 X80.0500 Y141.0000 Z2.9652 I0.0500 J0.0000 F1999.80
G2 X79.9500 Y141.0000 Z2.7674 I-0.0500 J0.0000 F1999.80
G2 X80.0500 Y141.0000 Z2.5696 I0.0500 J0.0000 F1999.80
G2 X79.9500 Y141.0000 Z2.3717 I-0.0500 J0.0000 F1999.80
G2 X80.0500 Y141.0000 Z2.1739 I0.0500 J0.0000 F1999.80
G2 X79.9500 Y141.0000 Z1.9761 I-0.0500 J0.0000 F1999.80
G2 X80.0500 Y141.0000 Z1.7783 I0.0500 J0.0000 F1999.80
G2 X79.9500 Y141.0000 Z1.5804 I-0.0500 J0.0000 F1999.80
G2 X80.0500 Y141.0000 Z1.3826 I0.0500 J0.0000 F1999.80
G2 X79.9500 Y141.0000 Z1.1848 I-0.0500 J0.0000 F1999.80
G2 X80.0500 Y141.0000 Z0.9870 I0.0500 J0.0000 F1999.80
G2 X79.9500 Y141.0000 Z0.7891 I-0.0500 J0.0000 F1999.80
G2 X80.0500 Y141.0000 Z0.5913 I0.0500 J0.0000 F1999.80
G2 X79.9500 Y141.0000 Z0.3935 I-0.0500 J0.0000 F1999.80
G2 X80.0500 Y141.0000 Z0.1957 I0.0500 J0.0000 F1999.80
G2 X79.9500 Y141.0000 Z-0.0022 I-0.0500 J0.0000 F1999.80
G2 X80.0500 Y141.0000 Z-0.2000 I0.0500 J0.0000 F1999.80
G2 X79.9500 Y141.0000 Z-0.2000 I-0.0500 J0.0000 F1999.80
G2 X80.0500 Y141.0000 Z-0.2000 I0.0500 J0.0000 F1999.80
G0 Z22.0000
G0 X120.0500 Y141.0000
G0 Z22.0000
G1 Z18.0000 F999.60
G2 X119.9500 Y141.0000 Z17.8022 I-0.0500 J0.0000 F1999.80
G2 X120.0500 Y141.0000 Z17.6043 I0.0500 J0.0000 F1999.80
G2 X119.9500 Y141.0000 Z17.4065 I-0.0500 J0.0000 F1999.80
G2 X120.0500 Y141.0000 Z17.2087 I0.0500 J0.0000 F1999.80
G2 X119.9500 Y141.0000 Z17.0109 I-0.0500 J0.0000 F1999.80
G2 X120.0500 Y141.0000 Z16.8130 I0.0500 J0.0000 F1999.80
G2 X119.9500 Y141.0000 Z16.6152 I-0.0500 J0.0000 F1999.80
G2 X120.0500 Y141.0000 Z16.4174 I0.0500 J0.0000 F1999.80
G2 X119.9500 Y141.0000 Z16.2196 I-0.0500 J0.0000 F1999.80
G2 X120.0500 Y141.0000 Z16.0217 I0.0500 J0.0000 F1999.80
G2 X119.9500 Y141.0000 Z15.8239 I-0.0500 J0.0000 F1999.80
G2 X120.0500 Y141.0000 Z15.6261 I0.0500 J0.0000 F1999.80
G2 X119.9500 Y141.0000 Z15.4283 I-0.0500 J0.0000 F1999.80
G2 X120.0500 Y141.0000 Z15.2304 I0.0500 J0.0000 F1999.80
G2 X119.9500 Y141.0000 Z15.0326 I-0.0500 J0.0000 F1999.80
G2 X120.0500 Y141.0000 Z14.8348 I0.0500 J0.0000 F1999.80
G2 X119.9500 Y141.0000 Z14.6370 I-0.0500 J0.0000 F1999.80
G2 X120.0500 Y141.0000 Z14.4391 I0.0500 J0.0000 F1999.80
G2 X119.9500 Y141.0000 Z14.2413 I-0.0500 J0.0000 F1999.80
G2 X120.0500 Y141.0000 Z14.0435 I0.0500 J0.0000 F1999.80
G2 X119.9500 Y141.0000 Z13.8457 I-0.0500 J0.0000 F1999.80
G2 X120.0500 Y141.0000 Z13.6478 I0.0500 J0.0000 F1999.80
G2 X119.9500 Y141.0000 Z13.4500 I-0.0500 J0.0000 F1999.80
G2 X120.0500 Y141.0000 Z13.2522 I0.0500 J0.0000 F1999.80
G2 X119.9500 Y141.0000 Z13.0543 I-0.0500 J0.0000 F1999.80
G2 X120.0500 Y141.0000 Z12.8565 I0.0500 J0.0000 F1999.80
G2 X119.9500 Y141.0000 Z12.6587 I-0.0500 J0.0000 F1999.80
G2 X120.0500 Y141.0000 Z12.4609 I0.0500 J0.0000 F1999.80
G2 X119.9500 Y141.0000 Z12.2630 I-0.0500 J0.0000 F1999.80
G2 X120.0500 Y141.0000 Z12.0652 I0.0500 J0.0000 F1999.80
G2 X119.9500 Y141.0000 Z11.8674 I-0.0500 J0.0000 F1999.80
G2 X120.0500 Y141.0000 Z11.6696 I0.0500 J0.0000 F1999.80
G2 X119.9500 Y141.0000 Z11.4717 I-0.0500 J0.0000 F1999.80
G2 X120.0500 Y141.0000 Z11.2739 I0.0500 J0.0000 F1999.80
G2 X119.9500 Y141.0000 Z11.0761 I-0.0500 J0.0000 F1999.80
G2 X120.0500 Y141.0000 Z10.8783 I0.0500 J0.0000 F1999.80
G2 X119.9500 Y141.0000 Z10.6804 I-0.0500 J0.0000 F1999.80
G2 X120.0500 Y141.0000 Z10.4826 I0.0500 J0.0000 F1999.80
G2 X119.9500 Y141.0000 Z10.2848 I-0.0500 J0.0000 F1999.80
G2 X120.0500 Y141.0000 Z10.0870 I0.0500 J0.0000 F1999.80
G2 X119.9500 Y141.0000 Z9.8891 I-0.0500 J0.0000 F1999.80
G2 X120.0500 Y141.0000 Z9.6913 I0.0500 J0.0000 F1999.80
G2 X119.9500 Y141.0000 Z9.4935 I-0.0500 J0.0000 F1999.80
G2 X120.0500 Y141.0000 Z9.2957 I0.0500 J0.0000 F1999.80
G2 X119.9500 Y141.0000 Z9.0978 I-0.0500 J0.0000 F1999.80
G2 X120.0500 Y141.0000 Z8.9000 I0.0500 J0.0000 F1999.80
G2 X119.9500 Y141.0000 Z8.7022 I-0.0500 J0.0000 F1999.80
G2 X120.0500 Y141.0000 Z8.5043 I0.0500 J0.0000 F1999.80
G2 X119.9500 Y141.0000 Z8.3065 I-0.0500 J0.0000 F1999.80
G2 X120.0500 Y141.0000 Z8.1087 I0.0500 J0.0000 F1999.80
G2 X119.9500 Y141.0000 Z7.9109 I-0.0500 J0.0000 F1999.80
G2 X120.0500 Y141.0000 Z7.7130 I0.0500 J0.0000 F1999.80
G2 X119.9500 Y141.0000 Z7.5152 I-0.0500 J0.0000 F1999.80
G2 X120.0500 Y141.0000 Z7.3174 I0.0500 J0.0000 F1999.80
G2 X119.9500 Y141.0000 Z7.1196 I-0.0500 J0.0000 F1999.80
G2 X120.0500 Y141.0000 Z6.9217 I0.0500 J0.0000 F1999.80
G2 X119.9500 Y141.0000 Z6.7239 I-0.0500 J0.0000 F1999.80
G2 X120.0500 Y141.0000 Z6.5261 I0.0500 J0.0000 F1999.80
G2 X119.9500 Y141.0000 Z6.3283 I-0.0500 J0.0000 F1999.80
G2 X120.0500 Y141.0000 Z6.1304 I0.0500 J0.0000 F1999.80
G2 X119.9500 Y141.0000 Z5.9326 I-0.0500 J0.0000 F1999.80
G2 X120.0500 Y141.0000 Z5.7348 I0.0500 J0.0000 F1999.80
G2 X119.9500 Y141.0000 Z5.5370 I-0.0500 J0.0000 F1999.80
G2 X120.0500 Y141.0000 Z5.3391 I0.0500 J0.0000 F1999.80
G2 X119.9500 Y141.0000 Z5.1413 I-0.0500 J0.0000 F1999.80
G2 X120.0500 Y141.0000 Z4.9435 I0.0500 J0.0000 F1999.80
G2 X119.9500 Y141.0000 Z4.7457 I-0.0500 J0.0000 F1999.80
G2 X120.0500 Y141.0000 Z4.5478 I0.0500 J0.0000 F1999.80
G2 X119.9500 Y141.0000 Z4.3500 I-0.0500 J0.0000 F1999.80
G2 X120.0500 Y141.0000 Z4.1522 I0.0500 J0.0000 F1999.80
G2 X119.9500 Y141.0000 Z3.9543 I-0.0500 J0.0000 F1999.80
G2 X120.0500 Y141.0000 Z3.7565 I0.0500 J0.0000 F1999.80
G2 X119.9500 Y141.0000 Z3.5587 I-0.0500 J0.0000 F1999.80
G2 X120.0500 Y141.0000 Z3.3609 I0.0500 J0.0000 F1999.80
G2 X119.9500 Y141.0000 Z3.1630 I-0.0500 J0.0000 F1999.80
G2 X120.0500 Y141.0000 Z2.9652 I0.0500 J0.0000 F1999.80
G2 X119.9500 Y141.0000 Z2.7674 I-0.0500 J0.0000 F1999.80
G2 X120.0500 Y141.0000 Z2.5696 I0.0500 J0.0000 F1999.80
G2 X119.9500 Y141.0000 Z2.3717 I-0.0500 J0.0000 F1999.80
G2 X120.0500 Y141.0000 Z2.1739 I0.0500 J0.0000 F1999.80
G2 X119.9500 Y141.0000 Z1.9761 I-0.0500 J0.0000 F1999.80
G2 X120.0500 Y141.0000 Z1.7783 I0.0500 J0.0000 F1999.80
G2 X119.9500 Y141.0000 Z1.5804 I-0.0500 J0.0000 F1999.80
G2 X120.0500 Y141.0000 Z1.3826 I0.0500 J0.0000 F1999.80
G2 X119.9500 Y141.0000 Z1.1848 I-0.0500 J0.0000 F1999.80
G2 X120.0500 Y141.0000 Z0.9870 I0.0500 J0.0000 F1999.80
G2 X119.9500 Y141.0000 Z0.7891 I-0.0500 J0.0000 F1999.80
G2 X120.0500 Y141.0000 Z0.5913 I0.0500 J0.0000 F1999.80
G2 X119.9500 Y141.0000 Z0.3935 I-0.0500 J0.0000 F1999.80
G2 X120.0500 Y141.0000 Z0.1957 I0.0500 J0.0000 F1999.80
G2 X119.9500 Y141.0000 Z-0.0022 I-0.0500 J0.0000 F1999.80
G2 X120.0500 Y141.0000 Z-0.2000 I0.0500 J0.0000 F1999.80
G2 X119.9500 Y141.0000 Z-0.2000 I-0.0500 J0.0000 F1999.80
G2 X120.0500 Y141.0000 Z-0.2000 I0.0500 J0.0000 F1999.80
G0 Z22.0000
G0 Z24.0000
(finish operation: Helix001)
(begin operation: Stop001)
(Path: Stop001)
M0
(finish operation: Stop001)
(begin operation: Contour001)
(Path: Contour001)
(Contour001)
(Compensated Tool Path. Diameter: 3.0)
G0 Z24.0000
G0 X138.0607 Y201.0607
G0 Z22.0000
G1 X138.0607 Y201.0607 Z17.6000 F999.60
G2 X138.5000 Y200.0000 Z17.6000 I-1.0607 J-1.0607 F1999.80
G1 X138.5000 Y0.0000 Z17.6000 F1999.80
G2 X137.0000 Y-1.5000 Z17.6000 I-1.5000 J0.0000 F1999.80
G1 X0.0000 Y-1.5000 Z17.6000 F1999.80
G2 X-1.5000 Y0.0000 Z17.6000 I0.0000 J1.5000 F1999.80
G1 X-1.5000 Y200.0000 Z17.6000 F1999.80
G2 X0.0000 Y201.5000 Z17.6000 I1.5000 J0.0000 F1999.80
G1 X137.0000 Y201.5000 Z17.6000 F1999.80
G2 X138.0607 Y201.0607 Z17.6000 I0.0000 J-1.5000 F1999.80
G1 X138.0607 Y201.0607 Z17.2000 F999.60
G2 X138.5000 Y200.0000 Z17.2000 I-1.0607 J-1.0607 F1999.80
G1 X138.5000 Y0.0000 Z17.2000 F1999.80
G2 X137.0000 Y-1.5000 Z17.2000 I-1.5000 J0.0000 F1999.80
G1 X0.0000 Y-1.5000 Z17.2000 F1999.80
G2 X-1.5000 Y0.0000 Z17.2000 I0.0000 J1.5000 F1999.80
G1 X-1.5000 Y200.0000 Z17.2000 F1999.80
G2 X0.0000 Y201.5000 Z17.2000 I1.5000 J0.0000 F1999.80
G1 X137.0000 Y201.5000 Z17.2000 F1999.80
G2 X138.0607 Y201.0607 Z17.2000 I0.0000 J-1.5000 F1999.80
G1 X138.0607 Y201.0607 Z16.8000 F999.60
G2 X138.5000 Y200.0000 Z16.8000 I-1.0607 J-1.0607 F1999.80
G1 X138.5000 Y0.0000 Z16.8000 F1999.80
G2 X137.0000 Y-1.5000 Z16.8000 I-1.5000 J0.0000 F1999.80
G1 X0.0000 Y-1.5000 Z16.8000 F1999.80
G2 X-1.5000 Y0.0000 Z16.8000 I0.0000 J1.5000 F1999.80
G1 X-1.5000 Y200.0000 Z16.8000 F1999.80
G2 X0.0000 Y201.5000 Z16.8000 I1.5000 J0.0000 F1999.80
G1 X137.0000 Y201.5000 Z16.8000 F1999.80
G2 X138.0607 Y201.0607 Z16.8000 I0.0000 J-1.5000 F1999.80
G1 X138.0607 Y201.0607 Z16.4000 F999.60
G2 X138.5000 Y200.0000 Z16.4000 I-1.0607 J-1.0607 F1999.80
G1 X138.5000 Y0.0000 Z16.4000 F1999.80
G2 X137.0000 Y-1.5000 Z16.4000 I-1.5000 J0.0000 F1999.80
G1 X0.0000 Y-1.5000 Z16.4000 F1999.80
G2 X-1.5000 Y0.0000 Z16.4000 I0.0000 J1.5000 F1999.80
G1 X-1.5000 Y200.0000 Z16.4000 F1999.80
G2 X0.0000 Y201.5000 Z16.4000 I1.5000 J0.0000 F1999.80
G1 X137.0000 Y201.5000 Z16.4000 F1999.80
G2 X138.0607 Y201.0607 Z16.4000 I0.0000 J-1.5000 F1999.80
G1 X138.0607 Y201.0607 Z16.0000 F999.60
G2 X138.5000 Y200.0000 Z16.0000 I-1.0607 J-1.0607 F1999.80
G1 X138.5000 Y0.0000 Z16.0000 F1999.80
G2 X137.0000 Y-1.5000 Z16.0000 I-1.5000 J0.0000 F1999.80
G1 X0.0000 Y-1.5000 Z16.0000 F1999.80
G2 X-1.5000 Y0.0000 Z16.0000 I0.0000 J1.5000 F1999.80
G1 X-1.5000 Y200.0000 Z16.0000 F1999.80
G2 X0.0000 Y201.5000 Z16.0000 I1.5000 J0.0000 F1999.80
G1 X137.0000 Y201.5000 Z16.0000 F1999.80
G2 X138.0607 Y201.0607 Z16.0000 I0.0000 J-1.5000 F1999.80
G1 X138.0607 Y201.0607 Z15.6000 F999.60
G2 X138.5000 Y200.0000 Z15.6000 I-1.0607 J-1.0607 F1999.80
G1 X138.5000 Y0.0000 Z15.6000 F1999.80
G2 X137.0000 Y-1.5000 Z15.6000 I-1.5000 J0.0000 F1999.80
G1 X0.0000 Y-1.5000 Z15.6000 F1999.80
G2 X-1.5000 Y0.0000 Z15.6000 I0.0000 J1.5000 F1999.80
G1 X-1.5000 Y200.0000 Z15.6000 F1999.80
G2 X0.0000 Y201.5000 Z15.6000 I1.5000 J0.0000 F1999.80
G1 X137.0000 Y201.5000 Z15.6000 F1999.80
G2 X138.0607 Y201.0607 Z15.6000 I0.0000 J-1.5000 F1999.80
G1 X138.0607 Y201.0607 Z15.2000 F999.60
G2 X138.5000 Y200.0000 Z15.2000 I-1.0607 J-1.0607 F1999.80
G1 X138.5000 Y0.0000 Z15.2000 F1999.80
G2 X137.0000 Y-1.5000 Z15.2000 I-1.5000 J0.0000 F1999.80
G1 X0.0000 Y-1.5000 Z15.2000 F1999.80
G2 X-1.5000 Y0.0000 Z15.2000 I0.0000 J1.5000 F1999.80
G1 X-1.5000 Y200.0000 Z15.2000 F1999.80
G2 X0.0000 Y201.5000 Z15.2000 I1.5000 J0.0000 F1999.80
G1 X137.0000 Y201.5000 Z15.2000 F1999.80
G2 X138.0607 Y201.0607 Z15.2000 I0.0000 J-1.5000 F1999.80
G1 X138.0607 Y201.0607 Z14.8000 F999.60
G2 X138.5000 Y200.0000 Z14.8000 I-1.0607 J-1.0607 F1999.80
G1 X138.5000 Y0.0000 Z14.8000 F1999.80
G2 X137.0000 Y-1.5000 Z14.8000 I-1.5000 J0.0000 F1999.80
G1 X0.0000 Y-1.5000 Z14.8000 F1999.80
G2 X-1.5000 Y0.0000 Z14.8000 I0.0000 J1.5000 F1999.80
G1 X-1.5000 Y200.0000 Z14.8000 F1999.80
G2 X0.0000 Y201.5000 Z14.8000 I1.5000 J0.0000 F1999.80
G1 X137.0000 Y201.5000 Z14.8000 F1999.80
G2 X138.0607 Y201.0607 Z14.8000 I0.0000 J-1.5000 F1999.80
G1 X138.0607 Y201.0607 Z14.4000 F999.60
G2 X138.5000 Y200.0000 Z14.4000 I-1.0607 J-1.0607 F1999.80
G1 X138.5000 Y0.0000 Z14.4000 F1999.80
G2 X137.0000 Y-1.5000 Z14.4000 I-1.5000 J0.0000 F1999.80
G1 X0.0000 Y-1.5000 Z14.4000 F1999.80
G2 X-1.5000 Y0.0000 Z14.4000 I0.0000 J1.5000 F1999.80
G1 X-1.5000 Y200.0000 Z14.4000 F1999.80
G2 X0.0000 Y201.5000 Z14.4000 I1.5000 J0.0000 F1999.80
G1 X137.0000 Y201.5000 Z14.4000 F1999.80
G2 X138.0607 Y201.0607 Z14.4000 I0.0000 J-1.5000 F1999.80
G1 X138.0607 Y201.0607 Z14.0000 F999.60
G2 X138.5000 Y200.0000 Z14.0000 I-1.0607 J-1.0607 F1999.80
G1 X138.5000 Y0.0000 Z14.0000 F1999.80
G2 X137.0000 Y-1.5000 Z14.0000 I-1.5000 J0.0000 F1999.80
G1 X0.0000 Y-1.5000 Z14.0000 F1999.80
G2 X-1.5000 Y0.0000 Z14.0000 I0.0000 J1.5000 F1999.80
G1 X-1.5000 Y200.0000 Z14.0000 F1999.80
G2 X0.0000 Y201.5000 Z14.0000 I1.5000 J0.0000 F1999.80
G1 X137.0000 Y201.5000 Z14.0000 F1999.80
G2 X138.0607 Y201.0607 Z14.0000 I0.0000 J-1.5000 F1999.80
G1 X138.0607 Y201.0607 Z13.6000 F999.60
G2 X138.5000 Y200.0000 Z13.6000 I-1.0607 J-1.0607 F1999.80
G1 X138.5000 Y0.0000 Z13.6000 F1999.80
G2 X137.0000 Y-1.5000 Z13.6000 I-1.5000 J0.0000 F1999.80
G1 X0.0000 Y-1.5000 Z13.6000 F1999.80
G2 X-1.5000 Y0.0000 Z13.6000 I0.0000 J1.5000 F1999.80
G1 X-1.5000 Y200.0000 Z13.6000 F1999.80
G2 X0.0000 Y201.5000 Z13.6000 I1.5000 J0.0000 F1999.80
G1 X137.0000 Y201.5000 Z13.6000 F1999.80
G2 X138.0607 Y201.0607 Z13.6000 I0.0000 J-1.5000 F1999.80
G1 X138.0607 Y201.0607 Z13.2000 F999.60
G2 X138.5000 Y200.0000 Z13.2000 I-1.0607 J-1.0607 F1999.80
G1 X138.5000 Y0.0000 Z13.2000 F1999.80
G2 X137.0000 Y-1.5000 Z13.2000 I-1.5000 J0.0000 F1999.80
G1 X0.0000 Y-1.5000 Z13.2000 F1999.80
G2 X-1.5000 Y0.0000 Z13.2000 I0.0000 J1.5000 F1999.80
G1 X-1.5000 Y200.0000 Z13.2000 F1999.80
G2 X0.0000 Y201.5000 Z13.2000 I1.5000 J0.0000 F1999.80
G1 X137.0000 Y201.5000 Z13.2000 F1999.80
G2 X138.0607 Y201.0607 Z13.2000 I0.0000 J-1.5000 F1999.80
G1 X138.0607 Y201.0607 Z12.8000 F999.60
G2 X138.5000 Y200.0000 Z12.8000 I-1.0607 J-1.0607 F1999.80
G1 X138.5000 Y0.0000 Z12.8000 F1999.80
G2 X137.0000 Y-1.5000 Z12.8000 I-1.5000 J0.0000 F1999.80
G1 X0.0000 Y-1.5000 Z12.8000 F1999.80
G2 X-1.5000 Y0.0000 Z12.8000 I0.0000 J1.5000 F1999.80
G1 X-1.5000 Y200.0000 Z12.8000 F1999.80
G2 X0.0000 Y201.5000 Z12.8000 I1.5000 J0.0000 F1999.80
G1 X137.0000 Y201.5000 Z12.8000 F1999.80
G2 X138.0607 Y201.0607 Z12.8000 I0.0000 J-1.5000 F1999.80
G1 X138.0607 Y201.0607 Z12.4000 F999.60
G2 X138.5000 Y200.0000 Z12.4000 I-1.0607 J-1.0607 F1999.80
G1 X138.5000 Y0.0000 Z12.4000 F1999.80
G2 X137.0000 Y-1.5000 Z12.4000 I-1.5000 J0.0000 F1999.80
G1 X0.0000 Y-1.5000 Z12.4000 F1999.80
G2 X-1.5000 Y0.0000 Z12.4000 I0.0000 J1.5000 F1999.80
G1 X-1.5000 Y200.0000 Z12.4000 F1999.80
G2 X0.0000 Y201.5000 Z12.4000 I1.5000 J0.0000 F1999.80
G1 X137.0000 Y201.5000 Z12.4000 F1999.80
G2 X138.0607 Y201.0607 Z12.4000 I0.0000 J-1.5000 F1999.80
G1 X138.0607 Y201.0607 Z12.0000 F999.60
G2 X138.5000 Y200.0000 Z12.0000 I-1.0607 J-1.0607 F1999.80
G1 X138.5000 Y0.0000 Z12.0000 F1999.80
G2 X137.0000 Y-1.5000 Z12.0000 I-1.5000 J0.0000 F1999.80
G1 X0.0000 Y-1.5000 Z12.0000 F1999.80
G2 X-1.5000 Y0.0000 Z12.0000 I0.0000 J1.5000 F1999.80
G1 X-1.5000 Y200.0000 Z12.0000 F1999.80
G2 X0.0000 Y201.5000 Z12.0000 I1.5000 J0.0000 F1999.80
G1 X137.0000 Y201.5000 Z12.0000 F1999.80
G2 X138.0607 Y201.0607 Z12.0000 I0.0000 J-1.5000 F1999.80
G1 X138.0607 Y201.0607 Z11.6000 F999.60
G2 X138.5000 Y200.0000 Z11.6000 I-1.0607 J-1.0607 F1999.80
G1 X138.5000 Y0.0000 Z11.6000 F1999.80
G2 X137.0000 Y-1.5000 Z11.6000 I-1.5000 J0.0000 F1999.80
G1 X0.0000 Y-1.5000 Z11.6000 F1999.80
G2 X-1.5000 Y0.0000 Z11.6000 I0.0000 J1.5000 F1999.80
G1 X-1.5000 Y200.0000 Z11.6000 F1999.80
G2 X0.0000 Y201.5000 Z11.6000 I1.5000 J0.0000 F1999.80
G1 X137.0000 Y201.5000 Z11.6000 F1999.80
G2 X138.0607 Y201.0607 Z11.6000 I0.0000 J-1.5000 F1999.80
G1 X138.0607 Y201.0607 Z11.2000 F999.60
G2 X138.5000 Y200.0000 Z11.2000 I-1.0607 J-1.0607 F1999.80
G1 X138.5000 Y0.0000 Z11.2000 F1999.80
G2 X137.0000 Y-1.5000 Z11.2000 I-1.5000 J0.0000 F1999.80
G1 X0.0000 Y-1.5000 Z11.2000 F1999.80
G2 X-1.5000 Y0.0000 Z11.2000 I0.0000 J1.5000 F1999.80
G1 X-1.5000 Y200.0000 Z11.2000 F1999.80
G2 X0.0000 Y201.5000 Z11.2000 I1.5000 J0.0000 F1999.80
G1 X137.0000 Y201.5000 Z11.2000 F1999.80
G2 X138.0607 Y201.0607 Z11.2000 I0.0000 J-1.5000 F1999.80
G1 X138.0607 Y201.0607 Z10.8000 F999.60
G2 X138.5000 Y200.0000 Z10.8000 I-1.0607 J-1.0607 F1999.80
G1 X138.5000 Y0.0000 Z10.8000 F1999.80
G2 X137.0000 Y-1.5000 Z10.8000 I-1.5000 J0.0000 F1999.80
G1 X0.0000 Y-1.5000 Z10.8000 F1999.80
G2 X-1.5000 Y0.0000 Z10.8000 I0.0000 J1.5000 F1999.80
G1 X-1.5000 Y200.0000 Z10.8000 F1999.80
G2 X0.0000 Y201.5000 Z10.8000 I1.5000 J0.0000 F1999.80
G1 X137.0000 Y201.5000 Z10.8000 F1999.80
G2 X138.0607 Y201.0607 Z10.8000 I0.0000 J-1.5000 F1999.80
G1 X138.0607 Y201.0607 Z10.4000 F999.60
G2 X138.5000 Y200.0000 Z10.4000 I-1.0607 J-1.0607 F1999.80
G1 X138.5000 Y0.0000 Z10.4000 F1999.80
G2 X137.0000 Y-1.5000 Z10.4000 I-1.5000 J0.0000 F1999.80
G1 X0.0000 Y-1.5000 Z10.4000 F1999.80
G2 X-1.5000 Y0.0000 Z10.4000 I0.0000 J1.5000 F1999.80
G1 X-1.5000 Y200.0000 Z10.4000 F1999.80
G2 X0.0000 Y201.5000 Z10.4000 I1.5000 J0.0000 F1999.80
G1 X137.0000 Y201.5000 Z10.4000 F1999.80
G2 X138.0607 Y201.0607 Z10.4000 I0.0000 J-1.5000 F1999.80
G1 X138.0607 Y201.0607 Z10.0000 F999.60
G2 X138.5000 Y200.0000 Z10.0000 I-1.0607 J-1.0607 F1999.80
G1 X138.5000 Y0.0000 Z10.0000 F1999.80
G2 X137.0000 Y-1.5000 Z10.0000 I-1.5000 J0.0000 F1999.80
G1 X0.0000 Y-1.5000 Z10.0000 F1999.80
G2 X-1.5000 Y0.0000 Z10.0000 I0.0000 J1.5000 F1999.80
G1 X-1.5000 Y200.0000 Z10.0000 F1999.80
G2 X0.0000 Y201.5000 Z10.0000 I1.5000 J0.0000 F1999.80
G1 X137.0000 Y201.5000 Z10.0000 F1999.80
G2 X138.0607 Y201.0607 Z10.0000 I0.0000 J-1.5000 F1999.80
G1 X138.0607 Y201.0607 Z9.6000 F999.60
G2 X138.5000 Y200.0000 Z9.6000 I-1.0607 J-1.0607 F1999.80
G1 X138.5000 Y0.0000 Z9.6000 F1999.80
G2 X137.0000 Y-1.5000 Z9.6000 I-1.5000 J0.0000 F1999.80
G1 X0.0000 Y-1.5000 Z9.6000 F1999.80
G2 X-1.5000 Y0.0000 Z9.6000 I0.0000 J1.5000 F1999.80
G1 X-1.5000 Y200.0000 Z9.6000 F1999.80
G2 X0.0000 Y201.5000 Z9.6000 I1.5000 J0.0000 F1999.80
G1 X137.0000 Y201.5000 Z9.6000 F1999.80
G2 X138.0607 Y201.0607 Z9.6000 I0.0000 J-1.5000 F1999.80
G1 X138.0607 Y201.0607 Z9.2000 F999.60
G2 X138.5000 Y200.0000 Z9.2000 I-1.0607 J-1.0607 F1999.80
G1 X138.5000 Y0.0000 Z9.2000 F1999.80
G2 X137.0000 Y-1.5000 Z9.2000 I-1.5000 J0.0000 F1999.80
G1 X0.0000 Y-1.5000 Z9.2000 F1999.80
G2 X-1.5000 Y0.0000 Z9.2000 I0.0000 J1.5000 F1999.80
G1 X-1.5000 Y200.0000 Z9.2000 F1999.80
G2 X0.0000 Y201.5000 Z9.2000 I1.5000 J0.0000 F1999.80
G1 X137.0000 Y201.5000 Z9.2000 F1999.80
G2 X138.0607 Y201.0607 Z9.2000 I0.0000 J-1.5000 F1999.80
G1 X138.0607 Y201.0607 Z8.8000 F999.60
G2 X138.5000 Y200.0000 Z8.8000 I-1.0607 J-1.0607 F1999.80
G1 X138.5000 Y0.0000 Z8.8000 F1999.80
G2 X137.0000 Y-1.5000 Z8.8000 I-1.5000 J0.0000 F1999.80
G1 X0.0000 Y-1.5000 Z8.8000 F1999.80
G2 X-1.5000 Y0.0000 Z8.8000 I0.0000 J1.5000 F1999.80
G1 X-1.5000 Y200.0000 Z8.8000 F1999.80
G2 X0.0000 Y201.5000 Z8.8000 I1.5000 J0.0000 F1999.80
G1 X137.0000 Y201.5000 Z8.8000 F1999.80
G2 X138.0607 Y201.0607 Z8.8000 I0.0000 J-1.5000 F1999.80
G1 X138.0607 Y201.0607 Z8.4000 F999.60
G2 X138.5000 Y200.0000 Z8.4000 I-1.0607 J-1.0607 F1999.80
G1 X138.5000 Y0.0000 Z8.4000 F1999.80
G2 X137.0000 Y-1.5000 Z8.4000 I-1.5000 J0.0000 F1999.80
G1 X0.0000 Y-1.5000 Z8.4000 F1999.80
G2 X-1.5000 Y0.0000 Z8.4000 I0.0000 J1.5000 F1999.80
G1 X-1.5000 Y200.0000 Z8.4000 F1999.80
G2 X0.0000 Y201.5000 Z8.4000 I1.5000 J0.0000 F1999.80
G1 X137.0000 Y201.5000 Z8.4000 F1999.80
G2 X138.0607 Y201.0607 Z8.4000 I0.0000 J-1.5000 F1999.80
G1 X138.0607 Y201.0607 Z8.0000 F999.60
G2 X138.5000 Y200.0000 Z8.0000 I-1.0607 J-1.0607 F1999.80
G1 X138.5000 Y0.0000 Z8.0000 F1999.80
G2 X137.0000 Y-1.5000 Z8.0000 I-1.5000 J0.0000 F1999.80
G1 X0.0000 Y-1.5000 Z8.0000 F1999.80
G2 X-1.5000 Y0.0000 Z8.0000 I0.0000 J1.5000 F1999.80
G1 X-1.5000 Y200.0000 Z8.0000 F1999.80
G2 X0.0000 Y201.5000 Z8.0000 I1.5000 J0.0000 F1999.80
G1 X137.0000 Y201.5000 Z8.0000 F1999.80
G2 X138.0607 Y201.0607 Z8.0000 I0.0000 J-1.5000 F1999.80
G1 X138.0607 Y201.0607 Z7.6000 F999.60
G2 X138.5000 Y200.0000 Z7.6000 I-1.0607 J-1.0607 F1999.80
G1 X138.5000 Y0.0000 Z7.6000 F1999.80
G2 X137.0000 Y-1.5000 Z7.6000 I-1.5000 J0.0000 F1999.80
G1 X0.0000 Y-1.5000 Z7.6000 F1999.80
G2 X-1.5000 Y0.0000 Z7.6000 I0.0000 J1.5000 F1999.80
G1 X-1.5000 Y200.0000 Z7.6000 F1999.80
G2 X0.0000 Y201.5000 Z7.6000 I1.5000 J0.0000 F1999.80
G1 X137.0000 Y201.5000 Z7.6000 F1999.80
G2 X138.0607 Y201.0607 Z7.6000 I0.0000 J-1.5000 F1999.80
G1 X138.0607 Y201.0607 Z7.2000 F999.60
G2 X138.5000 Y200.0000 Z7.2000 I-1.0607 J-1.0607 F1999.80
G1 X138.5000 Y0.0000 Z7.2000 F1999.80
G2 X137.0000 Y-1.5000 Z7.2000 I-1.5000 J0.0000 F1999.80
G1 X0.0000 Y-1.5000 Z7.2000 F1999.80
G2 X-1.5000 Y0.0000 Z7.2000 I0.0000 J1.5000 F1999.80
G1 X-1.5000 Y200.0000 Z7.2000 F1999.80
G2 X0.0000 Y201.5000 Z7.2000 I1.5000 J0.0000 F1999.80
G1 X137.0000 Y201.5000 Z7.2000 F1999.80
G2 X138.0607 Y201.0607 Z7.2000 I0.0000 J-1.5000 F1999.80
G1 X138.0607 Y201.0607 Z6.8000 F999.60
G2 X138.5000 Y200.0000 Z6.8000 I-1.0607 J-1.0607 F1999.80
G1 X138.5000 Y0.0000 Z6.8000 F1999.80
G2 X137.0000 Y-1.5000 Z6.8000 I-1.5000 J0.0000 F1999.80
G1 X0.0000 Y-1.5000 Z6.8000 F1999.80
G2 X-1.5000 Y0.0000 Z6.8000 I0.0000 J1.5000 F1999.80
G1 X-1.5000 Y200.0000 Z6.8000 F1999.80
G2 X0.0000 Y201.5000 Z6.8000 I1.5000 J0.0000 F1999.80
G1 X137.0000 Y201.5000 Z6.8000 F1999.80
G2 X138.0607 Y201.0607 Z6.8000 I0.0000 J-1.5000 F1999.80
G1 X138.0607 Y201.0607 Z6.4000 F999.60
G2 X138.5000 Y200.0000 Z6.4000 I-1.0607 J-1.0607 F1999.80
G1 X138.5000 Y0.0000 Z6.4000 F1999.80
G2 X137.0000 Y-1.5000 Z6.4000 I-1.5000 J0.0000 F1999.80
G1 X0.0000 Y-1.5000 Z6.4000 F1999.80
G2 X-1.5000 Y0.0000 Z6.4000 I0.0000 J1.5000 F1999.80
G1 X-1.5000 Y200.0000 Z6.4000 F1999.80
G2 X0.0000 Y201.5000 Z6.4000 I1.5000 J0.0000 F1999.80
G1 X137.0000 Y201.5000 Z6.4000 F1999.80
G2 X138.0607 Y201.0607 Z6.4000 I0.0000 J-1.5000 F1999.80
G1 X138.0607 Y201.0607 Z6.0000 F999.60
G2 X138.5000 Y200.0000 Z6.0000 I-1.0607 J-1.0607 F1999.80
G1 X138.5000 Y0.0000 Z6.0000 F1999.80
G2 X137.0000 Y-1.5000 Z6.0000 I-1.5000 J0.0000 F1999.80
G1 X0.0000 Y-1.5000 Z6.0000 F1999.80
G2 X-1.5000 Y0.0000 Z6.0000 I0.0000 J1.5000 F1999.80
G1 X-1.5000 Y200.0000 Z6.0000 F1999.80
G2 X0.0000 Y201.5000 Z6.0000 I1.5000 J0.0000 F1999.80
G1 X137.0000 Y201.5000 Z6.0000 F1999.80
G2 X138.0607 Y201.0607 Z6.0000 I0.0000 J-1.5000 F1999.80
G1 X138.0607 Y201.0607 Z5.6000 F999.60
G2 X138.5000 Y200.0000 Z5.6000 I-1.0607 J-1.0607 F1999.80
G1 X138.5000 Y0.0000 Z5.6000 F1999.80
G2 X137.0000 Y-1.5000 Z5.6000 I-1.5000 J0.0000 F1999.80
G1 X0.0000 Y-1.5000 Z5.6000 F1999.80
G2 X-1.5000 Y0.0000 Z5.6000 I0.0000 J1.5000 F1999.80
G1 X-1.5000 Y200.0000 Z5.6000 F1999.80
G2 X0.0000 Y201.5000 Z5.6000 I1.5000 J0.0000 F1999.80
G1 X137.0000 Y201.5000 Z5.6000 F1999.80
G2 X138.0607 Y201.0607 Z5.6000 I0.0000 J-1.5000 F1999.80
G1 X138.0607 Y201.0607 Z5.2000 F999.60
G2 X138.5000 Y200.0000 Z5.2000 I-1.0607 J-1.0607 F1999.80
G1 X138.5000 Y0.0000 Z5.2000 F1999.80
G2 X137.0000 Y-1.5000 Z5.2000 I-1.5000 J0.0000 F1999.80
G1 X0.0000 Y-1.5000 Z5.2000 F1999.80
G2 X-1.5000 Y0.0000 Z5.2000 I0.0000 J1.5000 F1999.80
G1 X-1.5000 Y200.0000 Z5.2000 F1999.80
G2 X0.0000 Y201.5000 Z5.2000 I1.5000 J0.0000 F1999.80
G1 X137.0000 Y201.5000 Z5.2000 F1999.80
G2 X138.0607 Y201.0607 Z5.2000 I0.0000 J-1.5000 F1999.80
G1 X138.0607 Y201.0607 Z4.8000 F999.60
G2 X138.5000 Y200.0000 Z4.8000 I-1.0607 J-1.0607 F1999.80
G1 X138.5000 Y0.0000 Z4.8000 F1999.80
G2 X137.0000 Y-1.5000 Z4.8000 I-1.5000 J0.0000 F1999.80
G1 X0.0000 Y-1.5000 Z4.8000 F1999.80
G2 X-1.5000 Y0.0000 Z4.8000 I0.0000 J1.5000 F1999.80
G1 X-1.5000 Y200.0000 Z4.8000 F1999.80
G2 X0.0000 Y201.5000 Z4.8000 I1.5000 J0.0000 F1999.80
G1 X137.0000 Y201.5000 Z4.8000 F1999.80
G2 X138.0607 Y201.0607 Z4.8000 I0.0000 J-1.5000 F1999.80
G1 X138.0607 Y201.0607 Z4.4000 F999.60
G2 X138.5000 Y200.0000 Z4.4000 I-1.0607 J-1.0607 F1999.80
G1 X138.5000 Y0.0000 Z4.4000 F1999.80
G2 X137.0000 Y-1.5000 Z4.4000 I-1.5000 J0.0000 F1999.80
G1 X0.0000 Y-1.5000 Z4.4000 F1999.80
G2 X-1.5000 Y0.0000 Z4.4000 I0.0000 J1.5000 F1999.80
G1 X-1.5000 Y200.0000 Z4.4000 F1999.80
G2 X0.0000 Y201.5000 Z4.4000 I1.5000 J0.0000 F1999.80
G1 X137.0000 Y201.5000 Z4.4000 F1999.80
G2 X138.0607 Y201.0607 Z4.4000 I0.0000 J-1.5000 F1999.80
G1 X138.0607 Y201.0607 Z4.0000 F999.60
G2 X138.5000 Y200.0000 Z4.0000 I-1.0607 J-1.0607 F1999.80
G1 X138.5000 Y0.0000 Z4.0000 F1999.80
G2 X137.0000 Y-1.5000 Z4.0000 I-1.5000 J0.0000 F1999.80
G1 X0.0000 Y-1.5000 Z4.0000 F1999.80
G2 X-1.5000 Y0.0000 Z4.0000 I0.0000 J1.5000 F1999.80
G1 X-1.5000 Y200.0000 Z4.0000 F1999.80
G2 X0.0000 Y201.5000 Z4.0000 I1.5000 J0.0000 F1999.80
G1 X137.0000 Y201.5000 Z4.0000 F1999.80
G2 X138.0607 Y201.0607 Z4.0000 I0.0000 J-1.5000 F1999.80
G1 X138.0607 Y201.0607 Z3.6000 F999.60
G2 X138.5000 Y200.0000 Z3.6000 I-1.0607 J-1.0607 F1999.80
G1 X138.5000 Y0.0000 Z3.6000 F1999.80
G2 X137.0000 Y-1.5000 Z3.6000 I-1.5000 J0.0000 F1999.80
G1 X0.0000 Y-1.5000 Z3.6000 F1999.80
G2 X-1.5000 Y0.0000 Z3.6000 I0.0000 J1.5000 F1999.80
G1 X-1.5000 Y200.0000 Z3.6000 F1999.80
G2 X0.0000 Y201.5000 Z3.6000 I1.5000 J0.0000 F1999.80
G1 X137.0000 Y201.5000 Z3.6000 F1999.80
G2 X138.0607 Y201.0607 Z3.6000 I0.0000 J-1.5000 F1999.80
G1 X138.0607 Y201.0607 Z3.2000 F999.60
G2 X138.5000 Y200.0000 Z3.2000 I-1.0607 J-1.0607 F1999.80
G1 X138.5000 Y0.0000 Z3.2000 F1999.80
G2 X137.0000 Y-1.5000 Z3.2000 I-1.5000 J0.0000 F1999.80
G1 X0.0000 Y-1.5000 Z3.2000 F1999.80
G2 X-1.5000 Y0.0000 Z3.2000 I0.0000 J1.5000 F1999.80
G1 X-1.5000 Y200.0000 Z3.2000 F1999.80
G2 X0.0000 Y201.5000 Z3.2000 I1.5000 J0.0000 F1999.80
G1 X137.0000 Y201.5000 Z3.2000 F1999.80
G2 X138.0607 Y201.0607 Z3.2000 I0.0000 J-1.5000 F1999.80
G1 X138.0607 Y201.0607 Z2.8000 F999.60
G2 X138.5000 Y200.0000 Z2.8000 I-1.0607 J-1.0607 F1999.80
G1 X138.5000 Y0.0000 Z2.8000 F1999.80
G2 X137.0000 Y-1.5000 Z2.8000 I-1.5000 J0.0000 F1999.80
G1 X0.0000 Y-1.5000 Z2.8000 F1999.80
G2 X-1.5000 Y0.0000 Z2.8000 I0.0000 J1.5000 F1999.80
G1 X-1.5000 Y200.0000 Z2.8000 F1999.80
G2 X0.0000 Y201.5000 Z2.8000 I1.5000 J0.0000 F1999.80
G1 X137.0000 Y201.5000 Z2.8000 F1999.80
G2 X138.0607 Y201.0607 Z2.8000 I0.0000 J-1.5000 F1999.80
G1 X138.0607 Y201.0607 Z2.4000 F999.60
G2 X138.5000 Y200.0000 Z2.4000 I-1.0607 J-1.0607 F1999.80
G1 X138.5000 Y0.0000 Z2.4000 F1999.80
G2 X137.0000 Y-1.5000 Z2.4000 I-1.5000 J0.0000 F1999.80
G1 X0.0000 Y-1.5000 Z2.4000 F1999.80
G2 X-1.5000 Y0.0000 Z2.4000 I0.0000 J1.5000 F1999.80
G1 X-1.5000 Y200.0000 Z2.4000 F1999.80
G2 X0.0000 Y201.5000 Z2.4000 I1.5000 J0.0000 F1999.80
G1 X137.0000 Y201.5000 Z2.4000 F1999.80
G2 X138.0607 Y201.0607 Z2.4000 I0.0000 J-1.5000 F1999.80
G1 X138.0607 Y201.0607 Z2.0000 F999.60
G2 X138.5000 Y200.0000 Z2.0000 I-1.0607 J-1.0607 F1999.80
G1 X138.5000 Y0.0000 Z2.0000 F1999.80
G2 X137.0000 Y-1.5000 Z2.0000 I-1.5000 J0.0000 F1999.80
G1 X0.0000 Y-1.5000 Z2.0000 F1999.80
G2 X-1.5000 Y0.0000 Z2.0000 I0.0000 J1.5000 F1999.80
G1 X-1.5000 Y200.0000 Z2.0000 F1999.80
G2 X0.0000 Y201.5000 Z2.0000 I1.5000 J0.0000 F1999.80
G1 X137.0000 Y201.5000 Z2.0000 F1999.80
G2 X138.0607 Y201.0607 Z2.0000 I0.0000 J-1.5000 F1999.80
G1 X138.0607 Y201.0607 Z1.6000 F999.60
G2 X138.5000 Y200.0000 Z1.6000 I-1.0607 J-1.0607 F1999.80
G1 X138.5000 Y0.0000 Z1.6000 F1999.80
G2 X137.0000 Y-1.5000 Z1.6000 I-1.5000 J0.0000 F1999.80
G1 X0.0000 Y-1.5000 Z1.6000 F1999.80
G2 X-1.5000 Y0.0000 Z1.6000 I0.0000 J1.5000 F1999.80
G1 X-1.5000 Y200.0000 Z1.6000 F1999.80
G2 X0.0000 Y201.5000 Z1.6000 I1.5000 J0.0000 F1999.80
G1 X137.0000 Y201.5000 Z1.6000 F1999.80
G2 X138.0607 Y201.0607 Z1.6000 I0.0000 J-1.5000 F1999.80
G1 X138.0607 Y201.0607 Z1.2000 F999.60
G2 X138.5000 Y200.0000 Z1.2000 I-1.0607 J-1.0607 F1999.80
G1 X138.5000 Y0.0000 Z1.2000 F1999.80
G2 X137.0000 Y-1.5000 Z1.2000 I-1.5000 J0.0000 F1999.80
G1 X0.0000 Y-1.5000 Z1.2000 F1999.80
G2 X-1.5000 Y0.0000 Z1.2000 I0.0000 J1.5000 F1999.80
G1 X-1.5000 Y200.0000 Z1.2000 F1999.80
G2 X0.0000 Y201.5000 Z1.2000 I1.5000 J0.0000 F1999.80
G1 X137.0000 Y201.5000 Z1.2000 F1999.80
G2 X138.0607 Y201.0607 Z1.2000 I0.0000 J-1.5000 F1999.80
G1 X138.0607 Y201.0607 Z0.8000 F999.60
G2 X138.5000 Y200.0000 Z0.8000 I-1.0607 J-1.0607 F1999.80
G1 X138.5000 Y0.0000 Z0.8000 F1999.80
G2 X137.0000 Y-1.5000 Z0.8000 I-1.5000 J0.0000 F1999.80
G1 X0.0000 Y-1.5000 Z0.8000 F1999.80
G2 X-1.5000 Y0.0000 Z0.8000 I0.0000 J1.5000 F1999.80
G1 X-1.5000 Y200.0000 Z0.8000 F1999.80
G2 X0.0000 Y201.5000 Z0.8000 I1.5000 J0.0000 F1999.80
G1 X137.0000 Y201.5000 Z0.8000 F1999.80
G2 X138.0607 Y201.0607 Z0.8000 I0.0000 J-1.5000 F1999.80
G1 X138.0607 Y201.0607 Z0.4000 F999.60
G2 X138.5000 Y200.0000 Z0.4000 I-1.0607 J-1.0607 F1999.80
G1 X138.5000 Y0.0000 Z0.4000 F1999.80
G2 X137.0000 Y-1.5000 Z0.4000 I-1.5000 J0.0000 F1999.80
G1 X0.0000 Y-1.5000 Z0.4000 F1999.80
G2 X-1.5000 Y0.0000 Z0.4000 I0.0000 J1.5000 F1999.80
G1 X-1.5000 Y200.0000 Z0.4000 F1999.80
G2 X0.0000 Y201.5000 Z0.4000 I1.5000 J0.0000 F1999.80
G1 X137.0000 Y201.5000 Z0.4000 F1999.80
G2 X138.0607 Y201.0607 Z0.4000 I0.0000 J-1.5000 F1999.80
G1 X138.0607 Y201.0607 Z0.0000 F999.60
G2 X138.5000 Y200.0000 Z0.0000 I-1.0607 J-1.0607 F1999.80
G1 X138.5000 Y0.0000 Z0.0000 F1999.80
G2 X137.0000 Y-1.5000 Z0.0000 I-1.5000 J0.0000 F1999.80
G1 X0.0000 Y-1.5000 Z0.0000 F1999.80
G2 X-1.5000 Y0.0000 Z0.0000 I0.0000 J1.5000 F1999.80
G1 X-1.5000 Y200.0000 Z0.0000 F1999.80
G2 X0.0000 Y201.5000 Z0.0000 I1.5000 J0.0000 F1999.80
G1 X137.0000 Y201.5000 Z0.0000 F1999.80
G2 X138.0607 Y201.0607 Z0.0000 I0.0000 J-1.5000 F1999.80
G1 X138.0607 Y201.0607 Z-0.2000 F999.60
G2 X138.5000 Y200.0000 Z-0.2000 I-1.0607 J-1.0607 F1999.80
G1 X138.5000 Y0.0000 Z-0.2000 F1999.80
G2 X137.0000 Y-1.5000 Z-0.2000 I-1.5000 J0.0000 F1999.80
G1 X0.0000 Y-1.5000 Z-0.2000 F1999.80
G2 X-1.5000 Y0.0000 Z-0.2000 I0.0000 J1.5000 F1999.80
G1 X-1.5000 Y200.0000 Z-0.2000 F1999.80
G2 X0.0000 Y201.5000 Z-0.2000 I1.5000 J0.0000 F1999.80
G1 X137.0000 Y201.5000 Z-0.2000 F1999.80
G2 X138.0607 Y201.0607 Z-0.2000 I0.0000 J-1.5000 F1999.80
G0 Z24.0000
(finish operation: Contour001)
(begin postamble)
M5
G17 G90
; M2
