(Exported by FreeCAD)
(Post Processor: grbl_post)
(Output Time:2020-03-30 20:32:26.483418)
(begin preamble)
G17 G90
G21
(begin operation: T6: 2FluteWoodMill)
(Path: T6: 2FluteWoodMill)
(T6: 2FluteWoodMill)
(begin toolchange)
; M6 T6
M3 S12000.0000
(finish operation: T6: 2FluteWoodMill)
(begin operation: Pocket_Shape)
(Path: Pocket_Shape)
(Pocket_Shape)
G0 Z23.0000
G0 X348.5000 Y198.5000
G0 Z21.0000
G1 X348.5000 Y198.5000 Z17.6000 F999.60
G1 X348.5000 Y1.5000 Z17.6000 F1999.80
G1 X333.5000 Y1.5000 Z17.6000 F1999.80
G1 X333.5000 Y132.0000 Z17.6000 F1999.80
G3 X332.0000 Y133.5000 Z17.6000 I-1.5000 J0.0000 F1999.80
G1 X18.0000 Y133.5000 Z17.6000 F1999.80
G3 X16.5000 Y132.0000 Z17.6000 I0.0000 J-1.5000 F1999.80
G1 X16.5000 Y1.5000 Z17.6000 F1999.80
G1 X1.5000 Y1.5000 Z17.6000 F1999.80
G1 X1.5000 Y198.5000 Z17.6000 F1999.80
G1 X16.5000 Y198.5000 Z17.6000 F1999.80
G1 X16.5000 Y150.0000 Z17.6000 F1999.80
G3 X18.0000 Y148.5000 Z17.6000 I1.5000 J0.0000 F1999.80
G1 X332.0000 Y148.5000 Z17.6000 F1999.80
G3 X333.5000 Y150.0000 Z17.6000 I0.0000 J1.5000 F1999.80
G1 X333.5000 Y198.5000 Z17.6000 F1999.80
G1 X348.5000 Y198.5000 Z17.6000 F1999.80
G0 X348.5000 Y198.5000 Z23.0000
G0 X346.2500 Y196.2500 Z23.0000
G1 X346.2500 Y196.2500 Z17.6000 F999.60
G1 X346.2500 Y3.7500 Z17.6000 F1999.80
G1 X335.7500 Y3.7500 Z17.6000 F1999.80
G1 X335.7500 Y132.0000 Z17.6000 F1999.80
G3 X332.0000 Y135.7500 Z17.6000 I-3.7500 J0.0000 F1999.80
G1 X18.0000 Y135.7500 Z17.6000 F1999.80
G3 X14.2500 Y132.0000 Z17.6000 I0.0000 J-3.7500 F1999.80
G1 X14.2500 Y3.7500 Z17.6000 F1999.80
G1 X3.7500 Y3.7500 Z17.6000 F1999.80
G1 X3.7500 Y196.2500 Z17.6000 F1999.80
G1 X14.2500 Y196.2500 Z17.6000 F1999.80
G1 X14.2500 Y150.0000 Z17.6000 F1999.80
G3 X18.0000 Y146.2500 Z17.6000 I3.7500 J0.0000 F1999.80
G1 X332.0000 Y146.2500 Z17.6000 F1999.80
G3 X335.7500 Y150.0000 Z17.6000 I0.0000 J3.7500 F1999.80
G1 X335.7500 Y196.2500 Z17.6000 F1999.80
G1 X346.2500 Y196.2500 Z17.6000 F1999.80
G0 X346.2500 Y196.2500 Z23.0000
G0 X344.0000 Y194.0000 Z23.0000
G1 X344.0000 Y194.0000 Z17.6000 F999.60
G1 X344.0000 Y6.0000 Z17.6000 F1999.80
G1 X338.0000 Y6.0000 Z17.6000 F1999.80
G1 X338.0000 Y132.0000 Z17.6000 F1999.80
G3 X332.0000 Y138.0000 Z17.6000 I-6.0000 J0.0000 F1999.80
G1 X18.0000 Y138.0000 Z17.6000 F1999.80
G3 X12.0000 Y132.0000 Z17.6000 I0.0000 J-6.0000 F1999.80
G1 X12.0000 Y6.0000 Z17.6000 F1999.80
G1 X6.0000 Y6.0000 Z17.6000 F1999.80
G1 X6.0000 Y194.0000 Z17.6000 F1999.80
G1 X12.0000 Y194.0000 Z17.6000 F1999.80
G1 X12.0000 Y150.0000 Z17.6000 F1999.80
G3 X18.0000 Y144.0000 Z17.6000 I6.0000 J0.0000 F1999.80
G1 X332.0000 Y144.0000 Z17.6000 F1999.80
G3 X338.0000 Y150.0000 Z17.6000 I0.0000 J6.0000 F1999.80
G1 X338.0000 Y194.0000 Z17.6000 F1999.80
G1 X344.0000 Y194.0000 Z17.6000 F1999.80
G0 X344.0000 Y194.0000 Z23.0000
G0 X341.7500 Y191.7500 Z23.0000
G1 X341.7500 Y191.7500 Z17.6000 F999.60
G1 X341.7500 Y8.2500 Z17.6000 F1999.80
G1 X340.2500 Y8.2500 Z17.6000 F1999.80
G1 X340.2500 Y132.0000 Z17.6000 F1999.80
G3 X332.0000 Y140.2500 Z17.6000 I-8.2500 J0.0000 F1999.80
G1 X18.0000 Y140.2500 Z17.6000 F1999.80
G3 X9.7500 Y132.0000 Z17.6000 I0.0000 J-8.2500 F1999.80
G1 X9.7500 Y8.2500 Z17.6000 F1999.80
G1 X8.2500 Y8.2500 Z17.6000 F1999.80
G1 X8.2500 Y191.7500 Z17.6000 F1999.80
G1 X9.7500 Y191.7500 Z17.6000 F1999.80
G1 X9.7500 Y150.0000 Z17.6000 F1999.80
G3 X18.0000 Y141.7500 Z17.6000 I8.2500 J0.0000 F1999.80
G1 X332.0000 Y141.7500 Z17.6000 F1999.80
G3 X340.2500 Y150.0000 Z17.6000 I0.0000 J8.2500 F1999.80
G1 X340.2500 Y191.7500 Z17.6000 F1999.80
G1 X341.7500 Y191.7500 Z17.6000 F1999.80
G0 X341.7500 Y191.7500 Z23.0000
G0 X339.5000 Y142.6576 Z23.0000
G1 X339.5000 Y142.6576 Z17.6000 F999.60
G1 X339.5000 Y139.3424 Z17.6000 F1999.80
G3 X337.3964 Y141.0000 Z17.6000 I-7.1176 J-6.8689 F1999.80
G3 X339.5000 Y142.6576 Z17.6000 I-5.0140 J8.5265 F1999.80
G0 X339.5000 Y142.6576 Z23.0000
G0 X338.7500 Y141.0031 Z23.0000
G1 X338.7500 Y141.0031 Z17.6000 F999.60
G1 X338.7500 Y140.9894 Z17.6000 F1999.80
G1 X338.7404 Y140.9964 Z17.6000 F1999.80
G1 X338.7500 Y141.0031 Z17.6000 F1999.80
G0 X338.7500 Y141.0031 Z23.0000
G0 X12.6036 Y141.0000 Z23.0000
G1 X12.6036 Y141.0000 Z17.6000 F999.60
G3 X10.5000 Y139.3424 Z17.6000 I5.0140 J-8.5265 F1999.80
G1 X10.5000 Y142.6576 Z17.6000 F1999.80
G3 X12.6036 Y141.0000 Z17.6000 I7.1176 J6.8689 F1999.80
G0 X12.6036 Y141.0000 Z23.0000
G0 X11.2596 Y141.0036 Z23.0000
G1 X11.2596 Y141.0036 Z17.6000 F999.60
G1 X11.2500 Y140.9969 Z17.6000 F1999.80
G1 X11.2500 Y141.0106 Z17.6000 F1999.80
G1 X11.2596 Y141.0036 Z17.6000 F1999.80
G1 X11.2596 Y141.0036 Z17.2000 F999.60
G1 X11.2500 Y140.9969 Z17.2000 F1999.80
G1 X11.2500 Y141.0106 Z17.2000 F1999.80
G1 X11.2596 Y141.0036 Z17.2000 F1999.80
G0 X11.2596 Y141.0036 Z23.0000
G0 X11.7031 Y141.5981 Z23.0000
G1 X11.7031 Y141.5981 Z17.2000 F999.60
G3 X12.6036 Y141.0000 Z17.2000 I5.9145 J7.9285 F1999.80
G3 X10.5000 Y139.3424 Z17.2000 I5.0140 J-8.5265 F1999.80
G1 X10.5000 Y142.6576 Z17.2000 F1999.80
G3 X11.7031 Y141.5981 Z17.2000 I7.1176 J6.8689 F1999.80
G0 X11.7031 Y141.5981 Z23.0000
G0 X13.0523 Y143.3983 Z23.0000
G1 X13.0523 Y143.3983 Z17.2000 F999.60
G3 X18.0000 Y141.7500 Z17.2000 I4.9477 J6.6017 F1999.80
G1 X332.0000 Y141.7500 Z17.2000 F1999.80
G3 X340.2500 Y150.0000 Z17.2000 I0.0000 J8.2500 F1999.80
G1 X340.2500 Y191.7500 Z17.2000 F1999.80
G1 X341.7500 Y191.7500 Z17.2000 F1999.80
G1 X341.7500 Y8.2500 Z17.2000 F1999.80
G1 X340.2500 Y8.2500 Z17.2000 F1999.80
G1 X340.2500 Y132.0000 Z17.2000 F1999.80
G3 X332.0000 Y140.2500 Z17.2000 I-8.2500 J0.0000 F1999.80
G1 X18.0000 Y140.2500 Z17.2000 F1999.80
G3 X9.7500 Y132.0000 Z17.2000 I0.0000 J-8.2500 F1999.80
G1 X9.7500 Y8.2500 Z17.2000 F1999.80
G1 X8.2500 Y8.2500 Z17.2000 F1999.80
G1 X8.2500 Y191.7500 Z17.2000 F1999.80
G1 X9.7500 Y191.7500 Z17.2000 F1999.80
G1 X9.7500 Y150.0000 Z17.2000 F1999.80
G3 X13.0523 Y143.3983 Z17.2000 I8.2500 J0.0000 F1999.80
G0 X13.0523 Y143.3983 Z23.0000
G0 X14.4017 Y145.1988 Z23.0000
G1 X14.4017 Y145.1988 Z17.2000 F999.60
G3 X18.0000 Y144.0000 Z17.2000 I3.5983 J4.8012 F1999.80
G1 X332.0000 Y144.0000 Z17.2000 F1999.80
G3 X338.0000 Y150.0000 Z17.2000 I0.0000 J6.0000 F1999.80
G1 X338.0000 Y194.0000 Z17.2000 F1999.80
G1 X344.0000 Y194.0000 Z17.2000 F1999.80
G1 X344.0000 Y6.0000 Z17.2000 F1999.80
G1 X338.0000 Y6.0000 Z17.2000 F1999.80
G1 X338.0000 Y132.0000 Z17.2000 F1999.80
G3 X332.0000 Y138.0000 Z17.2000 I-6.0000 J0.0000 F1999.80
G1 X18.0000 Y138.0000 Z17.2000 F1999.80
G3 X12.0000 Y132.0000 Z17.2000 I0.0000 J-6.0000 F1999.80
G1 X12.0000 Y6.0000 Z17.2000 F1999.80
G1 X6.0000 Y6.0000 Z17.2000 F1999.80
G1 X6.0000 Y194.0000 Z17.2000 F1999.80
G1 X12.0000 Y194.0000 Z17.2000 F1999.80
G1 X12.0000 Y150.0000 Z17.2000 F1999.80
G3 X14.4017 Y145.1988 Z17.2000 I6.0000 J0.0000 F1999.80
G0 X14.4017 Y145.1988 Z23.0000
G0 X15.7510 Y146.9992 Z23.0000
G1 X15.7510 Y146.9992 Z17.2000 F999.60
G3 X18.0000 Y146.2500 Z17.2000 I2.2490 J3.0008 F1999.80
G1 X332.0000 Y146.2500 Z17.2000 F1999.80
G3 X335.7500 Y150.0000 Z17.2000 I0.0000 J3.7500 F1999.80
G1 X335.7500 Y196.2500 Z17.2000 F1999.80
G1 X346.2500 Y196.2500 Z17.2000 F1999.80
G1 X346.2500 Y3.7500 Z17.2000 F1999.80
G1 X335.7500 Y3.7500 Z17.2000 F1999.80
G1 X335.7500 Y132.0000 Z17.2000 F1999.80
G3 X332.0000 Y135.7500 Z17.2000 I-3.7500 J0.0000 F1999.80
G1 X18.0000 Y135.7500 Z17.2000 F1999.80
G3 X14.2500 Y132.0000 Z17.2000 I0.0000 J-3.7500 F1999.80
G1 X14.2500 Y3.7500 Z17.2000 F1999.80
G1 X3.7500 Y3.7500 Z17.2000 F1999.80
G1 X3.7500 Y196.2500 Z17.2000 F1999.80
G1 X14.2500 Y196.2500 Z17.2000 F1999.80
G1 X14.2500 Y150.0000 Z17.2000 F1999.80
G3 X15.7510 Y146.9992 Z17.2000 I3.7500 J0.0000 F1999.80
G0 X15.7510 Y146.9992 Z23.0000
G0 X17.1004 Y148.7997 Z23.0000
G1 X17.1004 Y148.7997 Z17.2000 F999.60
G3 X18.0000 Y148.5000 Z17.2000 I0.8996 J1.2003 F1999.80
G1 X332.0000 Y148.5000 Z17.2000 F1999.80
G3 X333.5000 Y150.0000 Z17.2000 I0.0000 J1.5000 F1999.80
G1 X333.5000 Y198.5000 Z17.2000 F1999.80
G1 X348.5000 Y198.5000 Z17.2000 F1999.80
G1 X348.5000 Y1.5000 Z17.2000 F1999.80
G1 X333.5000 Y1.5000 Z17.2000 F1999.80
G1 X333.5000 Y132.0000 Z17.2000 F1999.80
G3 X332.0000 Y133.5000 Z17.2000 I-1.5000 J0.0000 F1999.80
G1 X18.0000 Y133.5000 Z17.2000 F1999.80
G3 X16.5000 Y132.0000 Z17.2000 I0.0000 J-1.5000 F1999.80
G1 X16.5000 Y1.5000 Z17.2000 F1999.80
G1 X1.5000 Y1.5000 Z17.2000 F1999.80
G1 X1.5000 Y198.5000 Z17.2000 F1999.80
G1 X16.5000 Y198.5000 Z17.2000 F1999.80
G1 X16.5000 Y150.0000 Z17.2000 F1999.80
G3 X17.1004 Y148.7997 Z17.2000 I1.5000 J0.0000 F1999.80
G0 X17.1004 Y148.7997 Z23.0000
G0 X337.3964 Y141.0000 Z23.0000
G1 X337.3964 Y141.0000 Z17.2000 F999.60
G3 X339.5000 Y142.6576 Z17.2000 I-5.0140 J8.5265 F1999.80
G1 X339.5000 Y139.3424 Z17.2000 F1999.80
G3 X337.3964 Y141.0000 Z17.2000 I-7.1176 J-6.8689 F1999.80
G0 X337.3964 Y141.0000 Z23.0000
G0 X338.7404 Y140.9964 Z23.0000
G1 X338.7404 Y140.9964 Z17.2000 F999.60
G1 X338.7500 Y141.0031 Z17.2000 F1999.80
G1 X338.7500 Y140.9894 Z17.2000 F1999.80
G1 X338.7404 Y140.9964 Z17.2000 F1999.80
G1 X338.7404 Y140.9964 Z16.8000 F999.60
G1 X338.7500 Y141.0031 Z16.8000 F1999.80
G1 X338.7500 Y140.9894 Z16.8000 F1999.80
G1 X338.7404 Y140.9964 Z16.8000 F1999.80
G0 X338.7404 Y140.9964 Z23.0000
G0 X338.2969 Y140.4019 Z23.0000
G1 X338.2969 Y140.4019 Z16.8000 F999.60
G3 X337.3964 Y141.0000 Z16.8000 I-5.9145 J-7.9285 F1999.80
G3 X339.5000 Y142.6576 Z16.8000 I-5.0140 J8.5265 F1999.80
G1 X339.5000 Y139.3424 Z16.8000 F1999.80
G3 X338.2969 Y140.4019 Z16.8000 I-7.1176 J-6.8689 F1999.80
G0 X338.2969 Y140.4019 Z23.0000
G0 X336.9477 Y138.6017 Z23.0000
G1 X336.9477 Y138.6017 Z16.8000 F999.60
G3 X332.0000 Y140.2500 Z16.8000 I-4.9477 J-6.6017 F1999.80
G1 X18.0000 Y140.2500 Z16.8000 F1999.80
G3 X9.7500 Y132.0000 Z16.8000 I0.0000 J-8.2500 F1999.80
G1 X9.7500 Y8.2500 Z16.8000 F1999.80
G1 X8.2500 Y8.2500 Z16.8000 F1999.80
G1 X8.2500 Y191.7500 Z16.8000 F1999.80
G1 X9.7500 Y191.7500 Z16.8000 F1999.80
G1 X9.7500 Y150.0000 Z16.8000 F1999.80
G3 X18.0000 Y141.7500 Z16.8000 I8.2500 J0.0000 F1999.80
G1 X332.0000 Y141.7500 Z16.8000 F1999.80
G3 X340.2500 Y150.0000 Z16.8000 I0.0000 J8.2500 F1999.80
G1 X340.2500 Y191.7500 Z16.8000 F1999.80
G1 X341.7500 Y191.7500 Z16.8000 F1999.80
G1 X341.7500 Y8.2500 Z16.8000 F1999.80
G1 X340.2500 Y8.2500 Z16.8000 F1999.80
G1 X340.2500 Y132.0000 Z16.8000 F1999.80
G3 X336.9477 Y138.6017 Z16.8000 I-8.2500 J0.0000 F1999.80
G0 X336.9477 Y138.6017 Z23.0000
G0 X335.5983 Y136.8012 Z23.0000
G1 X335.5983 Y136.8012 Z16.8000 F999.60
G3 X332.0000 Y138.0000 Z16.8000 I-3.5983 J-4.8012 F1999.80
G1 X18.0000 Y138.0000 Z16.8000 F1999.80
G3 X12.0000 Y132.0000 Z16.8000 I0.0000 J-6.0000 F1999.80
G1 X12.0000 Y6.0000 Z16.8000 F1999.80
G1 X6.0000 Y6.0000 Z16.8000 F1999.80
G1 X6.0000 Y194.0000 Z16.8000 F1999.80
G1 X12.0000 Y194.0000 Z16.8000 F1999.80
G1 X12.0000 Y150.0000 Z16.8000 F1999.80
G3 X18.0000 Y144.0000 Z16.8000 I6.0000 J0.0000 F1999.80
G1 X332.0000 Y144.0000 Z16.8000 F1999.80
G3 X338.0000 Y150.0000 Z16.8000 I0.0000 J6.0000 F1999.80
G1 X338.0000 Y194.0000 Z16.8000 F1999.80
G1 X344.0000 Y194.0000 Z16.8000 F1999.80
G1 X344.0000 Y6.0000 Z16.8000 F1999.80
G1 X338.0000 Y6.0000 Z16.8000 F1999.80
G1 X338.0000 Y132.0000 Z16.8000 F1999.80
G3 X335.5983 Y136.8012 Z16.8000 I-6.0000 J0.0000 F1999.80
G0 X335.5983 Y136.8012 Z23.0000
G0 X334.2490 Y135.0008 Z23.0000
G1 X334.2490 Y135.0008 Z16.8000 F999.60
G3 X332.0000 Y135.7500 Z16.8000 I-2.2490 J-3.0008 F1999.80
G1 X18.0000 Y135.7500 Z16.8000 F1999.80
G3 X14.2500 Y132.0000 Z16.8000 I0.0000 J-3.7500 F1999.80
G1 X14.2500 Y3.7500 Z16.8000 F1999.80
G1 X3.7500 Y3.7500 Z16.8000 F1999.80
G1 X3.7500 Y196.2500 Z16.8000 F1999.80
G1 X14.2500 Y196.2500 Z16.8000 F1999.80
G1 X14.2500 Y150.0000 Z16.8000 F1999.80
G3 X18.0000 Y146.2500 Z16.8000 I3.7500 J0.0000 F1999.80
G1 X332.0000 Y146.2500 Z16.8000 F1999.80
G3 X335.7500 Y150.0000 Z16.8000 I0.0000 J3.7500 F1999.80
G1 X335.7500 Y196.2500 Z16.8000 F1999.80
G1 X346.2500 Y196.2500 Z16.8000 F1999.80
G1 X346.2500 Y3.7500 Z16.8000 F1999.80
G1 X335.7500 Y3.7500 Z16.8000 F1999.80
G1 X335.7500 Y132.0000 Z16.8000 F1999.80
G3 X334.2490 Y135.0008 Z16.8000 I-3.7500 J0.0000 F1999.80
G0 X334.2490 Y135.0008 Z23.0000
G0 X332.8996 Y133.2003 Z23.0000
G1 X332.8996 Y133.2003 Z16.8000 F999.60
G3 X332.0000 Y133.5000 Z16.8000 I-0.8996 J-1.2003 F1999.80
G1 X18.0000 Y133.5000 Z16.8000 F1999.80
G3 X16.5000 Y132.0000 Z16.8000 I0.0000 J-1.5000 F1999.80
G1 X16.5000 Y1.5000 Z16.8000 F1999.80
G1 X1.5000 Y1.5000 Z16.8000 F1999.80
G1 X1.5000 Y198.5000 Z16.8000 F1999.80
G1 X16.5000 Y198.5000 Z16.8000 F1999.80
G1 X16.5000 Y150.0000 Z16.8000 F1999.80
G3 X18.0000 Y148.5000 Z16.8000 I1.5000 J0.0000 F1999.80
G1 X332.0000 Y148.5000 Z16.8000 F1999.80
G3 X333.5000 Y150.0000 Z16.8000 I0.0000 J1.5000 F1999.80
G1 X333.5000 Y198.5000 Z16.8000 F1999.80
G1 X348.5000 Y198.5000 Z16.8000 F1999.80
G1 X348.5000 Y1.5000 Z16.8000 F1999.80
G1 X333.5000 Y1.5000 Z16.8000 F1999.80
G1 X333.5000 Y132.0000 Z16.8000 F1999.80
G3 X332.8996 Y133.2003 Z16.8000 I-1.5000 J0.0000 F1999.80
G0 X332.8996 Y133.2003 Z23.0000
G0 X12.6036 Y141.0000 Z23.0000
G1 X12.6036 Y141.0000 Z16.8000 F999.60
G3 X10.5000 Y139.3424 Z16.8000 I5.0140 J-8.5265 F1999.80
G1 X10.5000 Y142.6576 Z16.8000 F1999.80
G3 X12.6036 Y141.0000 Z16.8000 I7.1176 J6.8689 F1999.80
G0 X12.6036 Y141.0000 Z23.0000
G0 X11.2596 Y141.0036 Z23.0000
G1 X11.2596 Y141.0036 Z16.8000 F999.60
G1 X11.2500 Y140.9969 Z16.8000 F1999.80
G1 X11.2500 Y141.0106 Z16.8000 F1999.80
G1 X11.2596 Y141.0036 Z16.8000 F1999.80
G1 X11.2596 Y141.0036 Z16.4000 F999.60
G1 X11.2500 Y140.9969 Z16.4000 F1999.80
G1 X11.2500 Y141.0106 Z16.4000 F1999.80
G1 X11.2596 Y141.0036 Z16.4000 F1999.80
G0 X11.2596 Y141.0036 Z23.0000
G0 X11.7031 Y141.5981 Z23.0000
G1 X11.7031 Y141.5981 Z16.4000 F999.60
G3 X12.6036 Y141.0000 Z16.4000 I5.9145 J7.9285 F1999.80
G3 X10.5000 Y139.3424 Z16.4000 I5.0140 J-8.5265 F1999.80
G1 X10.5000 Y142.6576 Z16.4000 F1999.80
G3 X11.7031 Y141.5981 Z16.4000 I7.1176 J6.8689 F1999.80
G0 X11.7031 Y141.5981 Z23.0000
G0 X13.0523 Y143.3983 Z23.0000
G1 X13.0523 Y143.3983 Z16.4000 F999.60
G3 X18.0000 Y141.7500 Z16.4000 I4.9477 J6.6017 F1999.80
G1 X332.0000 Y141.7500 Z16.4000 F1999.80
G3 X340.2500 Y150.0000 Z16.4000 I0.0000 J8.2500 F1999.80
G1 X340.2500 Y191.7500 Z16.4000 F1999.80
G1 X341.7500 Y191.7500 Z16.4000 F1999.80
G1 X341.7500 Y8.2500 Z16.4000 F1999.80
G1 X340.2500 Y8.2500 Z16.4000 F1999.80
G1 X340.2500 Y132.0000 Z16.4000 F1999.80
G3 X332.0000 Y140.2500 Z16.4000 I-8.2500 J0.0000 F1999.80
G1 X18.0000 Y140.2500 Z16.4000 F1999.80
G3 X9.7500 Y132.0000 Z16.4000 I0.0000 J-8.2500 F1999.80
G1 X9.7500 Y8.2500 Z16.4000 F1999.80
G1 X8.2500 Y8.2500 Z16.4000 F1999.80
G1 X8.2500 Y191.7500 Z16.4000 F1999.80
G1 X9.7500 Y191.7500 Z16.4000 F1999.80
G1 X9.7500 Y150.0000 Z16.4000 F1999.80
G3 X13.0523 Y143.3983 Z16.4000 I8.2500 J0.0000 F1999.80
G0 X13.0523 Y143.3983 Z23.0000
G0 X14.4017 Y145.1988 Z23.0000
G1 X14.4017 Y145.1988 Z16.4000 F999.60
G3 X18.0000 Y144.0000 Z16.4000 I3.5983 J4.8012 F1999.80
G1 X332.0000 Y144.0000 Z16.4000 F1999.80
G3 X338.0000 Y150.0000 Z16.4000 I0.0000 J6.0000 F1999.80
G1 X338.0000 Y194.0000 Z16.4000 F1999.80
G1 X344.0000 Y194.0000 Z16.4000 F1999.80
G1 X344.0000 Y6.0000 Z16.4000 F1999.80
G1 X338.0000 Y6.0000 Z16.4000 F1999.80
G1 X338.0000 Y132.0000 Z16.4000 F1999.80
G3 X332.0000 Y138.0000 Z16.4000 I-6.0000 J0.0000 F1999.80
G1 X18.0000 Y138.0000 Z16.4000 F1999.80
G3 X12.0000 Y132.0000 Z16.4000 I0.0000 J-6.0000 F1999.80
G1 X12.0000 Y6.0000 Z16.4000 F1999.80
G1 X6.0000 Y6.0000 Z16.4000 F1999.80
G1 X6.0000 Y194.0000 Z16.4000 F1999.80
G1 X12.0000 Y194.0000 Z16.4000 F1999.80
G1 X12.0000 Y150.0000 Z16.4000 F1999.80
G3 X14.4017 Y145.1988 Z16.4000 I6.0000 J0.0000 F1999.80
G0 X14.4017 Y145.1988 Z23.0000
G0 X15.7510 Y146.9992 Z23.0000
G1 X15.7510 Y146.9992 Z16.4000 F999.60
G3 X18.0000 Y146.2500 Z16.4000 I2.2490 J3.0008 F1999.80
G1 X332.0000 Y146.2500 Z16.4000 F1999.80
G3 X335.7500 Y150.0000 Z16.4000 I0.0000 J3.7500 F1999.80
G1 X335.7500 Y196.2500 Z16.4000 F1999.80
G1 X346.2500 Y196.2500 Z16.4000 F1999.80
G1 X346.2500 Y3.7500 Z16.4000 F1999.80
G1 X335.7500 Y3.7500 Z16.4000 F1999.80
G1 X335.7500 Y132.0000 Z16.4000 F1999.80
G3 X332.0000 Y135.7500 Z16.4000 I-3.7500 J0.0000 F1999.80
G1 X18.0000 Y135.7500 Z16.4000 F1999.80
G3 X14.2500 Y132.0000 Z16.4000 I0.0000 J-3.7500 F1999.80
G1 X14.2500 Y3.7500 Z16.4000 F1999.80
G1 X3.7500 Y3.7500 Z16.4000 F1999.80
G1 X3.7500 Y196.2500 Z16.4000 F1999.80
G1 X14.2500 Y196.2500 Z16.4000 F1999.80
G1 X14.2500 Y150.0000 Z16.4000 F1999.80
G3 X15.7510 Y146.9992 Z16.4000 I3.7500 J0.0000 F1999.80
G0 X15.7510 Y146.9992 Z23.0000
G0 X17.1004 Y148.7997 Z23.0000
G1 X17.1004 Y148.7997 Z16.4000 F999.60
G3 X18.0000 Y148.5000 Z16.4000 I0.8996 J1.2003 F1999.80
G1 X332.0000 Y148.5000 Z16.4000 F1999.80
G3 X333.5000 Y150.0000 Z16.4000 I0.0000 J1.5000 F1999.80
G1 X333.5000 Y198.5000 Z16.4000 F1999.80
G1 X348.5000 Y198.5000 Z16.4000 F1999.80
G1 X348.5000 Y1.5000 Z16.4000 F1999.80
G1 X333.5000 Y1.5000 Z16.4000 F1999.80
G1 X333.5000 Y132.0000 Z16.4000 F1999.80
G3 X332.0000 Y133.5000 Z16.4000 I-1.5000 J0.0000 F1999.80
G1 X18.0000 Y133.5000 Z16.4000 F1999.80
G3 X16.5000 Y132.0000 Z16.4000 I0.0000 J-1.5000 F1999.80
G1 X16.5000 Y1.5000 Z16.4000 F1999.80
G1 X1.5000 Y1.5000 Z16.4000 F1999.80
G1 X1.5000 Y198.5000 Z16.4000 F1999.80
G1 X16.5000 Y198.5000 Z16.4000 F1999.80
G1 X16.5000 Y150.0000 Z16.4000 F1999.80
G3 X17.1004 Y148.7997 Z16.4000 I1.5000 J0.0000 F1999.80
G0 X17.1004 Y148.7997 Z23.0000
G0 X337.3964 Y141.0000 Z23.0000
G1 X337.3964 Y141.0000 Z16.4000 F999.60
G3 X339.5000 Y142.6576 Z16.4000 I-5.0140 J8.5265 F1999.80
G1 X339.5000 Y139.3424 Z16.4000 F1999.80
G3 X337.3964 Y141.0000 Z16.4000 I-7.1176 J-6.8689 F1999.80
G0 X337.3964 Y141.0000 Z23.0000
G0 X338.7404 Y140.9964 Z23.0000
G1 X338.7404 Y140.9964 Z16.4000 F999.60
G1 X338.7500 Y141.0031 Z16.4000 F1999.80
G1 X338.7500 Y140.9894 Z16.4000 F1999.80
G1 X338.7404 Y140.9964 Z16.4000 F1999.80
G1 X338.7404 Y140.9964 Z16.0000 F999.60
G1 X338.7500 Y141.0031 Z16.0000 F1999.80
G1 X338.7500 Y140.9894 Z16.0000 F1999.80
G1 X338.7404 Y140.9964 Z16.0000 F1999.80
G0 X338.7404 Y140.9964 Z23.0000
G0 X338.2969 Y140.4019 Z23.0000
G1 X338.2969 Y140.4019 Z16.0000 F999.60
G3 X337.3964 Y141.0000 Z16.0000 I-5.9145 J-7.9285 F1999.80
G3 X339.5000 Y142.6576 Z16.0000 I-5.0140 J8.5265 F1999.80
G1 X339.5000 Y139.3424 Z16.0000 F1999.80
G3 X338.2969 Y140.4019 Z16.0000 I-7.1176 J-6.8689 F1999.80
G0 X338.2969 Y140.4019 Z23.0000
G0 X336.9477 Y138.6017 Z23.0000
G1 X336.9477 Y138.6017 Z16.0000 F999.60
G3 X332.0000 Y140.2500 Z16.0000 I-4.9477 J-6.6017 F1999.80
G1 X18.0000 Y140.2500 Z16.0000 F1999.80
G3 X9.7500 Y132.0000 Z16.0000 I0.0000 J-8.2500 F1999.80
G1 X9.7500 Y8.2500 Z16.0000 F1999.80
G1 X8.2500 Y8.2500 Z16.0000 F1999.80
G1 X8.2500 Y191.7500 Z16.0000 F1999.80
G1 X9.7500 Y191.7500 Z16.0000 F1999.80
G1 X9.7500 Y150.0000 Z16.0000 F1999.80
G3 X18.0000 Y141.7500 Z16.0000 I8.2500 J0.0000 F1999.80
G1 X332.0000 Y141.7500 Z16.0000 F1999.80
G3 X340.2500 Y150.0000 Z16.0000 I0.0000 J8.2500 F1999.80
G1 X340.2500 Y191.7500 Z16.0000 F1999.80
G1 X341.7500 Y191.7500 Z16.0000 F1999.80
G1 X341.7500 Y8.2500 Z16.0000 F1999.80
G1 X340.2500 Y8.2500 Z16.0000 F1999.80
G1 X340.2500 Y132.0000 Z16.0000 F1999.80
G3 X336.9477 Y138.6017 Z16.0000 I-8.2500 J0.0000 F1999.80
G0 X336.9477 Y138.6017 Z23.0000
G0 X335.5983 Y136.8012 Z23.0000
G1 X335.5983 Y136.8012 Z16.0000 F999.60
G3 X332.0000 Y138.0000 Z16.0000 I-3.5983 J-4.8012 F1999.80
G1 X18.0000 Y138.0000 Z16.0000 F1999.80
G3 X12.0000 Y132.0000 Z16.0000 I0.0000 J-6.0000 F1999.80
G1 X12.0000 Y6.0000 Z16.0000 F1999.80
G1 X6.0000 Y6.0000 Z16.0000 F1999.80
G1 X6.0000 Y194.0000 Z16.0000 F1999.80
G1 X12.0000 Y194.0000 Z16.0000 F1999.80
G1 X12.0000 Y150.0000 Z16.0000 F1999.80
G3 X18.0000 Y144.0000 Z16.0000 I6.0000 J0.0000 F1999.80
G1 X332.0000 Y144.0000 Z16.0000 F1999.80
G3 X338.0000 Y150.0000 Z16.0000 I0.0000 J6.0000 F1999.80
G1 X338.0000 Y194.0000 Z16.0000 F1999.80
G1 X344.0000 Y194.0000 Z16.0000 F1999.80
G1 X344.0000 Y6.0000 Z16.0000 F1999.80
G1 X338.0000 Y6.0000 Z16.0000 F1999.80
G1 X338.0000 Y132.0000 Z16.0000 F1999.80
G3 X335.5983 Y136.8012 Z16.0000 I-6.0000 J0.0000 F1999.80
G0 X335.5983 Y136.8012 Z23.0000
G0 X334.2490 Y135.0008 Z23.0000
G1 X334.2490 Y135.0008 Z16.0000 F999.60
G3 X332.0000 Y135.7500 Z16.0000 I-2.2490 J-3.0008 F1999.80
G1 X18.0000 Y135.7500 Z16.0000 F1999.80
G3 X14.2500 Y132.0000 Z16.0000 I0.0000 J-3.7500 F1999.80
G1 X14.2500 Y3.7500 Z16.0000 F1999.80
G1 X3.7500 Y3.7500 Z16.0000 F1999.80
G1 X3.7500 Y196.2500 Z16.0000 F1999.80
G1 X14.2500 Y196.2500 Z16.0000 F1999.80
G1 X14.2500 Y150.0000 Z16.0000 F1999.80
G3 X18.0000 Y146.2500 Z16.0000 I3.7500 J0.0000 F1999.80
G1 X332.0000 Y146.2500 Z16.0000 F1999.80
G3 X335.7500 Y150.0000 Z16.0000 I0.0000 J3.7500 F1999.80
G1 X335.7500 Y196.2500 Z16.0000 F1999.80
G1 X346.2500 Y196.2500 Z16.0000 F1999.80
G1 X346.2500 Y3.7500 Z16.0000 F1999.80
G1 X335.7500 Y3.7500 Z16.0000 F1999.80
G1 X335.7500 Y132.0000 Z16.0000 F1999.80
G3 X334.2490 Y135.0008 Z16.0000 I-3.7500 J0.0000 F1999.80
G0 X334.2490 Y135.0008 Z23.0000
G0 X332.8996 Y133.2003 Z23.0000
G1 X332.8996 Y133.2003 Z16.0000 F999.60
G3 X332.0000 Y133.5000 Z16.0000 I-0.8996 J-1.2003 F1999.80
G1 X18.0000 Y133.5000 Z16.0000 F1999.80
G3 X16.5000 Y132.0000 Z16.0000 I0.0000 J-1.5000 F1999.80
G1 X16.5000 Y1.5000 Z16.0000 F1999.80
G1 X1.5000 Y1.5000 Z16.0000 F1999.80
G1 X1.5000 Y198.5000 Z16.0000 F1999.80
G1 X16.5000 Y198.5000 Z16.0000 F1999.80
G1 X16.5000 Y150.0000 Z16.0000 F1999.80
G3 X18.0000 Y148.5000 Z16.0000 I1.5000 J0.0000 F1999.80
G1 X332.0000 Y148.5000 Z16.0000 F1999.80
G3 X333.5000 Y150.0000 Z16.0000 I0.0000 J1.5000 F1999.80
G1 X333.5000 Y198.5000 Z16.0000 F1999.80
G1 X348.5000 Y198.5000 Z16.0000 F1999.80
G1 X348.5000 Y1.5000 Z16.0000 F1999.80
G1 X333.5000 Y1.5000 Z16.0000 F1999.80
G1 X333.5000 Y132.0000 Z16.0000 F1999.80
G3 X332.8996 Y133.2003 Z16.0000 I-1.5000 J0.0000 F1999.80
G0 X332.8996 Y133.2003 Z23.0000
G0 X12.6036 Y141.0000 Z23.0000
G1 X12.6036 Y141.0000 Z16.0000 F999.60
G3 X10.5000 Y139.3424 Z16.0000 I5.0140 J-8.5265 F1999.80
G1 X10.5000 Y142.6576 Z16.0000 F1999.80
G3 X12.6036 Y141.0000 Z16.0000 I7.1176 J6.8689 F1999.80
G0 X12.6036 Y141.0000 Z23.0000
G0 X11.2596 Y141.0036 Z23.0000
G1 X11.2596 Y141.0036 Z16.0000 F999.60
G1 X11.2500 Y140.9969 Z16.0000 F1999.80
G1 X11.2500 Y141.0106 Z16.0000 F1999.80
G1 X11.2596 Y141.0036 Z16.0000 F1999.80
G1 X11.2596 Y141.0036 Z15.6000 F999.60
G1 X11.2500 Y140.9969 Z15.6000 F1999.80
G1 X11.2500 Y141.0106 Z15.6000 F1999.80
G1 X11.2596 Y141.0036 Z15.6000 F1999.80
G0 X11.2596 Y141.0036 Z23.0000
G0 X11.7031 Y141.5981 Z23.0000
G1 X11.7031 Y141.5981 Z15.6000 F999.60
G3 X12.6036 Y141.0000 Z15.6000 I5.9145 J7.9285 F1999.80
G3 X10.5000 Y139.3424 Z15.6000 I5.0140 J-8.5265 F1999.80
G1 X10.5000 Y142.6576 Z15.6000 F1999.80
G3 X11.7031 Y141.5981 Z15.6000 I7.1176 J6.8689 F1999.80
G0 X11.7031 Y141.5981 Z23.0000
G0 X13.0523 Y143.3983 Z23.0000
G1 X13.0523 Y143.3983 Z15.6000 F999.60
G3 X18.0000 Y141.7500 Z15.6000 I4.9477 J6.6017 F1999.80
G1 X332.0000 Y141.7500 Z15.6000 F1999.80
G3 X340.2500 Y150.0000 Z15.6000 I0.0000 J8.2500 F1999.80
G1 X340.2500 Y191.7500 Z15.6000 F1999.80
G1 X341.7500 Y191.7500 Z15.6000 F1999.80
G1 X341.7500 Y8.2500 Z15.6000 F1999.80
G1 X340.2500 Y8.2500 Z15.6000 F1999.80
G1 X340.2500 Y132.0000 Z15.6000 F1999.80
G3 X332.0000 Y140.2500 Z15.6000 I-8.2500 J0.0000 F1999.80
G1 X18.0000 Y140.2500 Z15.6000 F1999.80
G3 X9.7500 Y132.0000 Z15.6000 I0.0000 J-8.2500 F1999.80
G1 X9.7500 Y8.2500 Z15.6000 F1999.80
G1 X8.2500 Y8.2500 Z15.6000 F1999.80
G1 X8.2500 Y191.7500 Z15.6000 F1999.80
G1 X9.7500 Y191.7500 Z15.6000 F1999.80
G1 X9.7500 Y150.0000 Z15.6000 F1999.80
G3 X13.0523 Y143.3983 Z15.6000 I8.2500 J0.0000 F1999.80
G0 X13.0523 Y143.3983 Z23.0000
G0 X14.4017 Y145.1988 Z23.0000
G1 X14.4017 Y145.1988 Z15.6000 F999.60
G3 X18.0000 Y144.0000 Z15.6000 I3.5983 J4.8012 F1999.80
G1 X332.0000 Y144.0000 Z15.6000 F1999.80
G3 X338.0000 Y150.0000 Z15.6000 I0.0000 J6.0000 F1999.80
G1 X338.0000 Y194.0000 Z15.6000 F1999.80
G1 X344.0000 Y194.0000 Z15.6000 F1999.80
G1 X344.0000 Y6.0000 Z15.6000 F1999.80
G1 X338.0000 Y6.0000 Z15.6000 F1999.80
G1 X338.0000 Y132.0000 Z15.6000 F1999.80
G3 X332.0000 Y138.0000 Z15.6000 I-6.0000 J0.0000 F1999.80
G1 X18.0000 Y138.0000 Z15.6000 F1999.80
G3 X12.0000 Y132.0000 Z15.6000 I0.0000 J-6.0000 F1999.80
G1 X12.0000 Y6.0000 Z15.6000 F1999.80
G1 X6.0000 Y6.0000 Z15.6000 F1999.80
G1 X6.0000 Y194.0000 Z15.6000 F1999.80
G1 X12.0000 Y194.0000 Z15.6000 F1999.80
G1 X12.0000 Y150.0000 Z15.6000 F1999.80
G3 X14.4017 Y145.1988 Z15.6000 I6.0000 J0.0000 F1999.80
G0 X14.4017 Y145.1988 Z23.0000
G0 X15.7510 Y146.9992 Z23.0000
G1 X15.7510 Y146.9992 Z15.6000 F999.60
G3 X18.0000 Y146.2500 Z15.6000 I2.2490 J3.0008 F1999.80
G1 X332.0000 Y146.2500 Z15.6000 F1999.80
G3 X335.7500 Y150.0000 Z15.6000 I0.0000 J3.7500 F1999.80
G1 X335.7500 Y196.2500 Z15.6000 F1999.80
G1 X346.2500 Y196.2500 Z15.6000 F1999.80
G1 X346.2500 Y3.7500 Z15.6000 F1999.80
G1 X335.7500 Y3.7500 Z15.6000 F1999.80
G1 X335.7500 Y132.0000 Z15.6000 F1999.80
G3 X332.0000 Y135.7500 Z15.6000 I-3.7500 J0.0000 F1999.80
G1 X18.0000 Y135.7500 Z15.6000 F1999.80
G3 X14.2500 Y132.0000 Z15.6000 I0.0000 J-3.7500 F1999.80
G1 X14.2500 Y3.7500 Z15.6000 F1999.80
G1 X3.7500 Y3.7500 Z15.6000 F1999.80
G1 X3.7500 Y196.2500 Z15.6000 F1999.80
G1 X14.2500 Y196.2500 Z15.6000 F1999.80
G1 X14.2500 Y150.0000 Z15.6000 F1999.80
G3 X15.7510 Y146.9992 Z15.6000 I3.7500 J0.0000 F1999.80
G0 X15.7510 Y146.9992 Z23.0000
G0 X17.1004 Y148.7997 Z23.0000
G1 X17.1004 Y148.7997 Z15.6000 F999.60
G3 X18.0000 Y148.5000 Z15.6000 I0.8996 J1.2003 F1999.80
G1 X332.0000 Y148.5000 Z15.6000 F1999.80
G3 X333.5000 Y150.0000 Z15.6000 I0.0000 J1.5000 F1999.80
G1 X333.5000 Y198.5000 Z15.6000 F1999.80
G1 X348.5000 Y198.5000 Z15.6000 F1999.80
G1 X348.5000 Y1.5000 Z15.6000 F1999.80
G1 X333.5000 Y1.5000 Z15.6000 F1999.80
G1 X333.5000 Y132.0000 Z15.6000 F1999.80
G3 X332.0000 Y133.5000 Z15.6000 I-1.5000 J0.0000 F1999.80
G1 X18.0000 Y133.5000 Z15.6000 F1999.80
G3 X16.5000 Y132.0000 Z15.6000 I0.0000 J-1.5000 F1999.80
G1 X16.5000 Y1.5000 Z15.6000 F1999.80
G1 X1.5000 Y1.5000 Z15.6000 F1999.80
G1 X1.5000 Y198.5000 Z15.6000 F1999.80
G1 X16.5000 Y198.5000 Z15.6000 F1999.80
G1 X16.5000 Y150.0000 Z15.6000 F1999.80
G3 X17.1004 Y148.7997 Z15.6000 I1.5000 J0.0000 F1999.80
G0 X17.1004 Y148.7997 Z23.0000
G0 X337.3964 Y141.0000 Z23.0000
G1 X337.3964 Y141.0000 Z15.6000 F999.60
G3 X339.5000 Y142.6576 Z15.6000 I-5.0140 J8.5265 F1999.80
G1 X339.5000 Y139.3424 Z15.6000 F1999.80
G3 X337.3964 Y141.0000 Z15.6000 I-7.1176 J-6.8689 F1999.80
G0 X337.3964 Y141.0000 Z23.0000
G0 X338.7404 Y140.9964 Z23.0000
G1 X338.7404 Y140.9964 Z15.6000 F999.60
G1 X338.7500 Y141.0031 Z15.6000 F1999.80
G1 X338.7500 Y140.9894 Z15.6000 F1999.80
G1 X338.7404 Y140.9964 Z15.6000 F1999.80
G1 X338.7404 Y140.9964 Z15.2000 F999.60
G1 X338.7500 Y141.0031 Z15.2000 F1999.80
G1 X338.7500 Y140.9894 Z15.2000 F1999.80
G1 X338.7404 Y140.9964 Z15.2000 F1999.80
G0 X338.7404 Y140.9964 Z23.0000
G0 X338.2969 Y140.4019 Z23.0000
G1 X338.2969 Y140.4019 Z15.2000 F999.60
G3 X337.3964 Y141.0000 Z15.2000 I-5.9145 J-7.9285 F1999.80
G3 X339.5000 Y142.6576 Z15.2000 I-5.0140 J8.5265 F1999.80
G1 X339.5000 Y139.3424 Z15.2000 F1999.80
G3 X338.2969 Y140.4019 Z15.2000 I-7.1176 J-6.8689 F1999.80
G0 X338.2969 Y140.4019 Z23.0000
G0 X336.9477 Y138.6017 Z23.0000
G1 X336.9477 Y138.6017 Z15.2000 F999.60
G3 X332.0000 Y140.2500 Z15.2000 I-4.9477 J-6.6017 F1999.80
G1 X18.0000 Y140.2500 Z15.2000 F1999.80
G3 X9.7500 Y132.0000 Z15.2000 I0.0000 J-8.2500 F1999.80
G1 X9.7500 Y8.2500 Z15.2000 F1999.80
G1 X8.2500 Y8.2500 Z15.2000 F1999.80
G1 X8.2500 Y191.7500 Z15.2000 F1999.80
G1 X9.7500 Y191.7500 Z15.2000 F1999.80
G1 X9.7500 Y150.0000 Z15.2000 F1999.80
G3 X18.0000 Y141.7500 Z15.2000 I8.2500 J0.0000 F1999.80
G1 X332.0000 Y141.7500 Z15.2000 F1999.80
G3 X340.2500 Y150.0000 Z15.2000 I0.0000 J8.2500 F1999.80
G1 X340.2500 Y191.7500 Z15.2000 F1999.80
G1 X341.7500 Y191.7500 Z15.2000 F1999.80
G1 X341.7500 Y8.2500 Z15.2000 F1999.80
G1 X340.2500 Y8.2500 Z15.2000 F1999.80
G1 X340.2500 Y132.0000 Z15.2000 F1999.80
G3 X336.9477 Y138.6017 Z15.2000 I-8.2500 J0.0000 F1999.80
G0 X336.9477 Y138.6017 Z23.0000
G0 X335.5983 Y136.8012 Z23.0000
G1 X335.5983 Y136.8012 Z15.2000 F999.60
G3 X332.0000 Y138.0000 Z15.2000 I-3.5983 J-4.8012 F1999.80
G1 X18.0000 Y138.0000 Z15.2000 F1999.80
G3 X12.0000 Y132.0000 Z15.2000 I0.0000 J-6.0000 F1999.80
G1 X12.0000 Y6.0000 Z15.2000 F1999.80
G1 X6.0000 Y6.0000 Z15.2000 F1999.80
G1 X6.0000 Y194.0000 Z15.2000 F1999.80
G1 X12.0000 Y194.0000 Z15.2000 F1999.80
G1 X12.0000 Y150.0000 Z15.2000 F1999.80
G3 X18.0000 Y144.0000 Z15.2000 I6.0000 J0.0000 F1999.80
G1 X332.0000 Y144.0000 Z15.2000 F1999.80
G3 X338.0000 Y150.0000 Z15.2000 I0.0000 J6.0000 F1999.80
G1 X338.0000 Y194.0000 Z15.2000 F1999.80
G1 X344.0000 Y194.0000 Z15.2000 F1999.80
G1 X344.0000 Y6.0000 Z15.2000 F1999.80
G1 X338.0000 Y6.0000 Z15.2000 F1999.80
G1 X338.0000 Y132.0000 Z15.2000 F1999.80
G3 X335.5983 Y136.8012 Z15.2000 I-6.0000 J0.0000 F1999.80
G0 X335.5983 Y136.8012 Z23.0000
G0 X334.2490 Y135.0008 Z23.0000
G1 X334.2490 Y135.0008 Z15.2000 F999.60
G3 X332.0000 Y135.7500 Z15.2000 I-2.2490 J-3.0008 F1999.80
G1 X18.0000 Y135.7500 Z15.2000 F1999.80
G3 X14.2500 Y132.0000 Z15.2000 I0.0000 J-3.7500 F1999.80
G1 X14.2500 Y3.7500 Z15.2000 F1999.80
G1 X3.7500 Y3.7500 Z15.2000 F1999.80
G1 X3.7500 Y196.2500 Z15.2000 F1999.80
G1 X14.2500 Y196.2500 Z15.2000 F1999.80
G1 X14.2500 Y150.0000 Z15.2000 F1999.80
G3 X18.0000 Y146.2500 Z15.2000 I3.7500 J0.0000 F1999.80
G1 X332.0000 Y146.2500 Z15.2000 F1999.80
G3 X335.7500 Y150.0000 Z15.2000 I0.0000 J3.7500 F1999.80
G1 X335.7500 Y196.2500 Z15.2000 F1999.80
G1 X346.2500 Y196.2500 Z15.2000 F1999.80
G1 X346.2500 Y3.7500 Z15.2000 F1999.80
G1 X335.7500 Y3.7500 Z15.2000 F1999.80
G1 X335.7500 Y132.0000 Z15.2000 F1999.80
G3 X334.2490 Y135.0008 Z15.2000 I-3.7500 J0.0000 F1999.80
G0 X334.2490 Y135.0008 Z23.0000
G0 X332.8996 Y133.2003 Z23.0000
G1 X332.8996 Y133.2003 Z15.2000 F999.60
G3 X332.0000 Y133.5000 Z15.2000 I-0.8996 J-1.2003 F1999.80
G1 X18.0000 Y133.5000 Z15.2000 F1999.80
G3 X16.5000 Y132.0000 Z15.2000 I0.0000 J-1.5000 F1999.80
G1 X16.5000 Y1.5000 Z15.2000 F1999.80
G1 X1.5000 Y1.5000 Z15.2000 F1999.80
G1 X1.5000 Y198.5000 Z15.2000 F1999.80
G1 X16.5000 Y198.5000 Z15.2000 F1999.80
G1 X16.5000 Y150.0000 Z15.2000 F1999.80
G3 X18.0000 Y148.5000 Z15.2000 I1.5000 J0.0000 F1999.80
G1 X332.0000 Y148.5000 Z15.2000 F1999.80
G3 X333.5000 Y150.0000 Z15.2000 I0.0000 J1.5000 F1999.80
G1 X333.5000 Y198.5000 Z15.2000 F1999.80
G1 X348.5000 Y198.5000 Z15.2000 F1999.80
G1 X348.5000 Y1.5000 Z15.2000 F1999.80
G1 X333.5000 Y1.5000 Z15.2000 F1999.80
G1 X333.5000 Y132.0000 Z15.2000 F1999.80
G3 X332.8996 Y133.2003 Z15.2000 I-1.5000 J0.0000 F1999.80
G0 X332.8996 Y133.2003 Z23.0000
G0 X12.6036 Y141.0000 Z23.0000
G1 X12.6036 Y141.0000 Z15.2000 F999.60
G3 X10.5000 Y139.3424 Z15.2000 I5.0140 J-8.5265 F1999.80
G1 X10.5000 Y142.6576 Z15.2000 F1999.80
G3 X12.6036 Y141.0000 Z15.2000 I7.1176 J6.8689 F1999.80
G0 X12.6036 Y141.0000 Z23.0000
G0 X11.2596 Y141.0036 Z23.0000
G1 X11.2596 Y141.0036 Z15.2000 F999.60
G1 X11.2500 Y140.9969 Z15.2000 F1999.80
G1 X11.2500 Y141.0106 Z15.2000 F1999.80
G1 X11.2596 Y141.0036 Z15.2000 F1999.80
G1 X11.2596 Y141.0036 Z14.8000 F999.60
G1 X11.2500 Y140.9969 Z14.8000 F1999.80
G1 X11.2500 Y141.0106 Z14.8000 F1999.80
G1 X11.2596 Y141.0036 Z14.8000 F1999.80
G0 X11.2596 Y141.0036 Z23.0000
G0 X11.7031 Y141.5981 Z23.0000
G1 X11.7031 Y141.5981 Z14.8000 F999.60
G3 X12.6036 Y141.0000 Z14.8000 I5.9145 J7.9285 F1999.80
G3 X10.5000 Y139.3424 Z14.8000 I5.0140 J-8.5265 F1999.80
G1 X10.5000 Y142.6576 Z14.8000 F1999.80
G3 X11.7031 Y141.5981 Z14.8000 I7.1176 J6.8689 F1999.80
G0 X11.7031 Y141.5981 Z23.0000
G0 X13.0523 Y143.3983 Z23.0000
G1 X13.0523 Y143.3983 Z14.8000 F999.60
G3 X18.0000 Y141.7500 Z14.8000 I4.9477 J6.6017 F1999.80
G1 X332.0000 Y141.7500 Z14.8000 F1999.80
G3 X340.2500 Y150.0000 Z14.8000 I0.0000 J8.2500 F1999.80
G1 X340.2500 Y191.7500 Z14.8000 F1999.80
G1 X341.7500 Y191.7500 Z14.8000 F1999.80
G1 X341.7500 Y8.2500 Z14.8000 F1999.80
G1 X340.2500 Y8.2500 Z14.8000 F1999.80
G1 X340.2500 Y132.0000 Z14.8000 F1999.80
G3 X332.0000 Y140.2500 Z14.8000 I-8.2500 J0.0000 F1999.80
G1 X18.0000 Y140.2500 Z14.8000 F1999.80
G3 X9.7500 Y132.0000 Z14.8000 I0.0000 J-8.2500 F1999.80
G1 X9.7500 Y8.2500 Z14.8000 F1999.80
G1 X8.2500 Y8.2500 Z14.8000 F1999.80
G1 X8.2500 Y191.7500 Z14.8000 F1999.80
G1 X9.7500 Y191.7500 Z14.8000 F1999.80
G1 X9.7500 Y150.0000 Z14.8000 F1999.80
G3 X13.0523 Y143.3983 Z14.8000 I8.2500 J0.0000 F1999.80
G0 X13.0523 Y143.3983 Z23.0000
G0 X14.4017 Y145.1988 Z23.0000
G1 X14.4017 Y145.1988 Z14.8000 F999.60
G3 X18.0000 Y144.0000 Z14.8000 I3.5983 J4.8012 F1999.80
G1 X332.0000 Y144.0000 Z14.8000 F1999.80
G3 X338.0000 Y150.0000 Z14.8000 I0.0000 J6.0000 F1999.80
G1 X338.0000 Y194.0000 Z14.8000 F1999.80
G1 X344.0000 Y194.0000 Z14.8000 F1999.80
G1 X344.0000 Y6.0000 Z14.8000 F1999.80
G1 X338.0000 Y6.0000 Z14.8000 F1999.80
G1 X338.0000 Y132.0000 Z14.8000 F1999.80
G3 X332.0000 Y138.0000 Z14.8000 I-6.0000 J0.0000 F1999.80
G1 X18.0000 Y138.0000 Z14.8000 F1999.80
G3 X12.0000 Y132.0000 Z14.8000 I0.0000 J-6.0000 F1999.80
G1 X12.0000 Y6.0000 Z14.8000 F1999.80
G1 X6.0000 Y6.0000 Z14.8000 F1999.80
G1 X6.0000 Y194.0000 Z14.8000 F1999.80
G1 X12.0000 Y194.0000 Z14.8000 F1999.80
G1 X12.0000 Y150.0000 Z14.8000 F1999.80
G3 X14.4017 Y145.1988 Z14.8000 I6.0000 J0.0000 F1999.80
G0 X14.4017 Y145.1988 Z23.0000
G0 X15.7510 Y146.9992 Z23.0000
G1 X15.7510 Y146.9992 Z14.8000 F999.60
G3 X18.0000 Y146.2500 Z14.8000 I2.2490 J3.0008 F1999.80
G1 X332.0000 Y146.2500 Z14.8000 F1999.80
G3 X335.7500 Y150.0000 Z14.8000 I0.0000 J3.7500 F1999.80
G1 X335.7500 Y196.2500 Z14.8000 F1999.80
G1 X346.2500 Y196.2500 Z14.8000 F1999.80
G1 X346.2500 Y3.7500 Z14.8000 F1999.80
G1 X335.7500 Y3.7500 Z14.8000 F1999.80
G1 X335.7500 Y132.0000 Z14.8000 F1999.80
G3 X332.0000 Y135.7500 Z14.8000 I-3.7500 J0.0000 F1999.80
G1 X18.0000 Y135.7500 Z14.8000 F1999.80
G3 X14.2500 Y132.0000 Z14.8000 I0.0000 J-3.7500 F1999.80
G1 X14.2500 Y3.7500 Z14.8000 F1999.80
G1 X3.7500 Y3.7500 Z14.8000 F1999.80
G1 X3.7500 Y196.2500 Z14.8000 F1999.80
G1 X14.2500 Y196.2500 Z14.8000 F1999.80
G1 X14.2500 Y150.0000 Z14.8000 F1999.80
G3 X15.7510 Y146.9992 Z14.8000 I3.7500 J0.0000 F1999.80
G0 X15.7510 Y146.9992 Z23.0000
G0 X17.1004 Y148.7997 Z23.0000
G1 X17.1004 Y148.7997 Z14.8000 F999.60
G3 X18.0000 Y148.5000 Z14.8000 I0.8996 J1.2003 F1999.80
G1 X332.0000 Y148.5000 Z14.8000 F1999.80
G3 X333.5000 Y150.0000 Z14.8000 I0.0000 J1.5000 F1999.80
G1 X333.5000 Y198.5000 Z14.8000 F1999.80
G1 X348.5000 Y198.5000 Z14.8000 F1999.80
G1 X348.5000 Y1.5000 Z14.8000 F1999.80
G1 X333.5000 Y1.5000 Z14.8000 F1999.80
G1 X333.5000 Y132.0000 Z14.8000 F1999.80
G3 X332.0000 Y133.5000 Z14.8000 I-1.5000 J0.0000 F1999.80
G1 X18.0000 Y133.5000 Z14.8000 F1999.80
G3 X16.5000 Y132.0000 Z14.8000 I0.0000 J-1.5000 F1999.80
G1 X16.5000 Y1.5000 Z14.8000 F1999.80
G1 X1.5000 Y1.5000 Z14.8000 F1999.80
G1 X1.5000 Y198.5000 Z14.8000 F1999.80
G1 X16.5000 Y198.5000 Z14.8000 F1999.80
G1 X16.5000 Y150.0000 Z14.8000 F1999.80
G3 X17.1004 Y148.7997 Z14.8000 I1.5000 J0.0000 F1999.80
G0 X17.1004 Y148.7997 Z23.0000
G0 X337.3964 Y141.0000 Z23.0000
G1 X337.3964 Y141.0000 Z14.8000 F999.60
G3 X339.5000 Y142.6576 Z14.8000 I-5.0140 J8.5265 F1999.80
G1 X339.5000 Y139.3424 Z14.8000 F1999.80
G3 X337.3964 Y141.0000 Z14.8000 I-7.1176 J-6.8689 F1999.80
G0 X337.3964 Y141.0000 Z23.0000
G0 X338.7404 Y140.9964 Z23.0000
G1 X338.7404 Y140.9964 Z14.8000 F999.60
G1 X338.7500 Y141.0031 Z14.8000 F1999.80
G1 X338.7500 Y140.9894 Z14.8000 F1999.80
G1 X338.7404 Y140.9964 Z14.8000 F1999.80
G1 X338.7404 Y140.9964 Z14.4000 F999.60
G1 X338.7500 Y141.0031 Z14.4000 F1999.80
G1 X338.7500 Y140.9894 Z14.4000 F1999.80
G1 X338.7404 Y140.9964 Z14.4000 F1999.80
G0 X338.7404 Y140.9964 Z23.0000
G0 X338.2969 Y140.4019 Z23.0000
G1 X338.2969 Y140.4019 Z14.4000 F999.60
G3 X337.3964 Y141.0000 Z14.4000 I-5.9145 J-7.9285 F1999.80
G3 X339.5000 Y142.6576 Z14.4000 I-5.0140 J8.5265 F1999.80
G1 X339.5000 Y139.3424 Z14.4000 F1999.80
G3 X338.2969 Y140.4019 Z14.4000 I-7.1176 J-6.8689 F1999.80
G0 X338.2969 Y140.4019 Z23.0000
G0 X336.9477 Y138.6017 Z23.0000
G1 X336.9477 Y138.6017 Z14.4000 F999.60
G3 X332.0000 Y140.2500 Z14.4000 I-4.9477 J-6.6017 F1999.80
G1 X18.0000 Y140.2500 Z14.4000 F1999.80
G3 X9.7500 Y132.0000 Z14.4000 I0.0000 J-8.2500 F1999.80
G1 X9.7500 Y8.2500 Z14.4000 F1999.80
G1 X8.2500 Y8.2500 Z14.4000 F1999.80
G1 X8.2500 Y191.7500 Z14.4000 F1999.80
G1 X9.7500 Y191.7500 Z14.4000 F1999.80
G1 X9.7500 Y150.0000 Z14.4000 F1999.80
G3 X18.0000 Y141.7500 Z14.4000 I8.2500 J0.0000 F1999.80
G1 X332.0000 Y141.7500 Z14.4000 F1999.80
G3 X340.2500 Y150.0000 Z14.4000 I0.0000 J8.2500 F1999.80
G1 X340.2500 Y191.7500 Z14.4000 F1999.80
G1 X341.7500 Y191.7500 Z14.4000 F1999.80
G1 X341.7500 Y8.2500 Z14.4000 F1999.80
G1 X340.2500 Y8.2500 Z14.4000 F1999.80
G1 X340.2500 Y132.0000 Z14.4000 F1999.80
G3 X336.9477 Y138.6017 Z14.4000 I-8.2500 J0.0000 F1999.80
G0 X336.9477 Y138.6017 Z23.0000
G0 X335.5983 Y136.8012 Z23.0000
G1 X335.5983 Y136.8012 Z14.4000 F999.60
G3 X332.0000 Y138.0000 Z14.4000 I-3.5983 J-4.8012 F1999.80
G1 X18.0000 Y138.0000 Z14.4000 F1999.80
G3 X12.0000 Y132.0000 Z14.4000 I0.0000 J-6.0000 F1999.80
G1 X12.0000 Y6.0000 Z14.4000 F1999.80
G1 X6.0000 Y6.0000 Z14.4000 F1999.80
G1 X6.0000 Y194.0000 Z14.4000 F1999.80
G1 X12.0000 Y194.0000 Z14.4000 F1999.80
G1 X12.0000 Y150.0000 Z14.4000 F1999.80
G3 X18.0000 Y144.0000 Z14.4000 I6.0000 J0.0000 F1999.80
G1 X332.0000 Y144.0000 Z14.4000 F1999.80
G3 X338.0000 Y150.0000 Z14.4000 I0.0000 J6.0000 F1999.80
G1 X338.0000 Y194.0000 Z14.4000 F1999.80
G1 X344.0000 Y194.0000 Z14.4000 F1999.80
G1 X344.0000 Y6.0000 Z14.4000 F1999.80
G1 X338.0000 Y6.0000 Z14.4000 F1999.80
G1 X338.0000 Y132.0000 Z14.4000 F1999.80
G3 X335.5983 Y136.8012 Z14.4000 I-6.0000 J0.0000 F1999.80
G0 X335.5983 Y136.8012 Z23.0000
G0 X334.2490 Y135.0008 Z23.0000
G1 X334.2490 Y135.0008 Z14.4000 F999.60
G3 X332.0000 Y135.7500 Z14.4000 I-2.2490 J-3.0008 F1999.80
G1 X18.0000 Y135.7500 Z14.4000 F1999.80
G3 X14.2500 Y132.0000 Z14.4000 I0.0000 J-3.7500 F1999.80
G1 X14.2500 Y3.7500 Z14.4000 F1999.80
G1 X3.7500 Y3.7500 Z14.4000 F1999.80
G1 X3.7500 Y196.2500 Z14.4000 F1999.80
G1 X14.2500 Y196.2500 Z14.4000 F1999.80
G1 X14.2500 Y150.0000 Z14.4000 F1999.80
G3 X18.0000 Y146.2500 Z14.4000 I3.7500 J0.0000 F1999.80
G1 X332.0000 Y146.2500 Z14.4000 F1999.80
G3 X335.7500 Y150.0000 Z14.4000 I0.0000 J3.7500 F1999.80
G1 X335.7500 Y196.2500 Z14.4000 F1999.80
G1 X346.2500 Y196.2500 Z14.4000 F1999.80
G1 X346.2500 Y3.7500 Z14.4000 F1999.80
G1 X335.7500 Y3.7500 Z14.4000 F1999.80
G1 X335.7500 Y132.0000 Z14.4000 F1999.80
G3 X334.2490 Y135.0008 Z14.4000 I-3.7500 J0.0000 F1999.80
G0 X334.2490 Y135.0008 Z23.0000
G0 X332.8996 Y133.2003 Z23.0000
G1 X332.8996 Y133.2003 Z14.4000 F999.60
G3 X332.0000 Y133.5000 Z14.4000 I-0.8996 J-1.2003 F1999.80
G1 X18.0000 Y133.5000 Z14.4000 F1999.80
G3 X16.5000 Y132.0000 Z14.4000 I0.0000 J-1.5000 F1999.80
G1 X16.5000 Y1.5000 Z14.4000 F1999.80
G1 X1.5000 Y1.5000 Z14.4000 F1999.80
G1 X1.5000 Y198.5000 Z14.4000 F1999.80
G1 X16.5000 Y198.5000 Z14.4000 F1999.80
G1 X16.5000 Y150.0000 Z14.4000 F1999.80
G3 X18.0000 Y148.5000 Z14.4000 I1.5000 J0.0000 F1999.80
G1 X332.0000 Y148.5000 Z14.4000 F1999.80
G3 X333.5000 Y150.0000 Z14.4000 I0.0000 J1.5000 F1999.80
G1 X333.5000 Y198.5000 Z14.4000 F1999.80
G1 X348.5000 Y198.5000 Z14.4000 F1999.80
G1 X348.5000 Y1.5000 Z14.4000 F1999.80
G1 X333.5000 Y1.5000 Z14.4000 F1999.80
G1 X333.5000 Y132.0000 Z14.4000 F1999.80
G3 X332.8996 Y133.2003 Z14.4000 I-1.5000 J0.0000 F1999.80
G0 X332.8996 Y133.2003 Z23.0000
G0 X12.6036 Y141.0000 Z23.0000
G1 X12.6036 Y141.0000 Z14.4000 F999.60
G3 X10.5000 Y139.3424 Z14.4000 I5.0140 J-8.5265 F1999.80
G1 X10.5000 Y142.6576 Z14.4000 F1999.80
G3 X12.6036 Y141.0000 Z14.4000 I7.1176 J6.8689 F1999.80
G0 X12.6036 Y141.0000 Z23.0000
G0 X11.2596 Y141.0036 Z23.0000
G1 X11.2596 Y141.0036 Z14.4000 F999.60
G1 X11.2500 Y140.9969 Z14.4000 F1999.80
G1 X11.2500 Y141.0106 Z14.4000 F1999.80
G1 X11.2596 Y141.0036 Z14.4000 F1999.80
G1 X11.2596 Y141.0036 Z14.0000 F999.60
G1 X11.2500 Y140.9969 Z14.0000 F1999.80
G1 X11.2500 Y141.0106 Z14.0000 F1999.80
G1 X11.2596 Y141.0036 Z14.0000 F1999.80
G0 X11.2596 Y141.0036 Z23.0000
G0 X11.7031 Y141.5981 Z23.0000
G1 X11.7031 Y141.5981 Z14.0000 F999.60
G3 X12.6036 Y141.0000 Z14.0000 I5.9145 J7.9285 F1999.80
G3 X10.5000 Y139.3424 Z14.0000 I5.0140 J-8.5265 F1999.80
G1 X10.5000 Y142.6576 Z14.0000 F1999.80
G3 X11.7031 Y141.5981 Z14.0000 I7.1176 J6.8689 F1999.80
G0 X11.7031 Y141.5981 Z23.0000
G0 X13.0523 Y143.3983 Z23.0000
G1 X13.0523 Y143.3983 Z14.0000 F999.60
G3 X18.0000 Y141.7500 Z14.0000 I4.9477 J6.6017 F1999.80
G1 X332.0000 Y141.7500 Z14.0000 F1999.80
G3 X340.2500 Y150.0000 Z14.0000 I0.0000 J8.2500 F1999.80
G1 X340.2500 Y191.7500 Z14.0000 F1999.80
G1 X341.7500 Y191.7500 Z14.0000 F1999.80
G1 X341.7500 Y8.2500 Z14.0000 F1999.80
G1 X340.2500 Y8.2500 Z14.0000 F1999.80
G1 X340.2500 Y132.0000 Z14.0000 F1999.80
G3 X332.0000 Y140.2500 Z14.0000 I-8.2500 J0.0000 F1999.80
G1 X18.0000 Y140.2500 Z14.0000 F1999.80
G3 X9.7500 Y132.0000 Z14.0000 I0.0000 J-8.2500 F1999.80
G1 X9.7500 Y8.2500 Z14.0000 F1999.80
G1 X8.2500 Y8.2500 Z14.0000 F1999.80
G1 X8.2500 Y191.7500 Z14.0000 F1999.80
G1 X9.7500 Y191.7500 Z14.0000 F1999.80
G1 X9.7500 Y150.0000 Z14.0000 F1999.80
G3 X13.0523 Y143.3983 Z14.0000 I8.2500 J0.0000 F1999.80
G0 X13.0523 Y143.3983 Z23.0000
G0 X14.4017 Y145.1988 Z23.0000
G1 X14.4017 Y145.1988 Z14.0000 F999.60
G3 X18.0000 Y144.0000 Z14.0000 I3.5983 J4.8012 F1999.80
G1 X332.0000 Y144.0000 Z14.0000 F1999.80
G3 X338.0000 Y150.0000 Z14.0000 I0.0000 J6.0000 F1999.80
G1 X338.0000 Y194.0000 Z14.0000 F1999.80
G1 X344.0000 Y194.0000 Z14.0000 F1999.80
G1 X344.0000 Y6.0000 Z14.0000 F1999.80
G1 X338.0000 Y6.0000 Z14.0000 F1999.80
G1 X338.0000 Y132.0000 Z14.0000 F1999.80
G3 X332.0000 Y138.0000 Z14.0000 I-6.0000 J0.0000 F1999.80
G1 X18.0000 Y138.0000 Z14.0000 F1999.80
G3 X12.0000 Y132.0000 Z14.0000 I0.0000 J-6.0000 F1999.80
G1 X12.0000 Y6.0000 Z14.0000 F1999.80
G1 X6.0000 Y6.0000 Z14.0000 F1999.80
G1 X6.0000 Y194.0000 Z14.0000 F1999.80
G1 X12.0000 Y194.0000 Z14.0000 F1999.80
G1 X12.0000 Y150.0000 Z14.0000 F1999.80
G3 X14.4017 Y145.1988 Z14.0000 I6.0000 J0.0000 F1999.80
G0 X14.4017 Y145.1988 Z23.0000
G0 X15.7510 Y146.9992 Z23.0000
G1 X15.7510 Y146.9992 Z14.0000 F999.60
G3 X18.0000 Y146.2500 Z14.0000 I2.2490 J3.0008 F1999.80
G1 X332.0000 Y146.2500 Z14.0000 F1999.80
G3 X335.7500 Y150.0000 Z14.0000 I0.0000 J3.7500 F1999.80
G1 X335.7500 Y196.2500 Z14.0000 F1999.80
G1 X346.2500 Y196.2500 Z14.0000 F1999.80
G1 X346.2500 Y3.7500 Z14.0000 F1999.80
G1 X335.7500 Y3.7500 Z14.0000 F1999.80
G1 X335.7500 Y132.0000 Z14.0000 F1999.80
G3 X332.0000 Y135.7500 Z14.0000 I-3.7500 J0.0000 F1999.80
G1 X18.0000 Y135.7500 Z14.0000 F1999.80
G3 X14.2500 Y132.0000 Z14.0000 I0.0000 J-3.7500 F1999.80
G1 X14.2500 Y3.7500 Z14.0000 F1999.80
G1 X3.7500 Y3.7500 Z14.0000 F1999.80
G1 X3.7500 Y196.2500 Z14.0000 F1999.80
G1 X14.2500 Y196.2500 Z14.0000 F1999.80
G1 X14.2500 Y150.0000 Z14.0000 F1999.80
G3 X15.7510 Y146.9992 Z14.0000 I3.7500 J0.0000 F1999.80
G0 X15.7510 Y146.9992 Z23.0000
G0 X17.1004 Y148.7997 Z23.0000
G1 X17.1004 Y148.7997 Z14.0000 F999.60
G3 X18.0000 Y148.5000 Z14.0000 I0.8996 J1.2003 F1999.80
G1 X332.0000 Y148.5000 Z14.0000 F1999.80
G3 X333.5000 Y150.0000 Z14.0000 I0.0000 J1.5000 F1999.80
G1 X333.5000 Y198.5000 Z14.0000 F1999.80
G1 X348.5000 Y198.5000 Z14.0000 F1999.80
G1 X348.5000 Y1.5000 Z14.0000 F1999.80
G1 X333.5000 Y1.5000 Z14.0000 F1999.80
G1 X333.5000 Y132.0000 Z14.0000 F1999.80
G3 X332.0000 Y133.5000 Z14.0000 I-1.5000 J0.0000 F1999.80
G1 X18.0000 Y133.5000 Z14.0000 F1999.80
G3 X16.5000 Y132.0000 Z14.0000 I0.0000 J-1.5000 F1999.80
G1 X16.5000 Y1.5000 Z14.0000 F1999.80
G1 X1.5000 Y1.5000 Z14.0000 F1999.80
G1 X1.5000 Y198.5000 Z14.0000 F1999.80
G1 X16.5000 Y198.5000 Z14.0000 F1999.80
G1 X16.5000 Y150.0000 Z14.0000 F1999.80
G3 X17.1004 Y148.7997 Z14.0000 I1.5000 J0.0000 F1999.80
G0 X17.1004 Y148.7997 Z23.0000
G0 X337.3964 Y141.0000 Z23.0000
G1 X337.3964 Y141.0000 Z14.0000 F999.60
G3 X339.5000 Y142.6576 Z14.0000 I-5.0140 J8.5265 F1999.80
G1 X339.5000 Y139.3424 Z14.0000 F1999.80
G3 X337.3964 Y141.0000 Z14.0000 I-7.1176 J-6.8689 F1999.80
G0 X337.3964 Y141.0000 Z23.0000
G0 X338.7404 Y140.9964 Z23.0000
G1 X338.7404 Y140.9964 Z14.0000 F999.60
G1 X338.7500 Y141.0031 Z14.0000 F1999.80
G1 X338.7500 Y140.9894 Z14.0000 F1999.80
G1 X338.7404 Y140.9964 Z14.0000 F1999.80
G1 X338.7404 Y140.9964 Z13.6000 F999.60
G1 X338.7500 Y141.0031 Z13.6000 F1999.80
G1 X338.7500 Y140.9894 Z13.6000 F1999.80
G1 X338.7404 Y140.9964 Z13.6000 F1999.80
G0 X338.7404 Y140.9964 Z23.0000
G0 X338.2969 Y140.4019 Z23.0000
G1 X338.2969 Y140.4019 Z13.6000 F999.60
G3 X337.3964 Y141.0000 Z13.6000 I-5.9145 J-7.9285 F1999.80
G3 X339.5000 Y142.6576 Z13.6000 I-5.0140 J8.5265 F1999.80
G1 X339.5000 Y139.3424 Z13.6000 F1999.80
G3 X338.2969 Y140.4019 Z13.6000 I-7.1176 J-6.8689 F1999.80
G0 X338.2969 Y140.4019 Z23.0000
G0 X336.9477 Y138.6017 Z23.0000
G1 X336.9477 Y138.6017 Z13.6000 F999.60
G3 X332.0000 Y140.2500 Z13.6000 I-4.9477 J-6.6017 F1999.80
G1 X18.0000 Y140.2500 Z13.6000 F1999.80
G3 X9.7500 Y132.0000 Z13.6000 I0.0000 J-8.2500 F1999.80
G1 X9.7500 Y8.2500 Z13.6000 F1999.80
G1 X8.2500 Y8.2500 Z13.6000 F1999.80
G1 X8.2500 Y191.7500 Z13.6000 F1999.80
G1 X9.7500 Y191.7500 Z13.6000 F1999.80
G1 X9.7500 Y150.0000 Z13.6000 F1999.80
G3 X18.0000 Y141.7500 Z13.6000 I8.2500 J0.0000 F1999.80
G1 X332.0000 Y141.7500 Z13.6000 F1999.80
G3 X340.2500 Y150.0000 Z13.6000 I0.0000 J8.2500 F1999.80
G1 X340.2500 Y191.7500 Z13.6000 F1999.80
G1 X341.7500 Y191.7500 Z13.6000 F1999.80
G1 X341.7500 Y8.2500 Z13.6000 F1999.80
G1 X340.2500 Y8.2500 Z13.6000 F1999.80
G1 X340.2500 Y132.0000 Z13.6000 F1999.80
G3 X336.9477 Y138.6017 Z13.6000 I-8.2500 J0.0000 F1999.80
G0 X336.9477 Y138.6017 Z23.0000
G0 X335.5983 Y136.8012 Z23.0000
G1 X335.5983 Y136.8012 Z13.6000 F999.60
G3 X332.0000 Y138.0000 Z13.6000 I-3.5983 J-4.8012 F1999.80
G1 X18.0000 Y138.0000 Z13.6000 F1999.80
G3 X12.0000 Y132.0000 Z13.6000 I0.0000 J-6.0000 F1999.80
G1 X12.0000 Y6.0000 Z13.6000 F1999.80
G1 X6.0000 Y6.0000 Z13.6000 F1999.80
G1 X6.0000 Y194.0000 Z13.6000 F1999.80
G1 X12.0000 Y194.0000 Z13.6000 F1999.80
G1 X12.0000 Y150.0000 Z13.6000 F1999.80
G3 X18.0000 Y144.0000 Z13.6000 I6.0000 J0.0000 F1999.80
G1 X332.0000 Y144.0000 Z13.6000 F1999.80
G3 X338.0000 Y150.0000 Z13.6000 I0.0000 J6.0000 F1999.80
G1 X338.0000 Y194.0000 Z13.6000 F1999.80
G1 X344.0000 Y194.0000 Z13.6000 F1999.80
G1 X344.0000 Y6.0000 Z13.6000 F1999.80
G1 X338.0000 Y6.0000 Z13.6000 F1999.80
G1 X338.0000 Y132.0000 Z13.6000 F1999.80
G3 X335.5983 Y136.8012 Z13.6000 I-6.0000 J0.0000 F1999.80
G0 X335.5983 Y136.8012 Z23.0000
G0 X334.2490 Y135.0008 Z23.0000
G1 X334.2490 Y135.0008 Z13.6000 F999.60
G3 X332.0000 Y135.7500 Z13.6000 I-2.2490 J-3.0008 F1999.80
G1 X18.0000 Y135.7500 Z13.6000 F1999.80
G3 X14.2500 Y132.0000 Z13.6000 I0.0000 J-3.7500 F1999.80
G1 X14.2500 Y3.7500 Z13.6000 F1999.80
G1 X3.7500 Y3.7500 Z13.6000 F1999.80
G1 X3.7500 Y196.2500 Z13.6000 F1999.80
G1 X14.2500 Y196.2500 Z13.6000 F1999.80
G1 X14.2500 Y150.0000 Z13.6000 F1999.80
G3 X18.0000 Y146.2500 Z13.6000 I3.7500 J0.0000 F1999.80
G1 X332.0000 Y146.2500 Z13.6000 F1999.80
G3 X335.7500 Y150.0000 Z13.6000 I0.0000 J3.7500 F1999.80
G1 X335.7500 Y196.2500 Z13.6000 F1999.80
G1 X346.2500 Y196.2500 Z13.6000 F1999.80
G1 X346.2500 Y3.7500 Z13.6000 F1999.80
G1 X335.7500 Y3.7500 Z13.6000 F1999.80
G1 X335.7500 Y132.0000 Z13.6000 F1999.80
G3 X334.2490 Y135.0008 Z13.6000 I-3.7500 J0.0000 F1999.80
G0 X334.2490 Y135.0008 Z23.0000
G0 X332.8996 Y133.2003 Z23.0000
G1 X332.8996 Y133.2003 Z13.6000 F999.60
G3 X332.0000 Y133.5000 Z13.6000 I-0.8996 J-1.2003 F1999.80
G1 X18.0000 Y133.5000 Z13.6000 F1999.80
G3 X16.5000 Y132.0000 Z13.6000 I0.0000 J-1.5000 F1999.80
G1 X16.5000 Y1.5000 Z13.6000 F1999.80
G1 X1.5000 Y1.5000 Z13.6000 F1999.80
G1 X1.5000 Y198.5000 Z13.6000 F1999.80
G1 X16.5000 Y198.5000 Z13.6000 F1999.80
G1 X16.5000 Y150.0000 Z13.6000 F1999.80
G3 X18.0000 Y148.5000 Z13.6000 I1.5000 J0.0000 F1999.80
G1 X332.0000 Y148.5000 Z13.6000 F1999.80
G3 X333.5000 Y150.0000 Z13.6000 I0.0000 J1.5000 F1999.80
G1 X333.5000 Y198.5000 Z13.6000 F1999.80
G1 X348.5000 Y198.5000 Z13.6000 F1999.80
G1 X348.5000 Y1.5000 Z13.6000 F1999.80
G1 X333.5000 Y1.5000 Z13.6000 F1999.80
G1 X333.5000 Y132.0000 Z13.6000 F1999.80
G3 X332.8996 Y133.2003 Z13.6000 I-1.5000 J0.0000 F1999.80
G0 X332.8996 Y133.2003 Z23.0000
G0 X12.6036 Y141.0000 Z23.0000
G1 X12.6036 Y141.0000 Z13.6000 F999.60
G3 X10.5000 Y139.3424 Z13.6000 I5.0140 J-8.5265 F1999.80
G1 X10.5000 Y142.6576 Z13.6000 F1999.80
G3 X12.6036 Y141.0000 Z13.6000 I7.1176 J6.8689 F1999.80
G0 X12.6036 Y141.0000 Z23.0000
G0 X11.2596 Y141.0036 Z23.0000
G1 X11.2596 Y141.0036 Z13.6000 F999.60
G1 X11.2500 Y140.9969 Z13.6000 F1999.80
G1 X11.2500 Y141.0106 Z13.6000 F1999.80
G1 X11.2596 Y141.0036 Z13.6000 F1999.80
G1 X11.2596 Y141.0036 Z13.2000 F999.60
G1 X11.2500 Y140.9969 Z13.2000 F1999.80
G1 X11.2500 Y141.0106 Z13.2000 F1999.80
G1 X11.2596 Y141.0036 Z13.2000 F1999.80
G0 X11.2596 Y141.0036 Z23.0000
G0 X11.7031 Y141.5981 Z23.0000
G1 X11.7031 Y141.5981 Z13.2000 F999.60
G3 X12.6036 Y141.0000 Z13.2000 I5.9145 J7.9285 F1999.80
G3 X10.5000 Y139.3424 Z13.2000 I5.0140 J-8.5265 F1999.80
G1 X10.5000 Y142.6576 Z13.2000 F1999.80
G3 X11.7031 Y141.5981 Z13.2000 I7.1176 J6.8689 F1999.80
G0 X11.7031 Y141.5981 Z23.0000
G0 X13.0523 Y143.3983 Z23.0000
G1 X13.0523 Y143.3983 Z13.2000 F999.60
G3 X18.0000 Y141.7500 Z13.2000 I4.9477 J6.6017 F1999.80
G1 X332.0000 Y141.7500 Z13.2000 F1999.80
G3 X340.2500 Y150.0000 Z13.2000 I0.0000 J8.2500 F1999.80
G1 X340.2500 Y191.7500 Z13.2000 F1999.80
G1 X341.7500 Y191.7500 Z13.2000 F1999.80
G1 X341.7500 Y8.2500 Z13.2000 F1999.80
G1 X340.2500 Y8.2500 Z13.2000 F1999.80
G1 X340.2500 Y132.0000 Z13.2000 F1999.80
G3 X332.0000 Y140.2500 Z13.2000 I-8.2500 J0.0000 F1999.80
G1 X18.0000 Y140.2500 Z13.2000 F1999.80
G3 X9.7500 Y132.0000 Z13.2000 I0.0000 J-8.2500 F1999.80
G1 X9.7500 Y8.2500 Z13.2000 F1999.80
G1 X8.2500 Y8.2500 Z13.2000 F1999.80
G1 X8.2500 Y191.7500 Z13.2000 F1999.80
G1 X9.7500 Y191.7500 Z13.2000 F1999.80
G1 X9.7500 Y150.0000 Z13.2000 F1999.80
G3 X13.0523 Y143.3983 Z13.2000 I8.2500 J0.0000 F1999.80
G0 X13.0523 Y143.3983 Z23.0000
G0 X14.4017 Y145.1988 Z23.0000
G1 X14.4017 Y145.1988 Z13.2000 F999.60
G3 X18.0000 Y144.0000 Z13.2000 I3.5983 J4.8012 F1999.80
G1 X332.0000 Y144.0000 Z13.2000 F1999.80
G3 X338.0000 Y150.0000 Z13.2000 I0.0000 J6.0000 F1999.80
G1 X338.0000 Y194.0000 Z13.2000 F1999.80
G1 X344.0000 Y194.0000 Z13.2000 F1999.80
G1 X344.0000 Y6.0000 Z13.2000 F1999.80
G1 X338.0000 Y6.0000 Z13.2000 F1999.80
G1 X338.0000 Y132.0000 Z13.2000 F1999.80
G3 X332.0000 Y138.0000 Z13.2000 I-6.0000 J0.0000 F1999.80
G1 X18.0000 Y138.0000 Z13.2000 F1999.80
G3 X12.0000 Y132.0000 Z13.2000 I0.0000 J-6.0000 F1999.80
G1 X12.0000 Y6.0000 Z13.2000 F1999.80
G1 X6.0000 Y6.0000 Z13.2000 F1999.80
G1 X6.0000 Y194.0000 Z13.2000 F1999.80
G1 X12.0000 Y194.0000 Z13.2000 F1999.80
G1 X12.0000 Y150.0000 Z13.2000 F1999.80
G3 X14.4017 Y145.1988 Z13.2000 I6.0000 J0.0000 F1999.80
G0 X14.4017 Y145.1988 Z23.0000
G0 X15.7510 Y146.9992 Z23.0000
G1 X15.7510 Y146.9992 Z13.2000 F999.60
G3 X18.0000 Y146.2500 Z13.2000 I2.2490 J3.0008 F1999.80
G1 X332.0000 Y146.2500 Z13.2000 F1999.80
G3 X335.7500 Y150.0000 Z13.2000 I0.0000 J3.7500 F1999.80
G1 X335.7500 Y196.2500 Z13.2000 F1999.80
G1 X346.2500 Y196.2500 Z13.2000 F1999.80
G1 X346.2500 Y3.7500 Z13.2000 F1999.80
G1 X335.7500 Y3.7500 Z13.2000 F1999.80
G1 X335.7500 Y132.0000 Z13.2000 F1999.80
G3 X332.0000 Y135.7500 Z13.2000 I-3.7500 J0.0000 F1999.80
G1 X18.0000 Y135.7500 Z13.2000 F1999.80
G3 X14.2500 Y132.0000 Z13.2000 I0.0000 J-3.7500 F1999.80
G1 X14.2500 Y3.7500 Z13.2000 F1999.80
G1 X3.7500 Y3.7500 Z13.2000 F1999.80
G1 X3.7500 Y196.2500 Z13.2000 F1999.80
G1 X14.2500 Y196.2500 Z13.2000 F1999.80
G1 X14.2500 Y150.0000 Z13.2000 F1999.80
G3 X15.7510 Y146.9992 Z13.2000 I3.7500 J0.0000 F1999.80
G0 X15.7510 Y146.9992 Z23.0000
G0 X17.1004 Y148.7997 Z23.0000
G1 X17.1004 Y148.7997 Z13.2000 F999.60
G3 X18.0000 Y148.5000 Z13.2000 I0.8996 J1.2003 F1999.80
G1 X332.0000 Y148.5000 Z13.2000 F1999.80
G3 X333.5000 Y150.0000 Z13.2000 I0.0000 J1.5000 F1999.80
G1 X333.5000 Y198.5000 Z13.2000 F1999.80
G1 X348.5000 Y198.5000 Z13.2000 F1999.80
G1 X348.5000 Y1.5000 Z13.2000 F1999.80
G1 X333.5000 Y1.5000 Z13.2000 F1999.80
G1 X333.5000 Y132.0000 Z13.2000 F1999.80
G3 X332.0000 Y133.5000 Z13.2000 I-1.5000 J0.0000 F1999.80
G1 X18.0000 Y133.5000 Z13.2000 F1999.80
G3 X16.5000 Y132.0000 Z13.2000 I0.0000 J-1.5000 F1999.80
G1 X16.5000 Y1.5000 Z13.2000 F1999.80
G1 X1.5000 Y1.5000 Z13.2000 F1999.80
G1 X1.5000 Y198.5000 Z13.2000 F1999.80
G1 X16.5000 Y198.5000 Z13.2000 F1999.80
G1 X16.5000 Y150.0000 Z13.2000 F1999.80
G3 X17.1004 Y148.7997 Z13.2000 I1.5000 J0.0000 F1999.80
G0 X17.1004 Y148.7997 Z23.0000
G0 X337.3964 Y141.0000 Z23.0000
G1 X337.3964 Y141.0000 Z13.2000 F999.60
G3 X339.5000 Y142.6576 Z13.2000 I-5.0140 J8.5265 F1999.80
G1 X339.5000 Y139.3424 Z13.2000 F1999.80
G3 X337.3964 Y141.0000 Z13.2000 I-7.1176 J-6.8689 F1999.80
G0 X337.3964 Y141.0000 Z23.0000
G0 X338.7404 Y140.9964 Z23.0000
G1 X338.7404 Y140.9964 Z13.2000 F999.60
G1 X338.7500 Y141.0031 Z13.2000 F1999.80
G1 X338.7500 Y140.9894 Z13.2000 F1999.80
G1 X338.7404 Y140.9964 Z13.2000 F1999.80
G1 X338.7404 Y140.9964 Z13.0000 F999.60
G1 X338.7500 Y141.0031 Z13.0000 F1999.80
G1 X338.7500 Y140.9894 Z13.0000 F1999.80
G1 X338.7404 Y140.9964 Z13.0000 F1999.80
G0 X338.7404 Y140.9964 Z23.0000
G0 X338.2969 Y140.4019 Z23.0000
G1 X338.2969 Y140.4019 Z13.0000 F999.60
G3 X337.3964 Y141.0000 Z13.0000 I-5.9145 J-7.9285 F1999.80
G3 X339.5000 Y142.6576 Z13.0000 I-5.0140 J8.5265 F1999.80
G1 X339.5000 Y139.3424 Z13.0000 F1999.80
G3 X338.2969 Y140.4019 Z13.0000 I-7.1176 J-6.8689 F1999.80
G0 X338.2969 Y140.4019 Z23.0000
G0 X336.9477 Y138.6017 Z23.0000
G1 X336.9477 Y138.6017 Z13.0000 F999.60
G3 X332.0000 Y140.2500 Z13.0000 I-4.9477 J-6.6017 F1999.80
G1 X18.0000 Y140.2500 Z13.0000 F1999.80
G3 X9.7500 Y132.0000 Z13.0000 I0.0000 J-8.2500 F1999.80
G1 X9.7500 Y8.2500 Z13.0000 F1999.80
G1 X8.2500 Y8.2500 Z13.0000 F1999.80
G1 X8.2500 Y191.7500 Z13.0000 F1999.80
G1 X9.7500 Y191.7500 Z13.0000 F1999.80
G1 X9.7500 Y150.0000 Z13.0000 F1999.80
G3 X18.0000 Y141.7500 Z13.0000 I8.2500 J0.0000 F1999.80
G1 X332.0000 Y141.7500 Z13.0000 F1999.80
G3 X340.2500 Y150.0000 Z13.0000 I0.0000 J8.2500 F1999.80
G1 X340.2500 Y191.7500 Z13.0000 F1999.80
G1 X341.7500 Y191.7500 Z13.0000 F1999.80
G1 X341.7500 Y8.2500 Z13.0000 F1999.80
G1 X340.2500 Y8.2500 Z13.0000 F1999.80
G1 X340.2500 Y132.0000 Z13.0000 F1999.80
G3 X336.9477 Y138.6017 Z13.0000 I-8.2500 J0.0000 F1999.80
G0 X336.9477 Y138.6017 Z23.0000
G0 X335.5983 Y136.8012 Z23.0000
G1 X335.5983 Y136.8012 Z13.0000 F999.60
G3 X332.0000 Y138.0000 Z13.0000 I-3.5983 J-4.8012 F1999.80
G1 X18.0000 Y138.0000 Z13.0000 F1999.80
G3 X12.0000 Y132.0000 Z13.0000 I0.0000 J-6.0000 F1999.80
G1 X12.0000 Y6.0000 Z13.0000 F1999.80
G1 X6.0000 Y6.0000 Z13.0000 F1999.80
G1 X6.0000 Y194.0000 Z13.0000 F1999.80
G1 X12.0000 Y194.0000 Z13.0000 F1999.80
G1 X12.0000 Y150.0000 Z13.0000 F1999.80
G3 X18.0000 Y144.0000 Z13.0000 I6.0000 J0.0000 F1999.80
G1 X332.0000 Y144.0000 Z13.0000 F1999.80
G3 X338.0000 Y150.0000 Z13.0000 I0.0000 J6.0000 F1999.80
G1 X338.0000 Y194.0000 Z13.0000 F1999.80
G1 X344.0000 Y194.0000 Z13.0000 F1999.80
G1 X344.0000 Y6.0000 Z13.0000 F1999.80
G1 X338.0000 Y6.0000 Z13.0000 F1999.80
G1 X338.0000 Y132.0000 Z13.0000 F1999.80
G3 X335.5983 Y136.8012 Z13.0000 I-6.0000 J0.0000 F1999.80
G0 X335.5983 Y136.8012 Z23.0000
G0 X334.2490 Y135.0008 Z23.0000
G1 X334.2490 Y135.0008 Z13.0000 F999.60
G3 X332.0000 Y135.7500 Z13.0000 I-2.2490 J-3.0008 F1999.80
G1 X18.0000 Y135.7500 Z13.0000 F1999.80
G3 X14.2500 Y132.0000 Z13.0000 I0.0000 J-3.7500 F1999.80
G1 X14.2500 Y3.7500 Z13.0000 F1999.80
G1 X3.7500 Y3.7500 Z13.0000 F1999.80
G1 X3.7500 Y196.2500 Z13.0000 F1999.80
G1 X14.2500 Y196.2500 Z13.0000 F1999.80
G1 X14.2500 Y150.0000 Z13.0000 F1999.80
G3 X18.0000 Y146.2500 Z13.0000 I3.7500 J0.0000 F1999.80
G1 X332.0000 Y146.2500 Z13.0000 F1999.80
G3 X335.7500 Y150.0000 Z13.0000 I0.0000 J3.7500 F1999.80
G1 X335.7500 Y196.2500 Z13.0000 F1999.80
G1 X346.2500 Y196.2500 Z13.0000 F1999.80
G1 X346.2500 Y3.7500 Z13.0000 F1999.80
G1 X335.7500 Y3.7500 Z13.0000 F1999.80
G1 X335.7500 Y132.0000 Z13.0000 F1999.80
G3 X334.2490 Y135.0008 Z13.0000 I-3.7500 J0.0000 F1999.80
G0 X334.2490 Y135.0008 Z23.0000
G0 X332.8996 Y133.2003 Z23.0000
G1 X332.8996 Y133.2003 Z13.0000 F999.60
G3 X332.0000 Y133.5000 Z13.0000 I-0.8996 J-1.2003 F1999.80
G1 X18.0000 Y133.5000 Z13.0000 F1999.80
G3 X16.5000 Y132.0000 Z13.0000 I0.0000 J-1.5000 F1999.80
G1 X16.5000 Y1.5000 Z13.0000 F1999.80
G1 X1.5000 Y1.5000 Z13.0000 F1999.80
G1 X1.5000 Y198.5000 Z13.0000 F1999.80
G1 X16.5000 Y198.5000 Z13.0000 F1999.80
G1 X16.5000 Y150.0000 Z13.0000 F1999.80
G3 X18.0000 Y148.5000 Z13.0000 I1.5000 J0.0000 F1999.80
G1 X332.0000 Y148.5000 Z13.0000 F1999.80
G3 X333.5000 Y150.0000 Z13.0000 I0.0000 J1.5000 F1999.80
G1 X333.5000 Y198.5000 Z13.0000 F1999.80
G1 X348.5000 Y198.5000 Z13.0000 F1999.80
G1 X348.5000 Y1.5000 Z13.0000 F1999.80
G1 X333.5000 Y1.5000 Z13.0000 F1999.80
G1 X333.5000 Y132.0000 Z13.0000 F1999.80
G3 X332.8996 Y133.2003 Z13.0000 I-1.5000 J0.0000 F1999.80
G0 X332.8996 Y133.2003 Z23.0000
G0 X12.6036 Y141.0000 Z23.0000
G1 X12.6036 Y141.0000 Z13.0000 F999.60
G3 X10.5000 Y139.3424 Z13.0000 I5.0140 J-8.5265 F1999.80
G1 X10.5000 Y142.6576 Z13.0000 F1999.80
G3 X12.6036 Y141.0000 Z13.0000 I7.1176 J6.8689 F1999.80
G0 X12.6036 Y141.0000 Z23.0000
G0 X11.2596 Y141.0036 Z23.0000
G1 X11.2596 Y141.0036 Z13.0000 F999.60
G1 X11.2500 Y140.9969 Z13.0000 F1999.80
G1 X11.2500 Y141.0106 Z13.0000 F1999.80
G1 X11.2596 Y141.0036 Z13.0000 F1999.80
G0 Z23.0000
(finish operation: Pocket_Shape)
(begin operation: Helix)
(Path: Helix)
(Helix)
(helix cut operation)
G0 Z23.0000
G0 X9.0500 Y141.0000
G0 Z21.0000
G1 Z18.0000 F999.60
G2 X8.9500 Y141.0000 Z17.8022 I-0.0500 J0.0000 F1999.80
G2 X9.0500 Y141.0000 Z17.6043 I0.0500 J0.0000 F1999.80
G2 X8.9500 Y141.0000 Z17.4065 I-0.0500 J0.0000 F1999.80
G2 X9.0500 Y141.0000 Z17.2087 I0.0500 J0.0000 F1999.80
G2 X8.9500 Y141.0000 Z17.0109 I-0.0500 J0.0000 F1999.80
G2 X9.0500 Y141.0000 Z16.8130 I0.0500 J0.0000 F1999.80
G2 X8.9500 Y141.0000 Z16.6152 I-0.0500 J0.0000 F1999.80
G2 X9.0500 Y141.0000 Z16.4174 I0.0500 J0.0000 F1999.80
G2 X8.9500 Y141.0000 Z16.2196 I-0.0500 J0.0000 F1999.80
G2 X9.0500 Y141.0000 Z16.0217 I0.0500 J0.0000 F1999.80
G2 X8.9500 Y141.0000 Z15.8239 I-0.0500 J0.0000 F1999.80
G2 X9.0500 Y141.0000 Z15.6261 I0.0500 J0.0000 F1999.80
G2 X8.9500 Y141.0000 Z15.4283 I-0.0500 J0.0000 F1999.80
G2 X9.0500 Y141.0000 Z15.2304 I0.0500 J0.0000 F1999.80
G2 X8.9500 Y141.0000 Z15.0326 I-0.0500 J0.0000 F1999.80
G2 X9.0500 Y141.0000 Z14.8348 I0.0500 J0.0000 F1999.80
G2 X8.9500 Y141.0000 Z14.6370 I-0.0500 J0.0000 F1999.80
G2 X9.0500 Y141.0000 Z14.4391 I0.0500 J0.0000 F1999.80
G2 X8.9500 Y141.0000 Z14.2413 I-0.0500 J0.0000 F1999.80
G2 X9.0500 Y141.0000 Z14.0435 I0.0500 J0.0000 F1999.80
G2 X8.9500 Y141.0000 Z13.8457 I-0.0500 J0.0000 F1999.80
G2 X9.0500 Y141.0000 Z13.6478 I0.0500 J0.0000 F1999.80
G2 X8.9500 Y141.0000 Z13.4500 I-0.0500 J0.0000 F1999.80
G2 X9.0500 Y141.0000 Z13.2522 I0.0500 J0.0000 F1999.80
G2 X8.9500 Y141.0000 Z13.0543 I-0.0500 J0.0000 F1999.80
G2 X9.0500 Y141.0000 Z12.8565 I0.0500 J0.0000 F1999.80
G2 X8.9500 Y141.0000 Z12.6587 I-0.0500 J0.0000 F1999.80
G2 X9.0500 Y141.0000 Z12.4609 I0.0500 J0.0000 F1999.80
G2 X8.9500 Y141.0000 Z12.2630 I-0.0500 J0.0000 F1999.80
G2 X9.0500 Y141.0000 Z12.0652 I0.0500 J0.0000 F1999.80
G2 X8.9500 Y141.0000 Z11.8674 I-0.0500 J0.0000 F1999.80
G2 X9.0500 Y141.0000 Z11.6696 I0.0500 J0.0000 F1999.80
G2 X8.9500 Y141.0000 Z11.4717 I-0.0500 J0.0000 F1999.80
G2 X9.0500 Y141.0000 Z11.2739 I0.0500 J0.0000 F1999.80
G2 X8.9500 Y141.0000 Z11.0761 I-0.0500 J0.0000 F1999.80
G2 X9.0500 Y141.0000 Z10.8783 I0.0500 J0.0000 F1999.80
G2 X8.9500 Y141.0000 Z10.6804 I-0.0500 J0.0000 F1999.80
G2 X9.0500 Y141.0000 Z10.4826 I0.0500 J0.0000 F1999.80
G2 X8.9500 Y141.0000 Z10.2848 I-0.0500 J0.0000 F1999.80
G2 X9.0500 Y141.0000 Z10.0870 I0.0500 J0.0000 F1999.80
G2 X8.9500 Y141.0000 Z9.8891 I-0.0500 J0.0000 F1999.80
G2 X9.0500 Y141.0000 Z9.6913 I0.0500 J0.0000 F1999.80
G2 X8.9500 Y141.0000 Z9.4935 I-0.0500 J0.0000 F1999.80
G2 X9.0500 Y141.0000 Z9.2957 I0.0500 J0.0000 F1999.80
G2 X8.9500 Y141.0000 Z9.0978 I-0.0500 J0.0000 F1999.80
G2 X9.0500 Y141.0000 Z8.9000 I0.0500 J0.0000 F1999.80
G2 X8.9500 Y141.0000 Z8.7022 I-0.0500 J0.0000 F1999.80
G2 X9.0500 Y141.0000 Z8.5043 I0.0500 J0.0000 F1999.80
G2 X8.9500 Y141.0000 Z8.3065 I-0.0500 J0.0000 F1999.80
G2 X9.0500 Y141.0000 Z8.1087 I0.0500 J0.0000 F1999.80
G2 X8.9500 Y141.0000 Z7.9109 I-0.0500 J0.0000 F1999.80
G2 X9.0500 Y141.0000 Z7.7130 I0.0500 J0.0000 F1999.80
G2 X8.9500 Y141.0000 Z7.5152 I-0.0500 J0.0000 F1999.80
G2 X9.0500 Y141.0000 Z7.3174 I0.0500 J0.0000 F1999.80
G2 X8.9500 Y141.0000 Z7.1196 I-0.0500 J0.0000 F1999.80
G2 X9.0500 Y141.0000 Z6.9217 I0.0500 J0.0000 F1999.80
G2 X8.9500 Y141.0000 Z6.7239 I-0.0500 J0.0000 F1999.80
G2 X9.0500 Y141.0000 Z6.5261 I0.0500 J0.0000 F1999.80
G2 X8.9500 Y141.0000 Z6.3283 I-0.0500 J0.0000 F1999.80
G2 X9.0500 Y141.0000 Z6.1304 I0.0500 J0.0000 F1999.80
G2 X8.9500 Y141.0000 Z5.9326 I-0.0500 J0.0000 F1999.80
G2 X9.0500 Y141.0000 Z5.7348 I0.0500 J0.0000 F1999.80
G2 X8.9500 Y141.0000 Z5.5370 I-0.0500 J0.0000 F1999.80
G2 X9.0500 Y141.0000 Z5.3391 I0.0500 J0.0000 F1999.80
G2 X8.9500 Y141.0000 Z5.1413 I-0.0500 J0.0000 F1999.80
G2 X9.0500 Y141.0000 Z4.9435 I0.0500 J0.0000 F1999.80
G2 X8.9500 Y141.0000 Z4.7457 I-0.0500 J0.0000 F1999.80
G2 X9.0500 Y141.0000 Z4.5478 I0.0500 J0.0000 F1999.80
G2 X8.9500 Y141.0000 Z4.3500 I-0.0500 J0.0000 F1999.80
G2 X9.0500 Y141.0000 Z4.1522 I0.0500 J0.0000 F1999.80
G2 X8.9500 Y141.0000 Z3.9543 I-0.0500 J0.0000 F1999.80
G2 X9.0500 Y141.0000 Z3.7565 I0.0500 J0.0000 F1999.80
G2 X8.9500 Y141.0000 Z3.5587 I-0.0500 J0.0000 F1999.80
G2 X9.0500 Y141.0000 Z3.3609 I0.0500 J0.0000 F1999.80
G2 X8.9500 Y141.0000 Z3.1630 I-0.0500 J0.0000 F1999.80
G2 X9.0500 Y141.0000 Z2.9652 I0.0500 J0.0000 F1999.80
G2 X8.9500 Y141.0000 Z2.7674 I-0.0500 J0.0000 F1999.80
G2 X9.0500 Y141.0000 Z2.5696 I0.0500 J0.0000 F1999.80
G2 X8.9500 Y141.0000 Z2.3717 I-0.0500 J0.0000 F1999.80
G2 X9.0500 Y141.0000 Z2.1739 I0.0500 J0.0000 F1999.80
G2 X8.9500 Y141.0000 Z1.9761 I-0.0500 J0.0000 F1999.80
G2 X9.0500 Y141.0000 Z1.7783 I0.0500 J0.0000 F1999.80
G2 X8.9500 Y141.0000 Z1.5804 I-0.0500 J0.0000 F1999.80
G2 X9.0500 Y141.0000 Z1.3826 I0.0500 J0.0000 F1999.80
G2 X8.9500 Y141.0000 Z1.1848 I-0.0500 J0.0000 F1999.80
G2 X9.0500 Y141.0000 Z0.9870 I0.0500 J0.0000 F1999.80
G2 X8.9500 Y141.0000 Z0.7891 I-0.0500 J0.0000 F1999.80
G2 X9.0500 Y141.0000 Z0.5913 I0.0500 J0.0000 F1999.80
G2 X8.9500 Y141.0000 Z0.3935 I-0.0500 J0.0000 F1999.80
G2 X9.0500 Y141.0000 Z0.1957 I0.0500 J0.0000 F1999.80
G2 X8.9500 Y141.0000 Z-0.0022 I-0.0500 J0.0000 F1999.80
G2 X9.0500 Y141.0000 Z-0.2000 I0.0500 J0.0000 F1999.80
G2 X8.9500 Y141.0000 Z-0.2000 I-0.0500 J0.0000 F1999.80
G2 X9.0500 Y141.0000 Z-0.2000 I0.0500 J0.0000 F1999.80
G0 Z21.0000
G0 X9.0500 Y59.0000
G0 Z21.0000
G1 Z18.0000 F999.60
G2 X8.9500 Y59.0000 Z17.8022 I-0.0500 J0.0000 F1999.80
G2 X9.0500 Y59.0000 Z17.6043 I0.0500 J0.0000 F1999.80
G2 X8.9500 Y59.0000 Z17.4065 I-0.0500 J0.0000 F1999.80
G2 X9.0500 Y59.0000 Z17.2087 I0.0500 J0.0000 F1999.80
G2 X8.9500 Y59.0000 Z17.0109 I-0.0500 J0.0000 F1999.80
G2 X9.0500 Y59.0000 Z16.8130 I0.0500 J0.0000 F1999.80
G2 X8.9500 Y59.0000 Z16.6152 I-0.0500 J0.0000 F1999.80
G2 X9.0500 Y59.0000 Z16.4174 I0.0500 J0.0000 F1999.80
G2 X8.9500 Y59.0000 Z16.2196 I-0.0500 J0.0000 F1999.80
G2 X9.0500 Y59.0000 Z16.0217 I0.0500 J0.0000 F1999.80
G2 X8.9500 Y59.0000 Z15.8239 I-0.0500 J0.0000 F1999.80
G2 X9.0500 Y59.0000 Z15.6261 I0.0500 J0.0000 F1999.80
G2 X8.9500 Y59.0000 Z15.4283 I-0.0500 J0.0000 F1999.80
G2 X9.0500 Y59.0000 Z15.2304 I0.0500 J0.0000 F1999.80
G2 X8.9500 Y59.0000 Z15.0326 I-0.0500 J0.0000 F1999.80
G2 X9.0500 Y59.0000 Z14.8348 I0.0500 J0.0000 F1999.80
G2 X8.9500 Y59.0000 Z14.6370 I-0.0500 J0.0000 F1999.80
G2 X9.0500 Y59.0000 Z14.4391 I0.0500 J0.0000 F1999.80
G2 X8.9500 Y59.0000 Z14.2413 I-0.0500 J0.0000 F1999.80
G2 X9.0500 Y59.0000 Z14.0435 I0.0500 J0.0000 F1999.80
G2 X8.9500 Y59.0000 Z13.8457 I-0.0500 J0.0000 F1999.80
G2 X9.0500 Y59.0000 Z13.6478 I0.0500 J0.0000 F1999.80
G2 X8.9500 Y59.0000 Z13.4500 I-0.0500 J0.0000 F1999.80
G2 X9.0500 Y59.0000 Z13.2522 I0.0500 J0.0000 F1999.80
G2 X8.9500 Y59.0000 Z13.0543 I-0.0500 J0.0000 F1999.80
G2 X9.0500 Y59.0000 Z12.8565 I0.0500 J0.0000 F1999.80
G2 X8.9500 Y59.0000 Z12.6587 I-0.0500 J0.0000 F1999.80
G2 X9.0500 Y59.0000 Z12.4609 I0.0500 J0.0000 F1999.80
G2 X8.9500 Y59.0000 Z12.2630 I-0.0500 J0.0000 F1999.80
G2 X9.0500 Y59.0000 Z12.0652 I0.0500 J0.0000 F1999.80
G2 X8.9500 Y59.0000 Z11.8674 I-0.0500 J0.0000 F1999.80
G2 X9.0500 Y59.0000 Z11.6696 I0.0500 J0.0000 F1999.80
G2 X8.9500 Y59.0000 Z11.4717 I-0.0500 J0.0000 F1999.80
G2 X9.0500 Y59.0000 Z11.2739 I0.0500 J0.0000 F1999.80
G2 X8.9500 Y59.0000 Z11.0761 I-0.0500 J0.0000 F1999.80
G2 X9.0500 Y59.0000 Z10.8783 I0.0500 J0.0000 F1999.80
G2 X8.9500 Y59.0000 Z10.6804 I-0.0500 J0.0000 F1999.80
G2 X9.0500 Y59.0000 Z10.4826 I0.0500 J0.0000 F1999.80
G2 X8.9500 Y59.0000 Z10.2848 I-0.0500 J0.0000 F1999.80
G2 X9.0500 Y59.0000 Z10.0870 I0.0500 J0.0000 F1999.80
G2 X8.9500 Y59.0000 Z9.8891 I-0.0500 J0.0000 F1999.80
G2 X9.0500 Y59.0000 Z9.6913 I0.0500 J0.0000 F1999.80
G2 X8.9500 Y59.0000 Z9.4935 I-0.0500 J0.0000 F1999.80
G2 X9.0500 Y59.0000 Z9.2957 I0.0500 J0.0000 F1999.80
G2 X8.9500 Y59.0000 Z9.0978 I-0.0500 J0.0000 F1999.80
G2 X9.0500 Y59.0000 Z8.9000 I0.0500 J0.0000 F1999.80
G2 X8.9500 Y59.0000 Z8.7022 I-0.0500 J0.0000 F1999.80
G2 X9.0500 Y59.0000 Z8.5043 I0.0500 J0.0000 F1999.80
G2 X8.9500 Y59.0000 Z8.3065 I-0.0500 J0.0000 F1999.80
G2 X9.0500 Y59.0000 Z8.1087 I0.0500 J0.0000 F1999.80
G2 X8.9500 Y59.0000 Z7.9109 I-0.0500 J0.0000 F1999.80
G2 X9.0500 Y59.0000 Z7.7130 I0.0500 J0.0000 F1999.80
G2 X8.9500 Y59.0000 Z7.5152 I-0.0500 J0.0000 F1999.80
G2 X9.0500 Y59.0000 Z7.3174 I0.0500 J0.0000 F1999.80
G2 X8.9500 Y59.0000 Z7.1196 I-0.0500 J0.0000 F1999.80
G2 X9.0500 Y59.0000 Z6.9217 I0.0500 J0.0000 F1999.80
G2 X8.9500 Y59.0000 Z6.7239 I-0.0500 J0.0000 F1999.80
G2 X9.0500 Y59.0000 Z6.5261 I0.0500 J0.0000 F1999.80
G2 X8.9500 Y59.0000 Z6.3283 I-0.0500 J0.0000 F1999.80
G2 X9.0500 Y59.0000 Z6.1304 I0.0500 J0.0000 F1999.80
G2 X8.9500 Y59.0000 Z5.9326 I-0.0500 J0.0000 F1999.80
G2 X9.0500 Y59.0000 Z5.7348 I0.0500 J0.0000 F1999.80
G2 X8.9500 Y59.0000 Z5.5370 I-0.0500 J0.0000 F1999.80
G2 X9.0500 Y59.0000 Z5.3391 I0.0500 J0.0000 F1999.80
G2 X8.9500 Y59.0000 Z5.1413 I-0.0500 J0.0000 F1999.80
G2 X9.0500 Y59.0000 Z4.9435 I0.0500 J0.0000 F1999.80
G2 X8.9500 Y59.0000 Z4.7457 I-0.0500 J0.0000 F1999.80
G2 X9.0500 Y59.0000 Z4.5478 I0.0500 J0.0000 F1999.80
G2 X8.9500 Y59.0000 Z4.3500 I-0.0500 J0.0000 F1999.80
G2 X9.0500 Y59.0000 Z4.1522 I0.0500 J0.0000 F1999.80
G2 X8.9500 Y59.0000 Z3.9543 I-0.0500 J0.0000 F1999.80
G2 X9.0500 Y59.0000 Z3.7565 I0.0500 J0.0000 F1999.80
G2 X8.9500 Y59.0000 Z3.5587 I-0.0500 J0.0000 F1999.80
G2 X9.0500 Y59.0000 Z3.3609 I0.0500 J0.0000 F1999.80
G2 X8.9500 Y59.0000 Z3.1630 I-0.0500 J0.0000 F1999.80
G2 X9.0500 Y59.0000 Z2.9652 I0.0500 J0.0000 F1999.80
G2 X8.9500 Y59.0000 Z2.7674 I-0.0500 J0.0000 F1999.80
G2 X9.0500 Y59.0000 Z2.5696 I0.0500 J0.0000 F1999.80
G2 X8.9500 Y59.0000 Z2.3717 I-0.0500 J0.0000 F1999.80
G2 X9.0500 Y59.0000 Z2.1739 I0.0500 J0.0000 F1999.80
G2 X8.9500 Y59.0000 Z1.9761 I-0.0500 J0.0000 F1999.80
G2 X9.0500 Y59.0000 Z1.7783 I0.0500 J0.0000 F1999.80
G2 X8.9500 Y59.0000 Z1.5804 I-0.0500 J0.0000 F1999.80
G2 X9.0500 Y59.0000 Z1.3826 I0.0500 J0.0000 F1999.80
G2 X8.9500 Y59.0000 Z1.1848 I-0.0500 J0.0000 F1999.80
G2 X9.0500 Y59.0000 Z0.9870 I0.0500 J0.0000 F1999.80
G2 X8.9500 Y59.0000 Z0.7891 I-0.0500 J0.0000 F1999.80
G2 X9.0500 Y59.0000 Z0.5913 I0.0500 J0.0000 F1999.80
G2 X8.9500 Y59.0000 Z0.3935 I-0.0500 J0.0000 F1999.80
G2 X9.0500 Y59.0000 Z0.1957 I0.0500 J0.0000 F1999.80
G2 X8.9500 Y59.0000 Z-0.0022 I-0.0500 J0.0000 F1999.80
G2 X9.0500 Y59.0000 Z-0.2000 I0.0500 J0.0000 F1999.80
G2 X8.9500 Y59.0000 Z-0.2000 I-0.0500 J0.0000 F1999.80
G2 X9.0500 Y59.0000 Z-0.2000 I0.0500 J0.0000 F1999.80
G0 Z21.0000
G0 X119.7167 Y141.0000
G0 Z21.0000
G1 Z18.0000 F999.60
G2 X119.6167 Y141.0000 Z17.8022 I-0.0500 J0.0000 F1999.80
G2 X119.7167 Y141.0000 Z17.6043 I0.0500 J0.0000 F1999.80
G2 X119.6167 Y141.0000 Z17.4065 I-0.0500 J0.0000 F1999.80
G2 X119.7167 Y141.0000 Z17.2087 I0.0500 J0.0000 F1999.80
G2 X119.6167 Y141.0000 Z17.0109 I-0.0500 J0.0000 F1999.80
G2 X119.7167 Y141.0000 Z16.8130 I0.0500 J0.0000 F1999.80
G2 X119.6167 Y141.0000 Z16.6152 I-0.0500 J0.0000 F1999.80
G2 X119.7167 Y141.0000 Z16.4174 I0.0500 J0.0000 F1999.80
G2 X119.6167 Y141.0000 Z16.2196 I-0.0500 J0.0000 F1999.80
G2 X119.7167 Y141.0000 Z16.0217 I0.0500 J0.0000 F1999.80
G2 X119.6167 Y141.0000 Z15.8239 I-0.0500 J0.0000 F1999.80
G2 X119.7167 Y141.0000 Z15.6261 I0.0500 J0.0000 F1999.80
G2 X119.6167 Y141.0000 Z15.4283 I-0.0500 J0.0000 F1999.80
G2 X119.7167 Y141.0000 Z15.2304 I0.0500 J0.0000 F1999.80
G2 X119.6167 Y141.0000 Z15.0326 I-0.0500 J0.0000 F1999.80
G2 X119.7167 Y141.0000 Z14.8348 I0.0500 J0.0000 F1999.80
G2 X119.6167 Y141.0000 Z14.6370 I-0.0500 J0.0000 F1999.80
G2 X119.7167 Y141.0000 Z14.4391 I0.0500 J0.0000 F1999.80
G2 X119.6167 Y141.0000 Z14.2413 I-0.0500 J0.0000 F1999.80
G2 X119.7167 Y141.0000 Z14.0435 I0.0500 J0.0000 F1999.80
G2 X119.6167 Y141.0000 Z13.8457 I-0.0500 J0.0000 F1999.80
G2 X119.7167 Y141.0000 Z13.6478 I0.0500 J0.0000 F1999.80
G2 X119.6167 Y141.0000 Z13.4500 I-0.0500 J0.0000 F1999.80
G2 X119.7167 Y141.0000 Z13.2522 I0.0500 J0.0000 F1999.80
G2 X119.6167 Y141.0000 Z13.0543 I-0.0500 J0.0000 F1999.80
G2 X119.7167 Y141.0000 Z12.8565 I0.0500 J0.0000 F1999.80
G2 X119.6167 Y141.0000 Z12.6587 I-0.0500 J0.0000 F1999.80
G2 X119.7167 Y141.0000 Z12.4609 I0.0500 J0.0000 F1999.80
G2 X119.6167 Y141.0000 Z12.2630 I-0.0500 J0.0000 F1999.80
G2 X119.7167 Y141.0000 Z12.0652 I0.0500 J0.0000 F1999.80
G2 X119.6167 Y141.0000 Z11.8674 I-0.0500 J0.0000 F1999.80
G2 X119.7167 Y141.0000 Z11.6696 I0.0500 J0.0000 F1999.80
G2 X119.6167 Y141.0000 Z11.4717 I-0.0500 J0.0000 F1999.80
G2 X119.7167 Y141.0000 Z11.2739 I0.0500 J0.0000 F1999.80
G2 X119.6167 Y141.0000 Z11.0761 I-0.0500 J0.0000 F1999.80
G2 X119.7167 Y141.0000 Z10.8783 I0.0500 J0.0000 F1999.80
G2 X119.6167 Y141.0000 Z10.6804 I-0.0500 J0.0000 F1999.80
G2 X119.7167 Y141.0000 Z10.4826 I0.0500 J0.0000 F1999.80
G2 X119.6167 Y141.0000 Z10.2848 I-0.0500 J0.0000 F1999.80
G2 X119.7167 Y141.0000 Z10.0870 I0.0500 J0.0000 F1999.80
G2 X119.6167 Y141.0000 Z9.8891 I-0.0500 J0.0000 F1999.80
G2 X119.7167 Y141.0000 Z9.6913 I0.0500 J0.0000 F1999.80
G2 X119.6167 Y141.0000 Z9.4935 I-0.0500 J0.0000 F1999.80
G2 X119.7167 Y141.0000 Z9.2957 I0.0500 J0.0000 F1999.80
G2 X119.6167 Y141.0000 Z9.0978 I-0.0500 J0.0000 F1999.80
G2 X119.7167 Y141.0000 Z8.9000 I0.0500 J0.0000 F1999.80
G2 X119.6167 Y141.0000 Z8.7022 I-0.0500 J0.0000 F1999.80
G2 X119.7167 Y141.0000 Z8.5043 I0.0500 J0.0000 F1999.80
G2 X119.6167 Y141.0000 Z8.3065 I-0.0500 J0.0000 F1999.80
G2 X119.7167 Y141.0000 Z8.1087 I0.0500 J0.0000 F1999.80
G2 X119.6167 Y141.0000 Z7.9109 I-0.0500 J0.0000 F1999.80
G2 X119.7167 Y141.0000 Z7.7130 I0.0500 J0.0000 F1999.80
G2 X119.6167 Y141.0000 Z7.5152 I-0.0500 J0.0000 F1999.80
G2 X119.7167 Y141.0000 Z7.3174 I0.0500 J0.0000 F1999.80
G2 X119.6167 Y141.0000 Z7.1196 I-0.0500 J0.0000 F1999.80
G2 X119.7167 Y141.0000 Z6.9217 I0.0500 J0.0000 F1999.80
G2 X119.6167 Y141.0000 Z6.7239 I-0.0500 J0.0000 F1999.80
G2 X119.7167 Y141.0000 Z6.5261 I0.0500 J0.0000 F1999.80
G2 X119.6167 Y141.0000 Z6.3283 I-0.0500 J0.0000 F1999.80
G2 X119.7167 Y141.0000 Z6.1304 I0.0500 J0.0000 F1999.80
G2 X119.6167 Y141.0000 Z5.9326 I-0.0500 J0.0000 F1999.80
G2 X119.7167 Y141.0000 Z5.7348 I0.0500 J0.0000 F1999.80
G2 X119.6167 Y141.0000 Z5.5370 I-0.0500 J0.0000 F1999.80
G2 X119.7167 Y141.0000 Z5.3391 I0.0500 J0.0000 F1999.80
G2 X119.6167 Y141.0000 Z5.1413 I-0.0500 J0.0000 F1999.80
G2 X119.7167 Y141.0000 Z4.9435 I0.0500 J0.0000 F1999.80
G2 X119.6167 Y141.0000 Z4.7457 I-0.0500 J0.0000 F1999.80
G2 X119.7167 Y141.0000 Z4.5478 I0.0500 J0.0000 F1999.80
G2 X119.6167 Y141.0000 Z4.3500 I-0.0500 J0.0000 F1999.80
G2 X119.7167 Y141.0000 Z4.1522 I0.0500 J0.0000 F1999.80
G2 X119.6167 Y141.0000 Z3.9543 I-0.0500 J0.0000 F1999.80
G2 X119.7167 Y141.0000 Z3.7565 I0.0500 J0.0000 F1999.80
G2 X119.6167 Y141.0000 Z3.5587 I-0.0500 J0.0000 F1999.80
G2 X119.7167 Y141.0000 Z3.3609 I0.0500 J0.0000 F1999.80
G2 X119.6167 Y141.0000 Z3.1630 I-0.0500 J0.0000 F1999.80
G2 X119.7167 Y141.0000 Z2.9652 I0.0500 J0.0000 F1999.80
G2 X119.6167 Y141.0000 Z2.7674 I-0.0500 J0.0000 F1999.80
G2 X119.7167 Y141.0000 Z2.5696 I0.0500 J0.0000 F1999.80
G2 X119.6167 Y141.0000 Z2.3717 I-0.0500 J0.0000 F1999.80
G2 X119.7167 Y141.0000 Z2.1739 I0.0500 J0.0000 F1999.80
G2 X119.6167 Y141.0000 Z1.9761 I-0.0500 J0.0000 F1999.80
G2 X119.7167 Y141.0000 Z1.7783 I0.0500 J0.0000 F1999.80
G2 X119.6167 Y141.0000 Z1.5804 I-0.0500 J0.0000 F1999.80
G2 X119.7167 Y141.0000 Z1.3826 I0.0500 J0.0000 F1999.80
G2 X119.6167 Y141.0000 Z1.1848 I-0.0500 J0.0000 F1999.80
G2 X119.7167 Y141.0000 Z0.9870 I0.0500 J0.0000 F1999.80
G2 X119.6167 Y141.0000 Z0.7891 I-0.0500 J0.0000 F1999.80
G2 X119.7167 Y141.0000 Z0.5913 I0.0500 J0.0000 F1999.80
G2 X119.6167 Y141.0000 Z0.3935 I-0.0500 J0.0000 F1999.80
G2 X119.7167 Y141.0000 Z0.1957 I0.0500 J0.0000 F1999.80
G2 X119.6167 Y141.0000 Z-0.0022 I-0.0500 J0.0000 F1999.80
G2 X119.7167 Y141.0000 Z-0.2000 I0.0500 J0.0000 F1999.80
G2 X119.6167 Y141.0000 Z-0.2000 I-0.0500 J0.0000 F1999.80
G2 X119.7167 Y141.0000 Z-0.2000 I0.0500 J0.0000 F1999.80
G0 Z21.0000
G0 X230.3833 Y141.0000
G0 Z21.0000
G1 Z18.0000 F999.60
G2 X230.2833 Y141.0000 Z17.8022 I-0.0500 J0.0000 F1999.80
G2 X230.3833 Y141.0000 Z17.6043 I0.0500 J0.0000 F1999.80
G2 X230.2833 Y141.0000 Z17.4065 I-0.0500 J0.0000 F1999.80
G2 X230.3833 Y141.0000 Z17.2087 I0.0500 J0.0000 F1999.80
G2 X230.2833 Y141.0000 Z17.0109 I-0.0500 J0.0000 F1999.80
G2 X230.3833 Y141.0000 Z16.8130 I0.0500 J0.0000 F1999.80
G2 X230.2833 Y141.0000 Z16.6152 I-0.0500 J0.0000 F1999.80
G2 X230.3833 Y141.0000 Z16.4174 I0.0500 J0.0000 F1999.80
G2 X230.2833 Y141.0000 Z16.2196 I-0.0500 J0.0000 F1999.80
G2 X230.3833 Y141.0000 Z16.0217 I0.0500 J0.0000 F1999.80
G2 X230.2833 Y141.0000 Z15.8239 I-0.0500 J0.0000 F1999.80
G2 X230.3833 Y141.0000 Z15.6261 I0.0500 J0.0000 F1999.80
G2 X230.2833 Y141.0000 Z15.4283 I-0.0500 J0.0000 F1999.80
G2 X230.3833 Y141.0000 Z15.2304 I0.0500 J0.0000 F1999.80
G2 X230.2833 Y141.0000 Z15.0326 I-0.0500 J0.0000 F1999.80
G2 X230.3833 Y141.0000 Z14.8348 I0.0500 J0.0000 F1999.80
G2 X230.2833 Y141.0000 Z14.6370 I-0.0500 J0.0000 F1999.80
G2 X230.3833 Y141.0000 Z14.4391 I0.0500 J0.0000 F1999.80
G2 X230.2833 Y141.0000 Z14.2413 I-0.0500 J0.0000 F1999.80
G2 X230.3833 Y141.0000 Z14.0435 I0.0500 J0.0000 F1999.80
G2 X230.2833 Y141.0000 Z13.8457 I-0.0500 J0.0000 F1999.80
G2 X230.3833 Y141.0000 Z13.6478 I0.0500 J0.0000 F1999.80
G2 X230.2833 Y141.0000 Z13.4500 I-0.0500 J0.0000 F1999.80
G2 X230.3833 Y141.0000 Z13.2522 I0.0500 J0.0000 F1999.80
G2 X230.2833 Y141.0000 Z13.0543 I-0.0500 J0.0000 F1999.80
G2 X230.3833 Y141.0000 Z12.8565 I0.0500 J0.0000 F1999.80
G2 X230.2833 Y141.0000 Z12.6587 I-0.0500 J0.0000 F1999.80
G2 X230.3833 Y141.0000 Z12.4609 I0.0500 J0.0000 F1999.80
G2 X230.2833 Y141.0000 Z12.2630 I-0.0500 J0.0000 F1999.80
G2 X230.3833 Y141.0000 Z12.0652 I0.0500 J0.0000 F1999.80
G2 X230.2833 Y141.0000 Z11.8674 I-0.0500 J0.0000 F1999.80
G2 X230.3833 Y141.0000 Z11.6696 I0.0500 J0.0000 F1999.80
G2 X230.2833 Y141.0000 Z11.4717 I-0.0500 J0.0000 F1999.80
G2 X230.3833 Y141.0000 Z11.2739 I0.0500 J0.0000 F1999.80
G2 X230.2833 Y141.0000 Z11.0761 I-0.0500 J0.0000 F1999.80
G2 X230.3833 Y141.0000 Z10.8783 I0.0500 J0.0000 F1999.80
G2 X230.2833 Y141.0000 Z10.6804 I-0.0500 J0.0000 F1999.80
G2 X230.3833 Y141.0000 Z10.4826 I0.0500 J0.0000 F1999.80
G2 X230.2833 Y141.0000 Z10.2848 I-0.0500 J0.0000 F1999.80
G2 X230.3833 Y141.0000 Z10.0870 I0.0500 J0.0000 F1999.80
G2 X230.2833 Y141.0000 Z9.8891 I-0.0500 J0.0000 F1999.80
G2 X230.3833 Y141.0000 Z9.6913 I0.0500 J0.0000 F1999.80
G2 X230.2833 Y141.0000 Z9.4935 I-0.0500 J0.0000 F1999.80
G2 X230.3833 Y141.0000 Z9.2957 I0.0500 J0.0000 F1999.80
G2 X230.2833 Y141.0000 Z9.0978 I-0.0500 J0.0000 F1999.80
G2 X230.3833 Y141.0000 Z8.9000 I0.0500 J0.0000 F1999.80
G2 X230.2833 Y141.0000 Z8.7022 I-0.0500 J0.0000 F1999.80
G2 X230.3833 Y141.0000 Z8.5043 I0.0500 J0.0000 F1999.80
G2 X230.2833 Y141.0000 Z8.3065 I-0.0500 J0.0000 F1999.80
G2 X230.3833 Y141.0000 Z8.1087 I0.0500 J0.0000 F1999.80
G2 X230.2833 Y141.0000 Z7.9109 I-0.0500 J0.0000 F1999.80
G2 X230.3833 Y141.0000 Z7.7130 I0.0500 J0.0000 F1999.80
G2 X230.2833 Y141.0000 Z7.5152 I-0.0500 J0.0000 F1999.80
G2 X230.3833 Y141.0000 Z7.3174 I0.0500 J0.0000 F1999.80
G2 X230.2833 Y141.0000 Z7.1196 I-0.0500 J0.0000 F1999.80
G2 X230.3833 Y141.0000 Z6.9217 I0.0500 J0.0000 F1999.80
G2 X230.2833 Y141.0000 Z6.7239 I-0.0500 J0.0000 F1999.80
G2 X230.3833 Y141.0000 Z6.5261 I0.0500 J0.0000 F1999.80
G2 X230.2833 Y141.0000 Z6.3283 I-0.0500 J0.0000 F1999.80
G2 X230.3833 Y141.0000 Z6.1304 I0.0500 J0.0000 F1999.80
G2 X230.2833 Y141.0000 Z5.9326 I-0.0500 J0.0000 F1999.80
G2 X230.3833 Y141.0000 Z5.7348 I0.0500 J0.0000 F1999.80
G2 X230.2833 Y141.0000 Z5.5370 I-0.0500 J0.0000 F1999.80
G2 X230.3833 Y141.0000 Z5.3391 I0.0500 J0.0000 F1999.80
G2 X230.2833 Y141.0000 Z5.1413 I-0.0500 J0.0000 F1999.80
G2 X230.3833 Y141.0000 Z4.9435 I0.0500 J0.0000 F1999.80
G2 X230.2833 Y141.0000 Z4.7457 I-0.0500 J0.0000 F1999.80
G2 X230.3833 Y141.0000 Z4.5478 I0.0500 J0.0000 F1999.80
G2 X230.2833 Y141.0000 Z4.3500 I-0.0500 J0.0000 F1999.80
G2 X230.3833 Y141.0000 Z4.1522 I0.0500 J0.0000 F1999.80
G2 X230.2833 Y141.0000 Z3.9543 I-0.0500 J0.0000 F1999.80
G2 X230.3833 Y141.0000 Z3.7565 I0.0500 J0.0000 F1999.80
G2 X230.2833 Y141.0000 Z3.5587 I-0.0500 J0.0000 F1999.80
G2 X230.3833 Y141.0000 Z3.3609 I0.0500 J0.0000 F1999.80
G2 X230.2833 Y141.0000 Z3.1630 I-0.0500 J0.0000 F1999.80
G2 X230.3833 Y141.0000 Z2.9652 I0.0500 J0.0000 F1999.80
G2 X230.2833 Y141.0000 Z2.7674 I-0.0500 J0.0000 F1999.80
G2 X230.3833 Y141.0000 Z2.5696 I0.0500 J0.0000 F1999.80
G2 X230.2833 Y141.0000 Z2.3717 I-0.0500 J0.0000 F1999.80
G2 X230.3833 Y141.0000 Z2.1739 I0.0500 J0.0000 F1999.80
G2 X230.2833 Y141.0000 Z1.9761 I-0.0500 J0.0000 F1999.80
G2 X230.3833 Y141.0000 Z1.7783 I0.0500 J0.0000 F1999.80
G2 X230.2833 Y141.0000 Z1.5804 I-0.0500 J0.0000 F1999.80
G2 X230.3833 Y141.0000 Z1.3826 I0.0500 J0.0000 F1999.80
G2 X230.2833 Y141.0000 Z1.1848 I-0.0500 J0.0000 F1999.80
G2 X230.3833 Y141.0000 Z0.9870 I0.0500 J0.0000 F1999.80
G2 X230.2833 Y141.0000 Z0.7891 I-0.0500 J0.0000 F1999.80
G2 X230.3833 Y141.0000 Z0.5913 I0.0500 J0.0000 F1999.80
G2 X230.2833 Y141.0000 Z0.3935 I-0.0500 J0.0000 F1999.80
G2 X230.3833 Y141.0000 Z0.1957 I0.0500 J0.0000 F1999.80
G2 X230.2833 Y141.0000 Z-0.0022 I-0.0500 J0.0000 F1999.80
G2 X230.3833 Y141.0000 Z-0.2000 I0.0500 J0.0000 F1999.80
G2 X230.2833 Y141.0000 Z-0.2000 I-0.0500 J0.0000 F1999.80
G2 X230.3833 Y141.0000 Z-0.2000 I0.0500 J0.0000 F1999.80
G0 Z21.0000
G0 X341.0500 Y141.0000
G0 Z21.0000
G1 Z18.0000 F999.60
G2 X340.9500 Y141.0000 Z17.8022 I-0.0500 J0.0000 F1999.80
G2 X341.0500 Y141.0000 Z17.6043 I0.0500 J0.0000 F1999.80
G2 X340.9500 Y141.0000 Z17.4065 I-0.0500 J0.0000 F1999.80
G2 X341.0500 Y141.0000 Z17.2087 I0.0500 J0.0000 F1999.80
G2 X340.9500 Y141.0000 Z17.0109 I-0.0500 J0.0000 F1999.80
G2 X341.0500 Y141.0000 Z16.8130 I0.0500 J0.0000 F1999.80
G2 X340.9500 Y141.0000 Z16.6152 I-0.0500 J0.0000 F1999.80
G2 X341.0500 Y141.0000 Z16.4174 I0.0500 J0.0000 F1999.80
G2 X340.9500 Y141.0000 Z16.2196 I-0.0500 J0.0000 F1999.80
G2 X341.0500 Y141.0000 Z16.0217 I0.0500 J0.0000 F1999.80
G2 X340.9500 Y141.0000 Z15.8239 I-0.0500 J0.0000 F1999.80
G2 X341.0500 Y141.0000 Z15.6261 I0.0500 J0.0000 F1999.80
G2 X340.9500 Y141.0000 Z15.4283 I-0.0500 J0.0000 F1999.80
G2 X341.0500 Y141.0000 Z15.2304 I0.0500 J0.0000 F1999.80
G2 X340.9500 Y141.0000 Z15.0326 I-0.0500 J0.0000 F1999.80
G2 X341.0500 Y141.0000 Z14.8348 I0.0500 J0.0000 F1999.80
G2 X340.9500 Y141.0000 Z14.6370 I-0.0500 J0.0000 F1999.80
G2 X341.0500 Y141.0000 Z14.4391 I0.0500 J0.0000 F1999.80
G2 X340.9500 Y141.0000 Z14.2413 I-0.0500 J0.0000 F1999.80
G2 X341.0500 Y141.0000 Z14.0435 I0.0500 J0.0000 F1999.80
G2 X340.9500 Y141.0000 Z13.8457 I-0.0500 J0.0000 F1999.80
G2 X341.0500 Y141.0000 Z13.6478 I0.0500 J0.0000 F1999.80
G2 X340.9500 Y141.0000 Z13.4500 I-0.0500 J0.0000 F1999.80
G2 X341.0500 Y141.0000 Z13.2522 I0.0500 J0.0000 F1999.80
G2 X340.9500 Y141.0000 Z13.0543 I-0.0500 J0.0000 F1999.80
G2 X341.0500 Y141.0000 Z12.8565 I0.0500 J0.0000 F1999.80
G2 X340.9500 Y141.0000 Z12.6587 I-0.0500 J0.0000 F1999.80
G2 X341.0500 Y141.0000 Z12.4609 I0.0500 J0.0000 F1999.80
G2 X340.9500 Y141.0000 Z12.2630 I-0.0500 J0.0000 F1999.80
G2 X341.0500 Y141.0000 Z12.0652 I0.0500 J0.0000 F1999.80
G2 X340.9500 Y141.0000 Z11.8674 I-0.0500 J0.0000 F1999.80
G2 X341.0500 Y141.0000 Z11.6696 I0.0500 J0.0000 F1999.80
G2 X340.9500 Y141.0000 Z11.4717 I-0.0500 J0.0000 F1999.80
G2 X341.0500 Y141.0000 Z11.2739 I0.0500 J0.0000 F1999.80
G2 X340.9500 Y141.0000 Z11.0761 I-0.0500 J0.0000 F1999.80
G2 X341.0500 Y141.0000 Z10.8783 I0.0500 J0.0000 F1999.80
G2 X340.9500 Y141.0000 Z10.6804 I-0.0500 J0.0000 F1999.80
G2 X341.0500 Y141.0000 Z10.4826 I0.0500 J0.0000 F1999.80
G2 X340.9500 Y141.0000 Z10.2848 I-0.0500 J0.0000 F1999.80
G2 X341.0500 Y141.0000 Z10.0870 I0.0500 J0.0000 F1999.80
G2 X340.9500 Y141.0000 Z9.8891 I-0.0500 J0.0000 F1999.80
G2 X341.0500 Y141.0000 Z9.6913 I0.0500 J0.0000 F1999.80
G2 X340.9500 Y141.0000 Z9.4935 I-0.0500 J0.0000 F1999.80
G2 X341.0500 Y141.0000 Z9.2957 I0.0500 J0.0000 F1999.80
G2 X340.9500 Y141.0000 Z9.0978 I-0.0500 J0.0000 F1999.80
G2 X341.0500 Y141.0000 Z8.9000 I0.0500 J0.0000 F1999.80
G2 X340.9500 Y141.0000 Z8.7022 I-0.0500 J0.0000 F1999.80
G2 X341.0500 Y141.0000 Z8.5043 I0.0500 J0.0000 F1999.80
G2 X340.9500 Y141.0000 Z8.3065 I-0.0500 J0.0000 F1999.80
G2 X341.0500 Y141.0000 Z8.1087 I0.0500 J0.0000 F1999.80
G2 X340.9500 Y141.0000 Z7.9109 I-0.0500 J0.0000 F1999.80
G2 X341.0500 Y141.0000 Z7.7130 I0.0500 J0.0000 F1999.80
G2 X340.9500 Y141.0000 Z7.5152 I-0.0500 J0.0000 F1999.80
G2 X341.0500 Y141.0000 Z7.3174 I0.0500 J0.0000 F1999.80
G2 X340.9500 Y141.0000 Z7.1196 I-0.0500 J0.0000 F1999.80
G2 X341.0500 Y141.0000 Z6.9217 I0.0500 J0.0000 F1999.80
G2 X340.9500 Y141.0000 Z6.7239 I-0.0500 J0.0000 F1999.80
G2 X341.0500 Y141.0000 Z6.5261 I0.0500 J0.0000 F1999.80
G2 X340.9500 Y141.0000 Z6.3283 I-0.0500 J0.0000 F1999.80
G2 X341.0500 Y141.0000 Z6.1304 I0.0500 J0.0000 F1999.80
G2 X340.9500 Y141.0000 Z5.9326 I-0.0500 J0.0000 F1999.80
G2 X341.0500 Y141.0000 Z5.7348 I0.0500 J0.0000 F1999.80
G2 X340.9500 Y141.0000 Z5.5370 I-0.0500 J0.0000 F1999.80
G2 X341.0500 Y141.0000 Z5.3391 I0.0500 J0.0000 F1999.80
G2 X340.9500 Y141.0000 Z5.1413 I-0.0500 J0.0000 F1999.80
G2 X341.0500 Y141.0000 Z4.9435 I0.0500 J0.0000 F1999.80
G2 X340.9500 Y141.0000 Z4.7457 I-0.0500 J0.0000 F1999.80
G2 X341.0500 Y141.0000 Z4.5478 I0.0500 J0.0000 F1999.80
G2 X340.9500 Y141.0000 Z4.3500 I-0.0500 J0.0000 F1999.80
G2 X341.0500 Y141.0000 Z4.1522 I0.0500 J0.0000 F1999.80
G2 X340.9500 Y141.0000 Z3.9543 I-0.0500 J0.0000 F1999.80
G2 X341.0500 Y141.0000 Z3.7565 I0.0500 J0.0000 F1999.80
G2 X340.9500 Y141.0000 Z3.5587 I-0.0500 J0.0000 F1999.80
G2 X341.0500 Y141.0000 Z3.3609 I0.0500 J0.0000 F1999.80
G2 X340.9500 Y141.0000 Z3.1630 I-0.0500 J0.0000 F1999.80
G2 X341.0500 Y141.0000 Z2.9652 I0.0500 J0.0000 F1999.80
G2 X340.9500 Y141.0000 Z2.7674 I-0.0500 J0.0000 F1999.80
G2 X341.0500 Y141.0000 Z2.5696 I0.0500 J0.0000 F1999.80
G2 X340.9500 Y141.0000 Z2.3717 I-0.0500 J0.0000 F1999.80
G2 X341.0500 Y141.0000 Z2.1739 I0.0500 J0.0000 F1999.80
G2 X340.9500 Y141.0000 Z1.9761 I-0.0500 J0.0000 F1999.80
G2 X341.0500 Y141.0000 Z1.7783 I0.0500 J0.0000 F1999.80
G2 X340.9500 Y141.0000 Z1.5804 I-0.0500 J0.0000 F1999.80
G2 X341.0500 Y141.0000 Z1.3826 I0.0500 J0.0000 F1999.80
G2 X340.9500 Y141.0000 Z1.1848 I-0.0500 J0.0000 F1999.80
G2 X341.0500 Y141.0000 Z0.9870 I0.0500 J0.0000 F1999.80
G2 X340.9500 Y141.0000 Z0.7891 I-0.0500 J0.0000 F1999.80
G2 X341.0500 Y141.0000 Z0.5913 I0.0500 J0.0000 F1999.80
G2 X340.9500 Y141.0000 Z0.3935 I-0.0500 J0.0000 F1999.80
G2 X341.0500 Y141.0000 Z0.1957 I0.0500 J0.0000 F1999.80
G2 X340.9500 Y141.0000 Z-0.0022 I-0.0500 J0.0000 F1999.80
G2 X341.0500 Y141.0000 Z-0.2000 I0.0500 J0.0000 F1999.80
G2 X340.9500 Y141.0000 Z-0.2000 I-0.0500 J0.0000 F1999.80
G2 X341.0500 Y141.0000 Z-0.2000 I0.0500 J0.0000 F1999.80
G0 Z21.0000
G0 X341.0500 Y59.0000
G0 Z21.0000
G1 Z18.0000 F999.60
G2 X340.9500 Y59.0000 Z17.8022 I-0.0500 J0.0000 F1999.80
G2 X341.0500 Y59.0000 Z17.6043 I0.0500 J0.0000 F1999.80
G2 X340.9500 Y59.0000 Z17.4065 I-0.0500 J0.0000 F1999.80
G2 X341.0500 Y59.0000 Z17.2087 I0.0500 J0.0000 F1999.80
G2 X340.9500 Y59.0000 Z17.0109 I-0.0500 J0.0000 F1999.80
G2 X341.0500 Y59.0000 Z16.8130 I0.0500 J0.0000 F1999.80
G2 X340.9500 Y59.0000 Z16.6152 I-0.0500 J0.0000 F1999.80
G2 X341.0500 Y59.0000 Z16.4174 I0.0500 J0.0000 F1999.80
G2 X340.9500 Y59.0000 Z16.2196 I-0.0500 J0.0000 F1999.80
G2 X341.0500 Y59.0000 Z16.0217 I0.0500 J0.0000 F1999.80
G2 X340.9500 Y59.0000 Z15.8239 I-0.0500 J0.0000 F1999.80
G2 X341.0500 Y59.0000 Z15.6261 I0.0500 J0.0000 F1999.80
G2 X340.9500 Y59.0000 Z15.4283 I-0.0500 J0.0000 F1999.80
G2 X341.0500 Y59.0000 Z15.2304 I0.0500 J0.0000 F1999.80
G2 X340.9500 Y59.0000 Z15.0326 I-0.0500 J0.0000 F1999.80
G2 X341.0500 Y59.0000 Z14.8348 I0.0500 J0.0000 F1999.80
G2 X340.9500 Y59.0000 Z14.6370 I-0.0500 J0.0000 F1999.80
G2 X341.0500 Y59.0000 Z14.4391 I0.0500 J0.0000 F1999.80
G2 X340.9500 Y59.0000 Z14.2413 I-0.0500 J0.0000 F1999.80
G2 X341.0500 Y59.0000 Z14.0435 I0.0500 J0.0000 F1999.80
G2 X340.9500 Y59.0000 Z13.8457 I-0.0500 J0.0000 F1999.80
G2 X341.0500 Y59.0000 Z13.6478 I0.0500 J0.0000 F1999.80
G2 X340.9500 Y59.0000 Z13.4500 I-0.0500 J0.0000 F1999.80
G2 X341.0500 Y59.0000 Z13.2522 I0.0500 J0.0000 F1999.80
G2 X340.9500 Y59.0000 Z13.0543 I-0.0500 J0.0000 F1999.80
G2 X341.0500 Y59.0000 Z12.8565 I0.0500 J0.0000 F1999.80
G2 X340.9500 Y59.0000 Z12.6587 I-0.0500 J0.0000 F1999.80
G2 X341.0500 Y59.0000 Z12.4609 I0.0500 J0.0000 F1999.80
G2 X340.9500 Y59.0000 Z12.2630 I-0.0500 J0.0000 F1999.80
G2 X341.0500 Y59.0000 Z12.0652 I0.0500 J0.0000 F1999.80
G2 X340.9500 Y59.0000 Z11.8674 I-0.0500 J0.0000 F1999.80
G2 X341.0500 Y59.0000 Z11.6696 I0.0500 J0.0000 F1999.80
G2 X340.9500 Y59.0000 Z11.4717 I-0.0500 J0.0000 F1999.80
G2 X341.0500 Y59.0000 Z11.2739 I0.0500 J0.0000 F1999.80
G2 X340.9500 Y59.0000 Z11.0761 I-0.0500 J0.0000 F1999.80
G2 X341.0500 Y59.0000 Z10.8783 I0.0500 J0.0000 F1999.80
G2 X340.9500 Y59.0000 Z10.6804 I-0.0500 J0.0000 F1999.80
G2 X341.0500 Y59.0000 Z10.4826 I0.0500 J0.0000 F1999.80
G2 X340.9500 Y59.0000 Z10.2848 I-0.0500 J0.0000 F1999.80
G2 X341.0500 Y59.0000 Z10.0870 I0.0500 J0.0000 F1999.80
G2 X340.9500 Y59.0000 Z9.8891 I-0.0500 J0.0000 F1999.80
G2 X341.0500 Y59.0000 Z9.6913 I0.0500 J0.0000 F1999.80
G2 X340.9500 Y59.0000 Z9.4935 I-0.0500 J0.0000 F1999.80
G2 X341.0500 Y59.0000 Z9.2957 I0.0500 J0.0000 F1999.80
G2 X340.9500 Y59.0000 Z9.0978 I-0.0500 J0.0000 F1999.80
G2 X341.0500 Y59.0000 Z8.9000 I0.0500 J0.0000 F1999.80
G2 X340.9500 Y59.0000 Z8.7022 I-0.0500 J0.0000 F1999.80
G2 X341.0500 Y59.0000 Z8.5043 I0.0500 J0.0000 F1999.80
G2 X340.9500 Y59.0000 Z8.3065 I-0.0500 J0.0000 F1999.80
G2 X341.0500 Y59.0000 Z8.1087 I0.0500 J0.0000 F1999.80
G2 X340.9500 Y59.0000 Z7.9109 I-0.0500 J0.0000 F1999.80
G2 X341.0500 Y59.0000 Z7.7130 I0.0500 J0.0000 F1999.80
G2 X340.9500 Y59.0000 Z7.5152 I-0.0500 J0.0000 F1999.80
G2 X341.0500 Y59.0000 Z7.3174 I0.0500 J0.0000 F1999.80
G2 X340.9500 Y59.0000 Z7.1196 I-0.0500 J0.0000 F1999.80
G2 X341.0500 Y59.0000 Z6.9217 I0.0500 J0.0000 F1999.80
G2 X340.9500 Y59.0000 Z6.7239 I-0.0500 J0.0000 F1999.80
G2 X341.0500 Y59.0000 Z6.5261 I0.0500 J0.0000 F1999.80
G2 X340.9500 Y59.0000 Z6.3283 I-0.0500 J0.0000 F1999.80
G2 X341.0500 Y59.0000 Z6.1304 I0.0500 J0.0000 F1999.80
G2 X340.9500 Y59.0000 Z5.9326 I-0.0500 J0.0000 F1999.80
G2 X341.0500 Y59.0000 Z5.7348 I0.0500 J0.0000 F1999.80
G2 X340.9500 Y59.0000 Z5.5370 I-0.0500 J0.0000 F1999.80
G2 X341.0500 Y59.0000 Z5.3391 I0.0500 J0.0000 F1999.80
G2 X340.9500 Y59.0000 Z5.1413 I-0.0500 J0.0000 F1999.80
G2 X341.0500 Y59.0000 Z4.9435 I0.0500 J0.0000 F1999.80
G2 X340.9500 Y59.0000 Z4.7457 I-0.0500 J0.0000 F1999.80
G2 X341.0500 Y59.0000 Z4.5478 I0.0500 J0.0000 F1999.80
G2 X340.9500 Y59.0000 Z4.3500 I-0.0500 J0.0000 F1999.80
G2 X341.0500 Y59.0000 Z4.1522 I0.0500 J0.0000 F1999.80
G2 X340.9500 Y59.0000 Z3.9543 I-0.0500 J0.0000 F1999.80
G2 X341.0500 Y59.0000 Z3.7565 I0.0500 J0.0000 F1999.80
G2 X340.9500 Y59.0000 Z3.5587 I-0.0500 J0.0000 F1999.80
G2 X341.0500 Y59.0000 Z3.3609 I0.0500 J0.0000 F1999.80
G2 X340.9500 Y59.0000 Z3.1630 I-0.0500 J0.0000 F1999.80
G2 X341.0500 Y59.0000 Z2.9652 I0.0500 J0.0000 F1999.80
G2 X340.9500 Y59.0000 Z2.7674 I-0.0500 J0.0000 F1999.80
G2 X341.0500 Y59.0000 Z2.5696 I0.0500 J0.0000 F1999.80
G2 X340.9500 Y59.0000 Z2.3717 I-0.0500 J0.0000 F1999.80
G2 X341.0500 Y59.0000 Z2.1739 I0.0500 J0.0000 F1999.80
G2 X340.9500 Y59.0000 Z1.9761 I-0.0500 J0.0000 F1999.80
G2 X341.0500 Y59.0000 Z1.7783 I0.0500 J0.0000 F1999.80
G2 X340.9500 Y59.0000 Z1.5804 I-0.0500 J0.0000 F1999.80
G2 X341.0500 Y59.0000 Z1.3826 I0.0500 J0.0000 F1999.80
G2 X340.9500 Y59.0000 Z1.1848 I-0.0500 J0.0000 F1999.80
G2 X341.0500 Y59.0000 Z0.9870 I0.0500 J0.0000 F1999.80
G2 X340.9500 Y59.0000 Z0.7891 I-0.0500 J0.0000 F1999.80
G2 X341.0500 Y59.0000 Z0.5913 I0.0500 J0.0000 F1999.80
G2 X340.9500 Y59.0000 Z0.3935 I-0.0500 J0.0000 F1999.80
G2 X341.0500 Y59.0000 Z0.1957 I0.0500 J0.0000 F1999.80
G2 X340.9500 Y59.0000 Z-0.0022 I-0.0500 J0.0000 F1999.80
G2 X341.0500 Y59.0000 Z-0.2000 I0.0500 J0.0000 F1999.80
G2 X340.9500 Y59.0000 Z-0.2000 I-0.0500 J0.0000 F1999.80
G2 X341.0500 Y59.0000 Z-0.2000 I0.0500 J0.0000 F1999.80
G0 Z21.0000
G0 Z23.0000
(finish operation: Helix)
(begin operation: Stop)
(Path: Stop)
M0
(finish operation: Stop)
(begin operation: Contour)
(Path: Contour)
(Contour)
(Compensated Tool Path. Diameter: 3.0)
G0 Z23.0000
G0 X351.0607 Y201.0607
G0 Z21.0000
G1 X351.0607 Y201.0607 Z17.6000 F999.60
G3 X350.0000 Y201.5000 Z17.6000 I-1.0607 J-1.0607 F1999.80
G1 X0.0000 Y201.5000 Z17.6000 F1999.80
G3 X-1.5000 Y200.0000 Z17.6000 I0.0000 J-1.5000 F1999.80
G1 X-1.5000 Y0.0000 Z17.6000 F1999.80
G3 X0.0000 Y-1.5000 Z17.6000 I1.5000 J0.0000 F1999.80
G1 X350.0000 Y-1.5000 Z17.6000 F1999.80
G3 X351.5000 Y0.0000 Z17.6000 I0.0000 J1.5000 F1999.80
G1 X351.5000 Y200.0000 Z17.6000 F1999.80
G3 X351.0607 Y201.0607 Z17.6000 I-1.5000 J0.0000 F1999.80
G1 X351.0607 Y201.0607 Z17.2000 F999.60
G3 X350.0000 Y201.5000 Z17.2000 I-1.0607 J-1.0607 F1999.80
G1 X0.0000 Y201.5000 Z17.2000 F1999.80
G3 X-1.5000 Y200.0000 Z17.2000 I0.0000 J-1.5000 F1999.80
G1 X-1.5000 Y0.0000 Z17.2000 F1999.80
G3 X0.0000 Y-1.5000 Z17.2000 I1.5000 J0.0000 F1999.80
G1 X350.0000 Y-1.5000 Z17.2000 F1999.80
G3 X351.5000 Y0.0000 Z17.2000 I0.0000 J1.5000 F1999.80
G1 X351.5000 Y200.0000 Z17.2000 F1999.80
G3 X351.0607 Y201.0607 Z17.2000 I-1.5000 J0.0000 F1999.80
G1 X351.0607 Y201.0607 Z16.8000 F999.60
G3 X350.0000 Y201.5000 Z16.8000 I-1.0607 J-1.0607 F1999.80
G1 X0.0000 Y201.5000 Z16.8000 F1999.80
G3 X-1.5000 Y200.0000 Z16.8000 I0.0000 J-1.5000 F1999.80
G1 X-1.5000 Y0.0000 Z16.8000 F1999.80
G3 X0.0000 Y-1.5000 Z16.8000 I1.5000 J0.0000 F1999.80
G1 X350.0000 Y-1.5000 Z16.8000 F1999.80
G3 X351.5000 Y0.0000 Z16.8000 I0.0000 J1.5000 F1999.80
G1 X351.5000 Y200.0000 Z16.8000 F1999.80
G3 X351.0607 Y201.0607 Z16.8000 I-1.5000 J0.0000 F1999.80
G1 X351.0607 Y201.0607 Z16.4000 F999.60
G3 X350.0000 Y201.5000 Z16.4000 I-1.0607 J-1.0607 F1999.80
G1 X0.0000 Y201.5000 Z16.4000 F1999.80
G3 X-1.5000 Y200.0000 Z16.4000 I0.0000 J-1.5000 F1999.80
G1 X-1.5000 Y0.0000 Z16.4000 F1999.80
G3 X0.0000 Y-1.5000 Z16.4000 I1.5000 J0.0000 F1999.80
G1 X350.0000 Y-1.5000 Z16.4000 F1999.80
G3 X351.5000 Y0.0000 Z16.4000 I0.0000 J1.5000 F1999.80
G1 X351.5000 Y200.0000 Z16.4000 F1999.80
G3 X351.0607 Y201.0607 Z16.4000 I-1.5000 J0.0000 F1999.80
G1 X351.0607 Y201.0607 Z16.0000 F999.60
G3 X350.0000 Y201.5000 Z16.0000 I-1.0607 J-1.0607 F1999.80
G1 X0.0000 Y201.5000 Z16.0000 F1999.80
G3 X-1.5000 Y200.0000 Z16.0000 I0.0000 J-1.5000 F1999.80
G1 X-1.5000 Y0.0000 Z16.0000 F1999.80
G3 X0.0000 Y-1.5000 Z16.0000 I1.5000 J0.0000 F1999.80
G1 X350.0000 Y-1.5000 Z16.0000 F1999.80
G3 X351.5000 Y0.0000 Z16.0000 I0.0000 J1.5000 F1999.80
G1 X351.5000 Y200.0000 Z16.0000 F1999.80
G3 X351.0607 Y201.0607 Z16.0000 I-1.5000 J0.0000 F1999.80
G1 X351.0607 Y201.0607 Z15.6000 F999.60
G3 X350.0000 Y201.5000 Z15.6000 I-1.0607 J-1.0607 F1999.80
G1 X0.0000 Y201.5000 Z15.6000 F1999.80
G3 X-1.5000 Y200.0000 Z15.6000 I0.0000 J-1.5000 F1999.80
G1 X-1.5000 Y0.0000 Z15.6000 F1999.80
G3 X0.0000 Y-1.5000 Z15.6000 I1.5000 J0.0000 F1999.80
G1 X350.0000 Y-1.5000 Z15.6000 F1999.80
G3 X351.5000 Y0.0000 Z15.6000 I0.0000 J1.5000 F1999.80
G1 X351.5000 Y200.0000 Z15.6000 F1999.80
G3 X351.0607 Y201.0607 Z15.6000 I-1.5000 J0.0000 F1999.80
G1 X351.0607 Y201.0607 Z15.2000 F999.60
G3 X350.0000 Y201.5000 Z15.2000 I-1.0607 J-1.0607 F1999.80
G1 X0.0000 Y201.5000 Z15.2000 F1999.80
G3 X-1.5000 Y200.0000 Z15.2000 I0.0000 J-1.5000 F1999.80
G1 X-1.5000 Y0.0000 Z15.2000 F1999.80
G3 X0.0000 Y-1.5000 Z15.2000 I1.5000 J0.0000 F1999.80
G1 X350.0000 Y-1.5000 Z15.2000 F1999.80
G3 X351.5000 Y0.0000 Z15.2000 I0.0000 J1.5000 F1999.80
G1 X351.5000 Y200.0000 Z15.2000 F1999.80
G3 X351.0607 Y201.0607 Z15.2000 I-1.5000 J0.0000 F1999.80
G1 X351.0607 Y201.0607 Z14.8000 F999.60
G3 X350.0000 Y201.5000 Z14.8000 I-1.0607 J-1.0607 F1999.80
G1 X0.0000 Y201.5000 Z14.8000 F1999.80
G3 X-1.5000 Y200.0000 Z14.8000 I0.0000 J-1.5000 F1999.80
G1 X-1.5000 Y0.0000 Z14.8000 F1999.80
G3 X0.0000 Y-1.5000 Z14.8000 I1.5000 J0.0000 F1999.80
G1 X350.0000 Y-1.5000 Z14.8000 F1999.80
G3 X351.5000 Y0.0000 Z14.8000 I0.0000 J1.5000 F1999.80
G1 X351.5000 Y200.0000 Z14.8000 F1999.80
G3 X351.0607 Y201.0607 Z14.8000 I-1.5000 J0.0000 F1999.80
G1 X351.0607 Y201.0607 Z14.4000 F999.60
G3 X350.0000 Y201.5000 Z14.4000 I-1.0607 J-1.0607 F1999.80
G1 X0.0000 Y201.5000 Z14.4000 F1999.80
G3 X-1.5000 Y200.0000 Z14.4000 I0.0000 J-1.5000 F1999.80
G1 X-1.5000 Y0.0000 Z14.4000 F1999.80
G3 X0.0000 Y-1.5000 Z14.4000 I1.5000 J0.0000 F1999.80
G1 X350.0000 Y-1.5000 Z14.4000 F1999.80
G3 X351.5000 Y0.0000 Z14.4000 I0.0000 J1.5000 F1999.80
G1 X351.5000 Y200.0000 Z14.4000 F1999.80
G3 X351.0607 Y201.0607 Z14.4000 I-1.5000 J0.0000 F1999.80
G1 X351.0607 Y201.0607 Z14.0000 F999.60
G3 X350.0000 Y201.5000 Z14.0000 I-1.0607 J-1.0607 F1999.80
G1 X0.0000 Y201.5000 Z14.0000 F1999.80
G3 X-1.5000 Y200.0000 Z14.0000 I0.0000 J-1.5000 F1999.80
G1 X-1.5000 Y0.0000 Z14.0000 F1999.80
G3 X0.0000 Y-1.5000 Z14.0000 I1.5000 J0.0000 F1999.80
G1 X350.0000 Y-1.5000 Z14.0000 F1999.80
G3 X351.5000 Y0.0000 Z14.0000 I0.0000 J1.5000 F1999.80
G1 X351.5000 Y200.0000 Z14.0000 F1999.80
G3 X351.0607 Y201.0607 Z14.0000 I-1.5000 J0.0000 F1999.80
G1 X351.0607 Y201.0607 Z13.6000 F999.60
G3 X350.0000 Y201.5000 Z13.6000 I-1.0607 J-1.0607 F1999.80
G1 X0.0000 Y201.5000 Z13.6000 F1999.80
G3 X-1.5000 Y200.0000 Z13.6000 I0.0000 J-1.5000 F1999.80
G1 X-1.5000 Y0.0000 Z13.6000 F1999.80
G3 X0.0000 Y-1.5000 Z13.6000 I1.5000 J0.0000 F1999.80
G1 X350.0000 Y-1.5000 Z13.6000 F1999.80
G3 X351.5000 Y0.0000 Z13.6000 I0.0000 J1.5000 F1999.80
G1 X351.5000 Y200.0000 Z13.6000 F1999.80
G3 X351.0607 Y201.0607 Z13.6000 I-1.5000 J0.0000 F1999.80
G1 X351.0607 Y201.0607 Z13.2000 F999.60
G3 X350.0000 Y201.5000 Z13.2000 I-1.0607 J-1.0607 F1999.80
G1 X0.0000 Y201.5000 Z13.2000 F1999.80
G3 X-1.5000 Y200.0000 Z13.2000 I0.0000 J-1.5000 F1999.80
G1 X-1.5000 Y0.0000 Z13.2000 F1999.80
G3 X0.0000 Y-1.5000 Z13.2000 I1.5000 J0.0000 F1999.80
G1 X350.0000 Y-1.5000 Z13.2000 F1999.80
G3 X351.5000 Y0.0000 Z13.2000 I0.0000 J1.5000 F1999.80
G1 X351.5000 Y200.0000 Z13.2000 F1999.80
G3 X351.0607 Y201.0607 Z13.2000 I-1.5000 J0.0000 F1999.80
G1 X351.0607 Y201.0607 Z12.8000 F999.60
G3 X350.0000 Y201.5000 Z12.8000 I-1.0607 J-1.0607 F1999.80
G1 X0.0000 Y201.5000 Z12.8000 F1999.80
G3 X-1.5000 Y200.0000 Z12.8000 I0.0000 J-1.5000 F1999.80
G1 X-1.5000 Y0.0000 Z12.8000 F1999.80
G3 X0.0000 Y-1.5000 Z12.8000 I1.5000 J0.0000 F1999.80
G1 X350.0000 Y-1.5000 Z12.8000 F1999.80
G3 X351.5000 Y0.0000 Z12.8000 I0.0000 J1.5000 F1999.80
G1 X351.5000 Y200.0000 Z12.8000 F1999.80
G3 X351.0607 Y201.0607 Z12.8000 I-1.5000 J0.0000 F1999.80
G1 X351.0607 Y201.0607 Z12.4000 F999.60
G3 X350.0000 Y201.5000 Z12.4000 I-1.0607 J-1.0607 F1999.80
G1 X0.0000 Y201.5000 Z12.4000 F1999.80
G3 X-1.5000 Y200.0000 Z12.4000 I0.0000 J-1.5000 F1999.80
G1 X-1.5000 Y0.0000 Z12.4000 F1999.80
G3 X0.0000 Y-1.5000 Z12.4000 I1.5000 J0.0000 F1999.80
G1 X350.0000 Y-1.5000 Z12.4000 F1999.80
G3 X351.5000 Y0.0000 Z12.4000 I0.0000 J1.5000 F1999.80
G1 X351.5000 Y200.0000 Z12.4000 F1999.80
G3 X351.0607 Y201.0607 Z12.4000 I-1.5000 J0.0000 F1999.80
G1 X351.0607 Y201.0607 Z12.0000 F999.60
G3 X350.0000 Y201.5000 Z12.0000 I-1.0607 J-1.0607 F1999.80
G1 X0.0000 Y201.5000 Z12.0000 F1999.80
G3 X-1.5000 Y200.0000 Z12.0000 I0.0000 J-1.5000 F1999.80
G1 X-1.5000 Y0.0000 Z12.0000 F1999.80
G3 X0.0000 Y-1.5000 Z12.0000 I1.5000 J0.0000 F1999.80
G1 X350.0000 Y-1.5000 Z12.0000 F1999.80
G3 X351.5000 Y0.0000 Z12.0000 I0.0000 J1.5000 F1999.80
G1 X351.5000 Y200.0000 Z12.0000 F1999.80
G3 X351.0607 Y201.0607 Z12.0000 I-1.5000 J0.0000 F1999.80
G1 X351.0607 Y201.0607 Z11.6000 F999.60
G3 X350.0000 Y201.5000 Z11.6000 I-1.0607 J-1.0607 F1999.80
G1 X0.0000 Y201.5000 Z11.6000 F1999.80
G3 X-1.5000 Y200.0000 Z11.6000 I0.0000 J-1.5000 F1999.80
G1 X-1.5000 Y0.0000 Z11.6000 F1999.80
G3 X0.0000 Y-1.5000 Z11.6000 I1.5000 J0.0000 F1999.80
G1 X350.0000 Y-1.5000 Z11.6000 F1999.80
G3 X351.5000 Y0.0000 Z11.6000 I0.0000 J1.5000 F1999.80
G1 X351.5000 Y200.0000 Z11.6000 F1999.80
G3 X351.0607 Y201.0607 Z11.6000 I-1.5000 J0.0000 F1999.80
G1 X351.0607 Y201.0607 Z11.2000 F999.60
G3 X350.0000 Y201.5000 Z11.2000 I-1.0607 J-1.0607 F1999.80
G1 X0.0000 Y201.5000 Z11.2000 F1999.80
G3 X-1.5000 Y200.0000 Z11.2000 I0.0000 J-1.5000 F1999.80
G1 X-1.5000 Y0.0000 Z11.2000 F1999.80
G3 X0.0000 Y-1.5000 Z11.2000 I1.5000 J0.0000 F1999.80
G1 X350.0000 Y-1.5000 Z11.2000 F1999.80
G3 X351.5000 Y0.0000 Z11.2000 I0.0000 J1.5000 F1999.80
G1 X351.5000 Y200.0000 Z11.2000 F1999.80
G3 X351.0607 Y201.0607 Z11.2000 I-1.5000 J0.0000 F1999.80
G1 X351.0607 Y201.0607 Z10.8000 F999.60
G3 X350.0000 Y201.5000 Z10.8000 I-1.0607 J-1.0607 F1999.80
G1 X0.0000 Y201.5000 Z10.8000 F1999.80
G3 X-1.5000 Y200.0000 Z10.8000 I0.0000 J-1.5000 F1999.80
G1 X-1.5000 Y0.0000 Z10.8000 F1999.80
G3 X0.0000 Y-1.5000 Z10.8000 I1.5000 J0.0000 F1999.80
G1 X350.0000 Y-1.5000 Z10.8000 F1999.80
G3 X351.5000 Y0.0000 Z10.8000 I0.0000 J1.5000 F1999.80
G1 X351.5000 Y200.0000 Z10.8000 F1999.80
G3 X351.0607 Y201.0607 Z10.8000 I-1.5000 J0.0000 F1999.80
G1 X351.0607 Y201.0607 Z10.4000 F999.60
G3 X350.0000 Y201.5000 Z10.4000 I-1.0607 J-1.0607 F1999.80
G1 X0.0000 Y201.5000 Z10.4000 F1999.80
G3 X-1.5000 Y200.0000 Z10.4000 I0.0000 J-1.5000 F1999.80
G1 X-1.5000 Y0.0000 Z10.4000 F1999.80
G3 X0.0000 Y-1.5000 Z10.4000 I1.5000 J0.0000 F1999.80
G1 X350.0000 Y-1.5000 Z10.4000 F1999.80
G3 X351.5000 Y0.0000 Z10.4000 I0.0000 J1.5000 F1999.80
G1 X351.5000 Y200.0000 Z10.4000 F1999.80
G3 X351.0607 Y201.0607 Z10.4000 I-1.5000 J0.0000 F1999.80
G1 X351.0607 Y201.0607 Z10.0000 F999.60
G3 X350.0000 Y201.5000 Z10.0000 I-1.0607 J-1.0607 F1999.80
G1 X0.0000 Y201.5000 Z10.0000 F1999.80
G3 X-1.5000 Y200.0000 Z10.0000 I0.0000 J-1.5000 F1999.80
G1 X-1.5000 Y0.0000 Z10.0000 F1999.80
G3 X0.0000 Y-1.5000 Z10.0000 I1.5000 J0.0000 F1999.80
G1 X350.0000 Y-1.5000 Z10.0000 F1999.80
G3 X351.5000 Y0.0000 Z10.0000 I0.0000 J1.5000 F1999.80
G1 X351.5000 Y200.0000 Z10.0000 F1999.80
G3 X351.0607 Y201.0607 Z10.0000 I-1.5000 J0.0000 F1999.80
G1 X351.0607 Y201.0607 Z9.6000 F999.60
G3 X350.0000 Y201.5000 Z9.6000 I-1.0607 J-1.0607 F1999.80
G1 X0.0000 Y201.5000 Z9.6000 F1999.80
G3 X-1.5000 Y200.0000 Z9.6000 I0.0000 J-1.5000 F1999.80
G1 X-1.5000 Y0.0000 Z9.6000 F1999.80
G3 X0.0000 Y-1.5000 Z9.6000 I1.5000 J0.0000 F1999.80
G1 X350.0000 Y-1.5000 Z9.6000 F1999.80
G3 X351.5000 Y0.0000 Z9.6000 I0.0000 J1.5000 F1999.80
G1 X351.5000 Y200.0000 Z9.6000 F1999.80
G3 X351.0607 Y201.0607 Z9.6000 I-1.5000 J0.0000 F1999.80
G1 X351.0607 Y201.0607 Z9.2000 F999.60
G3 X350.0000 Y201.5000 Z9.2000 I-1.0607 J-1.0607 F1999.80
