(Exported by FreeCAD)
(Post Processor: grbl_post)
(Output Time:2020-04-11 17:18:12.287861)
(Begin preamble)
G17 G90
G21
(Begin operation: Fixture)
(Path: Fixture)
G54
(Finish operation: Fixture)
(Begin operation: T6: 2FluteWoodMill001)
(Path: T6: 2FluteWoodMill001)
(T6: 2FluteWoodMill001)
(Begin toolchange)
(M6 T6.0)
M3 S12000.0
(Finish operation: T6: 2FluteWoodMill001)
(Begin operation: Helix)
(Path: Helix)
(Helix)
(helix cut operation)
G0 Z23.000
G0 X11.050 Y10.000
G0 Z21.000
G1 Z18.000 F999.600
G2 X8.950 Y10.000 Z17.754 I-1.050 J0.000 F1999.800
G2 X11.050 Y10.000 Z17.508 I1.050 J0.000 F1999.800
G2 X8.950 Y10.000 Z17.262 I-1.050 J0.000 F1999.800
G2 X11.050 Y10.000 Z17.016 I1.050 J0.000 F1999.800
G2 X8.950 Y10.000 Z16.770 I-1.050 J0.000 F1999.800
G2 X11.050 Y10.000 Z16.524 I1.050 J0.000 F1999.800
G2 X8.950 Y10.000 Z16.278 I-1.050 J0.000 F1999.800
G2 X11.050 Y10.000 Z16.032 I1.050 J0.000 F1999.800
G2 X8.950 Y10.000 Z15.786 I-1.050 J0.000 F1999.800
G2 X11.050 Y10.000 Z15.541 I1.050 J0.000 F1999.800
G2 X8.950 Y10.000 Z15.295 I-1.050 J0.000 F1999.800
G2 X11.050 Y10.000 Z15.049 I1.050 J0.000 F1999.800
G2 X8.950 Y10.000 Z14.803 I-1.050 J0.000 F1999.800
G2 X11.050 Y10.000 Z14.557 I1.050 J0.000 F1999.800
G2 X8.950 Y10.000 Z14.311 I-1.050 J0.000 F1999.800
G2 X11.050 Y10.000 Z14.065 I1.050 J0.000 F1999.800
G2 X8.950 Y10.000 Z13.819 I-1.050 J0.000 F1999.800
G2 X11.050 Y10.000 Z13.573 I1.050 J0.000 F1999.800
G2 X8.950 Y10.000 Z13.327 I-1.050 J0.000 F1999.800
G2 X11.050 Y10.000 Z13.081 I1.050 J0.000 F1999.800
G2 X8.950 Y10.000 Z12.835 I-1.050 J0.000 F1999.800
G2 X11.050 Y10.000 Z12.589 I1.050 J0.000 F1999.800
G2 X8.950 Y10.000 Z12.343 I-1.050 J0.000 F1999.800
G2 X11.050 Y10.000 Z12.097 I1.050 J0.000 F1999.800
G2 X8.950 Y10.000 Z11.851 I-1.050 J0.000 F1999.800
G2 X11.050 Y10.000 Z11.605 I1.050 J0.000 F1999.800
G2 X8.950 Y10.000 Z11.359 I-1.050 J0.000 F1999.800
G2 X11.050 Y10.000 Z11.114 I1.050 J0.000 F1999.800
G2 X8.950 Y10.000 Z10.868 I-1.050 J0.000 F1999.800
G2 X11.050 Y10.000 Z10.622 I1.050 J0.000 F1999.800
G2 X8.950 Y10.000 Z10.376 I-1.050 J0.000 F1999.800
G2 X11.050 Y10.000 Z10.130 I1.050 J0.000 F1999.800
G2 X8.950 Y10.000 Z9.884 I-1.050 J0.000 F1999.800
G2 X11.050 Y10.000 Z9.638 I1.050 J0.000 F1999.800
G2 X8.950 Y10.000 Z9.392 I-1.050 J0.000 F1999.800
G2 X11.050 Y10.000 Z9.146 I1.050 J0.000 F1999.800
G2 X8.950 Y10.000 Z8.900 I-1.050 J0.000 F1999.800
G2 X11.050 Y10.000 Z8.654 I1.050 J0.000 F1999.800
G2 X8.950 Y10.000 Z8.408 I-1.050 J0.000 F1999.800
G2 X11.050 Y10.000 Z8.162 I1.050 J0.000 F1999.800
G2 X8.950 Y10.000 Z7.916 I-1.050 J0.000 F1999.800
G2 X11.050 Y10.000 Z7.670 I1.050 J0.000 F1999.800
G2 X8.950 Y10.000 Z7.424 I-1.050 J0.000 F1999.800
G2 X11.050 Y10.000 Z7.178 I1.050 J0.000 F1999.800
G2 X8.950 Y10.000 Z6.932 I-1.050 J0.000 F1999.800
G2 X11.050 Y10.000 Z6.686 I1.050 J0.000 F1999.800
G2 X8.950 Y10.000 Z6.441 I-1.050 J0.000 F1999.800
G2 X11.050 Y10.000 Z6.195 I1.050 J0.000 F1999.800
G2 X8.950 Y10.000 Z5.949 I-1.050 J0.000 F1999.800
G2 X11.050 Y10.000 Z5.703 I1.050 J0.000 F1999.800
G2 X8.950 Y10.000 Z5.457 I-1.050 J0.000 F1999.800
G2 X11.050 Y10.000 Z5.211 I1.050 J0.000 F1999.800
G2 X8.950 Y10.000 Z4.965 I-1.050 J0.000 F1999.800
G2 X11.050 Y10.000 Z4.719 I1.050 J0.000 F1999.800
G2 X8.950 Y10.000 Z4.473 I-1.050 J0.000 F1999.800
G2 X11.050 Y10.000 Z4.227 I1.050 J0.000 F1999.800
G2 X8.950 Y10.000 Z3.981 I-1.050 J0.000 F1999.800
G2 X11.050 Y10.000 Z3.735 I1.050 J0.000 F1999.800
G2 X8.950 Y10.000 Z3.489 I-1.050 J0.000 F1999.800
G2 X11.050 Y10.000 Z3.243 I1.050 J0.000 F1999.800
G2 X8.950 Y10.000 Z2.997 I-1.050 J0.000 F1999.800
G2 X11.050 Y10.000 Z2.751 I1.050 J0.000 F1999.800
G2 X8.950 Y10.000 Z2.505 I-1.050 J0.000 F1999.800
G2 X11.050 Y10.000 Z2.259 I1.050 J0.000 F1999.800
G2 X8.950 Y10.000 Z2.014 I-1.050 J0.000 F1999.800
G2 X11.050 Y10.000 Z1.768 I1.050 J0.000 F1999.800
G2 X8.950 Y10.000 Z1.522 I-1.050 J0.000 F1999.800
G2 X11.050 Y10.000 Z1.276 I1.050 J0.000 F1999.800
G2 X8.950 Y10.000 Z1.030 I-1.050 J0.000 F1999.800
G2 X11.050 Y10.000 Z0.784 I1.050 J0.000 F1999.800
G2 X8.950 Y10.000 Z0.538 I-1.050 J0.000 F1999.800
G2 X11.050 Y10.000 Z0.292 I1.050 J0.000 F1999.800
G2 X8.950 Y10.000 Z0.046 I-1.050 J0.000 F1999.800
G2 X11.050 Y10.000 Z-0.200 I1.050 J0.000 F1999.800
G2 X8.950 Y10.000 Z-0.200 I-1.050 J0.000 F1999.800
G2 X11.050 Y10.000 Z-0.200 I1.050 J0.000 F1999.800
G0 Z21.000
G0 X11.050 Y60.000
G0 Z21.000
G1 Z18.000 F999.600
G2 X8.950 Y60.000 Z17.754 I-1.050 J0.000 F1999.800
G2 X11.050 Y60.000 Z17.508 I1.050 J0.000 F1999.800
G2 X8.950 Y60.000 Z17.262 I-1.050 J0.000 F1999.800
G2 X11.050 Y60.000 Z17.016 I1.050 J0.000 F1999.800
G2 X8.950 Y60.000 Z16.770 I-1.050 J0.000 F1999.800
G2 X11.050 Y60.000 Z16.524 I1.050 J0.000 F1999.800
G2 X8.950 Y60.000 Z16.278 I-1.050 J0.000 F1999.800
G2 X11.050 Y60.000 Z16.032 I1.050 J0.000 F1999.800
G2 X8.950 Y60.000 Z15.786 I-1.050 J0.000 F1999.800
G2 X11.050 Y60.000 Z15.541 I1.050 J0.000 F1999.800
G2 X8.950 Y60.000 Z15.295 I-1.050 J0.000 F1999.800
G2 X11.050 Y60.000 Z15.049 I1.050 J0.000 F1999.800
G2 X8.950 Y60.000 Z14.803 I-1.050 J0.000 F1999.800
G2 X11.050 Y60.000 Z14.557 I1.050 J0.000 F1999.800
G2 X8.950 Y60.000 Z14.311 I-1.050 J0.000 F1999.800
G2 X11.050 Y60.000 Z14.065 I1.050 J0.000 F1999.800
G2 X8.950 Y60.000 Z13.819 I-1.050 J0.000 F1999.800
G2 X11.050 Y60.000 Z13.573 I1.050 J0.000 F1999.800
G2 X8.950 Y60.000 Z13.327 I-1.050 J0.000 F1999.800
G2 X11.050 Y60.000 Z13.081 I1.050 J0.000 F1999.800
G2 X8.950 Y60.000 Z12.835 I-1.050 J0.000 F1999.800
G2 X11.050 Y60.000 Z12.589 I1.050 J0.000 F1999.800
G2 X8.950 Y60.000 Z12.343 I-1.050 J0.000 F1999.800
G2 X11.050 Y60.000 Z12.097 I1.050 J0.000 F1999.800
G2 X8.950 Y60.000 Z11.851 I-1.050 J0.000 F1999.800
G2 X11.050 Y60.000 Z11.605 I1.050 J0.000 F1999.800
G2 X8.950 Y60.000 Z11.359 I-1.050 J0.000 F1999.800
G2 X11.050 Y60.000 Z11.114 I1.050 J0.000 F1999.800
G2 X8.950 Y60.000 Z10.868 I-1.050 J0.000 F1999.800
G2 X11.050 Y60.000 Z10.622 I1.050 J0.000 F1999.800
G2 X8.950 Y60.000 Z10.376 I-1.050 J0.000 F1999.800
G2 X11.050 Y60.000 Z10.130 I1.050 J0.000 F1999.800
G2 X8.950 Y60.000 Z9.884 I-1.050 J0.000 F1999.800
G2 X11.050 Y60.000 Z9.638 I1.050 J0.000 F1999.800
G2 X8.950 Y60.000 Z9.392 I-1.050 J0.000 F1999.800
G2 X11.050 Y60.000 Z9.146 I1.050 J0.000 F1999.800
G2 X8.950 Y60.000 Z8.900 I-1.050 J0.000 F1999.800
G2 X11.050 Y60.000 Z8.654 I1.050 J0.000 F1999.800
G2 X8.950 Y60.000 Z8.408 I-1.050 J0.000 F1999.800
G2 X11.050 Y60.000 Z8.162 I1.050 J0.000 F1999.800
G2 X8.950 Y60.000 Z7.916 I-1.050 J0.000 F1999.800
G2 X11.050 Y60.000 Z7.670 I1.050 J0.000 F1999.800
G2 X8.950 Y60.000 Z7.424 I-1.050 J0.000 F1999.800
G2 X11.050 Y60.000 Z7.178 I1.050 J0.000 F1999.800
G2 X8.950 Y60.000 Z6.932 I-1.050 J0.000 F1999.800
G2 X11.050 Y60.000 Z6.686 I1.050 J0.000 F1999.800
G2 X8.950 Y60.000 Z6.441 I-1.050 J0.000 F1999.800
G2 X11.050 Y60.000 Z6.195 I1.050 J0.000 F1999.800
G2 X8.950 Y60.000 Z5.949 I-1.050 J0.000 F1999.800
G2 X11.050 Y60.000 Z5.703 I1.050 J0.000 F1999.800
G2 X8.950 Y60.000 Z5.457 I-1.050 J0.000 F1999.800
G2 X11.050 Y60.000 Z5.211 I1.050 J0.000 F1999.800
G2 X8.950 Y60.000 Z4.965 I-1.050 J0.000 F1999.800
G2 X11.050 Y60.000 Z4.719 I1.050 J0.000 F1999.800
G2 X8.950 Y60.000 Z4.473 I-1.050 J0.000 F1999.800
G2 X11.050 Y60.000 Z4.227 I1.050 J0.000 F1999.800
G2 X8.950 Y60.000 Z3.981 I-1.050 J0.000 F1999.800
G2 X11.050 Y60.000 Z3.735 I1.050 J0.000 F1999.800
G2 X8.950 Y60.000 Z3.489 I-1.050 J0.000 F1999.800
G2 X11.050 Y60.000 Z3.243 I1.050 J0.000 F1999.800
G2 X8.950 Y60.000 Z2.997 I-1.050 J0.000 F1999.800
G2 X11.050 Y60.000 Z2.751 I1.050 J0.000 F1999.800
G2 X8.950 Y60.000 Z2.505 I-1.050 J0.000 F1999.800
G2 X11.050 Y60.000 Z2.259 I1.050 J0.000 F1999.800
G2 X8.950 Y60.000 Z2.014 I-1.050 J0.000 F1999.800
G2 X11.050 Y60.000 Z1.768 I1.050 J0.000 F1999.800
G2 X8.950 Y60.000 Z1.522 I-1.050 J0.000 F1999.800
G2 X11.050 Y60.000 Z1.276 I1.050 J0.000 F1999.800
G2 X8.950 Y60.000 Z1.030 I-1.050 J0.000 F1999.800
G2 X11.050 Y60.000 Z0.784 I1.050 J0.000 F1999.800
G2 X8.950 Y60.000 Z0.538 I-1.050 J0.000 F1999.800
G2 X11.050 Y60.000 Z0.292 I1.050 J0.000 F1999.800
G2 X8.950 Y60.000 Z0.046 I-1.050 J0.000 F1999.800
G2 X11.050 Y60.000 Z-0.200 I1.050 J0.000 F1999.800
G2 X8.950 Y60.000 Z-0.200 I-1.050 J0.000 F1999.800
G2 X11.050 Y60.000 Z-0.200 I1.050 J0.000 F1999.800
G0 Z21.000
G0 X11.050 Y110.000
G0 Z21.000
G1 Z18.000 F999.600
G2 X8.950 Y110.000 Z17.754 I-1.050 J0.000 F1999.800
G2 X11.050 Y110.000 Z17.508 I1.050 J0.000 F1999.800
G2 X8.950 Y110.000 Z17.262 I-1.050 J0.000 F1999.800
G2 X11.050 Y110.000 Z17.016 I1.050 J0.000 F1999.800
G2 X8.950 Y110.000 Z16.770 I-1.050 J0.000 F1999.800
G2 X11.050 Y110.000 Z16.524 I1.050 J0.000 F1999.800
G2 X8.950 Y110.000 Z16.278 I-1.050 J0.000 F1999.800
G2 X11.050 Y110.000 Z16.032 I1.050 J0.000 F1999.800
G2 X8.950 Y110.000 Z15.786 I-1.050 J0.000 F1999.800
G2 X11.050 Y110.000 Z15.541 I1.050 J0.000 F1999.800
G2 X8.950 Y110.000 Z15.295 I-1.050 J0.000 F1999.800
G2 X11.050 Y110.000 Z15.049 I1.050 J0.000 F1999.800
G2 X8.950 Y110.000 Z14.803 I-1.050 J0.000 F1999.800
G2 X11.050 Y110.000 Z14.557 I1.050 J0.000 F1999.800
G2 X8.950 Y110.000 Z14.311 I-1.050 J0.000 F1999.800
G2 X11.050 Y110.000 Z14.065 I1.050 J0.000 F1999.800
G2 X8.950 Y110.000 Z13.819 I-1.050 J0.000 F1999.800
G2 X11.050 Y110.000 Z13.573 I1.050 J0.000 F1999.800
G2 X8.950 Y110.000 Z13.327 I-1.050 J0.000 F1999.800
G2 X11.050 Y110.000 Z13.081 I1.050 J0.000 F1999.800
G2 X8.950 Y110.000 Z12.835 I-1.050 J0.000 F1999.800
G2 X11.050 Y110.000 Z12.589 I1.050 J0.000 F1999.800
G2 X8.950 Y110.000 Z12.343 I-1.050 J0.000 F1999.800
G2 X11.050 Y110.000 Z12.097 I1.050 J0.000 F1999.800
G2 X8.950 Y110.000 Z11.851 I-1.050 J0.000 F1999.800
G2 X11.050 Y110.000 Z11.605 I1.050 J0.000 F1999.800
G2 X8.950 Y110.000 Z11.359 I-1.050 J0.000 F1999.800
G2 X11.050 Y110.000 Z11.114 I1.050 J0.000 F1999.800
G2 X8.950 Y110.000 Z10.868 I-1.050 J0.000 F1999.800
G2 X11.050 Y110.000 Z10.622 I1.050 J0.000 F1999.800
G2 X8.950 Y110.000 Z10.376 I-1.050 J0.000 F1999.800
G2 X11.050 Y110.000 Z10.130 I1.050 J0.000 F1999.800
G2 X8.950 Y110.000 Z9.884 I-1.050 J0.000 F1999.800
G2 X11.050 Y110.000 Z9.638 I1.050 J0.000 F1999.800
G2 X8.950 Y110.000 Z9.392 I-1.050 J0.000 F1999.800
G2 X11.050 Y110.000 Z9.146 I1.050 J0.000 F1999.800
G2 X8.950 Y110.000 Z8.900 I-1.050 J0.000 F1999.800
G2 X11.050 Y110.000 Z8.654 I1.050 J0.000 F1999.800
G2 X8.950 Y110.000 Z8.408 I-1.050 J0.000 F1999.800
G2 X11.050 Y110.000 Z8.162 I1.050 J0.000 F1999.800
G2 X8.950 Y110.000 Z7.916 I-1.050 J0.000 F1999.800
G2 X11.050 Y110.000 Z7.670 I1.050 J0.000 F1999.800
G2 X8.950 Y110.000 Z7.424 I-1.050 J0.000 F1999.800
G2 X11.050 Y110.000 Z7.178 I1.050 J0.000 F1999.800
G2 X8.950 Y110.000 Z6.932 I-1.050 J0.000 F1999.800
G2 X11.050 Y110.000 Z6.686 I1.050 J0.000 F1999.800
G2 X8.950 Y110.000 Z6.441 I-1.050 J0.000 F1999.800
G2 X11.050 Y110.000 Z6.195 I1.050 J0.000 F1999.800
G2 X8.950 Y110.000 Z5.949 I-1.050 J0.000 F1999.800
G2 X11.050 Y110.000 Z5.703 I1.050 J0.000 F1999.800
G2 X8.950 Y110.000 Z5.457 I-1.050 J0.000 F1999.800
G2 X11.050 Y110.000 Z5.211 I1.050 J0.000 F1999.800
G2 X8.950 Y110.000 Z4.965 I-1.050 J0.000 F1999.800
G2 X11.050 Y110.000 Z4.719 I1.050 J0.000 F1999.800
G2 X8.950 Y110.000 Z4.473 I-1.050 J0.000 F1999.800
G2 X11.050 Y110.000 Z4.227 I1.050 J0.000 F1999.800
G2 X8.950 Y110.000 Z3.981 I-1.050 J0.000 F1999.800
G2 X11.050 Y110.000 Z3.735 I1.050 J0.000 F1999.800
G2 X8.950 Y110.000 Z3.489 I-1.050 J0.000 F1999.800
G2 X11.050 Y110.000 Z3.243 I1.050 J0.000 F1999.800
G2 X8.950 Y110.000 Z2.997 I-1.050 J0.000 F1999.800
G2 X11.050 Y110.000 Z2.751 I1.050 J0.000 F1999.800
G2 X8.950 Y110.000 Z2.505 I-1.050 J0.000 F1999.800
G2 X11.050 Y110.000 Z2.259 I1.050 J0.000 F1999.800
G2 X8.950 Y110.000 Z2.014 I-1.050 J0.000 F1999.800
G2 X11.050 Y110.000 Z1.768 I1.050 J0.000 F1999.800
G2 X8.950 Y110.000 Z1.522 I-1.050 J0.000 F1999.800
G2 X11.050 Y110.000 Z1.276 I1.050 J0.000 F1999.800
G2 X8.950 Y110.000 Z1.030 I-1.050 J0.000 F1999.800
G2 X11.050 Y110.000 Z0.784 I1.050 J0.000 F1999.800
G2 X8.950 Y110.000 Z0.538 I-1.050 J0.000 F1999.800
G2 X11.050 Y110.000 Z0.292 I1.050 J0.000 F1999.800
G2 X8.950 Y110.000 Z0.046 I-1.050 J0.000 F1999.800
G2 X11.050 Y110.000 Z-0.200 I1.050 J0.000 F1999.800
G2 X8.950 Y110.000 Z-0.200 I-1.050 J0.000 F1999.800
G2 X11.050 Y110.000 Z-0.200 I1.050 J0.000 F1999.800
G0 Z21.000
G0 X61.050 Y10.000
G0 Z21.000
G1 Z18.000 F999.600
G2 X58.950 Y10.000 Z17.754 I-1.050 J0.000 F1999.800
G2 X61.050 Y10.000 Z17.508 I1.050 J0.000 F1999.800
G2 X58.950 Y10.000 Z17.262 I-1.050 J0.000 F1999.800
G2 X61.050 Y10.000 Z17.016 I1.050 J0.000 F1999.800
G2 X58.950 Y10.000 Z16.770 I-1.050 J0.000 F1999.800
G2 X61.050 Y10.000 Z16.524 I1.050 J0.000 F1999.800
G2 X58.950 Y10.000 Z16.278 I-1.050 J0.000 F1999.800
G2 X61.050 Y10.000 Z16.032 I1.050 J0.000 F1999.800
G2 X58.950 Y10.000 Z15.786 I-1.050 J0.000 F1999.800
G2 X61.050 Y10.000 Z15.541 I1.050 J0.000 F1999.800
G2 X58.950 Y10.000 Z15.295 I-1.050 J0.000 F1999.800
G2 X61.050 Y10.000 Z15.049 I1.050 J0.000 F1999.800
G2 X58.950 Y10.000 Z14.803 I-1.050 J0.000 F1999.800
G2 X61.050 Y10.000 Z14.557 I1.050 J0.000 F1999.800
G2 X58.950 Y10.000 Z14.311 I-1.050 J0.000 F1999.800
G2 X61.050 Y10.000 Z14.065 I1.050 J0.000 F1999.800
G2 X58.950 Y10.000 Z13.819 I-1.050 J0.000 F1999.800
G2 X61.050 Y10.000 Z13.573 I1.050 J0.000 F1999.800
G2 X58.950 Y10.000 Z13.327 I-1.050 J0.000 F1999.800
G2 X61.050 Y10.000 Z13.081 I1.050 J0.000 F1999.800
G2 X58.950 Y10.000 Z12.835 I-1.050 J0.000 F1999.800
G2 X61.050 Y10.000 Z12.589 I1.050 J0.000 F1999.800
G2 X58.950 Y10.000 Z12.343 I-1.050 J0.000 F1999.800
G2 X61.050 Y10.000 Z12.097 I1.050 J0.000 F1999.800
G2 X58.950 Y10.000 Z11.851 I-1.050 J0.000 F1999.800
G2 X61.050 Y10.000 Z11.605 I1.050 J0.000 F1999.800
G2 X58.950 Y10.000 Z11.359 I-1.050 J0.000 F1999.800
G2 X61.050 Y10.000 Z11.114 I1.050 J0.000 F1999.800
G2 X58.950 Y10.000 Z10.868 I-1.050 J0.000 F1999.800
G2 X61.050 Y10.000 Z10.622 I1.050 J0.000 F1999.800
G2 X58.950 Y10.000 Z10.376 I-1.050 J0.000 F1999.800
G2 X61.050 Y10.000 Z10.130 I1.050 J0.000 F1999.800
G2 X58.950 Y10.000 Z9.884 I-1.050 J0.000 F1999.800
G2 X61.050 Y10.000 Z9.638 I1.050 J0.000 F1999.800
G2 X58.950 Y10.000 Z9.392 I-1.050 J0.000 F1999.800
G2 X61.050 Y10.000 Z9.146 I1.050 J0.000 F1999.800
G2 X58.950 Y10.000 Z8.900 I-1.050 J0.000 F1999.800
G2 X61.050 Y10.000 Z8.654 I1.050 J0.000 F1999.800
G2 X58.950 Y10.000 Z8.408 I-1.050 J0.000 F1999.800
G2 X61.050 Y10.000 Z8.162 I1.050 J0.000 F1999.800
G2 X58.950 Y10.000 Z7.916 I-1.050 J0.000 F1999.800
G2 X61.050 Y10.000 Z7.670 I1.050 J0.000 F1999.800
G2 X58.950 Y10.000 Z7.424 I-1.050 J0.000 F1999.800
G2 X61.050 Y10.000 Z7.178 I1.050 J0.000 F1999.800
G2 X58.950 Y10.000 Z6.932 I-1.050 J0.000 F1999.800
G2 X61.050 Y10.000 Z6.686 I1.050 J0.000 F1999.800
G2 X58.950 Y10.000 Z6.441 I-1.050 J0.000 F1999.800
G2 X61.050 Y10.000 Z6.195 I1.050 J0.000 F1999.800
G2 X58.950 Y10.000 Z5.949 I-1.050 J0.000 F1999.800
G2 X61.050 Y10.000 Z5.703 I1.050 J0.000 F1999.800
G2 X58.950 Y10.000 Z5.457 I-1.050 J0.000 F1999.800
G2 X61.050 Y10.000 Z5.211 I1.050 J0.000 F1999.800
G2 X58.950 Y10.000 Z4.965 I-1.050 J0.000 F1999.800
G2 X61.050 Y10.000 Z4.719 I1.050 J0.000 F1999.800
G2 X58.950 Y10.000 Z4.473 I-1.050 J0.000 F1999.800
G2 X61.050 Y10.000 Z4.227 I1.050 J0.000 F1999.800
G2 X58.950 Y10.000 Z3.981 I-1.050 J0.000 F1999.800
G2 X61.050 Y10.000 Z3.735 I1.050 J0.000 F1999.800
G2 X58.950 Y10.000 Z3.489 I-1.050 J0.000 F1999.800
G2 X61.050 Y10.000 Z3.243 I1.050 J0.000 F1999.800
G2 X58.950 Y10.000 Z2.997 I-1.050 J0.000 F1999.800
G2 X61.050 Y10.000 Z2.751 I1.050 J0.000 F1999.800
G2 X58.950 Y10.000 Z2.505 I-1.050 J0.000 F1999.800
G2 X61.050 Y10.000 Z2.259 I1.050 J0.000 F1999.800
G2 X58.950 Y10.000 Z2.014 I-1.050 J0.000 F1999.800
G2 X61.050 Y10.000 Z1.768 I1.050 J0.000 F1999.800
G2 X58.950 Y10.000 Z1.522 I-1.050 J0.000 F1999.800
G2 X61.050 Y10.000 Z1.276 I1.050 J0.000 F1999.800
G2 X58.950 Y10.000 Z1.030 I-1.050 J0.000 F1999.800
G2 X61.050 Y10.000 Z0.784 I1.050 J0.000 F1999.800
G2 X58.950 Y10.000 Z0.538 I-1.050 J0.000 F1999.800
G2 X61.050 Y10.000 Z0.292 I1.050 J0.000 F1999.800
G2 X58.950 Y10.000 Z0.046 I-1.050 J0.000 F1999.800
G2 X61.050 Y10.000 Z-0.200 I1.050 J0.000 F1999.800
G2 X58.950 Y10.000 Z-0.200 I-1.050 J0.000 F1999.800
G2 X61.050 Y10.000 Z-0.200 I1.050 J0.000 F1999.800
G0 Z21.000
G0 X111.050 Y10.000
G0 Z21.000
G1 Z18.000 F999.600
G2 X108.950 Y10.000 Z17.754 I-1.050 J0.000 F1999.800
G2 X111.050 Y10.000 Z17.508 I1.050 J0.000 F1999.800
G2 X108.950 Y10.000 Z17.262 I-1.050 J0.000 F1999.800
G2 X111.050 Y10.000 Z17.016 I1.050 J0.000 F1999.800
G2 X108.950 Y10.000 Z16.770 I-1.050 J0.000 F1999.800
G2 X111.050 Y10.000 Z16.524 I1.050 J0.000 F1999.800
G2 X108.950 Y10.000 Z16.278 I-1.050 J0.000 F1999.800
G2 X111.050 Y10.000 Z16.032 I1.050 J0.000 F1999.800
G2 X108.950 Y10.000 Z15.786 I-1.050 J0.000 F1999.800
G2 X111.050 Y10.000 Z15.541 I1.050 J0.000 F1999.800
G2 X108.950 Y10.000 Z15.295 I-1.050 J0.000 F1999.800
G2 X111.050 Y10.000 Z15.049 I1.050 J0.000 F1999.800
G2 X108.950 Y10.000 Z14.803 I-1.050 J0.000 F1999.800
G2 X111.050 Y10.000 Z14.557 I1.050 J0.000 F1999.800
G2 X108.950 Y10.000 Z14.311 I-1.050 J0.000 F1999.800
G2 X111.050 Y10.000 Z14.065 I1.050 J0.000 F1999.800
G2 X108.950 Y10.000 Z13.819 I-1.050 J0.000 F1999.800
G2 X111.050 Y10.000 Z13.573 I1.050 J0.000 F1999.800
G2 X108.950 Y10.000 Z13.327 I-1.050 J0.000 F1999.800
G2 X111.050 Y10.000 Z13.081 I1.050 J0.000 F1999.800
G2 X108.950 Y10.000 Z12.835 I-1.050 J0.000 F1999.800
G2 X111.050 Y10.000 Z12.589 I1.050 J0.000 F1999.800
G2 X108.950 Y10.000 Z12.343 I-1.050 J0.000 F1999.800
G2 X111.050 Y10.000 Z12.097 I1.050 J0.000 F1999.800
G2 X108.950 Y10.000 Z11.851 I-1.050 J0.000 F1999.800
G2 X111.050 Y10.000 Z11.605 I1.050 J0.000 F1999.800
G2 X108.950 Y10.000 Z11.359 I-1.050 J0.000 F1999.800
G2 X111.050 Y10.000 Z11.114 I1.050 J0.000 F1999.800
G2 X108.950 Y10.000 Z10.868 I-1.050 J0.000 F1999.800
G2 X111.050 Y10.000 Z10.622 I1.050 J0.000 F1999.800
G2 X108.950 Y10.000 Z10.376 I-1.050 J0.000 F1999.800
G2 X111.050 Y10.000 Z10.130 I1.050 J0.000 F1999.800
G2 X108.950 Y10.000 Z9.884 I-1.050 J0.000 F1999.800
G2 X111.050 Y10.000 Z9.638 I1.050 J0.000 F1999.800
G2 X108.950 Y10.000 Z9.392 I-1.050 J0.000 F1999.800
G2 X111.050 Y10.000 Z9.146 I1.050 J0.000 F1999.800
G2 X108.950 Y10.000 Z8.900 I-1.050 J0.000 F1999.800
G2 X111.050 Y10.000 Z8.654 I1.050 J0.000 F1999.800
G2 X108.950 Y10.000 Z8.408 I-1.050 J0.000 F1999.800
G2 X111.050 Y10.000 Z8.162 I1.050 J0.000 F1999.800
G2 X108.950 Y10.000 Z7.916 I-1.050 J0.000 F1999.800
G2 X111.050 Y10.000 Z7.670 I1.050 J0.000 F1999.800
G2 X108.950 Y10.000 Z7.424 I-1.050 J0.000 F1999.800
G2 X111.050 Y10.000 Z7.178 I1.050 J0.000 F1999.800
G2 X108.950 Y10.000 Z6.932 I-1.050 J0.000 F1999.800
G2 X111.050 Y10.000 Z6.686 I1.050 J0.000 F1999.800
G2 X108.950 Y10.000 Z6.441 I-1.050 J0.000 F1999.800
G2 X111.050 Y10.000 Z6.195 I1.050 J0.000 F1999.800
G2 X108.950 Y10.000 Z5.949 I-1.050 J0.000 F1999.800
G2 X111.050 Y10.000 Z5.703 I1.050 J0.000 F1999.800
G2 X108.950 Y10.000 Z5.457 I-1.050 J0.000 F1999.800
G2 X111.050 Y10.000 Z5.211 I1.050 J0.000 F1999.800
G2 X108.950 Y10.000 Z4.965 I-1.050 J0.000 F1999.800
G2 X111.050 Y10.000 Z4.719 I1.050 J0.000 F1999.800
G2 X108.950 Y10.000 Z4.473 I-1.050 J0.000 F1999.800
G2 X111.050 Y10.000 Z4.227 I1.050 J0.000 F1999.800
G2 X108.950 Y10.000 Z3.981 I-1.050 J0.000 F1999.800
G2 X111.050 Y10.000 Z3.735 I1.050 J0.000 F1999.800
G2 X108.950 Y10.000 Z3.489 I-1.050 J0.000 F1999.800
G2 X111.050 Y10.000 Z3.243 I1.050 J0.000 F1999.800
G2 X108.950 Y10.000 Z2.997 I-1.050 J0.000 F1999.800
G2 X111.050 Y10.000 Z2.751 I1.050 J0.000 F1999.800
G2 X108.950 Y10.000 Z2.505 I-1.050 J0.000 F1999.800
G2 X111.050 Y10.000 Z2.259 I1.050 J0.000 F1999.800
G2 X108.950 Y10.000 Z2.014 I-1.050 J0.000 F1999.800
G2 X111.050 Y10.000 Z1.768 I1.050 J0.000 F1999.800
G2 X108.950 Y10.000 Z1.522 I-1.050 J0.000 F1999.800
G2 X111.050 Y10.000 Z1.276 I1.050 J0.000 F1999.800
G2 X108.950 Y10.000 Z1.030 I-1.050 J0.000 F1999.800
G2 X111.050 Y10.000 Z0.784 I1.050 J0.000 F1999.800
G2 X108.950 Y10.000 Z0.538 I-1.050 J0.000 F1999.800
G2 X111.050 Y10.000 Z0.292 I1.050 J0.000 F1999.800
G2 X108.950 Y10.000 Z0.046 I-1.050 J0.000 F1999.800
G2 X111.050 Y10.000 Z-0.200 I1.050 J0.000 F1999.800
G2 X108.950 Y10.000 Z-0.200 I-1.050 J0.000 F1999.800
G2 X111.050 Y10.000 Z-0.200 I1.050 J0.000 F1999.800
G0 Z21.000
G0 Z23.000
(Finish operation: Helix)
(Begin postamble)
M5
G17 G90
M2
