(Exported by FreeCAD)
(Post Processor: grbl_post)
(Output Time:2020-04-11 17:18:37.597119)
(Begin preamble)
G17 G90
G21
(Begin operation: Fixture)
(Path: Fixture)
G54
G0 Z23.000
(Finish operation: Fixture)
(Begin operation: Contour)
(Coolant On:Mist)
M7
(Path: Contour)
(Contour)
(Compensated Tool Path. Diameter: 3.0)
G0 Z23.000
G0 X21.500 Y120.022
G0 Z21.000
G1 X21.500 Y120.022 Z17.500 F999.600
G3 X20.000 Y121.500 Z17.500 I-1.500 J-0.022 K0.000 F1999.800
G1 X0.000 Y121.500 Z17.500 F1999.800
G3 X-1.500 Y120.000 Z17.500 I0.000 J-1.500 K0.000 F1999.800
G1 X-1.500 Y0.000 Z17.500 F1999.800
G3 X0.000 Y-1.500 Z17.500 I1.500 J0.000 K0.000 F1999.800
G1 X120.000 Y-1.500 Z17.500 F1999.800
G3 X121.500 Y0.000 Z17.500 I-0.000 J1.500 K0.000 F1999.800
G1 X121.500 Y20.000 Z17.500 F1999.800
G3 X120.000 Y21.500 Z17.500 I-1.500 J-0.000 K0.000 F1999.800
G1 X23.000 Y21.500 Z17.500 F1999.800
G3 X21.505 Y20.118 Z17.500 I0.000 J-1.500 K0.000 F1999.800
G2 X18.523 Y19.766 Z17.500 I-1.498 J-0.111 K0.000 F1999.800
G2 X20.118 Y21.505 Z17.500 I1.497 J0.227 K0.000 F1999.800
G3 X21.500 Y23.000 Z17.500 I-0.118 J1.495 K0.000 F1999.800
G1 X21.500 Y120.000 Z17.500 F1999.800
G3 X21.500 Y120.022 Z17.500 I-1.500 J-0.000 K0.000 F1999.800
G1 X21.500 Y120.022 Z17.000 F999.600
G3 X20.000 Y121.500 Z17.000 I-1.500 J-0.022 K0.000 F1999.800
G1 X0.000 Y121.500 Z17.000 F1999.800
G3 X-1.500 Y120.000 Z17.000 I0.000 J-1.500 K0.000 F1999.800
G1 X-1.500 Y0.000 Z17.000 F1999.800
G3 X0.000 Y-1.500 Z17.000 I1.500 J0.000 K0.000 F1999.800
G1 X120.000 Y-1.500 Z17.000 F1999.800
G3 X121.500 Y0.000 Z17.000 I-0.000 J1.500 K0.000 F1999.800
G1 X121.500 Y20.000 Z17.000 F1999.800
G3 X120.000 Y21.500 Z17.000 I-1.500 J-0.000 K0.000 F1999.800
G1 X23.000 Y21.500 Z17.000 F1999.800
G3 X21.505 Y20.118 Z17.000 I0.000 J-1.500 K0.000 F1999.800
G2 X18.523 Y19.766 Z17.000 I-1.498 J-0.111 K0.000 F1999.800
G2 X20.118 Y21.505 Z17.000 I1.497 J0.227 K0.000 F1999.800
G3 X21.500 Y23.000 Z17.000 I-0.118 J1.495 K0.000 F1999.800
G1 X21.500 Y120.000 Z17.000 F1999.800
G3 X21.500 Y120.022 Z17.000 I-1.500 J-0.000 K0.000 F1999.800
G1 X21.500 Y120.022 Z16.500 F999.600
G3 X20.000 Y121.500 Z16.500 I-1.500 J-0.022 K0.000 F1999.800
G1 X0.000 Y121.500 Z16.500 F1999.800
G3 X-1.500 Y120.000 Z16.500 I0.000 J-1.500 K0.000 F1999.800
G1 X-1.500 Y0.000 Z16.500 F1999.800
G3 X0.000 Y-1.500 Z16.500 I1.500 J0.000 K0.000 F1999.800
G1 X120.000 Y-1.500 Z16.500 F1999.800
G3 X121.500 Y0.000 Z16.500 I-0.000 J1.500 K0.000 F1999.800
G1 X121.500 Y20.000 Z16.500 F1999.800
G3 X120.000 Y21.500 Z16.500 I-1.500 J-0.000 K0.000 F1999.800
G1 X23.000 Y21.500 Z16.500 F1999.800
G3 X21.505 Y20.118 Z16.500 I0.000 J-1.500 K0.000 F1999.800
G2 X18.523 Y19.766 Z16.500 I-1.498 J-0.111 K0.000 F1999.800
G2 X20.118 Y21.505 Z16.500 I1.497 J0.227 K0.000 F1999.800
G3 X21.500 Y23.000 Z16.500 I-0.118 J1.495 K0.000 F1999.800
G1 X21.500 Y120.000 Z16.500 F1999.800
G3 X21.500 Y120.022 Z16.500 I-1.500 J-0.000 K0.000 F1999.800
G1 X21.500 Y120.022 Z16.000 F999.600
G3 X20.000 Y121.500 Z16.000 I-1.500 J-0.022 K0.000 F1999.800
G1 X0.000 Y121.500 Z16.000 F1999.800
G3 X-1.500 Y120.000 Z16.000 I0.000 J-1.500 K0.000 F1999.800
G1 X-1.500 Y0.000 Z16.000 F1999.800
G3 X0.000 Y-1.500 Z16.000 I1.500 J0.000 K0.000 F1999.800
G1 X120.000 Y-1.500 Z16.000 F1999.800
G3 X121.500 Y0.000 Z16.000 I-0.000 J1.500 K0.000 F1999.800
G1 X121.500 Y20.000 Z16.000 F1999.800
G3 X120.000 Y21.500 Z16.000 I-1.500 J-0.000 K0.000 F1999.800
G1 X23.000 Y21.500 Z16.000 F1999.800
G3 X21.505 Y20.118 Z16.000 I0.000 J-1.500 K0.000 F1999.800
G2 X18.523 Y19.766 Z16.000 I-1.498 J-0.111 K0.000 F1999.800
G2 X20.118 Y21.505 Z16.000 I1.497 J0.227 K0.000 F1999.800
G3 X21.500 Y23.000 Z16.000 I-0.118 J1.495 K0.000 F1999.800
G1 X21.500 Y120.000 Z16.000 F1999.800
G3 X21.500 Y120.022 Z16.000 I-1.500 J-0.000 K0.000 F1999.800
G1 X21.500 Y120.022 Z15.500 F999.600
G3 X20.000 Y121.500 Z15.500 I-1.500 J-0.022 K0.000 F1999.800
G1 X0.000 Y121.500 Z15.500 F1999.800
G3 X-1.500 Y120.000 Z15.500 I0.000 J-1.500 K0.000 F1999.800
G1 X-1.500 Y0.000 Z15.500 F1999.800
G3 X0.000 Y-1.500 Z15.500 I1.500 J0.000 K0.000 F1999.800
G1 X120.000 Y-1.500 Z15.500 F1999.800
G3 X121.500 Y0.000 Z15.500 I-0.000 J1.500 K0.000 F1999.800
G1 X121.500 Y20.000 Z15.500 F1999.800
G3 X120.000 Y21.500 Z15.500 I-1.500 J-0.000 K0.000 F1999.800
G1 X23.000 Y21.500 Z15.500 F1999.800
G3 X21.505 Y20.118 Z15.500 I0.000 J-1.500 K0.000 F1999.800
G2 X18.523 Y19.766 Z15.500 I-1.498 J-0.111 K0.000 F1999.800
G2 X20.118 Y21.505 Z15.500 I1.497 J0.227 K0.000 F1999.800
G3 X21.500 Y23.000 Z15.500 I-0.118 J1.495 K0.000 F1999.800
G1 X21.500 Y120.000 Z15.500 F1999.800
G3 X21.500 Y120.022 Z15.500 I-1.500 J-0.000 K0.000 F1999.800
G1 X21.500 Y120.022 Z15.000 F999.600
G3 X20.000 Y121.500 Z15.000 I-1.500 J-0.022 K0.000 F1999.800
G1 X0.000 Y121.500 Z15.000 F1999.800
G3 X-1.500 Y120.000 Z15.000 I0.000 J-1.500 K0.000 F1999.800
G1 X-1.500 Y0.000 Z15.000 F1999.800
G3 X0.000 Y-1.500 Z15.000 I1.500 J0.000 K0.000 F1999.800
G1 X120.000 Y-1.500 Z15.000 F1999.800
G3 X121.500 Y0.000 Z15.000 I-0.000 J1.500 K0.000 F1999.800
G1 X121.500 Y20.000 Z15.000 F1999.800
G3 X120.000 Y21.500 Z15.000 I-1.500 J-0.000 K0.000 F1999.800
G1 X23.000 Y21.500 Z15.000 F1999.800
G3 X21.505 Y20.118 Z15.000 I0.000 J-1.500 K0.000 F1999.800
G2 X18.523 Y19.766 Z15.000 I-1.498 J-0.111 K0.000 F1999.800
G2 X20.118 Y21.505 Z15.000 I1.497 J0.227 K0.000 F1999.800
G3 X21.500 Y23.000 Z15.000 I-0.118 J1.495 K0.000 F1999.800
G1 X21.500 Y120.000 Z15.000 F1999.800
G3 X21.500 Y120.022 Z15.000 I-1.500 J-0.000 K0.000 F1999.800
G1 X21.500 Y120.022 Z14.500 F999.600
G3 X20.000 Y121.500 Z14.500 I-1.500 J-0.022 K0.000 F1999.800
G1 X0.000 Y121.500 Z14.500 F1999.800
G3 X-1.500 Y120.000 Z14.500 I0.000 J-1.500 K0.000 F1999.800
G1 X-1.500 Y0.000 Z14.500 F1999.800
G3 X0.000 Y-1.500 Z14.500 I1.500 J0.000 K0.000 F1999.800
G1 X120.000 Y-1.500 Z14.500 F1999.800
G3 X121.500 Y0.000 Z14.500 I-0.000 J1.500 K0.000 F1999.800
G1 X121.500 Y20.000 Z14.500 F1999.800
G3 X120.000 Y21.500 Z14.500 I-1.500 J-0.000 K0.000 F1999.800
G1 X23.000 Y21.500 Z14.500 F1999.800
G3 X21.505 Y20.118 Z14.500 I0.000 J-1.500 K0.000 F1999.800
G2 X18.523 Y19.766 Z14.500 I-1.498 J-0.111 K0.000 F1999.800
G2 X20.118 Y21.505 Z14.500 I1.497 J0.227 K0.000 F1999.800
G3 X21.500 Y23.000 Z14.500 I-0.118 J1.495 K0.000 F1999.800
G1 X21.500 Y120.000 Z14.500 F1999.800
G3 X21.500 Y120.022 Z14.500 I-1.500 J-0.000 K0.000 F1999.800
G1 X21.500 Y120.022 Z14.000 F999.600
G3 X20.000 Y121.500 Z14.000 I-1.500 J-0.022 K0.000 F1999.800
G1 X0.000 Y121.500 Z14.000 F1999.800
G3 X-1.500 Y120.000 Z14.000 I0.000 J-1.500 K0.000 F1999.800
G1 X-1.500 Y0.000 Z14.000 F1999.800
G3 X0.000 Y-1.500 Z14.000 I1.500 J0.000 K0.000 F1999.800
G1 X120.000 Y-1.500 Z14.000 F1999.800
G3 X121.500 Y0.000 Z14.000 I-0.000 J1.500 K0.000 F1999.800
G1 X121.500 Y20.000 Z14.000 F1999.800
G3 X120.000 Y21.500 Z14.000 I-1.500 J-0.000 K0.000 F1999.800
G1 X23.000 Y21.500 Z14.000 F1999.800
G3 X21.505 Y20.118 Z14.000 I0.000 J-1.500 K0.000 F1999.800
G2 X18.523 Y19.766 Z14.000 I-1.498 J-0.111 K0.000 F1999.800
G2 X20.118 Y21.505 Z14.000 I1.497 J0.227 K0.000 F1999.800
G3 X21.500 Y23.000 Z14.000 I-0.118 J1.495 K0.000 F1999.800
G1 X21.500 Y120.000 Z14.000 F1999.800
G3 X21.500 Y120.022 Z14.000 I-1.500 J-0.000 K0.000 F1999.800
G1 X21.500 Y120.022 Z13.500 F999.600
G3 X20.000 Y121.500 Z13.500 I-1.500 J-0.022 K0.000 F1999.800
G1 X0.000 Y121.500 Z13.500 F1999.800
G3 X-1.500 Y120.000 Z13.500 I0.000 J-1.500 K0.000 F1999.800
G1 X-1.500 Y0.000 Z13.500 F1999.800
G3 X0.000 Y-1.500 Z13.500 I1.500 J0.000 K0.000 F1999.800
G1 X120.000 Y-1.500 Z13.500 F1999.800
G3 X121.500 Y0.000 Z13.500 I-0.000 J1.500 K0.000 F1999.800
G1 X121.500 Y20.000 Z13.500 F1999.800
G3 X120.000 Y21.500 Z13.500 I-1.500 J-0.000 K0.000 F1999.800
G1 X23.000 Y21.500 Z13.500 F1999.800
G3 X21.505 Y20.118 Z13.500 I0.000 J-1.500 K0.000 F1999.800
G2 X18.523 Y19.766 Z13.500 I-1.498 J-0.111 K0.000 F1999.800
G2 X20.118 Y21.505 Z13.500 I1.497 J0.227 K0.000 F1999.800
G3 X21.500 Y23.000 Z13.500 I-0.118 J1.495 K0.000 F1999.800
G1 X21.500 Y120.000 Z13.500 F1999.800
G3 X21.500 Y120.022 Z13.500 I-1.500 J-0.000 K0.000 F1999.800
G1 X21.500 Y120.022 Z13.000 F999.600
G3 X20.000 Y121.500 Z13.000 I-1.500 J-0.022 K0.000 F1999.800
G1 X0.000 Y121.500 Z13.000 F1999.800
G3 X-1.500 Y120.000 Z13.000 I0.000 J-1.500 K0.000 F1999.800
G1 X-1.500 Y0.000 Z13.000 F1999.800
G3 X0.000 Y-1.500 Z13.000 I1.500 J0.000 K0.000 F1999.800
G1 X120.000 Y-1.500 Z13.000 F1999.800
G3 X121.500 Y0.000 Z13.000 I-0.000 J1.500 K0.000 F1999.800
G1 X121.500 Y20.000 Z13.000 F1999.800
G3 X120.000 Y21.500 Z13.000 I-1.500 J-0.000 K0.000 F1999.800
G1 X23.000 Y21.500 Z13.000 F1999.800
G3 X21.505 Y20.118 Z13.000 I0.000 J-1.500 K0.000 F1999.800
G2 X18.523 Y19.766 Z13.000 I-1.498 J-0.111 K0.000 F1999.800
G2 X20.118 Y21.505 Z13.000 I1.497 J0.227 K0.000 F1999.800
G3 X21.500 Y23.000 Z13.000 I-0.118 J1.495 K0.000 F1999.800
G1 X21.500 Y120.000 Z13.000 F1999.800
G3 X21.500 Y120.022 Z13.000 I-1.500 J-0.000 K0.000 F1999.800
G1 X21.500 Y120.022 Z12.500 F999.600
G3 X20.000 Y121.500 Z12.500 I-1.500 J-0.022 K0.000 F1999.800
G1 X0.000 Y121.500 Z12.500 F1999.800
G3 X-1.500 Y120.000 Z12.500 I0.000 J-1.500 K0.000 F1999.800
G1 X-1.500 Y0.000 Z12.500 F1999.800
G3 X0.000 Y-1.500 Z12.500 I1.500 J0.000 K0.000 F1999.800
G1 X120.000 Y-1.500 Z12.500 F1999.800
G3 X121.500 Y0.000 Z12.500 I-0.000 J1.500 K0.000 F1999.800
G1 X121.500 Y20.000 Z12.500 F1999.800
G3 X120.000 Y21.500 Z12.500 I-1.500 J-0.000 K0.000 F1999.800
G1 X23.000 Y21.500 Z12.500 F1999.800
G3 X21.505 Y20.118 Z12.500 I0.000 J-1.500 K0.000 F1999.800
G2 X18.523 Y19.766 Z12.500 I-1.498 J-0.111 K0.000 F1999.800
G2 X20.118 Y21.505 Z12.500 I1.497 J0.227 K0.000 F1999.800
G3 X21.500 Y23.000 Z12.500 I-0.118 J1.495 K0.000 F1999.800
G1 X21.500 Y120.000 Z12.500 F1999.800
G3 X21.500 Y120.022 Z12.500 I-1.500 J-0.000 K0.000 F1999.800
G1 X21.500 Y120.022 Z12.000 F999.600
G3 X20.000 Y121.500 Z12.000 I-1.500 J-0.022 K0.000 F1999.800
G1 X0.000 Y121.500 Z12.000 F1999.800
G3 X-1.500 Y120.000 Z12.000 I0.000 J-1.500 K0.000 F1999.800
G1 X-1.500 Y0.000 Z12.000 F1999.800
G3 X0.000 Y-1.500 Z12.000 I1.500 J0.000 K0.000 F1999.800
G1 X120.000 Y-1.500 Z12.000 F1999.800
G3 X121.500 Y0.000 Z12.000 I-0.000 J1.500 K0.000 F1999.800
G1 X121.500 Y20.000 Z12.000 F1999.800
G3 X120.000 Y21.500 Z12.000 I-1.500 J-0.000 K0.000 F1999.800
G1 X23.000 Y21.500 Z12.000 F1999.800
G3 X21.505 Y20.118 Z12.000 I0.000 J-1.500 K0.000 F1999.800
G2 X18.523 Y19.766 Z12.000 I-1.498 J-0.111 K0.000 F1999.800
G2 X20.118 Y21.505 Z12.000 I1.497 J0.227 K0.000 F1999.800
G3 X21.500 Y23.000 Z12.000 I-0.118 J1.495 K0.000 F1999.800
G1 X21.500 Y120.000 Z12.000 F1999.800
G3 X21.500 Y120.022 Z12.000 I-1.500 J-0.000 K0.000 F1999.800
G1 X21.500 Y120.022 Z11.500 F999.600
G3 X20.000 Y121.500 Z11.500 I-1.500 J-0.022 K0.000 F1999.800
G1 X0.000 Y121.500 Z11.500 F1999.800
G3 X-1.500 Y120.000 Z11.500 I0.000 J-1.500 K0.000 F1999.800
G1 X-1.500 Y0.000 Z11.500 F1999.800
G3 X0.000 Y-1.500 Z11.500 I1.500 J0.000 K0.000 F1999.800
G1 X120.000 Y-1.500 Z11.500 F1999.800
G3 X121.500 Y0.000 Z11.500 I-0.000 J1.500 K0.000 F1999.800
G1 X121.500 Y20.000 Z11.500 F1999.800
G3 X120.000 Y21.500 Z11.500 I-1.500 J-0.000 K0.000 F1999.800
G1 X23.000 Y21.500 Z11.500 F1999.800
G3 X21.505 Y20.118 Z11.500 I0.000 J-1.500 K0.000 F1999.800
G2 X18.523 Y19.766 Z11.500 I-1.498 J-0.111 K0.000 F1999.800
G2 X20.118 Y21.505 Z11.500 I1.497 J0.227 K0.000 F1999.800
G3 X21.500 Y23.000 Z11.500 I-0.118 J1.495 K0.000 F1999.800
G1 X21.500 Y120.000 Z11.500 F1999.800
G3 X21.500 Y120.022 Z11.500 I-1.500 J-0.000 K0.000 F1999.800
G1 X21.500 Y120.022 Z11.000 F999.600
G3 X20.000 Y121.500 Z11.000 I-1.500 J-0.022 K0.000 F1999.800
G1 X0.000 Y121.500 Z11.000 F1999.800
G3 X-1.500 Y120.000 Z11.000 I0.000 J-1.500 K0.000 F1999.800
G1 X-1.500 Y0.000 Z11.000 F1999.800
G3 X0.000 Y-1.500 Z11.000 I1.500 J0.000 K0.000 F1999.800
G1 X120.000 Y-1.500 Z11.000 F1999.800
G3 X121.500 Y0.000 Z11.000 I-0.000 J1.500 K0.000 F1999.800
G1 X121.500 Y20.000 Z11.000 F1999.800
G3 X120.000 Y21.500 Z11.000 I-1.500 J-0.000 K0.000 F1999.800
G1 X23.000 Y21.500 Z11.000 F1999.800
G3 X21.505 Y20.118 Z11.000 I0.000 J-1.500 K0.000 F1999.800
G2 X18.523 Y19.766 Z11.000 I-1.498 J-0.111 K0.000 F1999.800
G2 X20.118 Y21.505 Z11.000 I1.497 J0.227 K0.000 F1999.800
G3 X21.500 Y23.000 Z11.000 I-0.118 J1.495 K0.000 F1999.800
G1 X21.500 Y120.000 Z11.000 F1999.800
G3 X21.500 Y120.022 Z11.000 I-1.500 J-0.000 K0.000 F1999.800
G1 X21.500 Y120.022 Z10.500 F999.600
G3 X20.000 Y121.500 Z10.500 I-1.500 J-0.022 K0.000 F1999.800
G1 X0.000 Y121.500 Z10.500 F1999.800
G3 X-1.500 Y120.000 Z10.500 I0.000 J-1.500 K0.000 F1999.800
G1 X-1.500 Y0.000 Z10.500 F1999.800
G3 X0.000 Y-1.500 Z10.500 I1.500 J0.000 K0.000 F1999.800
G1 X120.000 Y-1.500 Z10.500 F1999.800
G3 X121.500 Y0.000 Z10.500 I-0.000 J1.500 K0.000 F1999.800
G1 X121.500 Y20.000 Z10.500 F1999.800
G3 X120.000 Y21.500 Z10.500 I-1.500 J-0.000 K0.000 F1999.800
G1 X23.000 Y21.500 Z10.500 F1999.800
G3 X21.505 Y20.118 Z10.500 I0.000 J-1.500 K0.000 F1999.800
G2 X18.523 Y19.766 Z10.500 I-1.498 J-0.111 K0.000 F1999.800
G2 X20.118 Y21.505 Z10.500 I1.497 J0.227 K0.000 F1999.800
G3 X21.500 Y23.000 Z10.500 I-0.118 J1.495 K0.000 F1999.800
G1 X21.500 Y120.000 Z10.500 F1999.800
G3 X21.500 Y120.022 Z10.500 I-1.500 J-0.000 K0.000 F1999.800
G1 X21.500 Y120.022 Z10.000 F999.600
G3 X20.000 Y121.500 Z10.000 I-1.500 J-0.022 K0.000 F1999.800
G1 X0.000 Y121.500 Z10.000 F1999.800
G3 X-1.500 Y120.000 Z10.000 I0.000 J-1.500 K0.000 F1999.800
G1 X-1.500 Y0.000 Z10.000 F1999.800
G3 X0.000 Y-1.500 Z10.000 I1.500 J0.000 K0.000 F1999.800
G1 X120.000 Y-1.500 Z10.000 F1999.800
G3 X121.500 Y0.000 Z10.000 I-0.000 J1.500 K0.000 F1999.800
G1 X121.500 Y20.000 Z10.000 F1999.800
G3 X120.000 Y21.500 Z10.000 I-1.500 J-0.000 K0.000 F1999.800
G1 X23.000 Y21.500 Z10.000 F1999.800
G3 X21.505 Y20.118 Z10.000 I0.000 J-1.500 K0.000 F1999.800
G2 X18.523 Y19.766 Z10.000 I-1.498 J-0.111 K0.000 F1999.800
G2 X20.118 Y21.505 Z10.000 I1.497 J0.227 K0.000 F1999.800
G3 X21.500 Y23.000 Z10.000 I-0.118 J1.495 K0.000 F1999.800
G1 X21.500 Y120.000 Z10.000 F1999.800
G3 X21.500 Y120.022 Z10.000 I-1.500 J-0.000 K0.000 F1999.800
G1 X21.500 Y120.022 Z9.500 F999.600
G3 X20.000 Y121.500 Z9.500 I-1.500 J-0.022 K0.000 F1999.800
G1 X0.000 Y121.500 Z9.500 F1999.800
G3 X-1.500 Y120.000 Z9.500 I0.000 J-1.500 K0.000 F1999.800
G1 X-1.500 Y0.000 Z9.500 F1999.800
G3 X0.000 Y-1.500 Z9.500 I1.500 J0.000 K0.000 F1999.800
G1 X120.000 Y-1.500 Z9.500 F1999.800
G3 X121.500 Y0.000 Z9.500 I-0.000 J1.500 K0.000 F1999.800
G1 X121.500 Y20.000 Z9.500 F1999.800
G3 X120.000 Y21.500 Z9.500 I-1.500 J-0.000 K0.000 F1999.800
G1 X23.000 Y21.500 Z9.500 F1999.800
G3 X21.505 Y20.118 Z9.500 I0.000 J-1.500 K0.000 F1999.800
G2 X18.523 Y19.766 Z9.500 I-1.498 J-0.111 K0.000 F1999.800
G2 X20.118 Y21.505 Z9.500 I1.497 J0.227 K0.000 F1999.800
G3 X21.500 Y23.000 Z9.500 I-0.118 J1.495 K0.000 F1999.800
G1 X21.500 Y120.000 Z9.500 F1999.800
G3 X21.500 Y120.022 Z9.500 I-1.500 J-0.000 K0.000 F1999.800
G1 X21.500 Y120.022 Z9.000 F999.600
G3 X20.000 Y121.500 Z9.000 I-1.500 J-0.022 K0.000 F1999.800
G1 X0.000 Y121.500 Z9.000 F1999.800
G3 X-1.500 Y120.000 Z9.000 I0.000 J-1.500 K0.000 F1999.800
G1 X-1.500 Y0.000 Z9.000 F1999.800
G3 X0.000 Y-1.500 Z9.000 I1.500 J0.000 K0.000 F1999.800
G1 X120.000 Y-1.500 Z9.000 F1999.800
G3 X121.500 Y0.000 Z9.000 I-0.000 J1.500 K0.000 F1999.800
G1 X121.500 Y20.000 Z9.000 F1999.800
G3 X120.000 Y21.500 Z9.000 I-1.500 J-0.000 K0.000 F1999.800
G1 X23.000 Y21.500 Z9.000 F1999.800
G3 X21.505 Y20.118 Z9.000 I0.000 J-1.500 K0.000 F1999.800
G2 X18.523 Y19.766 Z9.000 I-1.498 J-0.111 K0.000 F1999.800
G2 X20.118 Y21.505 Z9.000 I1.497 J0.227 K0.000 F1999.800
G3 X21.500 Y23.000 Z9.000 I-0.118 J1.495 K0.000 F1999.800
G1 X21.500 Y120.000 Z9.000 F1999.800
G3 X21.500 Y120.022 Z9.000 I-1.500 J-0.000 K0.000 F1999.800
G1 X21.500 Y120.022 Z8.500 F999.600
G3 X20.000 Y121.500 Z8.500 I-1.500 J-0.022 K0.000 F1999.800
G1 X0.000 Y121.500 Z8.500 F1999.800
G3 X-1.500 Y120.000 Z8.500 I0.000 J-1.500 K0.000 F1999.800
G1 X-1.500 Y0.000 Z8.500 F1999.800
G3 X0.000 Y-1.500 Z8.500 I1.500 J0.000 K0.000 F1999.800
G1 X120.000 Y-1.500 Z8.500 F1999.800
G3 X121.500 Y0.000 Z8.500 I-0.000 J1.500 K0.000 F1999.800
G1 X121.500 Y20.000 Z8.500 F1999.800
G3 X120.000 Y21.500 Z8.500 I-1.500 J-0.000 K0.000 F1999.800
G1 X23.000 Y21.500 Z8.500 F1999.800
G3 X21.505 Y20.118 Z8.500 I0.000 J-1.500 K0.000 F1999.800
G2 X18.523 Y19.766 Z8.500 I-1.498 J-0.111 K0.000 F1999.800
G2 X20.118 Y21.505 Z8.500 I1.497 J0.227 K0.000 F1999.800
G3 X21.500 Y23.000 Z8.500 I-0.118 J1.495 K0.000 F1999.800
G1 X21.500 Y120.000 Z8.500 F1999.800
G3 X21.500 Y120.022 Z8.500 I-1.500 J-0.000 K0.000 F1999.800
G1 X21.500 Y120.022 Z8.000 F999.600
G3 X20.000 Y121.500 Z8.000 I-1.500 J-0.022 K0.000 F1999.800
G1 X0.000 Y121.500 Z8.000 F1999.800
G3 X-1.500 Y120.000 Z8.000 I0.000 J-1.500 K0.000 F1999.800
G1 X-1.500 Y0.000 Z8.000 F1999.800
G3 X0.000 Y-1.500 Z8.000 I1.500 J0.000 K0.000 F1999.800
G1 X120.000 Y-1.500 Z8.000 F1999.800
G3 X121.500 Y0.000 Z8.000 I-0.000 J1.500 K0.000 F1999.800
G1 X121.500 Y20.000 Z8.000 F1999.800
G3 X120.000 Y21.500 Z8.000 I-1.500 J-0.000 K0.000 F1999.800
G1 X23.000 Y21.500 Z8.000 F1999.800
G3 X21.505 Y20.118 Z8.000 I0.000 J-1.500 K0.000 F1999.800
G2 X18.523 Y19.766 Z8.000 I-1.498 J-0.111 K0.000 F1999.800
G2 X20.118 Y21.505 Z8.000 I1.497 J0.227 K0.000 F1999.800
G3 X21.500 Y23.000 Z8.000 I-0.118 J1.495 K0.000 F1999.800
G1 X21.500 Y120.000 Z8.000 F1999.800
G3 X21.500 Y120.022 Z8.000 I-1.500 J-0.000 K0.000 F1999.800
G1 X21.500 Y120.022 Z7.500 F999.600
G3 X20.000 Y121.500 Z7.500 I-1.500 J-0.022 K0.000 F1999.800
G1 X0.000 Y121.500 Z7.500 F1999.800
G3 X-1.500 Y120.000 Z7.500 I0.000 J-1.500 K0.000 F1999.800
G1 X-1.500 Y0.000 Z7.500 F1999.800
G3 X0.000 Y-1.500 Z7.500 I1.500 J0.000 K0.000 F1999.800
G1 X120.000 Y-1.500 Z7.500 F1999.800
G3 X121.500 Y0.000 Z7.500 I-0.000 J1.500 K0.000 F1999.800
G1 X121.500 Y20.000 Z7.500 F1999.800
G3 X120.000 Y21.500 Z7.500 I-1.500 J-0.000 K0.000 F1999.800
G1 X23.000 Y21.500 Z7.500 F1999.800
G3 X21.505 Y20.118 Z7.500 I0.000 J-1.500 K0.000 F1999.800
G2 X18.523 Y19.766 Z7.500 I-1.498 J-0.111 K0.000 F1999.800
G2 X20.118 Y21.505 Z7.500 I1.497 J0.227 K0.000 F1999.800
G3 X21.500 Y23.000 Z7.500 I-0.118 J1.495 K0.000 F1999.800
G1 X21.500 Y120.000 Z7.500 F1999.800
G3 X21.500 Y120.022 Z7.500 I-1.500 J-0.000 K0.000 F1999.800
G1 X21.500 Y120.022 Z7.000 F999.600
G3 X20.000 Y121.500 Z7.000 I-1.500 J-0.022 K0.000 F1999.800
G1 X0.000 Y121.500 Z7.000 F1999.800
G3 X-1.500 Y120.000 Z7.000 I0.000 J-1.500 K0.000 F1999.800
G1 X-1.500 Y0.000 Z7.000 F1999.800
G3 X0.000 Y-1.500 Z7.000 I1.500 J0.000 K0.000 F1999.800
G1 X120.000 Y-1.500 Z7.000 F1999.800
G3 X121.500 Y0.000 Z7.000 I-0.000 J1.500 K0.000 F1999.800
G1 X121.500 Y20.000 Z7.000 F1999.800
G3 X120.000 Y21.500 Z7.000 I-1.500 J-0.000 K0.000 F1999.800
G1 X23.000 Y21.500 Z7.000 F1999.800
G3 X21.505 Y20.118 Z7.000 I0.000 J-1.500 K0.000 F1999.800
G2 X18.523 Y19.766 Z7.000 I-1.498 J-0.111 K0.000 F1999.800
G2 X20.118 Y21.505 Z7.000 I1.497 J0.227 K0.000 F1999.800
G3 X21.500 Y23.000 Z7.000 I-0.118 J1.495 K0.000 F1999.800
G1 X21.500 Y120.000 Z7.000 F1999.800
G3 X21.500 Y120.022 Z7.000 I-1.500 J-0.000 K0.000 F1999.800
G1 X21.500 Y120.022 Z6.500 F999.600
G3 X20.000 Y121.500 Z6.500 I-1.500 J-0.022 K0.000 F1999.800
G1 X0.000 Y121.500 Z6.500 F1999.800
G3 X-1.500 Y120.000 Z6.500 I0.000 J-1.500 K0.000 F1999.800
G1 X-1.500 Y0.000 Z6.500 F1999.800
G3 X0.000 Y-1.500 Z6.500 I1.500 J0.000 K0.000 F1999.800
G1 X120.000 Y-1.500 Z6.500 F1999.800
G3 X121.500 Y0.000 Z6.500 I-0.000 J1.500 K0.000 F1999.800
G1 X121.500 Y20.000 Z6.500 F1999.800
G3 X120.000 Y21.500 Z6.500 I-1.500 J-0.000 K0.000 F1999.800
G1 X23.000 Y21.500 Z6.500 F1999.800
G3 X21.505 Y20.118 Z6.500 I0.000 J-1.500 K0.000 F1999.800
G2 X18.523 Y19.766 Z6.500 I-1.498 J-0.111 K0.000 F1999.800
G2 X20.118 Y21.505 Z6.500 I1.497 J0.227 K0.000 F1999.800
G3 X21.500 Y23.000 Z6.500 I-0.118 J1.495 K0.000 F1999.800
G1 X21.500 Y120.000 Z6.500 F1999.800
G3 X21.500 Y120.022 Z6.500 I-1.500 J-0.000 K0.000 F1999.800
G1 X21.500 Y120.022 Z6.000 F999.600
G3 X20.000 Y121.500 Z6.000 I-1.500 J-0.022 K0.000 F1999.800
G1 X0.000 Y121.500 Z6.000 F1999.800
G3 X-1.500 Y120.000 Z6.000 I0.000 J-1.500 K0.000 F1999.800
G1 X-1.500 Y0.000 Z6.000 F1999.800
G3 X0.000 Y-1.500 Z6.000 I1.500 J0.000 K0.000 F1999.800
G1 X120.000 Y-1.500 Z6.000 F1999.800
G3 X121.500 Y0.000 Z6.000 I-0.000 J1.500 K0.000 F1999.800
G1 X121.500 Y20.000 Z6.000 F1999.800
G3 X120.000 Y21.500 Z6.000 I-1.500 J-0.000 K0.000 F1999.800
G1 X23.000 Y21.500 Z6.000 F1999.800
G3 X21.505 Y20.118 Z6.000 I0.000 J-1.500 K0.000 F1999.800
G2 X18.523 Y19.766 Z6.000 I-1.498 J-0.111 K0.000 F1999.800
G2 X20.118 Y21.505 Z6.000 I1.497 J0.227 K0.000 F1999.800
G3 X21.500 Y23.000 Z6.000 I-0.118 J1.495 K0.000 F1999.800
G1 X21.500 Y120.000 Z6.000 F1999.800
G3 X21.500 Y120.022 Z6.000 I-1.500 J-0.000 K0.000 F1999.800
G1 X21.500 Y120.022 Z5.500 F999.600
G3 X20.000 Y121.500 Z5.500 I-1.500 J-0.022 K0.000 F1999.800
G1 X0.000 Y121.500 Z5.500 F1999.800
G3 X-1.500 Y120.000 Z5.500 I0.000 J-1.500 K0.000 F1999.800
G1 X-1.500 Y0.000 Z5.500 F1999.800
G3 X0.000 Y-1.500 Z5.500 I1.500 J0.000 K0.000 F1999.800
G1 X120.000 Y-1.500 Z5.500 F1999.800
G3 X121.500 Y0.000 Z5.500 I-0.000 J1.500 K0.000 F1999.800
G1 X121.500 Y20.000 Z5.500 F1999.800
G3 X120.000 Y21.500 Z5.500 I-1.500 J-0.000 K0.000 F1999.800
G1 X23.000 Y21.500 Z5.500 F1999.800
G3 X21.505 Y20.118 Z5.500 I0.000 J-1.500 K0.000 F1999.800
G2 X18.523 Y19.766 Z5.500 I-1.498 J-0.111 K0.000 F1999.800
G2 X20.118 Y21.505 Z5.500 I1.497 J0.227 K0.000 F1999.800
G3 X21.500 Y23.000 Z5.500 I-0.118 J1.495 K0.000 F1999.800
G1 X21.500 Y120.000 Z5.500 F1999.800
G3 X21.500 Y120.022 Z5.500 I-1.500 J-0.000 K0.000 F1999.800
G1 X21.500 Y120.022 Z5.000 F999.600
G3 X20.000 Y121.500 Z5.000 I-1.500 J-0.022 K0.000 F1999.800
G1 X0.000 Y121.500 Z5.000 F1999.800
G3 X-1.500 Y120.000 Z5.000 I0.000 J-1.500 K0.000 F1999.800
G1 X-1.500 Y0.000 Z5.000 F1999.800
G3 X0.000 Y-1.500 Z5.000 I1.500 J0.000 K0.000 F1999.800
G1 X120.000 Y-1.500 Z5.000 F1999.800
G3 X121.500 Y0.000 Z5.000 I-0.000 J1.500 K0.000 F1999.800
G1 X121.500 Y20.000 Z5.000 F1999.800
G3 X120.000 Y21.500 Z5.000 I-1.500 J-0.000 K0.000 F1999.800
G1 X23.000 Y21.500 Z5.000 F1999.800
G3 X21.505 Y20.118 Z5.000 I0.000 J-1.500 K0.000 F1999.800
G2 X18.523 Y19.766 Z5.000 I-1.498 J-0.111 K0.000 F1999.800
G2 X20.118 Y21.505 Z5.000 I1.497 J0.227 K0.000 F1999.800
G3 X21.500 Y23.000 Z5.000 I-0.118 J1.495 K0.000 F1999.800
G1 X21.500 Y120.000 Z5.000 F1999.800
G3 X21.500 Y120.022 Z5.000 I-1.500 J-0.000 K0.000 F1999.800
G1 X21.500 Y120.022 Z4.500 F999.600
G3 X20.000 Y121.500 Z4.500 I-1.500 J-0.022 K0.000 F1999.800
G1 X0.000 Y121.500 Z4.500 F1999.800
G3 X-1.500 Y120.000 Z4.500 I0.000 J-1.500 K0.000 F1999.800
G1 X-1.500 Y0.000 Z4.500 F1999.800
G3 X0.000 Y-1.500 Z4.500 I1.500 J0.000 K0.000 F1999.800
G1 X120.000 Y-1.500 Z4.500 F1999.800
G3 X121.500 Y0.000 Z4.500 I-0.000 J1.500 K0.000 F1999.800
G1 X121.500 Y20.000 Z4.500 F1999.800
G3 X120.000 Y21.500 Z4.500 I-1.500 J-0.000 K0.000 F1999.800
G1 X23.000 Y21.500 Z4.500 F1999.800
G3 X21.505 Y20.118 Z4.500 I0.000 J-1.500 K0.000 F1999.800
G2 X18.523 Y19.766 Z4.500 I-1.498 J-0.111 K0.000 F1999.800
G2 X20.118 Y21.505 Z4.500 I1.497 J0.227 K0.000 F1999.800
G3 X21.500 Y23.000 Z4.500 I-0.118 J1.495 K0.000 F1999.800
G1 X21.500 Y120.000 Z4.500 F1999.800
G3 X21.500 Y120.022 Z4.500 I-1.500 J-0.000 K0.000 F1999.800
G1 X21.500 Y120.022 Z4.000 F999.600
G3 X20.000 Y121.500 Z4.000 I-1.500 J-0.022 K0.000 F1999.800
G1 X0.000 Y121.500 Z4.000 F1999.800
G3 X-1.500 Y120.000 Z4.000 I0.000 J-1.500 K0.000 F1999.800
G1 X-1.500 Y0.000 Z4.000 F1999.800
G3 X0.000 Y-1.500 Z4.000 I1.500 J0.000 K0.000 F1999.800
G1 X120.000 Y-1.500 Z4.000 F1999.800
G3 X121.500 Y0.000 Z4.000 I-0.000 J1.500 K0.000 F1999.800
G1 X121.500 Y20.000 Z4.000 F1999.800
G3 X120.000 Y21.500 Z4.000 I-1.500 J-0.000 K0.000 F1999.800
G1 X23.000 Y21.500 Z4.000 F1999.800
G3 X21.505 Y20.118 Z4.000 I0.000 J-1.500 K0.000 F1999.800
G2 X18.523 Y19.766 Z4.000 I-1.498 J-0.111 K0.000 F1999.800
G2 X20.118 Y21.505 Z4.000 I1.497 J0.227 K0.000 F1999.800
G3 X21.500 Y23.000 Z4.000 I-0.118 J1.495 K0.000 F1999.800
G1 X21.500 Y120.000 Z4.000 F1999.800
G3 X21.500 Y120.022 Z4.000 I-1.500 J-0.000 K0.000 F1999.800
G1 X21.500 Y120.022 Z3.500 F999.600
G3 X20.000 Y121.500 Z3.500 I-1.500 J-0.022 K0.000 F1999.800
G1 X0.000 Y121.500 Z3.500 F1999.800
G3 X-1.500 Y120.000 Z3.500 I0.000 J-1.500 K0.000 F1999.800
G1 X-1.500 Y0.000 Z3.500 F1999.800
G3 X0.000 Y-1.500 Z3.500 I1.500 J0.000 K0.000 F1999.800
G1 X120.000 Y-1.500 Z3.500 F1999.800
G3 X121.500 Y0.000 Z3.500 I-0.000 J1.500 K0.000 F1999.800
G1 X121.500 Y20.000 Z3.500 F1999.800
G3 X120.000 Y21.500 Z3.500 I-1.500 J-0.000 K0.000 F1999.800
G1 X23.000 Y21.500 Z3.500 F1999.800
G3 X21.505 Y20.118 Z3.500 I0.000 J-1.500 K0.000 F1999.800
G2 X18.523 Y19.766 Z3.500 I-1.498 J-0.111 K0.000 F1999.800
G2 X20.118 Y21.505 Z3.500 I1.497 J0.227 K0.000 F1999.800
G3 X21.500 Y23.000 Z3.500 I-0.118 J1.495 K0.000 F1999.800
G1 X21.500 Y120.000 Z3.500 F1999.800
G3 X21.500 Y120.022 Z3.500 I-1.500 J-0.000 K0.000 F1999.800
G1 X21.500 Y120.022 Z3.000 F999.600
G3 X20.000 Y121.500 Z3.000 I-1.500 J-0.022 K0.000 F1999.800
G1 X0.000 Y121.500 Z3.000 F1999.800
G3 X-1.500 Y120.000 Z3.000 I0.000 J-1.500 K0.000 F1999.800
G1 X-1.500 Y0.000 Z3.000 F1999.800
G3 X0.000 Y-1.500 Z3.000 I1.500 J0.000 K0.000 F1999.800
G1 X120.000 Y-1.500 Z3.000 F1999.800
G3 X121.500 Y0.000 Z3.000 I-0.000 J1.500 K0.000 F1999.800
G1 X121.500 Y20.000 Z3.000 F1999.800
G3 X120.000 Y21.500 Z3.000 I-1.500 J-0.000 K0.000 F1999.800
G1 X23.000 Y21.500 Z3.000 F1999.800
G3 X21.505 Y20.118 Z3.000 I0.000 J-1.500 K0.000 F1999.800
G2 X18.523 Y19.766 Z3.000 I-1.498 J-0.111 K0.000 F1999.800
G2 X20.118 Y21.505 Z3.000 I1.497 J0.227 K0.000 F1999.800
G3 X21.500 Y23.000 Z3.000 I-0.118 J1.495 K0.000 F1999.800
G1 X21.500 Y120.000 Z3.000 F1999.800
G3 X21.500 Y120.022 Z3.000 I-1.500 J-0.000 K0.000 F1999.800
G1 X21.500 Y120.022 Z2.500 F999.600
G3 X20.000 Y121.500 Z2.500 I-1.500 J-0.022 K0.000 F1999.800
G1 X0.000 Y121.500 Z2.500 F1999.800
G3 X-1.500 Y120.000 Z2.500 I0.000 J-1.500 K0.000 F1999.800
G1 X-1.500 Y0.000 Z2.500 F1999.800
G3 X0.000 Y-1.500 Z2.500 I1.500 J0.000 K0.000 F1999.800
G1 X120.000 Y-1.500 Z2.500 F1999.800
G3 X121.500 Y0.000 Z2.500 I-0.000 J1.500 K0.000 F1999.800
G1 X121.500 Y20.000 Z2.500 F1999.800
G3 X120.000 Y21.500 Z2.500 I-1.500 J-0.000 K0.000 F1999.800
G1 X23.000 Y21.500 Z2.500 F1999.800
G3 X21.505 Y20.118 Z2.500 I0.000 J-1.500 K0.000 F1999.800
G2 X18.523 Y19.766 Z2.500 I-1.498 J-0.111 K0.000 F1999.800
G2 X20.118 Y21.505 Z2.500 I1.497 J0.227 K0.000 F1999.800
G3 X21.500 Y23.000 Z2.500 I-0.118 J1.495 K0.000 F1999.800
G1 X21.500 Y120.000 Z2.500 F1999.800
G3 X21.500 Y120.022 Z2.500 I-1.500 J-0.000 K0.000 F1999.800
G1 X21.500 Y120.022 Z2.000 F999.600
G3 X20.000 Y121.500 Z2.000 I-1.500 J-0.022 K0.000 F1999.800
G1 X0.000 Y121.500 Z2.000 F1999.800
G3 X-1.500 Y120.000 Z2.000 I0.000 J-1.500 K0.000 F1999.800
G1 X-1.500 Y0.000 Z2.000 F1999.800
G3 X0.000 Y-1.500 Z2.000 I1.500 J0.000 K0.000 F1999.800
G1 X120.000 Y-1.500 Z2.000 F1999.800
G3 X121.500 Y0.000 Z2.000 I-0.000 J1.500 K0.000 F1999.800
G1 X121.500 Y20.000 Z2.000 F1999.800
G3 X120.000 Y21.500 Z2.000 I-1.500 J-0.000 K0.000 F1999.800
G1 X23.000 Y21.500 Z2.000 F1999.800
G3 X21.505 Y20.118 Z2.000 I0.000 J-1.500 K0.000 F1999.800
G2 X18.523 Y19.766 Z2.000 I-1.498 J-0.111 K0.000 F1999.800
G2 X20.118 Y21.505 Z2.000 I1.497 J0.227 K0.000 F1999.800
G3 X21.500 Y23.000 Z2.000 I-0.118 J1.495 K0.000 F1999.800
G1 X21.500 Y120.000 Z2.000 F1999.800
G3 X21.500 Y120.022 Z2.000 I-1.500 J-0.000 K0.000 F1999.800
G1 X21.500 Y120.022 Z1.500 F999.600
G3 X20.000 Y121.500 Z1.500 I-1.500 J-0.022 K0.000 F1999.800
G1 X0.000 Y121.500 Z1.500 F1999.800
G3 X-1.500 Y120.000 Z1.500 I0.000 J-1.500 K0.000 F1999.800
G1 X-1.500 Y0.000 Z1.500 F1999.800
G3 X0.000 Y-1.500 Z1.500 I1.500 J0.000 K0.000 F1999.800
G1 X120.000 Y-1.500 Z1.500 F1999.800
G3 X121.500 Y0.000 Z1.500 I-0.000 J1.500 K0.000 F1999.800
G1 X121.500 Y20.000 Z1.500 F1999.800
G3 X120.000 Y21.500 Z1.500 I-1.500 J-0.000 K0.000 F1999.800
G1 X23.000 Y21.500 Z1.500 F1999.800
G3 X21.505 Y20.118 Z1.500 I0.000 J-1.500 K0.000 F1999.800
G2 X18.523 Y19.766 Z1.500 I-1.498 J-0.111 K0.000 F1999.800
G2 X20.118 Y21.505 Z1.500 I1.497 J0.227 K0.000 F1999.800
G3 X21.500 Y23.000 Z1.500 I-0.118 J1.495 K0.000 F1999.800
G1 X21.500 Y120.000 Z1.500 F1999.800
G3 X21.500 Y120.022 Z1.500 I-1.500 J-0.000 K0.000 F1999.800
G1 X21.500 Y120.022 Z1.000 F999.600
G3 X20.000 Y121.500 Z1.000 I-1.500 J-0.022 K0.000 F1999.800
G1 X0.000 Y121.500 Z1.000 F1999.800
G3 X-1.500 Y120.000 Z1.000 I0.000 J-1.500 K0.000 F1999.800
G1 X-1.500 Y0.000 Z1.000 F1999.800
G3 X0.000 Y-1.500 Z1.000 I1.500 J0.000 K0.000 F1999.800
G1 X120.000 Y-1.500 Z1.000 F1999.800
G3 X121.500 Y0.000 Z1.000 I-0.000 J1.500 K0.000 F1999.800
G1 X121.500 Y20.000 Z1.000 F1999.800
G3 X120.000 Y21.500 Z1.000 I-1.500 J-0.000 K0.000 F1999.800
G1 X23.000 Y21.500 Z1.000 F1999.800
G3 X21.505 Y20.118 Z1.000 I0.000 J-1.500 K0.000 F1999.800
G2 X18.523 Y19.766 Z1.000 I-1.498 J-0.111 K0.000 F1999.800
G2 X20.118 Y21.505 Z1.000 I1.497 J0.227 K0.000 F1999.800
G3 X21.500 Y23.000 Z1.000 I-0.118 J1.495 K0.000 F1999.800
G1 X21.500 Y120.000 Z1.000 F1999.800
G3 X21.500 Y120.022 Z1.000 I-1.500 J-0.000 K0.000 F1999.800
G1 X21.500 Y120.022 Z0.500 F999.600
G3 X20.000 Y121.500 Z0.500 I-1.500 J-0.022 K0.000 F1999.800
G1 X0.000 Y121.500 Z0.500 F1999.800
G3 X-1.500 Y120.000 Z0.500 I0.000 J-1.500 K0.000 F1999.800
G1 X-1.500 Y0.000 Z0.500 F1999.800
G3 X0.000 Y-1.500 Z0.500 I1.500 J0.000 K0.000 F1999.800
G1 X120.000 Y-1.500 Z0.500 F1999.800
G3 X121.500 Y0.000 Z0.500 I-0.000 J1.500 K0.000 F1999.800
G1 X121.500 Y20.000 Z0.500 F1999.800
G3 X120.000 Y21.500 Z0.500 I-1.500 J-0.000 K0.000 F1999.800
G1 X23.000 Y21.500 Z0.500 F1999.800
G3 X21.505 Y20.118 Z0.500 I0.000 J-1.500 K0.000 F1999.800
G2 X18.523 Y19.766 Z0.500 I-1.498 J-0.111 K0.000 F1999.800
G2 X20.118 Y21.505 Z0.500 I1.497 J0.227 K0.000 F1999.800
G3 X21.500 Y23.000 Z0.500 I-0.118 J1.495 K0.000 F1999.800
G1 X21.500 Y120.000 Z0.500 F1999.800
G3 X21.500 Y120.022 Z0.500 I-1.500 J-0.000 K0.000 F1999.800
G1 X21.500 Y120.022 Z-0.000 F999.600
G3 X20.000 Y121.500 Z-0.000 I-1.500 J-0.022 K-0.000 F1999.800
G1 X0.000 Y121.500 Z-0.000 F1999.800
G3 X-1.500 Y120.000 Z-0.000 I0.000 J-1.500 K0.000 F1999.800
G1 X-1.500 Y0.000 Z-0.000 F1999.800
G3 X0.000 Y-1.500 Z-0.000 I1.500 J0.000 K0.000 F1999.800
G1 X120.000 Y-1.500 Z0.000 F1999.800
G3 X121.500 Y0.000 Z0.000 I-0.000 J1.500 K-0.000 F1999.800
G1 X121.500 Y20.000 Z0.000 F1999.800
G3 X120.000 Y21.500 Z0.000 I-1.500 J-0.000 K-0.000 F1999.800
G1 X23.000 Y21.500 Z-0.000 F1999.800
G3 X21.505 Y20.118 Z-0.000 I0.000 J-1.500 K0.000 F1999.800
G2 X18.523 Y19.766 Z-0.000 I-1.498 J-0.111 K-0.000 F1999.800
G2 X20.118 Y21.505 Z-0.000 I1.497 J0.227 K0.000 F1999.800
G3 X21.500 Y23.000 Z-0.000 I-0.118 J1.495 K-0.000 F1999.800
G1 X21.500 Y120.000 Z-0.000 F1999.800
G3 X21.500 Y120.022 Z-0.000 I-1.500 J-0.000 K-0.000 F1999.800
G1 X21.500 Y120.022 Z-0.200 F999.600
G3 X20.000 Y121.500 Z-0.200 I-1.500 J-0.022 K0.000 F1999.800
G1 X0.000 Y121.500 Z-0.200 F1999.800
G3 X-1.500 Y120.000 Z-0.200 I0.000 J-1.500 K0.000 F1999.800
G1 X-1.500 Y0.000 Z-0.200 F1999.800
G3 X0.000 Y-1.500 Z-0.200 I1.500 J0.000 K0.000 F1999.800
G1 X120.000 Y-1.500 Z-0.200 F1999.800
G3 X121.500 Y0.000 Z-0.200 I-0.000 J1.500 K0.000 F1999.800
G1 X121.500 Y20.000 Z-0.200 F1999.800
G3 X120.000 Y21.500 Z-0.200 I-1.500 J-0.000 K0.000 F1999.800
G1 X23.000 Y21.500 Z-0.200 F1999.800
G3 X21.505 Y20.118 Z-0.200 I0.000 J-1.500 K0.000 F1999.800
G2 X18.523 Y19.766 Z-0.200 I-1.498 J-0.111 K0.000 F1999.800
G2 X20.118 Y21.505 Z-0.200 I1.497 J0.227 K0.000 F1999.800
G3 X21.500 Y23.000 Z-0.200 I-0.118 J1.495 K0.000 F1999.800
G1 X21.500 Y120.000 Z-0.200 F1999.800
G3 X21.500 Y120.022 Z-0.200 I-1.500 J-0.000 K0.000 F1999.800
G0 Z23.000
(Finish operation: Contour)
(Coolant Off:Mist)
M9
(Begin postamble)
M5
G17 G90
M2
