(Exported by FreeCAD)
(Post Processor: grbl_post)
(Output Time:2020-04-11 20:02:12.144021)
(Begin preamble)
G17 G90
G21
(Begin operation: Fixture)
(Path: Fixture)
G54
(Finish operation: Fixture)
(Begin operation: T6: 2FluteWoodMill001)
(Path: T6: 2FluteWoodMill001)
(T6: 2FluteWoodMill001)
(Begin toolchange)
(M6 T6.0)
M3 S12000.0
(Finish operation: T6: 2FluteWoodMill001)
(Begin operation: Helix)
(Path: Helix)
(Helix)
(helix cut operation)
G0 Z23.000
G0 X11.050 Y10.000
G0 Z21.000
G1 Z18.000 F999.600
G2 X8.950 Y10.000 Z17.754 I-1.050 J0.000 F1999.800
G2 X11.050 Y10.000 Z17.508 I1.050 J0.000 F1999.800
G2 X8.950 Y10.000 Z17.262 I-1.050 J0.000 F1999.800
G2 X11.050 Y10.000 Z17.016 I1.050 J0.000 F1999.800
G2 X8.950 Y10.000 Z16.770 I-1.050 J0.000 F1999.800
G2 X11.050 Y10.000 Z16.524 I1.050 J0.000 F1999.800
G2 X8.950 Y10.000 Z16.278 I-1.050 J0.000 F1999.800
G2 X11.050 Y10.000 Z16.032 I1.050 J0.000 F1999.800
G2 X8.950 Y10.000 Z15.786 I-1.050 J0.000 F1999.800
G2 X11.050 Y10.000 Z15.541 I1.050 J0.000 F1999.800
G2 X8.950 Y10.000 Z15.295 I-1.050 J0.000 F1999.800
G2 X11.050 Y10.000 Z15.049 I1.050 J0.000 F1999.800
G2 X8.950 Y10.000 Z14.803 I-1.050 J0.000 F1999.800
G2 X11.050 Y10.000 Z14.557 I1.050 J0.000 F1999.800
G2 X8.950 Y10.000 Z14.311 I-1.050 J0.000 F1999.800
G2 X11.050 Y10.000 Z14.065 I1.050 J0.000 F1999.800
G2 X8.950 Y10.000 Z13.819 I-1.050 J0.000 F1999.800
G2 X11.050 Y10.000 Z13.573 I1.050 J0.000 F1999.800
G2 X8.950 Y10.000 Z13.327 I-1.050 J0.000 F1999.800
G2 X11.050 Y10.000 Z13.081 I1.050 J0.000 F1999.800
G2 X8.950 Y10.000 Z12.835 I-1.050 J0.000 F1999.800
G2 X11.050 Y10.000 Z12.589 I1.050 J0.000 F1999.800
G2 X8.950 Y10.000 Z12.343 I-1.050 J0.000 F1999.800
G2 X11.050 Y10.000 Z12.097 I1.050 J0.000 F1999.800
G2 X8.950 Y10.000 Z11.851 I-1.050 J0.000 F1999.800
G2 X11.050 Y10.000 Z11.605 I1.050 J0.000 F1999.800
G2 X8.950 Y10.000 Z11.359 I-1.050 J0.000 F1999.800
G2 X11.050 Y10.000 Z11.114 I1.050 J0.000 F1999.800
G2 X8.950 Y10.000 Z10.868 I-1.050 J0.000 F1999.800
G2 X11.050 Y10.000 Z10.622 I1.050 J0.000 F1999.800
G2 X8.950 Y10.000 Z10.376 I-1.050 J0.000 F1999.800
G2 X11.050 Y10.000 Z10.130 I1.050 J0.000 F1999.800
G2 X8.950 Y10.000 Z9.884 I-1.050 J0.000 F1999.800
G2 X11.050 Y10.000 Z9.638 I1.050 J0.000 F1999.800
G2 X8.950 Y10.000 Z9.392 I-1.050 J0.000 F1999.800
G2 X11.050 Y10.000 Z9.146 I1.050 J0.000 F1999.800
G2 X8.950 Y10.000 Z8.900 I-1.050 J0.000 F1999.800
G2 X11.050 Y10.000 Z8.654 I1.050 J0.000 F1999.800
G2 X8.950 Y10.000 Z8.408 I-1.050 J0.000 F1999.800
G2 X11.050 Y10.000 Z8.162 I1.050 J0.000 F1999.800
G2 X8.950 Y10.000 Z7.916 I-1.050 J0.000 F1999.800
G2 X11.050 Y10.000 Z7.670 I1.050 J0.000 F1999.800
G2 X8.950 Y10.000 Z7.424 I-1.050 J0.000 F1999.800
G2 X11.050 Y10.000 Z7.178 I1.050 J0.000 F1999.800
G2 X8.950 Y10.000 Z6.932 I-1.050 J0.000 F1999.800
G2 X11.050 Y10.000 Z6.686 I1.050 J0.000 F1999.800
G2 X8.950 Y10.000 Z6.441 I-1.050 J0.000 F1999.800
G2 X11.050 Y10.000 Z6.195 I1.050 J0.000 F1999.800
G2 X8.950 Y10.000 Z5.949 I-1.050 J0.000 F1999.800
G2 X11.050 Y10.000 Z5.703 I1.050 J0.000 F1999.800
G2 X8.950 Y10.000 Z5.457 I-1.050 J0.000 F1999.800
G2 X11.050 Y10.000 Z5.211 I1.050 J0.000 F1999.800
G2 X8.950 Y10.000 Z4.965 I-1.050 J0.000 F1999.800
G2 X11.050 Y10.000 Z4.719 I1.050 J0.000 F1999.800
G2 X8.950 Y10.000 Z4.473 I-1.050 J0.000 F1999.800
G2 X11.050 Y10.000 Z4.227 I1.050 J0.000 F1999.800
G2 X8.950 Y10.000 Z3.981 I-1.050 J0.000 F1999.800
G2 X11.050 Y10.000 Z3.735 I1.050 J0.000 F1999.800
G2 X8.950 Y10.000 Z3.489 I-1.050 J0.000 F1999.800
G2 X11.050 Y10.000 Z3.243 I1.050 J0.000 F1999.800
G2 X8.950 Y10.000 Z2.997 I-1.050 J0.000 F1999.800
G2 X11.050 Y10.000 Z2.751 I1.050 J0.000 F1999.800
G2 X8.950 Y10.000 Z2.505 I-1.050 J0.000 F1999.800
G2 X11.050 Y10.000 Z2.259 I1.050 J0.000 F1999.800
G2 X8.950 Y10.000 Z2.014 I-1.050 J0.000 F1999.800
G2 X11.050 Y10.000 Z1.768 I1.050 J0.000 F1999.800
G2 X8.950 Y10.000 Z1.522 I-1.050 J0.000 F1999.800
G2 X11.050 Y10.000 Z1.276 I1.050 J0.000 F1999.800
G2 X8.950 Y10.000 Z1.030 I-1.050 J0.000 F1999.800
G2 X11.050 Y10.000 Z0.784 I1.050 J0.000 F1999.800
G2 X8.950 Y10.000 Z0.538 I-1.050 J0.000 F1999.800
G2 X11.050 Y10.000 Z0.292 I1.050 J0.000 F1999.800
G2 X8.950 Y10.000 Z0.046 I-1.050 J0.000 F1999.800
G2 X11.050 Y10.000 Z-0.200 I1.050 J0.000 F1999.800
G2 X8.950 Y10.000 Z-0.200 I-1.050 J0.000 F1999.800
G2 X11.050 Y10.000 Z-0.200 I1.050 J0.000 F1999.800
G0 Z21.000
G0 X11.050 Y60.000
G0 Z21.000
G1 Z18.000 F999.600
G2 X8.950 Y60.000 Z17.754 I-1.050 J0.000 F1999.800
G2 X11.050 Y60.000 Z17.508 I1.050 J0.000 F1999.800
G2 X8.950 Y60.000 Z17.262 I-1.050 J0.000 F1999.800
G2 X11.050 Y60.000 Z17.016 I1.050 J0.000 F1999.800
G2 X8.950 Y60.000 Z16.770 I-1.050 J0.000 F1999.800
G2 X11.050 Y60.000 Z16.524 I1.050 J0.000 F1999.800
G2 X8.950 Y60.000 Z16.278 I-1.050 J0.000 F1999.800
G2 X11.050 Y60.000 Z16.032 I1.050 J0.000 F1999.800
G2 X8.950 Y60.000 Z15.786 I-1.050 J0.000 F1999.800
G2 X11.050 Y60.000 Z15.541 I1.050 J0.000 F1999.800
G2 X8.950 Y60.000 Z15.295 I-1.050 J0.000 F1999.800
G2 X11.050 Y60.000 Z15.049 I1.050 J0.000 F1999.800
G2 X8.950 Y60.000 Z14.803 I-1.050 J0.000 F1999.800
G2 X11.050 Y60.000 Z14.557 I1.050 J0.000 F1999.800
G2 X8.950 Y60.000 Z14.311 I-1.050 J0.000 F1999.800
G2 X11.050 Y60.000 Z14.065 I1.050 J0.000 F1999.800
G2 X8.950 Y60.000 Z13.819 I-1.050 J0.000 F1999.800
G2 X11.050 Y60.000 Z13.573 I1.050 J0.000 F1999.800
G2 X8.950 Y60.000 Z13.327 I-1.050 J0.000 F1999.800
G2 X11.050 Y60.000 Z13.081 I1.050 J0.000 F1999.800
G2 X8.950 Y60.000 Z12.835 I-1.050 J0.000 F1999.800
G2 X11.050 Y60.000 Z12.589 I1.050 J0.000 F1999.800
G2 X8.950 Y60.000 Z12.343 I-1.050 J0.000 F1999.800
G2 X11.050 Y60.000 Z12.097 I1.050 J0.000 F1999.800
G2 X8.950 Y60.000 Z11.851 I-1.050 J0.000 F1999.800
G2 X11.050 Y60.000 Z11.605 I1.050 J0.000 F1999.800
G2 X8.950 Y60.000 Z11.359 I-1.050 J0.000 F1999.800
G2 X11.050 Y60.000 Z11.114 I1.050 J0.000 F1999.800
G2 X8.950 Y60.000 Z10.868 I-1.050 J0.000 F1999.800
G2 X11.050 Y60.000 Z10.622 I1.050 J0.000 F1999.800
G2 X8.950 Y60.000 Z10.376 I-1.050 J0.000 F1999.800
G2 X11.050 Y60.000 Z10.130 I1.050 J0.000 F1999.800
G2 X8.950 Y60.000 Z9.884 I-1.050 J0.000 F1999.800
G2 X11.050 Y60.000 Z9.638 I1.050 J0.000 F1999.800
G2 X8.950 Y60.000 Z9.392 I-1.050 J0.000 F1999.800
G2 X11.050 Y60.000 Z9.146 I1.050 J0.000 F1999.800
G2 X8.950 Y60.000 Z8.900 I-1.050 J0.000 F1999.800
G2 X11.050 Y60.000 Z8.654 I1.050 J0.000 F1999.800
G2 X8.950 Y60.000 Z8.408 I-1.050 J0.000 F1999.800
G2 X11.050 Y60.000 Z8.162 I1.050 J0.000 F1999.800
G2 X8.950 Y60.000 Z7.916 I-1.050 J0.000 F1999.800
G2 X11.050 Y60.000 Z7.670 I1.050 J0.000 F1999.800
G2 X8.950 Y60.000 Z7.424 I-1.050 J0.000 F1999.800
G2 X11.050 Y60.000 Z7.178 I1.050 J0.000 F1999.800
G2 X8.950 Y60.000 Z6.932 I-1.050 J0.000 F1999.800
G2 X11.050 Y60.000 Z6.686 I1.050 J0.000 F1999.800
G2 X8.950 Y60.000 Z6.441 I-1.050 J0.000 F1999.800
G2 X11.050 Y60.000 Z6.195 I1.050 J0.000 F1999.800
G2 X8.950 Y60.000 Z5.949 I-1.050 J0.000 F1999.800
G2 X11.050 Y60.000 Z5.703 I1.050 J0.000 F1999.800
G2 X8.950 Y60.000 Z5.457 I-1.050 J0.000 F1999.800
G2 X11.050 Y60.000 Z5.211 I1.050 J0.000 F1999.800
G2 X8.950 Y60.000 Z4.965 I-1.050 J0.000 F1999.800
G2 X11.050 Y60.000 Z4.719 I1.050 J0.000 F1999.800
G2 X8.950 Y60.000 Z4.473 I-1.050 J0.000 F1999.800
G2 X11.050 Y60.000 Z4.227 I1.050 J0.000 F1999.800
G2 X8.950 Y60.000 Z3.981 I-1.050 J0.000 F1999.800
G2 X11.050 Y60.000 Z3.735 I1.050 J0.000 F1999.800
G2 X8.950 Y60.000 Z3.489 I-1.050 J0.000 F1999.800
G2 X11.050 Y60.000 Z3.243 I1.050 J0.000 F1999.800
G2 X8.950 Y60.000 Z2.997 I-1.050 J0.000 F1999.800
G2 X11.050 Y60.000 Z2.751 I1.050 J0.000 F1999.800
G2 X8.950 Y60.000 Z2.505 I-1.050 J0.000 F1999.800
G2 X11.050 Y60.000 Z2.259 I1.050 J0.000 F1999.800
G2 X8.950 Y60.000 Z2.014 I-1.050 J0.000 F1999.800
G2 X11.050 Y60.000 Z1.768 I1.050 J0.000 F1999.800
G2 X8.950 Y60.000 Z1.522 I-1.050 J0.000 F1999.800
G2 X11.050 Y60.000 Z1.276 I1.050 J0.000 F1999.800
G2 X8.950 Y60.000 Z1.030 I-1.050 J0.000 F1999.800
G2 X11.050 Y60.000 Z0.784 I1.050 J0.000 F1999.800
G2 X8.950 Y60.000 Z0.538 I-1.050 J0.000 F1999.800
G2 X11.050 Y60.000 Z0.292 I1.050 J0.000 F1999.800
G2 X8.950 Y60.000 Z0.046 I-1.050 J0.000 F1999.800
G2 X11.050 Y60.000 Z-0.200 I1.050 J0.000 F1999.800
G2 X8.950 Y60.000 Z-0.200 I-1.050 J0.000 F1999.800
G2 X11.050 Y60.000 Z-0.200 I1.050 J0.000 F1999.800
G0 Z21.000
G0 X11.050 Y110.000
G0 Z21.000
G1 Z18.000 F999.600
G2 X8.950 Y110.000 Z17.754 I-1.050 J0.000 F1999.800
G2 X11.050 Y110.000 Z17.508 I1.050 J0.000 F1999.800
G2 X8.950 Y110.000 Z17.262 I-1.050 J0.000 F1999.800
G2 X11.050 Y110.000 Z17.016 I1.050 J0.000 F1999.800
G2 X8.950 Y110.000 Z16.770 I-1.050 J0.000 F1999.800
G2 X11.050 Y110.000 Z16.524 I1.050 J0.000 F1999.800
G2 X8.950 Y110.000 Z16.278 I-1.050 J0.000 F1999.800
G2 X11.050 Y110.000 Z16.032 I1.050 J0.000 F1999.800
G2 X8.950 Y110.000 Z15.786 I-1.050 J0.000 F1999.800
G2 X11.050 Y110.000 Z15.541 I1.050 J0.000 F1999.800
G2 X8.950 Y110.000 Z15.295 I-1.050 J0.000 F1999.800
G2 X11.050 Y110.000 Z15.049 I1.050 J0.000 F1999.800
G2 X8.950 Y110.000 Z14.803 I-1.050 J0.000 F1999.800
G2 X11.050 Y110.000 Z14.557 I1.050 J0.000 F1999.800
G2 X8.950 Y110.000 Z14.311 I-1.050 J0.000 F1999.800
G2 X11.050 Y110.000 Z14.065 I1.050 J0.000 F1999.800
G2 X8.950 Y110.000 Z13.819 I-1.050 J0.000 F1999.800
G2 X11.050 Y110.000 Z13.573 I1.050 J0.000 F1999.800
G2 X8.950 Y110.000 Z13.327 I-1.050 J0.000 F1999.800
G2 X11.050 Y110.000 Z13.081 I1.050 J0.000 F1999.800
G2 X8.950 Y110.000 Z12.835 I-1.050 J0.000 F1999.800
G2 X11.050 Y110.000 Z12.589 I1.050 J0.000 F1999.800
G2 X8.950 Y110.000 Z12.343 I-1.050 J0.000 F1999.800
G2 X11.050 Y110.000 Z12.097 I1.050 J0.000 F1999.800
G2 X8.950 Y110.000 Z11.851 I-1.050 J0.000 F1999.800
G2 X11.050 Y110.000 Z11.605 I1.050 J0.000 F1999.800
G2 X8.950 Y110.000 Z11.359 I-1.050 J0.000 F1999.800
G2 X11.050 Y110.000 Z11.114 I1.050 J0.000 F1999.800
G2 X8.950 Y110.000 Z10.868 I-1.050 J0.000 F1999.800
G2 X11.050 Y110.000 Z10.622 I1.050 J0.000 F1999.800
G2 X8.950 Y110.000 Z10.376 I-1.050 J0.000 F1999.800
G2 X11.050 Y110.000 Z10.130 I1.050 J0.000 F1999.800
G2 X8.950 Y110.000 Z9.884 I-1.050 J0.000 F1999.800
G2 X11.050 Y110.000 Z9.638 I1.050 J0.000 F1999.800
G2 X8.950 Y110.000 Z9.392 I-1.050 J0.000 F1999.800
G2 X11.050 Y110.000 Z9.146 I1.050 J0.000 F1999.800
G2 X8.950 Y110.000 Z8.900 I-1.050 J0.000 F1999.800
G2 X11.050 Y110.000 Z8.654 I1.050 J0.000 F1999.800
G2 X8.950 Y110.000 Z8.408 I-1.050 J0.000 F1999.800
G2 X11.050 Y110.000 Z8.162 I1.050 J0.000 F1999.800
G2 X8.950 Y110.000 Z7.916 I-1.050 J0.000 F1999.800
G2 X11.050 Y110.000 Z7.670 I1.050 J0.000 F1999.800
G2 X8.950 Y110.000 Z7.424 I-1.050 J0.000 F1999.800
G2 X11.050 Y110.000 Z7.178 I1.050 J0.000 F1999.800
G2 X8.950 Y110.000 Z6.932 I-1.050 J0.000 F1999.800
G2 X11.050 Y110.000 Z6.686 I1.050 J0.000 F1999.800
G2 X8.950 Y110.000 Z6.441 I-1.050 J0.000 F1999.800
G2 X11.050 Y110.000 Z6.195 I1.050 J0.000 F1999.800
G2 X8.950 Y110.000 Z5.949 I-1.050 J0.000 F1999.800
G2 X11.050 Y110.000 Z5.703 I1.050 J0.000 F1999.800
G2 X8.950 Y110.000 Z5.457 I-1.050 J0.000 F1999.800
G2 X11.050 Y110.000 Z5.211 I1.050 J0.000 F1999.800
G2 X8.950 Y110.000 Z4.965 I-1.050 J0.000 F1999.800
G2 X11.050 Y110.000 Z4.719 I1.050 J0.000 F1999.800
G2 X8.950 Y110.000 Z4.473 I-1.050 J0.000 F1999.800
G2 X11.050 Y110.000 Z4.227 I1.050 J0.000 F1999.800
G2 X8.950 Y110.000 Z3.981 I-1.050 J0.000 F1999.800
G2 X11.050 Y110.000 Z3.735 I1.050 J0.000 F1999.800
G2 X8.950 Y110.000 Z3.489 I-1.050 J0.000 F1999.800
G2 X11.050 Y110.000 Z3.243 I1.050 J0.000 F1999.800
G2 X8.950 Y110.000 Z2.997 I-1.050 J0.000 F1999.800
G2 X11.050 Y110.000 Z2.751 I1.050 J0.000 F1999.800
G2 X8.950 Y110.000 Z2.505 I-1.050 J0.000 F1999.800
G2 X11.050 Y110.000 Z2.259 I1.050 J0.000 F1999.800
G2 X8.950 Y110.000 Z2.014 I-1.050 J0.000 F1999.800
G2 X11.050 Y110.000 Z1.768 I1.050 J0.000 F1999.800
G2 X8.950 Y110.000 Z1.522 I-1.050 J0.000 F1999.800
G2 X11.050 Y110.000 Z1.276 I1.050 J0.000 F1999.800
G2 X8.950 Y110.000 Z1.030 I-1.050 J0.000 F1999.800
G2 X11.050 Y110.000 Z0.784 I1.050 J0.000 F1999.800
G2 X8.950 Y110.000 Z0.538 I-1.050 J0.000 F1999.800
G2 X11.050 Y110.000 Z0.292 I1.050 J0.000 F1999.800
G2 X8.950 Y110.000 Z0.046 I-1.050 J0.000 F1999.800
G2 X11.050 Y110.000 Z-0.200 I1.050 J0.000 F1999.800
G2 X8.950 Y110.000 Z-0.200 I-1.050 J0.000 F1999.800
G2 X11.050 Y110.000 Z-0.200 I1.050 J0.000 F1999.800
G0 Z21.000
G0 X61.050 Y10.000
G0 Z21.000
G1 Z18.000 F999.600
G2 X58.950 Y10.000 Z17.754 I-1.050 J0.000 F1999.800
G2 X61.050 Y10.000 Z17.508 I1.050 J0.000 F1999.800
G2 X58.950 Y10.000 Z17.262 I-1.050 J0.000 F1999.800
G2 X61.050 Y10.000 Z17.016 I1.050 J0.000 F1999.800
G2 X58.950 Y10.000 Z16.770 I-1.050 J0.000 F1999.800
G2 X61.050 Y10.000 Z16.524 I1.050 J0.000 F1999.800
G2 X58.950 Y10.000 Z16.278 I-1.050 J0.000 F1999.800
G2 X61.050 Y10.000 Z16.032 I1.050 J0.000 F1999.800
G2 X58.950 Y10.000 Z15.786 I-1.050 J0.000 F1999.800
G2 X61.050 Y10.000 Z15.541 I1.050 J0.000 F1999.800
G2 X58.950 Y10.000 Z15.295 I-1.050 J0.000 F1999.800
G2 X61.050 Y10.000 Z15.049 I1.050 J0.000 F1999.800
G2 X58.950 Y10.000 Z14.803 I-1.050 J0.000 F1999.800
G2 X61.050 Y10.000 Z14.557 I1.050 J0.000 F1999.800
G2 X58.950 Y10.000 Z14.311 I-1.050 J0.000 F1999.800
G2 X61.050 Y10.000 Z14.065 I1.050 J0.000 F1999.800
G2 X58.950 Y10.000 Z13.819 I-1.050 J0.000 F1999.800
G2 X61.050 Y10.000 Z13.573 I1.050 J0.000 F1999.800
G2 X58.950 Y10.000 Z13.327 I-1.050 J0.000 F1999.800
G2 X61.050 Y10.000 Z13.081 I1.050 J0.000 F1999.800
G2 X58.950 Y10.000 Z12.835 I-1.050 J0.000 F1999.800
G2 X61.050 Y10.000 Z12.589 I1.050 J0.000 F1999.800
G2 X58.950 Y10.000 Z12.343 I-1.050 J0.000 F1999.800
G2 X61.050 Y10.000 Z12.097 I1.050 J0.000 F1999.800
G2 X58.950 Y10.000 Z11.851 I-1.050 J0.000 F1999.800
G2 X61.050 Y10.000 Z11.605 I1.050 J0.000 F1999.800
G2 X58.950 Y10.000 Z11.359 I-1.050 J0.000 F1999.800
G2 X61.050 Y10.000 Z11.114 I1.050 J0.000 F1999.800
G2 X58.950 Y10.000 Z10.868 I-1.050 J0.000 F1999.800
G2 X61.050 Y10.000 Z10.622 I1.050 J0.000 F1999.800
G2 X58.950 Y10.000 Z10.376 I-1.050 J0.000 F1999.800
G2 X61.050 Y10.000 Z10.130 I1.050 J0.000 F1999.800
G2 X58.950 Y10.000 Z9.884 I-1.050 J0.000 F1999.800
G2 X61.050 Y10.000 Z9.638 I1.050 J0.000 F1999.800
G2 X58.950 Y10.000 Z9.392 I-1.050 J0.000 F1999.800
G2 X61.050 Y10.000 Z9.146 I1.050 J0.000 F1999.800
G2 X58.950 Y10.000 Z8.900 I-1.050 J0.000 F1999.800
G2 X61.050 Y10.000 Z8.654 I1.050 J0.000 F1999.800
G2 X58.950 Y10.000 Z8.408 I-1.050 J0.000 F1999.800
G2 X61.050 Y10.000 Z8.162 I1.050 J0.000 F1999.800
G2 X58.950 Y10.000 Z7.916 I-1.050 J0.000 F1999.800
G2 X61.050 Y10.000 Z7.670 I1.050 J0.000 F1999.800
G2 X58.950 Y10.000 Z7.424 I-1.050 J0.000 F1999.800
G2 X61.050 Y10.000 Z7.178 I1.050 J0.000 F1999.800
G2 X58.950 Y10.000 Z6.932 I-1.050 J0.000 F1999.800
G2 X61.050 Y10.000 Z6.686 I1.050 J0.000 F1999.800
G2 X58.950 Y10.000 Z6.441 I-1.050 J0.000 F1999.800
G2 X61.050 Y10.000 Z6.195 I1.050 J0.000 F1999.800
G2 X58.950 Y10.000 Z5.949 I-1.050 J0.000 F1999.800
G2 X61.050 Y10.000 Z5.703 I1.050 J0.000 F1999.800
G2 X58.950 Y10.000 Z5.457 I-1.050 J0.000 F1999.800
G2 X61.050 Y10.000 Z5.211 I1.050 J0.000 F1999.800
G2 X58.950 Y10.000 Z4.965 I-1.050 J0.000 F1999.800
G2 X61.050 Y10.000 Z4.719 I1.050 J0.000 F1999.800
G2 X58.950 Y10.000 Z4.473 I-1.050 J0.000 F1999.800
G2 X61.050 Y10.000 Z4.227 I1.050 J0.000 F1999.800
G2 X58.950 Y10.000 Z3.981 I-1.050 J0.000 F1999.800
G2 X61.050 Y10.000 Z3.735 I1.050 J0.000 F1999.800
G2 X58.950 Y10.000 Z3.489 I-1.050 J0.000 F1999.800
G2 X61.050 Y10.000 Z3.243 I1.050 J0.000 F1999.800
G2 X58.950 Y10.000 Z2.997 I-1.050 J0.000 F1999.800
G2 X61.050 Y10.000 Z2.751 I1.050 J0.000 F1999.800
G2 X58.950 Y10.000 Z2.505 I-1.050 J0.000 F1999.800
G2 X61.050 Y10.000 Z2.259 I1.050 J0.000 F1999.800
G2 X58.950 Y10.000 Z2.014 I-1.050 J0.000 F1999.800
G2 X61.050 Y10.000 Z1.768 I1.050 J0.000 F1999.800
G2 X58.950 Y10.000 Z1.522 I-1.050 J0.000 F1999.800
G2 X61.050 Y10.000 Z1.276 I1.050 J0.000 F1999.800
G2 X58.950 Y10.000 Z1.030 I-1.050 J0.000 F1999.800
G2 X61.050 Y10.000 Z0.784 I1.050 J0.000 F1999.800
G2 X58.950 Y10.000 Z0.538 I-1.050 J0.000 F1999.800
G2 X61.050 Y10.000 Z0.292 I1.050 J0.000 F1999.800
G2 X58.950 Y10.000 Z0.046 I-1.050 J0.000 F1999.800
G2 X61.050 Y10.000 Z-0.200 I1.050 J0.000 F1999.800
G2 X58.950 Y10.000 Z-0.200 I-1.050 J0.000 F1999.800
G2 X61.050 Y10.000 Z-0.200 I1.050 J0.000 F1999.800
G0 Z21.000
G0 X111.050 Y10.000
G0 Z21.000
G1 Z18.000 F999.600
G2 X108.950 Y10.000 Z17.754 I-1.050 J0.000 F1999.800
G2 X111.050 Y10.000 Z17.508 I1.050 J0.000 F1999.800
G2 X108.950 Y10.000 Z17.262 I-1.050 J0.000 F1999.800
G2 X111.050 Y10.000 Z17.016 I1.050 J0.000 F1999.800
G2 X108.950 Y10.000 Z16.770 I-1.050 J0.000 F1999.800
G2 X111.050 Y10.000 Z16.524 I1.050 J0.000 F1999.800
G2 X108.950 Y10.000 Z16.278 I-1.050 J0.000 F1999.800
G2 X111.050 Y10.000 Z16.032 I1.050 J0.000 F1999.800
G2 X108.950 Y10.000 Z15.786 I-1.050 J0.000 F1999.800
G2 X111.050 Y10.000 Z15.541 I1.050 J0.000 F1999.800
G2 X108.950 Y10.000 Z15.295 I-1.050 J0.000 F1999.800
G2 X111.050 Y10.000 Z15.049 I1.050 J0.000 F1999.800
G2 X108.950 Y10.000 Z14.803 I-1.050 J0.000 F1999.800
G2 X111.050 Y10.000 Z14.557 I1.050 J0.000 F1999.800
G2 X108.950 Y10.000 Z14.311 I-1.050 J0.000 F1999.800
G2 X111.050 Y10.000 Z14.065 I1.050 J0.000 F1999.800
G2 X108.950 Y10.000 Z13.819 I-1.050 J0.000 F1999.800
G2 X111.050 Y10.000 Z13.573 I1.050 J0.000 F1999.800
G2 X108.950 Y10.000 Z13.327 I-1.050 J0.000 F1999.800
G2 X111.050 Y10.000 Z13.081 I1.050 J0.000 F1999.800
G2 X108.950 Y10.000 Z12.835 I-1.050 J0.000 F1999.800
G2 X111.050 Y10.000 Z12.589 I1.050 J0.000 F1999.800
G2 X108.950 Y10.000 Z12.343 I-1.050 J0.000 F1999.800
G2 X111.050 Y10.000 Z12.097 I1.050 J0.000 F1999.800
G2 X108.950 Y10.000 Z11.851 I-1.050 J0.000 F1999.800
G2 X111.050 Y10.000 Z11.605 I1.050 J0.000 F1999.800
G2 X108.950 Y10.000 Z11.359 I-1.050 J0.000 F1999.800
G2 X111.050 Y10.000 Z11.114 I1.050 J0.000 F1999.800
G2 X108.950 Y10.000 Z10.868 I-1.050 J0.000 F1999.800
G2 X111.050 Y10.000 Z10.622 I1.050 J0.000 F1999.800
G2 X108.950 Y10.000 Z10.376 I-1.050 J0.000 F1999.800
G2 X111.050 Y10.000 Z10.130 I1.050 J0.000 F1999.800
G2 X108.950 Y10.000 Z9.884 I-1.050 J0.000 F1999.800
G2 X111.050 Y10.000 Z9.638 I1.050 J0.000 F1999.800
G2 X108.950 Y10.000 Z9.392 I-1.050 J0.000 F1999.800
G2 X111.050 Y10.000 Z9.146 I1.050 J0.000 F1999.800
G2 X108.950 Y10.000 Z8.900 I-1.050 J0.000 F1999.800
G2 X111.050 Y10.000 Z8.654 I1.050 J0.000 F1999.800
G2 X108.950 Y10.000 Z8.408 I-1.050 J0.000 F1999.800
G2 X111.050 Y10.000 Z8.162 I1.050 J0.000 F1999.800
G2 X108.950 Y10.000 Z7.916 I-1.050 J0.000 F1999.800
G2 X111.050 Y10.000 Z7.670 I1.050 J0.000 F1999.800
G2 X108.950 Y10.000 Z7.424 I-1.050 J0.000 F1999.800
G2 X111.050 Y10.000 Z7.178 I1.050 J0.000 F1999.800
G2 X108.950 Y10.000 Z6.932 I-1.050 J0.000 F1999.800
G2 X111.050 Y10.000 Z6.686 I1.050 J0.000 F1999.800
G2 X108.950 Y10.000 Z6.441 I-1.050 J0.000 F1999.800
G2 X111.050 Y10.000 Z6.195 I1.050 J0.000 F1999.800
G2 X108.950 Y10.000 Z5.949 I-1.050 J0.000 F1999.800
G2 X111.050 Y10.000 Z5.703 I1.050 J0.000 F1999.800
G2 X108.950 Y10.000 Z5.457 I-1.050 J0.000 F1999.800
G2 X111.050 Y10.000 Z5.211 I1.050 J0.000 F1999.800
G2 X108.950 Y10.000 Z4.965 I-1.050 J0.000 F1999.800
G2 X111.050 Y10.000 Z4.719 I1.050 J0.000 F1999.800
G2 X108.950 Y10.000 Z4.473 I-1.050 J0.000 F1999.800
G2 X111.050 Y10.000 Z4.227 I1.050 J0.000 F1999.800
G2 X108.950 Y10.000 Z3.981 I-1.050 J0.000 F1999.800
G2 X111.050 Y10.000 Z3.735 I1.050 J0.000 F1999.800
G2 X108.950 Y10.000 Z3.489 I-1.050 J0.000 F1999.800
G2 X111.050 Y10.000 Z3.243 I1.050 J0.000 F1999.800
G2 X108.950 Y10.000 Z2.997 I-1.050 J0.000 F1999.800
G2 X111.050 Y10.000 Z2.751 I1.050 J0.000 F1999.800
G2 X108.950 Y10.000 Z2.505 I-1.050 J0.000 F1999.800
G2 X111.050 Y10.000 Z2.259 I1.050 J0.000 F1999.800
G2 X108.950 Y10.000 Z2.014 I-1.050 J0.000 F1999.800
G2 X111.050 Y10.000 Z1.768 I1.050 J0.000 F1999.800
G2 X108.950 Y10.000 Z1.522 I-1.050 J0.000 F1999.800
G2 X111.050 Y10.000 Z1.276 I1.050 J0.000 F1999.800
G2 X108.950 Y10.000 Z1.030 I-1.050 J0.000 F1999.800
G2 X111.050 Y10.000 Z0.784 I1.050 J0.000 F1999.800
G2 X108.950 Y10.000 Z0.538 I-1.050 J0.000 F1999.800
G2 X111.050 Y10.000 Z0.292 I1.050 J0.000 F1999.800
G2 X108.950 Y10.000 Z0.046 I-1.050 J0.000 F1999.800
G2 X111.050 Y10.000 Z-0.200 I1.050 J0.000 F1999.800
G2 X108.950 Y10.000 Z-0.200 I-1.050 J0.000 F1999.800
G2 X111.050 Y10.000 Z-0.200 I1.050 J0.000 F1999.800
G0 Z21.000
G0 Z23.000
(Finish operation: Helix)
(Begin operation: Fixture)
(Path: Fixture)
G54
G0 Z23.000
(Finish operation: Fixture)
(Begin operation: DressupTag)
(Coolant On:Mist)
M7
(Path: DressupTag)
G0 Z23.000
G0 X21.500 Y120.022 Z23.000
G0 X21.500 Y120.022 Z21.000
G1 X21.500 Y120.022 Z17.500 F999.600
G3 X20.000 Y121.500 Z17.500 I-1.500 J-0.022 K0.000 F1999.800
G1 X0.000 Y121.500 Z17.500 F1999.800
G3 X-1.500 Y120.000 Z17.500 I0.000 J-1.500 K0.000 F1999.800
G1 X-1.500 Y0.000 Z17.500 F1999.800
G3 X0.000 Y-1.500 Z17.500 I1.500 J0.000 K0.000 F1999.800
G1 X120.000 Y-1.500 Z17.500 F1999.800
G3 X121.500 Y0.000 Z17.500 I-0.000 J1.500 K0.000 F1999.800
G1 X121.500 Y20.000 Z17.500 F1999.800
G3 X120.000 Y21.500 Z17.500 I-1.500 J-0.000 K0.000 F1999.800
G1 X23.000 Y21.500 Z17.500 F1999.800
G3 X21.505 Y20.118 Z17.500 I0.000 J-1.500 K0.000 F1999.800
G2 X18.523 Y19.766 Z17.500 I-1.498 J-0.111 K0.000 F1999.800
G2 X20.118 Y21.505 Z17.500 I1.497 J0.227 K0.000 F1999.800
G3 X21.500 Y23.000 Z17.500 I-0.118 J1.495 K0.000 F1999.800
G1 X21.500 Y120.000 Z17.500 F1999.800
G3 X21.500 Y120.022 Z17.500 I-1.500 J-0.000 K0.000 F1999.800
G1 X21.500 Y120.022 Z17.000 F999.600
G3 X20.000 Y121.500 Z17.000 I-1.500 J-0.022 K0.000 F1999.800
G1 X0.000 Y121.500 Z17.000 F1999.800
G3 X-1.500 Y120.000 Z17.000 I0.000 J-1.500 K0.000 F1999.800
G1 X-1.500 Y0.000 Z17.000 F1999.800
G3 X0.000 Y-1.500 Z17.000 I1.500 J0.000 K0.000 F1999.800
G1 X120.000 Y-1.500 Z17.000 F1999.800
G3 X121.500 Y0.000 Z17.000 I-0.000 J1.500 K0.000 F1999.800
G1 X121.500 Y20.000 Z17.000 F1999.800
G3 X120.000 Y21.500 Z17.000 I-1.500 J-0.000 K0.000 F1999.800
G1 X23.000 Y21.500 Z17.000 F1999.800
G3 X21.505 Y20.118 Z17.000 I0.000 J-1.500 K0.000 F1999.800
G2 X18.523 Y19.766 Z17.000 I-1.498 J-0.111 K0.000 F1999.800
G2 X20.118 Y21.505 Z17.000 I1.497 J0.227 K0.000 F1999.800
G3 X21.500 Y23.000 Z17.000 I-0.118 J1.495 K0.000 F1999.800
G1 X21.500 Y120.000 Z17.000 F1999.800
G3 X21.500 Y120.022 Z17.000 I-1.500 J-0.000 K0.000 F1999.800
G1 X21.500 Y120.022 Z16.500 F999.600
G3 X20.000 Y121.500 Z16.500 I-1.500 J-0.022 K0.000 F1999.800
G1 X0.000 Y121.500 Z16.500 F1999.800
G3 X-1.500 Y120.000 Z16.500 I0.000 J-1.500 K0.000 F1999.800
G1 X-1.500 Y0.000 Z16.500 F1999.800
G3 X0.000 Y-1.500 Z16.500 I1.500 J0.000 K0.000 F1999.800
G1 X120.000 Y-1.500 Z16.500 F1999.800
G3 X121.500 Y0.000 Z16.500 I-0.000 J1.500 K0.000 F1999.800
G1 X121.500 Y20.000 Z16.500 F1999.800
G3 X120.000 Y21.500 Z16.500 I-1.500 J-0.000 K0.000 F1999.800
G1 X23.000 Y21.500 Z16.500 F1999.800
G3 X21.505 Y20.118 Z16.500 I0.000 J-1.500 K0.000 F1999.800
G2 X18.523 Y19.766 Z16.500 I-1.498 J-0.111 K0.000 F1999.800
G2 X20.118 Y21.505 Z16.500 I1.497 J0.227 K0.000 F1999.800
G3 X21.500 Y23.000 Z16.500 I-0.118 J1.495 K0.000 F1999.800
G1 X21.500 Y120.000 Z16.500 F1999.800
G3 X21.500 Y120.022 Z16.500 I-1.500 J-0.000 K0.000 F1999.800
G1 X21.500 Y120.022 Z16.000 F999.600
G3 X20.000 Y121.500 Z16.000 I-1.500 J-0.022 K0.000 F1999.800
G1 X0.000 Y121.500 Z16.000 F1999.800
G3 X-1.500 Y120.000 Z16.000 I0.000 J-1.500 K0.000 F1999.800
G1 X-1.500 Y0.000 Z16.000 F1999.800
G3 X0.000 Y-1.500 Z16.000 I1.500 J0.000 K0.000 F1999.800
G1 X120.000 Y-1.500 Z16.000 F1999.800
G3 X121.500 Y0.000 Z16.000 I-0.000 J1.500 K0.000 F1999.800
G1 X121.500 Y20.000 Z16.000 F1999.800
G3 X120.000 Y21.500 Z16.000 I-1.500 J-0.000 K0.000 F1999.800
G1 X23.000 Y21.500 Z16.000 F1999.800
G3 X21.505 Y20.118 Z16.000 I0.000 J-1.500 K0.000 F1999.800
G2 X18.523 Y19.766 Z16.000 I-1.498 J-0.111 K0.000 F1999.800
G2 X20.118 Y21.505 Z16.000 I1.497 J0.227 K0.000 F1999.800
G3 X21.500 Y23.000 Z16.000 I-0.118 J1.495 K0.000 F1999.800
G1 X21.500 Y120.000 Z16.000 F1999.800
G3 X21.500 Y120.022 Z16.000 I-1.500 J-0.000 K0.000 F1999.800
G1 X21.500 Y120.022 Z15.500 F999.600
G3 X20.000 Y121.500 Z15.500 I-1.500 J-0.022 K0.000 F1999.800
G1 X0.000 Y121.500 Z15.500 F1999.800
G3 X-1.500 Y120.000 Z15.500 I0.000 J-1.500 K0.000 F1999.800
G1 X-1.500 Y0.000 Z15.500 F1999.800
G3 X0.000 Y-1.500 Z15.500 I1.500 J0.000 K0.000 F1999.800
G1 X120.000 Y-1.500 Z15.500 F1999.800
G3 X121.500 Y0.000 Z15.500 I-0.000 J1.500 K0.000 F1999.800
G1 X121.500 Y20.000 Z15.500 F1999.800
G3 X120.000 Y21.500 Z15.500 I-1.500 J-0.000 K0.000 F1999.800
G1 X23.000 Y21.500 Z15.500 F1999.800
G3 X21.505 Y20.118 Z15.500 I0.000 J-1.500 K0.000 F1999.800
G2 X18.523 Y19.766 Z15.500 I-1.498 J-0.111 K0.000 F1999.800
G2 X20.118 Y21.505 Z15.500 I1.497 J0.227 K0.000 F1999.800
G3 X21.500 Y23.000 Z15.500 I-0.118 J1.495 K0.000 F1999.800
G1 X21.500 Y120.000 Z15.500 F1999.800
G3 X21.500 Y120.022 Z15.500 I-1.500 J-0.000 K0.000 F1999.800
G1 X21.500 Y120.022 Z15.000 F999.600
G3 X20.000 Y121.500 Z15.000 I-1.500 J-0.022 K0.000 F1999.800
G1 X0.000 Y121.500 Z15.000 F1999.800
G3 X-1.500 Y120.000 Z15.000 I0.000 J-1.500 K0.000 F1999.800
G1 X-1.500 Y0.000 Z15.000 F1999.800
G3 X0.000 Y-1.500 Z15.000 I1.500 J0.000 K0.000 F1999.800
G1 X120.000 Y-1.500 Z15.000 F1999.800
G3 X121.500 Y0.000 Z15.000 I-0.000 J1.500 K0.000 F1999.800
G1 X121.500 Y20.000 Z15.000 F1999.800
G3 X120.000 Y21.500 Z15.000 I-1.500 J-0.000 K0.000 F1999.800
G1 X23.000 Y21.500 Z15.000 F1999.800
G3 X21.505 Y20.118 Z15.000 I0.000 J-1.500 K0.000 F1999.800
G2 X18.523 Y19.766 Z15.000 I-1.498 J-0.111 K0.000 F1999.800
G2 X20.118 Y21.505 Z15.000 I1.497 J0.227 K0.000 F1999.800
G3 X21.500 Y23.000 Z15.000 I-0.118 J1.495 K0.000 F1999.800
G1 X21.500 Y120.000 Z15.000 F1999.800
G3 X21.500 Y120.022 Z15.000 I-1.500 J-0.000 K0.000 F1999.800
G1 X21.500 Y120.022 Z14.500 F999.600
G3 X20.000 Y121.500 Z14.500 I-1.500 J-0.022 K0.000 F1999.800
G1 X0.000 Y121.500 Z14.500 F1999.800
G3 X-1.500 Y120.000 Z14.500 I0.000 J-1.500 K0.000 F1999.800
G1 X-1.500 Y0.000 Z14.500 F1999.800
G3 X0.000 Y-1.500 Z14.500 I1.500 J0.000 K0.000 F1999.800
G1 X120.000 Y-1.500 Z14.500 F1999.800
G3 X121.500 Y0.000 Z14.500 I-0.000 J1.500 K0.000 F1999.800
G1 X121.500 Y20.000 Z14.500 F1999.800
G3 X120.000 Y21.500 Z14.500 I-1.500 J-0.000 K0.000 F1999.800
G1 X23.000 Y21.500 Z14.500 F1999.800
G3 X21.505 Y20.118 Z14.500 I0.000 J-1.500 K0.000 F1999.800
G2 X18.523 Y19.766 Z14.500 I-1.498 J-0.111 K0.000 F1999.800
G2 X20.118 Y21.505 Z14.500 I1.497 J0.227 K0.000 F1999.800
G3 X21.500 Y23.000 Z14.500 I-0.118 J1.495 K0.000 F1999.800
G1 X21.500 Y120.000 Z14.500 F1999.800
G3 X21.500 Y120.022 Z14.500 I-1.500 J-0.000 K0.000 F1999.800
G1 X21.500 Y120.022 Z14.000 F999.600
G3 X20.000 Y121.500 Z14.000 I-1.500 J-0.022 K0.000 F1999.800
G1 X0.000 Y121.500 Z14.000 F1999.800
G3 X-1.500 Y120.000 Z14.000 I0.000 J-1.500 K0.000 F1999.800
G1 X-1.500 Y0.000 Z14.000 F1999.800
G3 X0.000 Y-1.500 Z14.000 I1.500 J0.000 K0.000 F1999.800
G1 X120.000 Y-1.500 Z14.000 F1999.800
G3 X121.500 Y0.000 Z14.000 I-0.000 J1.500 K0.000 F1999.800
G1 X121.500 Y20.000 Z14.000 F1999.800
G3 X120.000 Y21.500 Z14.000 I-1.500 J-0.000 K0.000 F1999.800
G1 X23.000 Y21.500 Z14.000 F1999.800
G3 X21.505 Y20.118 Z14.000 I0.000 J-1.500 K0.000 F1999.800
G2 X18.523 Y19.766 Z14.000 I-1.498 J-0.111 K0.000 F1999.800
G2 X20.118 Y21.505 Z14.000 I1.497 J0.227 K0.000 F1999.800
G3 X21.500 Y23.000 Z14.000 I-0.118 J1.495 K0.000 F1999.800
G1 X21.500 Y120.000 Z14.000 F1999.800
G3 X21.500 Y120.022 Z14.000 I-1.500 J-0.000 K0.000 F1999.800
G1 X21.500 Y120.022 Z13.500 F999.600
G3 X20.000 Y121.500 Z13.500 I-1.500 J-0.022 K0.000 F1999.800
G1 X0.000 Y121.500 Z13.500 F1999.800
G3 X-1.500 Y120.000 Z13.500 I0.000 J-1.500 K0.000 F1999.800
G1 X-1.500 Y0.000 Z13.500 F1999.800
G3 X0.000 Y-1.500 Z13.500 I1.500 J0.000 K0.000 F1999.800
G1 X120.000 Y-1.500 Z13.500 F1999.800
G3 X121.500 Y0.000 Z13.500 I-0.000 J1.500 K0.000 F1999.800
G1 X121.500 Y20.000 Z13.500 F1999.800
G3 X120.000 Y21.500 Z13.500 I-1.500 J-0.000 K0.000 F1999.800
G1 X23.000 Y21.500 Z13.500 F1999.800
G3 X21.505 Y20.118 Z13.500 I0.000 J-1.500 K0.000 F1999.800
G2 X18.523 Y19.766 Z13.500 I-1.498 J-0.111 K0.000 F1999.800
G2 X20.118 Y21.505 Z13.500 I1.497 J0.227 K0.000 F1999.800
G3 X21.500 Y23.000 Z13.500 I-0.118 J1.495 K0.000 F1999.800
G1 X21.500 Y120.000 Z13.500 F1999.800
G3 X21.500 Y120.022 Z13.500 I-1.500 J-0.000 K0.000 F1999.800
G1 X21.500 Y120.022 Z13.000 F999.600
G3 X20.000 Y121.500 Z13.000 I-1.500 J-0.022 K0.000 F1999.800
G1 X0.000 Y121.500 Z13.000 F1999.800
G3 X-1.500 Y120.000 Z13.000 I0.000 J-1.500 K0.000 F1999.800
G1 X-1.500 Y0.000 Z13.000 F1999.800
G3 X0.000 Y-1.500 Z13.000 I1.500 J0.000 K0.000 F1999.800
G1 X120.000 Y-1.500 Z13.000 F1999.800
G3 X121.500 Y0.000 Z13.000 I-0.000 J1.500 K0.000 F1999.800
G1 X121.500 Y20.000 Z13.000 F1999.800
G3 X120.000 Y21.500 Z13.000 I-1.500 J-0.000 K0.000 F1999.800
G1 X23.000 Y21.500 Z13.000 F1999.800
G3 X21.505 Y20.118 Z13.000 I0.000 J-1.500 K0.000 F1999.800
G2 X18.523 Y19.766 Z13.000 I-1.498 J-0.111 K0.000 F1999.800
G2 X20.118 Y21.505 Z13.000 I1.497 J0.227 K0.000 F1999.800
G3 X21.500 Y23.000 Z13.000 I-0.118 J1.495 K0.000 F1999.800
G1 X21.500 Y120.000 Z13.000 F1999.800
G3 X21.500 Y120.022 Z13.000 I-1.500 J-0.000 K0.000 F1999.800
G1 X21.500 Y120.022 Z12.500 F999.600
G3 X20.000 Y121.500 Z12.500 I-1.500 J-0.022 K0.000 F1999.800
G1 X0.000 Y121.500 Z12.500 F1999.800
G3 X-1.500 Y120.000 Z12.500 I0.000 J-1.500 K0.000 F1999.800
G1 X-1.500 Y0.000 Z12.500 F1999.800
G3 X0.000 Y-1.500 Z12.500 I1.500 J0.000 K0.000 F1999.800
G1 X120.000 Y-1.500 Z12.500 F1999.800
G3 X121.500 Y0.000 Z12.500 I-0.000 J1.500 K0.000 F1999.800
G1 X121.500 Y20.000 Z12.500 F1999.800
G3 X120.000 Y21.500 Z12.500 I-1.500 J-0.000 K0.000 F1999.800
G1 X23.000 Y21.500 Z12.500 F1999.800
G3 X21.505 Y20.118 Z12.500 I0.000 J-1.500 K0.000 F1999.800
G2 X18.523 Y19.766 Z12.500 I-1.498 J-0.111 K0.000 F1999.800
G2 X20.118 Y21.505 Z12.500 I1.497 J0.227 K0.000 F1999.800
G3 X21.500 Y23.000 Z12.500 I-0.118 J1.495 K0.000 F1999.800
G1 X21.500 Y120.000 Z12.500 F1999.800
G3 X21.500 Y120.022 Z12.500 I-1.500 J-0.000 K0.000 F1999.800
G1 X21.500 Y120.022 Z12.000 F999.600
G3 X20.000 Y121.500 Z12.000 I-1.500 J-0.022 K0.000 F1999.800
G1 X0.000 Y121.500 Z12.000 F1999.800
G3 X-1.500 Y120.000 Z12.000 I0.000 J-1.500 K0.000 F1999.800
G1 X-1.500 Y0.000 Z12.000 F1999.800
G3 X0.000 Y-1.500 Z12.000 I1.500 J0.000 K0.000 F1999.800
G1 X120.000 Y-1.500 Z12.000 F1999.800
G3 X121.500 Y0.000 Z12.000 I-0.000 J1.500 K0.000 F1999.800
G1 X121.500 Y20.000 Z12.000 F1999.800
G3 X120.000 Y21.500 Z12.000 I-1.500 J-0.000 K0.000 F1999.800
G1 X23.000 Y21.500 Z12.000 F1999.800
G3 X21.505 Y20.118 Z12.000 I0.000 J-1.500 K0.000 F1999.800
G2 X18.523 Y19.766 Z12.000 I-1.498 J-0.111 K0.000 F1999.800
G2 X20.118 Y21.505 Z12.000 I1.497 J0.227 K0.000 F1999.800
G3 X21.500 Y23.000 Z12.000 I-0.118 J1.495 K0.000 F1999.800
G1 X21.500 Y120.000 Z12.000 F1999.800
G3 X21.500 Y120.022 Z12.000 I-1.500 J-0.000 K0.000 F1999.800
G1 X21.500 Y120.022 Z11.500 F999.600
G3 X20.000 Y121.500 Z11.500 I-1.500 J-0.022 K0.000 F1999.800
G1 X0.000 Y121.500 Z11.500 F1999.800
G3 X-1.500 Y120.000 Z11.500 I0.000 J-1.500 K0.000 F1999.800
G1 X-1.500 Y0.000 Z11.500 F1999.800
G3 X0.000 Y-1.500 Z11.500 I1.500 J0.000 K0.000 F1999.800
G1 X120.000 Y-1.500 Z11.500 F1999.800
G3 X121.500 Y0.000 Z11.500 I-0.000 J1.500 K0.000 F1999.800
G1 X121.500 Y20.000 Z11.500 F1999.800
G3 X120.000 Y21.500 Z11.500 I-1.500 J-0.000 K0.000 F1999.800
G1 X23.000 Y21.500 Z11.500 F1999.800
G3 X21.505 Y20.118 Z11.500 I0.000 J-1.500 K0.000 F1999.800
G2 X18.523 Y19.766 Z11.500 I-1.498 J-0.111 K0.000 F1999.800
G2 X20.118 Y21.505 Z11.500 I1.497 J0.227 K0.000 F1999.800
G3 X21.500 Y23.000 Z11.500 I-0.118 J1.495 K0.000 F1999.800
G1 X21.500 Y120.000 Z11.500 F1999.800
G3 X21.500 Y120.022 Z11.500 I-1.500 J-0.000 K0.000 F1999.800
G1 X21.500 Y120.022 Z11.000 F999.600
G3 X20.000 Y121.500 Z11.000 I-1.500 J-0.022 K0.000 F1999.800
G1 X0.000 Y121.500 Z11.000 F1999.800
G3 X-1.500 Y120.000 Z11.000 I0.000 J-1.500 K0.000 F1999.800
G1 X-1.500 Y0.000 Z11.000 F1999.800
G3 X0.000 Y-1.500 Z11.000 I1.500 J0.000 K0.000 F1999.800
G1 X120.000 Y-1.500 Z11.000 F1999.800
G3 X121.500 Y0.000 Z11.000 I-0.000 J1.500 K0.000 F1999.800
G1 X121.500 Y20.000 Z11.000 F1999.800
G3 X120.000 Y21.500 Z11.000 I-1.500 J-0.000 K0.000 F1999.800
G1 X23.000 Y21.500 Z11.000 F1999.800
G3 X21.505 Y20.118 Z11.000 I0.000 J-1.500 K0.000 F1999.800
G2 X18.523 Y19.766 Z11.000 I-1.498 J-0.111 K0.000 F1999.800
G2 X20.118 Y21.505 Z11.000 I1.497 J0.227 K0.000 F1999.800
G3 X21.500 Y23.000 Z11.000 I-0.118 J1.495 K0.000 F1999.800
G1 X21.500 Y120.000 Z11.000 F1999.800
G3 X21.500 Y120.022 Z11.000 I-1.500 J-0.000 K0.000 F1999.800
G1 X21.500 Y120.022 Z10.500 F999.600
G3 X20.000 Y121.500 Z10.500 I-1.500 J-0.022 K0.000 F1999.800
G1 X0.000 Y121.500 Z10.500 F1999.800
G3 X-1.500 Y120.000 Z10.500 I0.000 J-1.500 K0.000 F1999.800
G1 X-1.500 Y0.000 Z10.500 F1999.800
G3 X0.000 Y-1.500 Z10.500 I1.500 J0.000 K0.000 F1999.800
G1 X120.000 Y-1.500 Z10.500 F1999.800
G3 X121.500 Y0.000 Z10.500 I-0.000 J1.500 K0.000 F1999.800
G1 X121.500 Y20.000 Z10.500 F1999.800
G3 X120.000 Y21.500 Z10.500 I-1.500 J-0.000 K0.000 F1999.800
G1 X23.000 Y21.500 Z10.500 F1999.800
G3 X21.505 Y20.118 Z10.500 I0.000 J-1.500 K0.000 F1999.800
G2 X18.523 Y19.766 Z10.500 I-1.498 J-0.111 K0.000 F1999.800
G2 X20.118 Y21.505 Z10.500 I1.497 J0.227 K0.000 F1999.800
G3 X21.500 Y23.000 Z10.500 I-0.118 J1.495 K0.000 F1999.800
G1 X21.500 Y120.000 Z10.500 F1999.800
G3 X21.500 Y120.022 Z10.500 I-1.500 J-0.000 K0.000 F1999.800
G1 X21.500 Y120.022 Z10.000 F999.600
G3 X20.000 Y121.500 Z10.000 I-1.500 J-0.022 K0.000 F1999.800
G1 X0.000 Y121.500 Z10.000 F1999.800
G3 X-1.500 Y120.000 Z10.000 I0.000 J-1.500 K0.000 F1999.800
G1 X-1.500 Y0.000 Z10.000 F1999.800
G3 X0.000 Y-1.500 Z10.000 I1.500 J0.000 K0.000 F1999.800
G1 X120.000 Y-1.500 Z10.000 F1999.800
G3 X121.500 Y0.000 Z10.000 I-0.000 J1.500 K0.000 F1999.800
G1 X121.500 Y20.000 Z10.000 F1999.800
G3 X120.000 Y21.500 Z10.000 I-1.500 J-0.000 K0.000 F1999.800
G1 X23.000 Y21.500 Z10.000 F1999.800
G3 X21.505 Y20.118 Z10.000 I0.000 J-1.500 K0.000 F1999.800
G2 X18.523 Y19.766 Z10.000 I-1.498 J-0.111 K0.000 F1999.800
G2 X20.118 Y21.505 Z10.000 I1.497 J0.227 K0.000 F1999.800
G3 X21.500 Y23.000 Z10.000 I-0.118 J1.495 K0.000 F1999.800
G1 X21.500 Y120.000 Z10.000 F1999.800
G3 X21.500 Y120.022 Z10.000 I-1.500 J-0.000 K0.000 F1999.800
G1 X21.500 Y120.022 Z9.500 F999.600
G3 X20.000 Y121.500 Z9.500 I-1.500 J-0.022 K0.000 F1999.800
G1 X0.000 Y121.500 Z9.500 F1999.800
G3 X-1.500 Y120.000 Z9.500 I0.000 J-1.500 K0.000 F1999.800
G1 X-1.500 Y0.000 Z9.500 F1999.800
G3 X0.000 Y-1.500 Z9.500 I1.500 J0.000 K0.000 F1999.800
G1 X120.000 Y-1.500 Z9.500 F1999.800
G3 X121.500 Y0.000 Z9.500 I-0.000 J1.500 K0.000 F1999.800
G1 X121.500 Y20.000 Z9.500 F1999.800
G3 X120.000 Y21.500 Z9.500 I-1.500 J-0.000 K0.000 F1999.800
G1 X23.000 Y21.500 Z9.500 F1999.800
G3 X21.505 Y20.118 Z9.500 I0.000 J-1.500 K0.000 F1999.800
G2 X18.523 Y19.766 Z9.500 I-1.498 J-0.111 K0.000 F1999.800
G2 X20.118 Y21.505 Z9.500 I1.497 J0.227 K0.000 F1999.800
G3 X21.500 Y23.000 Z9.500 I-0.118 J1.495 K0.000 F1999.800
G1 X21.500 Y120.000 Z9.500 F1999.800
G3 X21.500 Y120.022 Z9.500 I-1.500 J-0.000 K0.000 F1999.800
G1 X21.500 Y120.022 Z9.000 F999.600
G3 X20.000 Y121.500 Z9.000 I-1.500 J-0.022 K0.000 F1999.800
G1 X0.000 Y121.500 Z9.000 F1999.800
G3 X-1.500 Y120.000 Z9.000 I0.000 J-1.500 K0.000 F1999.800
G1 X-1.500 Y0.000 Z9.000 F1999.800
G3 X0.000 Y-1.500 Z9.000 I1.500 J0.000 K0.000 F1999.800
G1 X120.000 Y-1.500 Z9.000 F1999.800
G3 X121.500 Y0.000 Z9.000 I-0.000 J1.500 K0.000 F1999.800
G1 X121.500 Y20.000 Z9.000 F1999.800
G3 X120.000 Y21.500 Z9.000 I-1.500 J-0.000 K0.000 F1999.800
G1 X23.000 Y21.500 Z9.000 F1999.800
G3 X21.505 Y20.118 Z9.000 I0.000 J-1.500 K0.000 F1999.800
G2 X18.523 Y19.766 Z9.000 I-1.498 J-0.111 K0.000 F1999.800
G2 X20.118 Y21.505 Z9.000 I1.497 J0.227 K0.000 F1999.800
G3 X21.500 Y23.000 Z9.000 I-0.118 J1.495 K0.000 F1999.800
G1 X21.500 Y120.000 Z9.000 F1999.800
G3 X21.500 Y120.022 Z9.000 I-1.500 J-0.000 K0.000 F1999.800
G1 X21.500 Y120.022 Z8.500 F999.600
G3 X20.000 Y121.500 Z8.500 I-1.500 J-0.022 K0.000 F1999.800
G1 X0.000 Y121.500 Z8.500 F1999.800
G3 X-1.500 Y120.000 Z8.500 I0.000 J-1.500 K0.000 F1999.800
G1 X-1.500 Y0.000 Z8.500 F1999.800
G3 X0.000 Y-1.500 Z8.500 I1.500 J0.000 K0.000 F1999.800
G1 X120.000 Y-1.500 Z8.500 F1999.800
G3 X121.500 Y0.000 Z8.500 I-0.000 J1.500 K0.000 F1999.800
G1 X121.500 Y20.000 Z8.500 F1999.800
G3 X120.000 Y21.500 Z8.500 I-1.500 J-0.000 K0.000 F1999.800
G1 X23.000 Y21.500 Z8.500 F1999.800
G3 X21.505 Y20.118 Z8.500 I0.000 J-1.500 K0.000 F1999.800
G2 X18.523 Y19.766 Z8.500 I-1.498 J-0.111 K0.000 F1999.800
G2 X20.118 Y21.505 Z8.500 I1.497 J0.227 K0.000 F1999.800
G3 X21.500 Y23.000 Z8.500 I-0.118 J1.495 K0.000 F1999.800
G1 X21.500 Y120.000 Z8.500 F1999.800
G3 X21.500 Y120.022 Z8.500 I-1.500 J-0.000 K0.000 F1999.800
G1 X21.500 Y120.022 Z8.000 F999.600
G3 X20.000 Y121.500 Z8.000 I-1.500 J-0.022 K0.000 F1999.800
G1 X0.000 Y121.500 Z8.000 F1999.800
G3 X-1.500 Y120.000 Z8.000 I0.000 J-1.500 K0.000 F1999.800
G1 X-1.500 Y0.000 Z8.000 F1999.800
G3 X0.000 Y-1.500 Z8.000 I1.500 J0.000 K0.000 F1999.800
G1 X120.000 Y-1.500 Z8.000 F1999.800
G3 X121.500 Y0.000 Z8.000 I-0.000 J1.500 K0.000 F1999.800
G1 X121.500 Y20.000 Z8.000 F1999.800
G3 X120.000 Y21.500 Z8.000 I-1.500 J-0.000 K0.000 F1999.800
G1 X23.000 Y21.500 Z8.000 F1999.800
G3 X21.505 Y20.118 Z8.000 I0.000 J-1.500 K0.000 F1999.800
G2 X18.523 Y19.766 Z8.000 I-1.498 J-0.111 K0.000 F1999.800
G2 X20.118 Y21.505 Z8.000 I1.497 J0.227 K0.000 F1999.800
G3 X21.500 Y23.000 Z8.000 I-0.118 J1.495 K0.000 F1999.800
G1 X21.500 Y120.000 Z8.000 F1999.800
G3 X21.500 Y120.022 Z8.000 I-1.500 J-0.000 K0.000 F1999.800
G1 X21.500 Y120.022 Z7.500 F999.600
G3 X20.000 Y121.500 Z7.500 I-1.500 J-0.022 K0.000 F1999.800
G1 X0.000 Y121.500 Z7.500 F1999.800
G3 X-1.500 Y120.000 Z7.500 I0.000 J-1.500 K0.000 F1999.800
G1 X-1.500 Y0.000 Z7.500 F1999.800
G3 X0.000 Y-1.500 Z7.500 I1.500 J0.000 K0.000 F1999.800
G1 X120.000 Y-1.500 Z7.500 F1999.800
G3 X121.500 Y0.000 Z7.500 I-0.000 J1.500 K0.000 F1999.800
G1 X121.500 Y20.000 Z7.500 F1999.800
G3 X120.000 Y21.500 Z7.500 I-1.500 J-0.000 K0.000 F1999.800
G1 X23.000 Y21.500 Z7.500 F1999.800
G3 X21.505 Y20.118 Z7.500 I0.000 J-1.500 K0.000 F1999.800
G2 X18.523 Y19.766 Z7.500 I-1.498 J-0.111 K0.000 F1999.800
G2 X20.118 Y21.505 Z7.500 I1.497 J0.227 K0.000 F1999.800
G3 X21.500 Y23.000 Z7.500 I-0.118 J1.495 K0.000 F1999.800
G1 X21.500 Y120.000 Z7.500 F1999.800
G3 X21.500 Y120.022 Z7.500 I-1.500 J-0.000 K0.000 F1999.800
G1 X21.500 Y120.022 Z7.000 F999.600
G3 X20.000 Y121.500 Z7.000 I-1.500 J-0.022 K0.000 F1999.800
G1 X9.056 Y121.500 Z7.000 F1999.800
G1 X8.760 Y121.500 Z7.299 F1496.532
G1 X8.464 Y121.500 Z7.000 F1496.532
G1 X0.000 Y121.500 Z7.000 F1999.800
G3 X-1.500 Y120.000 Z7.000 I0.000 J-1.500 K0.000 F1999.800
G1 X-1.500 Y60.296 Z7.000 F1999.800
G1 X-1.500 Y60.000 Z7.299 F1496.532
G1 X-1.500 Y59.704 Z7.000 F1496.532
G1 X-1.500 Y0.000 Z7.000 F1999.800
G3 X0.000 Y-1.500 Z7.000 I1.500 J0.000 K0.000 F1999.800
G1 X59.704 Y-1.500 Z7.000 F1999.800
G1 X60.000 Y-1.500 Z7.299 F1496.532
G1 X60.296 Y-1.500 Z7.000 F1496.532
G1 X120.000 Y-1.500 Z7.000 F1999.800
G3 X121.500 Y0.000 Z7.000 I-0.000 J1.500 K0.000 F1999.800
G1 X121.500 Y8.974 Z7.000 F1999.800
G1 X121.500 Y9.270 Z7.299 F1496.532
G1 X121.500 Y9.566 Z7.000 F1496.532
G1 X121.500 Y20.000 Z7.000 F1999.800
G3 X120.000 Y21.500 Z7.000 I-1.500 J-0.000 K0.000 F1999.800
G1 X71.796 Y21.500 Z7.000 F1999.800
G1 X71.500 Y21.500 Z7.299 F1496.532
G1 X71.204 Y21.500 Z7.000 F1496.532
G1 X23.000 Y21.500 Z7.000 F1999.800
G3 X21.505 Y20.118 Z7.000 I0.000 J-1.500 K0.000 F1999.800
G2 X18.523 Y19.766 Z7.000 I-1.498 J-0.111 K0.000 F1999.800
G2 X20.118 Y21.505 Z7.000 I1.497 J0.227 K0.000 F1999.800
G3 X21.500 Y23.000 Z7.000 I-0.118 J1.495 K0.000 F1999.800
G1 X21.500 Y71.204 Z7.000 F1999.800
G1 X21.500 Y71.500 Z7.299 F1496.532
G1 X21.500 Y71.796 Z7.000 F1496.532
G1 X21.500 Y120.000 Z7.000 F1999.800
G3 X21.500 Y120.022 Z7.000 I-1.500 J-0.000 K0.000 F1999.800
G1 X21.500 Y120.022 Z6.500 F999.600
G3 X20.000 Y121.500 Z6.500 I-1.500 J-0.022 K0.000 F1999.800
G1 X9.551 Y121.500 Z6.500 F1999.800
G1 X8.760 Y121.500 Z7.299 F1496.532
G1 X7.969 Y121.500 Z6.500 F1496.532
G1 X0.000 Y121.500 Z6.500 F1999.800
G3 X-1.500 Y120.000 Z6.500 I0.000 J-1.500 K0.000 F1999.800
G1 X-1.500 Y60.791 Z6.500 F1999.800
G1 X-1.500 Y60.000 Z7.299 F1496.532
G1 X-1.500 Y59.209 Z6.500 F1496.532
G1 X-1.500 Y0.000 Z6.500 F1999.800
G3 X0.000 Y-1.500 Z6.500 I1.500 J0.000 K0.000 F1999.800
G1 X59.209 Y-1.500 Z6.500 F1999.800
G1 X60.000 Y-1.500 Z7.299 F1496.532
G1 X60.791 Y-1.500 Z6.500 F1496.532
G1 X120.000 Y-1.500 Z6.500 F1999.800
G3 X121.500 Y0.000 Z6.500 I-0.000 J1.500 K0.000 F1999.800
G1 X121.500 Y8.479 Z6.500 F1999.800
G1 X121.500 Y9.270 Z7.299 F1496.532
G1 X121.500 Y10.061 Z6.500 F1496.532
G1 X121.500 Y20.000 Z6.500 F1999.800
G3 X120.000 Y21.500 Z6.500 I-1.500 J-0.000 K0.000 F1999.800
G1 X72.291 Y21.500 Z6.500 F1999.800
G1 X71.500 Y21.500 Z7.299 F1496.532
G1 X70.709 Y21.500 Z6.500 F1496.532
G1 X23.000 Y21.500 Z6.500 F1999.800
G3 X21.505 Y20.118 Z6.500 I0.000 J-1.500 K0.000 F1999.800
G2 X18.523 Y19.766 Z6.500 I-1.498 J-0.111 K0.000 F1999.800
G2 X20.118 Y21.505 Z6.500 I1.497 J0.227 K0.000 F1999.800
G3 X21.500 Y23.000 Z6.500 I-0.118 J1.495 K0.000 F1999.800
G1 X21.500 Y70.709 Z6.500 F1999.800
G1 X21.500 Y71.500 Z7.299 F1496.532
G1 X21.500 Y72.291 Z6.500 F1496.532
G1 X21.500 Y120.000 Z6.500 F1999.800
G3 X21.500 Y120.022 Z6.500 I-1.500 J-0.000 K0.000 F1999.800
G1 X21.500 Y120.022 Z6.000 F999.600
G3 X20.000 Y121.500 Z6.000 I-1.500 J-0.022 K0.000 F1999.800
G1 X10.046 Y121.500 Z6.000 F1999.800
G1 X8.760 Y121.500 Z7.299 F1496.532
G1 X7.474 Y121.500 Z6.000 F1496.532
G1 X0.000 Y121.500 Z6.000 F1999.800
G3 X-1.500 Y120.000 Z6.000 I0.000 J-1.500 K0.000 F1999.800
G1 X-1.500 Y61.286 Z6.000 F1999.800
G1 X-1.500 Y60.000 Z7.299 F1496.532
G1 X-1.500 Y58.714 Z6.000 F1496.532
G1 X-1.500 Y0.000 Z6.000 F1999.800
G3 X0.000 Y-1.500 Z6.000 I1.500 J0.000 K0.000 F1999.800
G1 X58.714 Y-1.500 Z6.000 F1999.800
G1 X60.000 Y-1.500 Z7.299 F1496.532
G1 X61.286 Y-1.500 Z6.000 F1496.532
G1 X120.000 Y-1.500 Z6.000 F1999.800
G3 X121.500 Y0.000 Z6.000 I-0.000 J1.500 K0.000 F1999.800
G1 X121.500 Y7.984 Z6.000 F1999.800
G1 X121.500 Y9.270 Z7.299 F1496.532
G1 X121.500 Y10.556 Z6.000 F1496.532
G1 X121.500 Y20.000 Z6.000 F1999.800
G3 X120.000 Y21.500 Z6.000 I-1.500 J-0.000 K0.000 F1999.800
G1 X72.786 Y21.500 Z6.000 F1999.800
G1 X71.500 Y21.500 Z7.299 F1496.532
G1 X70.214 Y21.500 Z6.000 F1496.532
G1 X23.000 Y21.500 Z6.000 F1999.800
G3 X21.505 Y20.118 Z6.000 I0.000 J-1.500 K0.000 F1999.800
G2 X18.523 Y19.766 Z6.000 I-1.498 J-0.111 K0.000 F1999.800
G2 X20.118 Y21.505 Z6.000 I1.497 J0.227 K0.000 F1999.800
G3 X21.500 Y23.000 Z6.000 I-0.118 J1.495 K0.000 F1999.800
G1 X21.500 Y70.214 Z6.000 F1999.800
G1 X21.500 Y71.500 Z7.299 F1496.532
G1 X21.500 Y72.786 Z6.000 F1496.532
G1 X21.500 Y120.000 Z6.000 F1999.800
G3 X21.500 Y120.022 Z6.000 I-1.500 J-0.000 K0.000 F1999.800
G1 X21.500 Y120.022 Z5.500 F999.600
G3 X20.000 Y121.500 Z5.500 I-1.500 J-0.022 K0.000 F1999.800
G1 X10.541 Y121.500 Z5.500 F1999.800
G1 X8.760 Y121.500 Z7.299 F1496.532
G1 X6.979 Y121.500 Z5.500 F1496.532
G1 X0.000 Y121.500 Z5.500 F1999.800
G3 X-1.500 Y120.000 Z5.500 I0.000 J-1.500 K0.000 F1999.800
G1 X-1.500 Y61.781 Z5.500 F1999.800
G1 X-1.500 Y60.000 Z7.299 F1496.532
G1 X-1.500 Y58.219 Z5.500 F1496.532
G1 X-1.500 Y0.000 Z5.500 F1999.800
G3 X0.000 Y-1.500 Z5.500 I1.500 J0.000 K0.000 F1999.800
G1 X58.219 Y-1.500 Z5.500 F1999.800
G1 X60.000 Y-1.500 Z7.299 F1496.532
G1 X61.781 Y-1.500 Z5.500 F1496.532
G1 X120.000 Y-1.500 Z5.500 F1999.800
G3 X121.500 Y0.000 Z5.500 I-0.000 J1.500 K0.000 F1999.800
G1 X121.500 Y7.489 Z5.500 F1999.800
G1 X121.500 Y9.270 Z7.299 F1496.532
G1 X121.500 Y11.051 Z5.500 F1496.532
G1 X121.500 Y20.000 Z5.500 F1999.800
G3 X120.000 Y21.500 Z5.500 I-1.500 J-0.000 K0.000 F1999.800
G1 X73.281 Y21.500 Z5.500 F1999.800
G1 X71.500 Y21.500 Z7.299 F1496.532
G1 X69.719 Y21.500 Z5.500 F1496.532
G1 X23.000 Y21.500 Z5.500 F1999.800
G3 X21.505 Y20.118 Z5.500 I0.000 J-1.500 K0.000 F1999.800
G2 X18.523 Y19.766 Z5.500 I-1.498 J-0.111 K0.000 F1999.800
G2 X20.118 Y21.505 Z5.500 I1.497 J0.227 K0.000 F1999.800
G3 X21.500 Y23.000 Z5.500 I-0.118 J1.495 K0.000 F1999.800
G1 X21.500 Y69.719 Z5.500 F1999.800
G1 X21.500 Y71.500 Z7.299 F1496.532
G1 X21.500 Y73.281 Z5.500 F1496.532
G1 X21.500 Y120.000 Z5.500 F1999.800
G3 X21.500 Y120.022 Z5.500 I-1.500 J-0.000 K0.000 F1999.800
G1 X21.500 Y120.022 Z5.000 F999.600
G3 X20.000 Y121.500 Z5.000 I-1.500 J-0.022 K0.000 F1999.800
G1 X11.036 Y121.500 Z5.000 F1999.800
G1 X8.760 Y121.500 Z7.299 F1496.532
G1 X6.484 Y121.500 Z5.000 F1496.532
G1 X0.000 Y121.500 Z5.000 F1999.800
G3 X-1.500 Y120.000 Z5.000 I0.000 J-1.500 K0.000 F1999.800
G1 X-1.500 Y62.276 Z5.000 F1999.800
G1 X-1.500 Y60.000 Z7.299 F1496.532
G1 X-1.500 Y57.724 Z5.000 F1496.532
G1 X-1.500 Y0.000 Z5.000 F1999.800
G3 X0.000 Y-1.500 Z5.000 I1.500 J0.000 K0.000 F1999.800
G1 X57.724 Y-1.500 Z5.000 F1999.800
G1 X60.000 Y-1.500 Z7.299 F1496.532
G1 X62.276 Y-1.500 Z5.000 F1496.532
G1 X120.000 Y-1.500 Z5.000 F1999.800
G3 X121.500 Y0.000 Z5.000 I-0.000 J1.500 K0.000 F1999.800
G1 X121.500 Y6.994 Z5.000 F1999.800
G1 X121.500 Y9.270 Z7.299 F1496.532
G1 X121.500 Y11.546 Z5.000 F1496.532
G1 X121.500 Y20.000 Z5.000 F1999.800
G3 X120.000 Y21.500 Z5.000 I-1.500 J-0.000 K0.000 F1999.800
G1 X73.776 Y21.500 Z5.000 F1999.800
G1 X71.500 Y21.500 Z7.299 F1496.532
G1 X69.224 Y21.500 Z5.000 F1496.532
G1 X23.000 Y21.500 Z5.000 F1999.800
G3 X21.505 Y20.118 Z5.000 I0.000 J-1.500 K0.000 F1999.800
G2 X18.523 Y19.766 Z5.000 I-1.498 J-0.111 K0.000 F1999.800
G2 X20.118 Y21.505 Z5.000 I1.497 J0.227 K0.000 F1999.800
G3 X21.500 Y23.000 Z5.000 I-0.118 J1.495 K0.000 F1999.800
G1 X21.500 Y69.224 Z5.000 F1999.800
G1 X21.500 Y71.500 Z7.299 F1496.532
G1 X21.500 Y73.776 Z5.000 F1496.532
G1 X21.500 Y120.000 Z5.000 F1999.800
G3 X21.500 Y120.022 Z5.000 I-1.500 J-0.000 K0.000 F1999.800
G1 X21.500 Y120.022 Z4.500 F999.600
G3 X20.000 Y121.500 Z4.500 I-1.500 J-0.022 K0.000 F1999.800
G1 X11.532 Y121.500 Z4.500 F1999.800
G1 X8.760 Y121.500 Z7.299 F1496.532
G1 X5.988 Y121.500 Z4.500 F1496.532
G1 X0.000 Y121.500 Z4.500 F1999.800
G3 X-1.500 Y120.000 Z4.500 I0.000 J-1.500 K0.000 F1999.800
G1 X-1.500 Y62.772 Z4.500 F1999.800
G1 X-1.500 Y60.000 Z7.299 F1496.532
G1 X-1.500 Y57.228 Z4.500 F1496.532
G1 X-1.500 Y0.000 Z4.500 F1999.800
G3 X0.000 Y-1.500 Z4.500 I1.500 J0.000 K0.000 F1999.800
G1 X57.228 Y-1.500 Z4.500 F1999.800
G1 X60.000 Y-1.500 Z7.299 F1496.532
G1 X62.772 Y-1.500 Z4.500 F1496.532
G1 X120.000 Y-1.500 Z4.500 F1999.800
G3 X121.500 Y0.000 Z4.500 I-0.000 J1.500 K0.000 F1999.800
G1 X121.500 Y6.498 Z4.500 F1999.800
G1 X121.500 Y9.270 Z7.299 F1496.532
G1 X121.500 Y12.042 Z4.500 F1496.532
G1 X121.500 Y20.000 Z4.500 F1999.800
G3 X120.000 Y21.500 Z4.500 I-1.500 J-0.000 K0.000 F1999.800
G1 X74.272 Y21.500 Z4.500 F1999.800
G1 X71.500 Y21.500 Z7.299 F1496.532
G1 X68.728 Y21.500 Z4.500 F1496.532
G1 X23.000 Y21.500 Z4.500 F1999.800
G3 X21.505 Y20.118 Z4.500 I0.000 J-1.500 K0.000 F1999.800
G2 X18.523 Y19.766 Z4.500 I-1.498 J-0.111 K0.000 F1999.800
G2 X20.118 Y21.505 Z4.500 I1.497 J0.227 K0.000 F1999.800
G3 X21.500 Y23.000 Z4.500 I-0.118 J1.495 K0.000 F1999.800
G1 X21.500 Y68.728 Z4.500 F1999.800
G1 X21.500 Y71.500 Z7.299 F1496.532
G1 X21.500 Y74.272 Z4.500 F1496.532
G1 X21.500 Y120.000 Z4.500 F1999.800
G3 X21.500 Y120.022 Z4.500 I-1.500 J-0.000 K0.000 F1999.800
G1 X21.500 Y120.022 Z4.000 F999.600
G3 X20.000 Y121.500 Z4.000 I-1.500 J-0.022 K0.000 F1999.800
G1 X12.027 Y121.500 Z4.000 F1999.800
G1 X8.760 Y121.500 Z7.299 F1496.532
G1 X5.493 Y121.500 Z4.000 F1496.532
G1 X0.000 Y121.500 Z4.000 F1999.800
G3 X-1.500 Y120.000 Z4.000 I0.000 J-1.500 K0.000 F1999.800
G1 X-1.500 Y63.267 Z4.000 F1999.800
G1 X-1.500 Y60.000 Z7.299 F1496.532
G1 X-1.500 Y56.733 Z4.000 F1496.532
G1 X-1.500 Y0.000 Z4.000 F1999.800
G3 X0.000 Y-1.500 Z4.000 I1.500 J0.000 K0.000 F1999.800
G1 X56.733 Y-1.500 Z4.000 F1999.800
G1 X60.000 Y-1.500 Z7.299 F1496.532
G1 X63.267 Y-1.500 Z4.000 F1496.532
G1 X120.000 Y-1.500 Z4.000 F1999.800
G3 X121.500 Y0.000 Z4.000 I-0.000 J1.500 K0.000 F1999.800
G1 X121.500 Y6.003 Z4.000 F1999.800
G1 X121.500 Y9.270 Z7.299 F1496.532
G1 X121.500 Y12.537 Z4.000 F1496.532
G1 X121.500 Y20.000 Z4.000 F1999.800
G3 X120.000 Y21.500 Z4.000 I-1.500 J-0.000 K0.000 F1999.800
G1 X74.767 Y21.500 Z4.000 F1999.800
G1 X71.500 Y21.500 Z7.299 F1496.532
G1 X68.233 Y21.500 Z4.000 F1496.532
G1 X23.000 Y21.500 Z4.000 F1999.800
G3 X21.505 Y20.118 Z4.000 I0.000 J-1.500 K0.000 F1999.800
G2 X18.523 Y19.766 Z4.000 I-1.498 J-0.111 K0.000 F1999.800
G2 X20.118 Y21.505 Z4.000 I1.497 J0.227 K0.000 F1999.800
G3 X21.500 Y23.000 Z4.000 I-0.118 J1.495 K0.000 F1999.800
G1 X21.500 Y68.233 Z4.000 F1999.800
G1 X21.500 Y71.500 Z7.299 F1496.532
G1 X21.500 Y74.767 Z4.000 F1496.532
G1 X21.500 Y120.000 Z4.000 F1999.800
G3 X21.500 Y120.022 Z4.000 I-1.500 J-0.000 K0.000 F1999.800
G1 X21.500 Y120.022 Z3.500 F999.600
G3 X20.000 Y121.500 Z3.500 I-1.500 J-0.022 K0.000 F1999.800
G1 X12.522 Y121.500 Z3.500 F1999.800
G1 X8.760 Y121.500 Z7.299 F1496.532
G1 X4.998 Y121.500 Z3.500 F1496.532
G1 X0.000 Y121.500 Z3.500 F1999.800
G3 X-1.500 Y120.000 Z3.500 I0.000 J-1.500 K0.000 F1999.800
G1 X-1.500 Y63.762 Z3.500 F1999.800
G1 X-1.500 Y60.000 Z7.299 F1496.532
G1 X-1.500 Y56.238 Z3.500 F1496.532
G1 X-1.500 Y0.000 Z3.500 F1999.800
G3 X0.000 Y-1.500 Z3.500 I1.500 J0.000 K0.000 F1999.800
G1 X56.238 Y-1.500 Z3.500 F1999.800
G1 X60.000 Y-1.500 Z7.299 F1496.532
G1 X63.762 Y-1.500 Z3.500 F1496.532
G1 X120.000 Y-1.500 Z3.500 F1999.800
G3 X121.500 Y0.000 Z3.500 I-0.000 J1.500 K0.000 F1999.800
G1 X121.500 Y5.508 Z3.500 F1999.800
G1 X121.500 Y9.270 Z7.299 F1496.532
G1 X121.500 Y13.032 Z3.500 F1496.532
G1 X121.500 Y20.000 Z3.500 F1999.800
G3 X120.000 Y21.500 Z3.500 I-1.500 J-0.000 K0.000 F1999.800
G1 X75.262 Y21.500 Z3.500 F1999.800
G1 X71.500 Y21.500 Z7.299 F1496.532
G1 X67.738 Y21.500 Z3.500 F1496.532
G1 X23.000 Y21.500 Z3.500 F1999.800
G3 X21.505 Y20.118 Z3.500 I0.000 J-1.500 K0.000 F1999.800
G2 X18.523 Y19.766 Z3.500 I-1.498 J-0.111 K0.000 F1999.800
G2 X20.118 Y21.505 Z3.500 I1.497 J0.227 K0.000 F1999.800
G3 X21.500 Y23.000 Z3.500 I-0.118 J1.495 K0.000 F1999.800
G1 X21.500 Y67.738 Z3.500 F1999.800
G1 X21.500 Y71.500 Z7.299 F1496.532
G1 X21.500 Y75.262 Z3.500 F1496.532
G1 X21.500 Y120.000 Z3.500 F1999.800
G3 X21.500 Y120.022 Z3.500 I-1.500 J-0.000 K0.000 F1999.800
G1 X21.500 Y120.022 Z3.000 F999.600
G3 X20.000 Y121.500 Z3.000 I-1.500 J-0.022 K0.000 F1999.800
G1 X13.017 Y121.500 Z3.000 F1999.800
G1 X8.760 Y121.500 Z7.299 F1496.532
G1 X4.503 Y121.500 Z3.000 F1496.532
G1 X0.000 Y121.500 Z3.000 F1999.800
G3 X-1.500 Y120.000 Z3.000 I0.000 J-1.500 K0.000 F1999.800
G1 X-1.500 Y64.257 Z3.000 F1999.800
G1 X-1.500 Y60.000 Z7.299 F1496.532
G1 X-1.500 Y55.743 Z3.000 F1496.532
G1 X-1.500 Y0.000 Z3.000 F1999.800
G3 X0.000 Y-1.500 Z3.000 I1.500 J0.000 K0.000 F1999.800
G1 X55.743 Y-1.500 Z3.000 F1999.800
G1 X60.000 Y-1.500 Z7.299 F1496.532
G1 X64.257 Y-1.500 Z3.000 F1496.532
G1 X120.000 Y-1.500 Z3.000 F1999.800
G3 X121.500 Y0.000 Z3.000 I-0.000 J1.500 K0.000 F1999.800
G1 X121.500 Y5.013 Z3.000 F1999.800
G1 X121.500 Y9.270 Z7.299 F1496.532
G1 X121.500 Y13.527 Z3.000 F1496.532
G1 X121.500 Y20.000 Z3.000 F1999.800
G3 X120.000 Y21.500 Z3.000 I-1.500 J-0.000 K0.000 F1999.800
G1 X75.757 Y21.500 Z3.000 F1999.800
G1 X71.500 Y21.500 Z7.299 F1496.532
G1 X67.243 Y21.500 Z3.000 F1496.532
G1 X23.000 Y21.500 Z3.000 F1999.800
G3 X21.505 Y20.118 Z3.000 I0.000 J-1.500 K0.000 F1999.800
G2 X18.523 Y19.766 Z3.000 I-1.498 J-0.111 K0.000 F1999.800
G2 X20.118 Y21.505 Z3.000 I1.497 J0.227 K0.000 F1999.800
G3 X21.500 Y23.000 Z3.000 I-0.118 J1.495 K0.000 F1999.800
G1 X21.500 Y67.243 Z3.000 F1999.800
G1 X21.500 Y71.500 Z7.299 F1496.532
G1 X21.500 Y75.757 Z3.000 F1496.532
G1 X21.500 Y120.000 Z3.000 F1999.800
G3 X21.500 Y120.022 Z3.000 I-1.500 J-0.000 K0.000 F1999.800
G1 X21.500 Y120.022 Z2.500 F999.600
G3 X20.000 Y121.500 Z2.500 I-1.500 J-0.022 K0.000 F1999.800
G1 X13.512 Y121.500 Z2.500 F1999.800
G1 X8.760 Y121.500 Z7.299 F1496.532
G1 X4.008 Y121.500 Z2.500 F1496.532
G1 X0.000 Y121.500 Z2.500 F1999.800
G3 X-1.500 Y120.000 Z2.500 I0.000 J-1.500 K0.000 F1999.800
G1 X-1.500 Y64.752 Z2.500 F1999.800
G1 X-1.500 Y60.000 Z7.299 F1496.532
G1 X-1.500 Y55.248 Z2.500 F1496.532
G1 X-1.500 Y0.000 Z2.500 F1999.800
G3 X0.000 Y-1.500 Z2.500 I1.500 J0.000 K0.000 F1999.800
G1 X55.248 Y-1.500 Z2.500 F1999.800
G1 X60.000 Y-1.500 Z7.299 F1496.532
G1 X64.752 Y-1.500 Z2.500 F1496.532
G1 X120.000 Y-1.500 Z2.500 F1999.800
G3 X121.500 Y0.000 Z2.500 I-0.000 J1.500 K0.000 F1999.800
G1 X121.500 Y4.518 Z2.500 F1999.800
G1 X121.500 Y9.270 Z7.299 F1496.532
G1 X121.500 Y14.022 Z2.500 F1496.532
G1 X121.500 Y20.000 Z2.500 F1999.800
G3 X120.000 Y21.500 Z2.500 I-1.500 J-0.000 K0.000 F1999.800
G1 X76.252 Y21.500 Z2.500 F1999.800
G1 X71.500 Y21.500 Z7.299 F1496.532
G1 X66.748 Y21.500 Z2.500 F1496.532
G1 X23.000 Y21.500 Z2.500 F1999.800
G3 X21.505 Y20.118 Z2.500 I0.000 J-1.500 K0.000 F1999.800
G2 X18.523 Y19.766 Z2.500 I-1.498 J-0.111 K0.000 F1999.800
G2 X20.118 Y21.505 Z2.500 I1.497 J0.227 K0.000 F1999.800
G3 X21.500 Y23.000 Z2.500 I-0.118 J1.495 K0.000 F1999.800
G1 X21.500 Y66.748 Z2.500 F1999.800
G1 X21.500 Y71.500 Z7.299 F1496.532
G1 X21.500 Y76.252 Z2.500 F1496.532
G1 X21.500 Y120.000 Z2.500 F1999.800
G3 X21.500 Y120.022 Z2.500 I-1.500 J-0.000 K0.000 F1999.800
G1 X21.500 Y120.022 Z2.000 F999.600
G3 X20.000 Y121.500 Z2.000 I-1.500 J-0.022 K0.000 F1999.800
G1 X14.007 Y121.500 Z2.000 F1999.800
G1 X8.760 Y121.500 Z7.299 F1496.532
G1 X3.513 Y121.500 Z2.000 F1496.532
G1 X0.000 Y121.500 Z2.000 F1999.800
G3 X-1.500 Y120.000 Z2.000 I0.000 J-1.500 K0.000 F1999.800
G1 X-1.500 Y65.247 Z2.000 F1999.800
G1 X-1.500 Y60.000 Z7.299 F1496.532
G1 X-1.500 Y54.753 Z2.000 F1496.532
G1 X-1.500 Y0.000 Z2.000 F1999.800
G3 X0.000 Y-1.500 Z2.000 I1.500 J0.000 K0.000 F1999.800
G1 X54.753 Y-1.500 Z2.000 F1999.800
G1 X60.000 Y-1.500 Z7.299 F1496.532
G1 X65.247 Y-1.500 Z2.000 F1496.532
G1 X120.000 Y-1.500 Z2.000 F1999.800
G3 X121.500 Y0.000 Z2.000 I-0.000 J1.500 K0.000 F1999.800
G1 X121.500 Y4.023 Z2.000 F1999.800
G1 X121.500 Y9.270 Z7.299 F1496.532
G1 X121.500 Y14.517 Z2.000 F1496.532
G1 X121.500 Y20.000 Z2.000 F1999.800
G3 X120.000 Y21.500 Z2.000 I-1.500 J-0.000 K0.000 F1999.800
G1 X76.747 Y21.500 Z2.000 F1999.800
G1 X71.500 Y21.500 Z7.299 F1496.532
G1 X66.253 Y21.500 Z2.000 F1496.532
G1 X23.000 Y21.500 Z2.000 F1999.800
G3 X21.505 Y20.118 Z2.000 I0.000 J-1.500 K0.000 F1999.800
G2 X18.523 Y19.766 Z2.000 I-1.498 J-0.111 K0.000 F1999.800
G2 X20.118 Y21.505 Z2.000 I1.497 J0.227 K0.000 F1999.800
G3 X21.500 Y23.000 Z2.000 I-0.118 J1.495 K0.000 F1999.800
G1 X21.500 Y66.253 Z2.000 F1999.800
G1 X21.500 Y71.500 Z7.299 F1496.532
G1 X21.500 Y76.747 Z2.000 F1496.532
G1 X21.500 Y120.000 Z2.000 F1999.800
G3 X21.500 Y120.022 Z2.000 I-1.500 J-0.000 K0.000 F1999.800
G1 X21.500 Y120.022 Z1.500 F999.600
G3 X20.000 Y121.500 Z1.500 I-1.500 J-0.022 K0.000 F1999.800
G1 X14.502 Y121.500 Z1.500 F1999.800
G1 X8.760 Y121.500 Z7.299 F1496.532
G1 X3.018 Y121.500 Z1.500 F1496.532
G1 X0.000 Y121.500 Z1.500 F1999.800
G3 X-1.500 Y120.000 Z1.500 I0.000 J-1.500 K0.000 F1999.800
G1 X-1.500 Y65.742 Z1.500 F1999.800
G1 X-1.500 Y60.000 Z7.299 F1496.532
G1 X-1.500 Y54.258 Z1.500 F1496.532
G1 X-1.500 Y0.000 Z1.500 F1999.800
G3 X0.000 Y-1.500 Z1.500 I1.500 J0.000 K0.000 F1999.800
G1 X54.258 Y-1.500 Z1.500 F1999.800
G1 X60.000 Y-1.500 Z7.299 F1496.532
G1 X65.742 Y-1.500 Z1.500 F1496.532
G1 X120.000 Y-1.500 Z1.500 F1999.800
G3 X121.500 Y0.000 Z1.500 I-0.000 J1.500 K0.000 F1999.800
G1 X121.500 Y3.528 Z1.500 F1999.800
G1 X121.500 Y9.270 Z7.299 F1496.532
G1 X121.500 Y15.012 Z1.500 F1496.532
G1 X121.500 Y20.000 Z1.500 F1999.800
G3 X120.000 Y21.500 Z1.500 I-1.500 J-0.000 K0.000 F1999.800
G1 X77.242 Y21.500 Z1.500 F1999.800
G1 X71.500 Y21.500 Z7.299 F1496.532
G1 X65.758 Y21.500 Z1.500 F1496.532
G1 X23.000 Y21.500 Z1.500 F1999.800
G3 X21.505 Y20.118 Z1.500 I0.000 J-1.500 K0.000 F1999.800
G2 X18.523 Y19.766 Z1.500 I-1.498 J-0.111 K0.000 F1999.800
G2 X20.118 Y21.505 Z1.500 I1.497 J0.227 K0.000 F1999.800
G3 X21.500 Y23.000 Z1.500 I-0.118 J1.495 K0.000 F1999.800
G1 X21.500 Y65.758 Z1.500 F1999.800
G1 X21.500 Y71.500 Z7.299 F1496.532
G1 X21.500 Y77.242 Z1.500 F1496.532
G1 X21.500 Y120.000 Z1.500 F1999.800
G3 X21.500 Y120.022 Z1.500 I-1.500 J-0.000 K0.000 F1999.800
G1 X21.500 Y120.022 Z1.000 F999.600
G3 X20.000 Y121.500 Z1.000 I-1.500 J-0.022 K0.000 F1999.800
G1 X14.997 Y121.500 Z1.000 F1999.800
G1 X8.760 Y121.500 Z7.299 F1496.532
G1 X2.523 Y121.500 Z1.000 F1496.532
G1 X0.000 Y121.500 Z1.000 F1999.800
G3 X-1.500 Y120.000 Z1.000 I0.000 J-1.500 K0.000 F1999.800
G1 X-1.500 Y66.237 Z1.000 F1999.800
G1 X-1.500 Y60.000 Z7.299 F1496.532
G1 X-1.500 Y53.763 Z1.000 F1496.532
G1 X-1.500 Y0.000 Z1.000 F1999.800
G3 X0.000 Y-1.500 Z1.000 I1.500 J0.000 K0.000 F1999.800
G1 X53.763 Y-1.500 Z1.000 F1999.800
G1 X60.000 Y-1.500 Z7.299 F1496.532
G1 X66.237 Y-1.500 Z1.000 F1496.532
G1 X120.000 Y-1.500 Z1.000 F1999.800
G3 X121.500 Y0.000 Z1.000 I-0.000 J1.500 K0.000 F1999.800
G1 X121.500 Y3.033 Z1.000 F1999.800
G1 X121.500 Y9.270 Z7.299 F1496.532
G1 X121.500 Y15.507 Z1.000 F1496.532
G1 X121.500 Y20.000 Z1.000 F1999.800
G3 X120.000 Y21.500 Z1.000 I-1.500 J-0.000 K0.000 F1999.800
G1 X77.737 Y21.500 Z1.000 F1999.800
G1 X71.500 Y21.500 Z7.299 F1496.532
G1 X65.263 Y21.500 Z1.000 F1496.532
G1 X23.000 Y21.500 Z1.000 F1999.800
G3 X21.505 Y20.118 Z1.000 I0.000 J-1.500 K0.000 F1999.800
G2 X18.523 Y19.766 Z1.000 I-1.498 J-0.111 K0.000 F1999.800
G2 X20.118 Y21.505 Z1.000 I1.497 J0.227 K0.000 F1999.800
G3 X21.500 Y23.000 Z1.000 I-0.118 J1.495 K0.000 F1999.800
G1 X21.500 Y65.263 Z1.000 F1999.800
G1 X21.500 Y71.500 Z7.299 F1496.532
G1 X21.500 Y77.737 Z1.000 F1496.532
G1 X21.500 Y120.000 Z1.000 F1999.800
G3 X21.500 Y120.022 Z1.000 I-1.500 J-0.000 K0.000 F1999.800
G1 X21.500 Y120.022 Z0.500 F999.600
G3 X20.000 Y121.500 Z0.500 I-1.500 J-0.022 K0.000 F1999.800
G1 X15.492 Y121.500 Z0.500 F1999.800
G1 X8.760 Y121.500 Z7.299 F1496.532
G1 X2.028 Y121.500 Z0.500 F1496.532
G1 X0.000 Y121.500 Z0.500 F1999.800
G3 X-1.500 Y120.000 Z0.500 I0.000 J-1.500 K0.000 F1999.800
G1 X-1.500 Y66.732 Z0.500 F1999.800
G1 X-1.500 Y60.000 Z7.299 F1496.532
G1 X-1.500 Y53.268 Z0.500 F1496.532
G1 X-1.500 Y0.000 Z0.500 F1999.800
G3 X0.000 Y-1.500 Z0.500 I1.500 J0.000 K0.000 F1999.800
G1 X53.268 Y-1.500 Z0.500 F1999.800
G1 X60.000 Y-1.500 Z7.299 F1496.532
G1 X66.732 Y-1.500 Z0.500 F1496.532
G1 X120.000 Y-1.500 Z0.500 F1999.800
G3 X121.500 Y0.000 Z0.500 I-0.000 J1.500 K0.000 F1999.800
G1 X121.500 Y2.538 Z0.500 F1999.800
G1 X121.500 Y9.270 Z7.299 F1496.532
G1 X121.500 Y16.002 Z0.500 F1496.532
G1 X121.500 Y20.000 Z0.500 F1999.800
G3 X120.000 Y21.500 Z0.500 I-1.500 J-0.000 K0.000 F1999.800
G1 X78.232 Y21.500 Z0.500 F1999.800
G1 X71.500 Y21.500 Z7.299 F1496.532
G1 X64.768 Y21.500 Z0.500 F1496.532
G1 X23.000 Y21.500 Z0.500 F1999.800
G3 X21.505 Y20.118 Z0.500 I0.000 J-1.500 K0.000 F1999.800
G2 X18.523 Y19.766 Z0.500 I-1.498 J-0.111 K0.000 F1999.800
G2 X20.118 Y21.505 Z0.500 I1.497 J0.227 K0.000 F1999.800
G3 X21.500 Y23.000 Z0.500 I-0.118 J1.495 K0.000 F1999.800
G1 X21.500 Y64.768 Z0.500 F1999.800
G1 X21.500 Y71.500 Z7.299 F1496.532
G1 X21.500 Y78.232 Z0.500 F1496.532
G1 X21.500 Y120.000 Z0.500 F1999.800
G3 X21.500 Y120.022 Z0.500 I-1.500 J-0.000 K0.000 F1999.800
G1 X21.500 Y120.022 Z0.000 F999.600
G3 X20.000 Y121.500 Z-0.000 I-1.500 J-0.022 K-0.000 F1999.800
G1 X15.987 Y121.500 Z-0.000 F1999.800
G1 X8.760 Y121.500 Z7.299 F1496.532
G1 X1.533 Y121.500 Z0.000 F1496.532
G1 X0.000 Y121.500 Z-0.000 F1999.800
G3 X-1.500 Y120.000 Z-0.000 I0.000 J-1.500 K-0.000 F1999.800
G1 X-1.500 Y67.227 Z-0.000 F1999.800
G1 X-1.500 Y60.000 Z7.299 F1496.532
G1 X-1.500 Y52.773 Z0.000 F1496.532
G1 X-1.500 Y0.000 Z-0.000 F1999.800
G3 X0.000 Y-1.500 Z-0.000 I1.500 J0.000 K0.000 F1999.800
G1 X52.773 Y-1.500 Z-0.000 F1999.800
G1 X60.000 Y-1.500 Z7.299 F1496.532
G1 X67.227 Y-1.500 Z0.000 F1496.532
G1 X120.000 Y-1.500 Z0.000 F1999.800
G3 X121.500 Y0.000 Z0.000 I-0.000 J1.500 K0.000 F1999.800
G1 X121.500 Y2.043 Z0.000 F1999.800
G1 X121.500 Y9.270 Z7.299 F1496.532
G1 X121.500 Y16.497 Z0.000 F1496.532
G1 X121.500 Y20.000 Z0.000 F1999.800
G3 X120.000 Y21.500 Z0.000 I-1.500 J-0.000 K-0.000 F1999.800
G1 X78.727 Y21.500 Z0.000 F1999.800
G1 X71.500 Y21.500 Z7.299 F1496.532
G1 X64.273 Y21.500 Z0.000 F1496.532
G1 X23.000 Y21.500 Z-0.000 F1999.800
G3 X21.505 Y20.118 Z-0.000 I0.000 J-1.500 K-0.000 F1999.800
G2 X18.523 Y19.766 Z-0.000 I-1.498 J-0.111 K-0.000 F1999.800
G2 X20.118 Y21.505 Z-0.000 I1.497 J0.227 K0.000 F1999.800
G3 X21.500 Y23.000 Z-0.000 I-0.118 J1.495 K0.000 F1999.800
G1 X21.500 Y64.273 Z-0.000 F1999.800
G1 X21.500 Y71.500 Z7.299 F1496.532
G1 X21.500 Y78.727 Z0.000 F1496.532
G1 X21.500 Y120.000 Z-0.000 F1999.800
G3 X21.500 Y120.022 Z-0.000 I-1.500 J-0.000 K-0.000 F1999.800
G1 X21.500 Y120.022 Z-0.200 F999.600
G3 X20.000 Y121.500 Z-0.200 I-1.500 J-0.022 K0.000 F1999.800
G1 X16.185 Y121.500 Z-0.200 F1999.800
G1 X8.760 Y121.500 Z7.299 F1496.532
G1 X1.335 Y121.500 Z-0.200 F1496.532
G1 X0.000 Y121.500 Z-0.200 F1999.800
G3 X-1.500 Y120.000 Z-0.200 I0.000 J-1.500 K0.000 F1999.800
G1 X-1.500 Y67.425 Z-0.200 F1999.800
G1 X-1.500 Y60.000 Z7.299 F1496.532
G1 X-1.500 Y52.575 Z-0.200 F1496.532
G1 X-1.500 Y0.000 Z-0.200 F1999.800
G3 X0.000 Y-1.500 Z-0.200 I1.500 J0.000 K0.000 F1999.800
G1 X52.575 Y-1.500 Z-0.200 F1999.800
G1 X60.000 Y-1.500 Z7.299 F1496.532
G1 X67.425 Y-1.500 Z-0.200 F1496.532
G1 X120.000 Y-1.500 Z-0.200 F1999.800
G3 X121.500 Y0.000 Z-0.200 I-0.000 J1.500 K0.000 F1999.800
G1 X121.500 Y1.845 Z-0.200 F1999.800
G1 X121.500 Y9.270 Z7.299 F1496.532
G1 X121.500 Y16.695 Z-0.200 F1496.532
G1 X121.500 Y20.000 Z-0.200 F1999.800
G3 X120.000 Y21.500 Z-0.200 I-1.500 J-0.000 K0.000 F1999.800
G1 X78.925 Y21.500 Z-0.200 F1999.800
G1 X71.500 Y21.500 Z7.299 F1496.532
G1 X64.075 Y21.500 Z-0.200 F1496.532
G1 X23.000 Y21.500 Z-0.200 F1999.800
G3 X21.505 Y20.118 Z-0.200 I0.000 J-1.500 K0.000 F1999.800
G2 X18.523 Y19.766 Z-0.200 I-1.498 J-0.111 K0.000 F1999.800
G2 X20.118 Y21.505 Z-0.200 I1.497 J0.227 K0.000 F1999.800
G3 X21.500 Y23.000 Z-0.200 I-0.118 J1.495 K0.000 F1999.800
G1 X21.500 Y64.075 Z-0.200 F1999.800
G1 X21.500 Y71.500 Z7.299 F1496.532
G1 X21.500 Y78.925 Z-0.200 F1496.532
G1 X21.500 Y120.000 Z-0.200 F1999.800
G3 X21.500 Y120.022 Z-0.200 I-1.500 J-0.000 K0.000 F1999.800
G0 X21.500 Y120.022 Z23.000
(Finish operation: DressupTag)
(Coolant Off:Mist)
M9
(Begin postamble)
M5
G17 G90
M2
