(Exported by FreeCAD)
(Post Processor: grbl_post)
(Output Time:2020-04-11 20:56:49.828043)
(Begin preamble)
G17 G90
G21
(Begin operation: Fixture)
(Path: Fixture)
G54
(Finish operation: Fixture)
(Begin operation: T6: 2FluteWoodMill001)
(Path: T6: 2FluteWoodMill001)
(T6: 2FluteWoodMill001)
(Begin toolchange)
(M6 T6.0)
M3 S12000.0
(Finish operation: T6: 2FluteWoodMill001)
(Begin operation: DressupTag)
(Path: DressupTag)
G0 Z23.0000
G0 X21.4998 Y120.0222 Z23.0000
G0 X21.4998 Y120.0222 Z21.0000
G1 X21.4998 Y120.0222 Z17.5000 F999.6000
G3 X20.0000 Y121.5000 Z17.5000 I-1.4998 J-0.0222 K0.0000 F1999.8000
G1 X0.0000 Y121.5000 Z17.5000 F1999.8000
G3 X-1.5000 Y120.0000 Z17.5000 I0.0000 J-1.5000 K0.0000 F1999.8000
G1 X-1.5000 Y0.0000 Z17.5000 F1999.8000
G3 X0.0000 Y-1.5000 Z17.5000 I1.5000 J0.0000 K0.0000 F1999.8000
G1 X120.0000 Y-1.5000 Z17.5000 F1999.8000
G3 X121.5000 Y0.0000 Z17.5000 I-0.0000 J1.5000 K0.0000 F1999.8000
G1 X121.5000 Y20.0000 Z17.5000 F1999.8000
G3 X120.0000 Y21.5000 Z17.5000 I-1.5000 J-0.0000 K0.0000 F1999.8000
G1 X23.0000 Y21.5000 Z17.5000 F1999.8000
G3 X21.5046 Y20.1177 Z17.5000 I0.0000 J-1.5000 K0.0000 F1999.8000
G2 X18.5230 Y19.7661 Z17.5000 I-1.4985 J-0.1105 K0.0000 F1999.8000
G2 X20.1177 Y21.5046 Z17.5000 I1.4972 J0.2274 K0.0000 F1999.8000
G3 X21.5000 Y23.0000 Z17.5000 I-0.1177 J1.4954 K0.0000 F1999.8000
G1 X21.5000 Y120.0000 Z17.5000 F1999.8000
G3 X21.4998 Y120.0222 Z17.5000 I-1.5000 J-0.0000 K0.0000 F1999.8000
G1 X21.4998 Y120.0222 Z17.0000 F999.6000
G3 X20.0000 Y121.5000 Z17.0000 I-1.4998 J-0.0222 K0.0000 F1999.8000
G1 X0.0000 Y121.5000 Z17.0000 F1999.8000
G3 X-1.5000 Y120.0000 Z17.0000 I0.0000 J-1.5000 K0.0000 F1999.8000
G1 X-1.5000 Y0.0000 Z17.0000 F1999.8000
G3 X0.0000 Y-1.5000 Z17.0000 I1.5000 J0.0000 K0.0000 F1999.8000
G1 X120.0000 Y-1.5000 Z17.0000 F1999.8000
G3 X121.5000 Y0.0000 Z17.0000 I-0.0000 J1.5000 K0.0000 F1999.8000
G1 X121.5000 Y20.0000 Z17.0000 F1999.8000
G3 X120.0000 Y21.5000 Z17.0000 I-1.5000 J-0.0000 K0.0000 F1999.8000
G1 X23.0000 Y21.5000 Z17.0000 F1999.8000
G3 X21.5046 Y20.1177 Z17.0000 I0.0000 J-1.5000 K0.0000 F1999.8000
G2 X18.5230 Y19.7661 Z17.0000 I-1.4985 J-0.1105 K0.0000 F1999.8000
G2 X20.1177 Y21.5046 Z17.0000 I1.4972 J0.2274 K0.0000 F1999.8000
G3 X21.5000 Y23.0000 Z17.0000 I-0.1177 J1.4954 K0.0000 F1999.8000
G1 X21.5000 Y120.0000 Z17.0000 F1999.8000
G3 X21.4998 Y120.0222 Z17.0000 I-1.5000 J-0.0000 K0.0000 F1999.8000
G1 X21.4998 Y120.0222 Z16.5000 F999.6000
G3 X20.0000 Y121.5000 Z16.5000 I-1.4998 J-0.0222 K0.0000 F1999.8000
G1 X0.0000 Y121.5000 Z16.5000 F1999.8000
G3 X-1.5000 Y120.0000 Z16.5000 I0.0000 J-1.5000 K0.0000 F1999.8000
G1 X-1.5000 Y0.0000 Z16.5000 F1999.8000
G3 X0.0000 Y-1.5000 Z16.5000 I1.5000 J0.0000 K0.0000 F1999.8000
G1 X120.0000 Y-1.5000 Z16.5000 F1999.8000
G3 X121.5000 Y0.0000 Z16.5000 I-0.0000 J1.5000 K0.0000 F1999.8000
G1 X121.5000 Y20.0000 Z16.5000 F1999.8000
G3 X120.0000 Y21.5000 Z16.5000 I-1.5000 J-0.0000 K0.0000 F1999.8000
G1 X23.0000 Y21.5000 Z16.5000 F1999.8000
G3 X21.5046 Y20.1177 Z16.5000 I0.0000 J-1.5000 K0.0000 F1999.8000
G2 X18.5230 Y19.7661 Z16.5000 I-1.4985 J-0.1105 K0.0000 F1999.8000
G2 X20.1177 Y21.5046 Z16.5000 I1.4972 J0.2274 K0.0000 F1999.8000
G3 X21.5000 Y23.0000 Z16.5000 I-0.1177 J1.4954 K0.0000 F1999.8000
G1 X21.5000 Y120.0000 Z16.5000 F1999.8000
G3 X21.4998 Y120.0222 Z16.5000 I-1.5000 J-0.0000 K0.0000 F1999.8000
G1 X21.4998 Y120.0222 Z16.0000 F999.6000
G3 X20.0000 Y121.5000 Z16.0000 I-1.4998 J-0.0222 K0.0000 F1999.8000
G1 X0.0000 Y121.5000 Z16.0000 F1999.8000
G3 X-1.5000 Y120.0000 Z16.0000 I0.0000 J-1.5000 K0.0000 F1999.8000
G1 X-1.5000 Y0.0000 Z16.0000 F1999.8000
G3 X0.0000 Y-1.5000 Z16.0000 I1.5000 J0.0000 K0.0000 F1999.8000
G1 X120.0000 Y-1.5000 Z16.0000 F1999.8000
G3 X121.5000 Y0.0000 Z16.0000 I-0.0000 J1.5000 K0.0000 F1999.8000
G1 X121.5000 Y20.0000 Z16.0000 F1999.8000
G3 X120.0000 Y21.5000 Z16.0000 I-1.5000 J-0.0000 K0.0000 F1999.8000
G1 X23.0000 Y21.5000 Z16.0000 F1999.8000
G3 X21.5046 Y20.1177 Z16.0000 I0.0000 J-1.5000 K0.0000 F1999.8000
G2 X18.5230 Y19.7661 Z16.0000 I-1.4985 J-0.1105 K0.0000 F1999.8000
G2 X20.1177 Y21.5046 Z16.0000 I1.4972 J0.2274 K0.0000 F1999.8000
G3 X21.5000 Y23.0000 Z16.0000 I-0.1177 J1.4954 K0.0000 F1999.8000
G1 X21.5000 Y120.0000 Z16.0000 F1999.8000
G3 X21.4998 Y120.0222 Z16.0000 I-1.5000 J-0.0000 K0.0000 F1999.8000
G1 X21.4998 Y120.0222 Z15.5000 F999.6000
G3 X20.0000 Y121.5000 Z15.5000 I-1.4998 J-0.0222 K0.0000 F1999.8000
G1 X0.0000 Y121.5000 Z15.5000 F1999.8000
G3 X-1.5000 Y120.0000 Z15.5000 I0.0000 J-1.5000 K0.0000 F1999.8000
G1 X-1.5000 Y0.0000 Z15.5000 F1999.8000
G3 X0.0000 Y-1.5000 Z15.5000 I1.5000 J0.0000 K0.0000 F1999.8000
G1 X120.0000 Y-1.5000 Z15.5000 F1999.8000
G3 X121.5000 Y0.0000 Z15.5000 I-0.0000 J1.5000 K0.0000 F1999.8000
G1 X121.5000 Y20.0000 Z15.5000 F1999.8000
G3 X120.0000 Y21.5000 Z15.5000 I-1.5000 J-0.0000 K0.0000 F1999.8000
G1 X23.0000 Y21.5000 Z15.5000 F1999.8000
G3 X21.5046 Y20.1177 Z15.5000 I0.0000 J-1.5000 K0.0000 F1999.8000
G2 X18.5230 Y19.7661 Z15.5000 I-1.4985 J-0.1105 K0.0000 F1999.8000
G2 X20.1177 Y21.5046 Z15.5000 I1.4972 J0.2274 K0.0000 F1999.8000
G3 X21.5000 Y23.0000 Z15.5000 I-0.1177 J1.4954 K0.0000 F1999.8000
G1 X21.5000 Y120.0000 Z15.5000 F1999.8000
G3 X21.4998 Y120.0222 Z15.5000 I-1.5000 J-0.0000 K0.0000 F1999.8000
G1 X21.4998 Y120.0222 Z15.0000 F999.6000
G3 X20.0000 Y121.5000 Z15.0000 I-1.4998 J-0.0222 K0.0000 F1999.8000
G1 X0.0000 Y121.5000 Z15.0000 F1999.8000
G3 X-1.5000 Y120.0000 Z15.0000 I0.0000 J-1.5000 K0.0000 F1999.8000
G1 X-1.5000 Y0.0000 Z15.0000 F1999.8000
G3 X0.0000 Y-1.5000 Z15.0000 I1.5000 J0.0000 K0.0000 F1999.8000
G1 X120.0000 Y-1.5000 Z15.0000 F1999.8000
G3 X121.5000 Y0.0000 Z15.0000 I-0.0000 J1.5000 K0.0000 F1999.8000
G1 X121.5000 Y20.0000 Z15.0000 F1999.8000
G3 X120.0000 Y21.5000 Z15.0000 I-1.5000 J-0.0000 K0.0000 F1999.8000
G1 X23.0000 Y21.5000 Z15.0000 F1999.8000
G3 X21.5046 Y20.1177 Z15.0000 I0.0000 J-1.5000 K0.0000 F1999.8000
G2 X18.5230 Y19.7661 Z15.0000 I-1.4985 J-0.1105 K0.0000 F1999.8000
G2 X20.1177 Y21.5046 Z15.0000 I1.4972 J0.2274 K0.0000 F1999.8000
G3 X21.5000 Y23.0000 Z15.0000 I-0.1177 J1.4954 K0.0000 F1999.8000
G1 X21.5000 Y120.0000 Z15.0000 F1999.8000
G3 X21.4998 Y120.0222 Z15.0000 I-1.5000 J-0.0000 K0.0000 F1999.8000
G1 X21.4998 Y120.0222 Z14.5000 F999.6000
G3 X20.0000 Y121.5000 Z14.5000 I-1.4998 J-0.0222 K0.0000 F1999.8000
G1 X0.0000 Y121.5000 Z14.5000 F1999.8000
G3 X-1.5000 Y120.0000 Z14.5000 I0.0000 J-1.5000 K0.0000 F1999.8000
G1 X-1.5000 Y0.0000 Z14.5000 F1999.8000
G3 X0.0000 Y-1.5000 Z14.5000 I1.5000 J0.0000 K0.0000 F1999.8000
G1 X120.0000 Y-1.5000 Z14.5000 F1999.8000
G3 X121.5000 Y0.0000 Z14.5000 I-0.0000 J1.5000 K0.0000 F1999.8000
G1 X121.5000 Y20.0000 Z14.5000 F1999.8000
G3 X120.0000 Y21.5000 Z14.5000 I-1.5000 J-0.0000 K0.0000 F1999.8000
G1 X23.0000 Y21.5000 Z14.5000 F1999.8000
G3 X21.5046 Y20.1177 Z14.5000 I0.0000 J-1.5000 K0.0000 F1999.8000
G2 X18.5230 Y19.7661 Z14.5000 I-1.4985 J-0.1105 K0.0000 F1999.8000
G2 X20.1177 Y21.5046 Z14.5000 I1.4972 J0.2274 K0.0000 F1999.8000
G3 X21.5000 Y23.0000 Z14.5000 I-0.1177 J1.4954 K0.0000 F1999.8000
G1 X21.5000 Y120.0000 Z14.5000 F1999.8000
G3 X21.4998 Y120.0222 Z14.5000 I-1.5000 J-0.0000 K0.0000 F1999.8000
G1 X21.4998 Y120.0222 Z14.0000 F999.6000
G3 X20.0000 Y121.5000 Z14.0000 I-1.4998 J-0.0222 K0.0000 F1999.8000
G1 X0.0000 Y121.5000 Z14.0000 F1999.8000
G3 X-1.5000 Y120.0000 Z14.0000 I0.0000 J-1.5000 K0.0000 F1999.8000
G1 X-1.5000 Y0.0000 Z14.0000 F1999.8000
G3 X0.0000 Y-1.5000 Z14.0000 I1.5000 J0.0000 K0.0000 F1999.8000
G1 X120.0000 Y-1.5000 Z14.0000 F1999.8000
G3 X121.5000 Y0.0000 Z14.0000 I-0.0000 J1.5000 K0.0000 F1999.8000
G1 X121.5000 Y20.0000 Z14.0000 F1999.8000
G3 X120.0000 Y21.5000 Z14.0000 I-1.5000 J-0.0000 K0.0000 F1999.8000
G1 X23.0000 Y21.5000 Z14.0000 F1999.8000
G3 X21.5046 Y20.1177 Z14.0000 I0.0000 J-1.5000 K0.0000 F1999.8000
G2 X18.5230 Y19.7661 Z14.0000 I-1.4985 J-0.1105 K0.0000 F1999.8000
G2 X20.1177 Y21.5046 Z14.0000 I1.4972 J0.2274 K0.0000 F1999.8000
G3 X21.5000 Y23.0000 Z14.0000 I-0.1177 J1.4954 K0.0000 F1999.8000
G1 X21.5000 Y120.0000 Z14.0000 F1999.8000
G3 X21.4998 Y120.0222 Z14.0000 I-1.5000 J-0.0000 K0.0000 F1999.8000
G1 X21.4998 Y120.0222 Z13.5000 F999.6000
G3 X20.0000 Y121.5000 Z13.5000 I-1.4998 J-0.0222 K0.0000 F1999.8000
G1 X0.0000 Y121.5000 Z13.5000 F1999.8000
G3 X-1.5000 Y120.0000 Z13.5000 I0.0000 J-1.5000 K0.0000 F1999.8000
G1 X-1.5000 Y0.0000 Z13.5000 F1999.8000
G3 X0.0000 Y-1.5000 Z13.5000 I1.5000 J0.0000 K0.0000 F1999.8000
G1 X120.0000 Y-1.5000 Z13.5000 F1999.8000
G3 X121.5000 Y0.0000 Z13.5000 I-0.0000 J1.5000 K0.0000 F1999.8000
G1 X121.5000 Y20.0000 Z13.5000 F1999.8000
G3 X120.0000 Y21.5000 Z13.5000 I-1.5000 J-0.0000 K0.0000 F1999.8000
G1 X23.0000 Y21.5000 Z13.5000 F1999.8000
G3 X21.5046 Y20.1177 Z13.5000 I0.0000 J-1.5000 K0.0000 F1999.8000
G2 X18.5230 Y19.7661 Z13.5000 I-1.4985 J-0.1105 K0.0000 F1999.8000
G2 X20.1177 Y21.5046 Z13.5000 I1.4972 J0.2274 K0.0000 F1999.8000
G3 X21.5000 Y23.0000 Z13.5000 I-0.1177 J1.4954 K0.0000 F1999.8000
G1 X21.5000 Y120.0000 Z13.5000 F1999.8000
G3 X21.4998 Y120.0222 Z13.5000 I-1.5000 J-0.0000 K0.0000 F1999.8000
G1 X21.4998 Y120.0222 Z13.0000 F999.6000
G3 X20.0000 Y121.5000 Z13.0000 I-1.4998 J-0.0222 K0.0000 F1999.8000
G1 X0.0000 Y121.5000 Z13.0000 F1999.8000
G3 X-1.5000 Y120.0000 Z13.0000 I0.0000 J-1.5000 K0.0000 F1999.8000
G1 X-1.5000 Y0.0000 Z13.0000 F1999.8000
G3 X0.0000 Y-1.5000 Z13.0000 I1.5000 J0.0000 K0.0000 F1999.8000
G1 X120.0000 Y-1.5000 Z13.0000 F1999.8000
G3 X121.5000 Y0.0000 Z13.0000 I-0.0000 J1.5000 K0.0000 F1999.8000
G1 X121.5000 Y20.0000 Z13.0000 F1999.8000
G3 X120.0000 Y21.5000 Z13.0000 I-1.5000 J-0.0000 K0.0000 F1999.8000
G1 X23.0000 Y21.5000 Z13.0000 F1999.8000
G3 X21.5046 Y20.1177 Z13.0000 I0.0000 J-1.5000 K0.0000 F1999.8000
G2 X18.5230 Y19.7661 Z13.0000 I-1.4985 J-0.1105 K0.0000 F1999.8000
G2 X20.1177 Y21.5046 Z13.0000 I1.4972 J0.2274 K0.0000 F1999.8000
G3 X21.5000 Y23.0000 Z13.0000 I-0.1177 J1.4954 K0.0000 F1999.8000
G1 X21.5000 Y120.0000 Z13.0000 F1999.8000
G3 X21.4998 Y120.0222 Z13.0000 I-1.5000 J-0.0000 K0.0000 F1999.8000
G1 X21.4998 Y120.0222 Z12.5000 F999.6000
G3 X20.0000 Y121.5000 Z12.5000 I-1.4998 J-0.0222 K0.0000 F1999.8000
G1 X0.0000 Y121.5000 Z12.5000 F1999.8000
G3 X-1.5000 Y120.0000 Z12.5000 I0.0000 J-1.5000 K0.0000 F1999.8000
G1 X-1.5000 Y0.0000 Z12.5000 F1999.8000
G3 X0.0000 Y-1.5000 Z12.5000 I1.5000 J0.0000 K0.0000 F1999.8000
G1 X120.0000 Y-1.5000 Z12.5000 F1999.8000
G3 X121.5000 Y0.0000 Z12.5000 I-0.0000 J1.5000 K0.0000 F1999.8000
G1 X121.5000 Y20.0000 Z12.5000 F1999.8000
G3 X120.0000 Y21.5000 Z12.5000 I-1.5000 J-0.0000 K0.0000 F1999.8000
G1 X23.0000 Y21.5000 Z12.5000 F1999.8000
G3 X21.5046 Y20.1177 Z12.5000 I0.0000 J-1.5000 K0.0000 F1999.8000
G2 X18.5230 Y19.7661 Z12.5000 I-1.4985 J-0.1105 K0.0000 F1999.8000
G2 X20.1177 Y21.5046 Z12.5000 I1.4972 J0.2274 K0.0000 F1999.8000
G3 X21.5000 Y23.0000 Z12.5000 I-0.1177 J1.4954 K0.0000 F1999.8000
G1 X21.5000 Y120.0000 Z12.5000 F1999.8000
G3 X21.4998 Y120.0222 Z12.5000 I-1.5000 J-0.0000 K0.0000 F1999.8000
G1 X21.4998 Y120.0222 Z12.0000 F999.6000
G3 X20.0000 Y121.5000 Z12.0000 I-1.4998 J-0.0222 K0.0000 F1999.8000
G1 X0.0000 Y121.5000 Z12.0000 F1999.8000
G3 X-1.5000 Y120.0000 Z12.0000 I0.0000 J-1.5000 K0.0000 F1999.8000
G1 X-1.5000 Y0.0000 Z12.0000 F1999.8000
G3 X0.0000 Y-1.5000 Z12.0000 I1.5000 J0.0000 K0.0000 F1999.8000
G1 X120.0000 Y-1.5000 Z12.0000 F1999.8000
G3 X121.5000 Y0.0000 Z12.0000 I-0.0000 J1.5000 K0.0000 F1999.8000
G1 X121.5000 Y20.0000 Z12.0000 F1999.8000
G3 X120.0000 Y21.5000 Z12.0000 I-1.5000 J-0.0000 K0.0000 F1999.8000
G1 X23.0000 Y21.5000 Z12.0000 F1999.8000
G3 X21.5046 Y20.1177 Z12.0000 I0.0000 J-1.5000 K0.0000 F1999.8000
G2 X18.5230 Y19.7661 Z12.0000 I-1.4985 J-0.1105 K0.0000 F1999.8000
G2 X20.1177 Y21.5046 Z12.0000 I1.4972 J0.2274 K0.0000 F1999.8000
G3 X21.5000 Y23.0000 Z12.0000 I-0.1177 J1.4954 K0.0000 F1999.8000
G1 X21.5000 Y120.0000 Z12.0000 F1999.8000
G3 X21.4998 Y120.0222 Z12.0000 I-1.5000 J-0.0000 K0.0000 F1999.8000
G1 X21.4998 Y120.0222 Z11.5000 F999.6000
G3 X20.0000 Y121.5000 Z11.5000 I-1.4998 J-0.0222 K0.0000 F1999.8000
G1 X0.0000 Y121.5000 Z11.5000 F1999.8000
G3 X-1.5000 Y120.0000 Z11.5000 I0.0000 J-1.5000 K0.0000 F1999.8000
G1 X-1.5000 Y0.0000 Z11.5000 F1999.8000
G3 X0.0000 Y-1.5000 Z11.5000 I1.5000 J0.0000 K0.0000 F1999.8000
G1 X120.0000 Y-1.5000 Z11.5000 F1999.8000
G3 X121.5000 Y0.0000 Z11.5000 I-0.0000 J1.5000 K0.0000 F1999.8000
G1 X121.5000 Y20.0000 Z11.5000 F1999.8000
G3 X120.0000 Y21.5000 Z11.5000 I-1.5000 J-0.0000 K0.0000 F1999.8000
G1 X23.0000 Y21.5000 Z11.5000 F1999.8000
G3 X21.5046 Y20.1177 Z11.5000 I0.0000 J-1.5000 K0.0000 F1999.8000
G2 X18.5230 Y19.7661 Z11.5000 I-1.4985 J-0.1105 K0.0000 F1999.8000
G2 X20.1177 Y21.5046 Z11.5000 I1.4972 J0.2274 K0.0000 F1999.8000
G3 X21.5000 Y23.0000 Z11.5000 I-0.1177 J1.4954 K0.0000 F1999.8000
G1 X21.5000 Y120.0000 Z11.5000 F1999.8000
G3 X21.4998 Y120.0222 Z11.5000 I-1.5000 J-0.0000 K0.0000 F1999.8000
G1 X21.4998 Y120.0222 Z11.0000 F999.6000
G3 X20.0000 Y121.5000 Z11.0000 I-1.4998 J-0.0222 K0.0000 F1999.8000
G1 X0.0000 Y121.5000 Z11.0000 F1999.8000
G3 X-1.5000 Y120.0000 Z11.0000 I0.0000 J-1.5000 K0.0000 F1999.8000
G1 X-1.5000 Y0.0000 Z11.0000 F1999.8000
G3 X0.0000 Y-1.5000 Z11.0000 I1.5000 J0.0000 K0.0000 F1999.8000
G1 X120.0000 Y-1.5000 Z11.0000 F1999.8000
G3 X121.5000 Y0.0000 Z11.0000 I-0.0000 J1.5000 K0.0000 F1999.8000
G1 X121.5000 Y20.0000 Z11.0000 F1999.8000
G3 X120.0000 Y21.5000 Z11.0000 I-1.5000 J-0.0000 K0.0000 F1999.8000
G1 X23.0000 Y21.5000 Z11.0000 F1999.8000
G3 X21.5046 Y20.1177 Z11.0000 I0.0000 J-1.5000 K0.0000 F1999.8000
G2 X18.5230 Y19.7661 Z11.0000 I-1.4985 J-0.1105 K0.0000 F1999.8000
G2 X20.1177 Y21.5046 Z11.0000 I1.4972 J0.2274 K0.0000 F1999.8000
G3 X21.5000 Y23.0000 Z11.0000 I-0.1177 J1.4954 K0.0000 F1999.8000
G1 X21.5000 Y120.0000 Z11.0000 F1999.8000
G3 X21.4998 Y120.0222 Z11.0000 I-1.5000 J-0.0000 K0.0000 F1999.8000
G1 X21.4998 Y120.0222 Z10.5000 F999.6000
G3 X20.0000 Y121.5000 Z10.5000 I-1.4998 J-0.0222 K0.0000 F1999.8000
G1 X0.0000 Y121.5000 Z10.5000 F1999.8000
G3 X-1.5000 Y120.0000 Z10.5000 I0.0000 J-1.5000 K0.0000 F1999.8000
G1 X-1.5000 Y0.0000 Z10.5000 F1999.8000
G3 X0.0000 Y-1.5000 Z10.5000 I1.5000 J0.0000 K0.0000 F1999.8000
G1 X120.0000 Y-1.5000 Z10.5000 F1999.8000
G3 X121.5000 Y0.0000 Z10.5000 I-0.0000 J1.5000 K0.0000 F1999.8000
G1 X121.5000 Y20.0000 Z10.5000 F1999.8000
G3 X120.0000 Y21.5000 Z10.5000 I-1.5000 J-0.0000 K0.0000 F1999.8000
G1 X23.0000 Y21.5000 Z10.5000 F1999.8000
G3 X21.5046 Y20.1177 Z10.5000 I0.0000 J-1.5000 K0.0000 F1999.8000
G2 X18.5230 Y19.7661 Z10.5000 I-1.4985 J-0.1105 K0.0000 F1999.8000
G2 X20.1177 Y21.5046 Z10.5000 I1.4972 J0.2274 K0.0000 F1999.8000
G3 X21.5000 Y23.0000 Z10.5000 I-0.1177 J1.4954 K0.0000 F1999.8000
G1 X21.5000 Y120.0000 Z10.5000 F1999.8000
G3 X21.4998 Y120.0222 Z10.5000 I-1.5000 J-0.0000 K0.0000 F1999.8000
G1 X21.4998 Y120.0222 Z10.0000 F999.6000
G3 X20.0000 Y121.5000 Z10.0000 I-1.4998 J-0.0222 K0.0000 F1999.8000
G1 X0.0000 Y121.5000 Z10.0000 F1999.8000
G3 X-1.5000 Y120.0000 Z10.0000 I0.0000 J-1.5000 K0.0000 F1999.8000
G1 X-1.5000 Y0.0000 Z10.0000 F1999.8000
G3 X0.0000 Y-1.5000 Z10.0000 I1.5000 J0.0000 K0.0000 F1999.8000
G1 X120.0000 Y-1.5000 Z10.0000 F1999.8000
G3 X121.5000 Y0.0000 Z10.0000 I-0.0000 J1.5000 K0.0000 F1999.8000
G1 X121.5000 Y20.0000 Z10.0000 F1999.8000
G3 X120.0000 Y21.5000 Z10.0000 I-1.5000 J-0.0000 K0.0000 F1999.8000
G1 X23.0000 Y21.5000 Z10.0000 F1999.8000
G3 X21.5046 Y20.1177 Z10.0000 I0.0000 J-1.5000 K0.0000 F1999.8000
G2 X18.5230 Y19.7661 Z10.0000 I-1.4985 J-0.1105 K0.0000 F1999.8000
G2 X20.1177 Y21.5046 Z10.0000 I1.4972 J0.2274 K0.0000 F1999.8000
G3 X21.5000 Y23.0000 Z10.0000 I-0.1177 J1.4954 K0.0000 F1999.8000
G1 X21.5000 Y120.0000 Z10.0000 F1999.8000
G3 X21.4998 Y120.0222 Z10.0000 I-1.5000 J-0.0000 K0.0000 F1999.8000
G1 X21.4998 Y120.0222 Z9.5000 F999.6000
G3 X20.0000 Y121.5000 Z9.5000 I-1.4998 J-0.0222 K0.0000 F1999.8000
G1 X0.0000 Y121.5000 Z9.5000 F1999.8000
G3 X-1.5000 Y120.0000 Z9.5000 I0.0000 J-1.5000 K0.0000 F1999.8000
G1 X-1.5000 Y0.0000 Z9.5000 F1999.8000
G3 X0.0000 Y-1.5000 Z9.5000 I1.5000 J0.0000 K0.0000 F1999.8000
G1 X120.0000 Y-1.5000 Z9.5000 F1999.8000
G3 X121.5000 Y0.0000 Z9.5000 I-0.0000 J1.5000 K0.0000 F1999.8000
G1 X121.5000 Y20.0000 Z9.5000 F1999.8000
G3 X120.0000 Y21.5000 Z9.5000 I-1.5000 J-0.0000 K0.0000 F1999.8000
G1 X23.0000 Y21.5000 Z9.5000 F1999.8000
G3 X21.5046 Y20.1177 Z9.5000 I0.0000 J-1.5000 K0.0000 F1999.8000
G2 X18.5230 Y19.7661 Z9.5000 I-1.4985 J-0.1105 K0.0000 F1999.8000
G2 X20.1177 Y21.5046 Z9.5000 I1.4972 J0.2274 K0.0000 F1999.8000
G3 X21.5000 Y23.0000 Z9.5000 I-0.1177 J1.4954 K0.0000 F1999.8000
G1 X21.5000 Y120.0000 Z9.5000 F1999.8000
G3 X21.4998 Y120.0222 Z9.5000 I-1.5000 J-0.0000 K0.0000 F1999.8000
G1 X21.4998 Y120.0222 Z9.0000 F999.6000
G3 X20.0000 Y121.5000 Z9.0000 I-1.4998 J-0.0222 K0.0000 F1999.8000
G1 X0.0000 Y121.5000 Z9.0000 F1999.8000
G3 X-1.5000 Y120.0000 Z9.0000 I0.0000 J-1.5000 K0.0000 F1999.8000
G1 X-1.5000 Y0.0000 Z9.0000 F1999.8000
G3 X0.0000 Y-1.5000 Z9.0000 I1.5000 J0.0000 K0.0000 F1999.8000
G1 X120.0000 Y-1.5000 Z9.0000 F1999.8000
G3 X121.5000 Y0.0000 Z9.0000 I-0.0000 J1.5000 K0.0000 F1999.8000
G1 X121.5000 Y20.0000 Z9.0000 F1999.8000
G3 X120.0000 Y21.5000 Z9.0000 I-1.5000 J-0.0000 K0.0000 F1999.8000
G1 X23.0000 Y21.5000 Z9.0000 F1999.8000
G3 X21.5046 Y20.1177 Z9.0000 I0.0000 J-1.5000 K0.0000 F1999.8000
G2 X18.5230 Y19.7661 Z9.0000 I-1.4985 J-0.1105 K0.0000 F1999.8000
G2 X20.1177 Y21.5046 Z9.0000 I1.4972 J0.2274 K0.0000 F1999.8000
G3 X21.5000 Y23.0000 Z9.0000 I-0.1177 J1.4954 K0.0000 F1999.8000
G1 X21.5000 Y120.0000 Z9.0000 F1999.8000
G3 X21.4998 Y120.0222 Z9.0000 I-1.5000 J-0.0000 K0.0000 F1999.8000
G1 X21.4998 Y120.0222 Z8.5000 F999.6000
G3 X20.0000 Y121.5000 Z8.5000 I-1.4998 J-0.0222 K0.0000 F1999.8000
G1 X0.0000 Y121.5000 Z8.5000 F1999.8000
G3 X-1.5000 Y120.0000 Z8.5000 I0.0000 J-1.5000 K0.0000 F1999.8000
G1 X-1.5000 Y0.0000 Z8.5000 F1999.8000
G3 X0.0000 Y-1.5000 Z8.5000 I1.5000 J0.0000 K0.0000 F1999.8000
G1 X120.0000 Y-1.5000 Z8.5000 F1999.8000
G3 X121.5000 Y0.0000 Z8.5000 I-0.0000 J1.5000 K0.0000 F1999.8000
G1 X121.5000 Y20.0000 Z8.5000 F1999.8000
G3 X120.0000 Y21.5000 Z8.5000 I-1.5000 J-0.0000 K0.0000 F1999.8000
G1 X23.0000 Y21.5000 Z8.5000 F1999.8000
G3 X21.5046 Y20.1177 Z8.5000 I0.0000 J-1.5000 K0.0000 F1999.8000
G2 X18.5230 Y19.7661 Z8.5000 I-1.4985 J-0.1105 K0.0000 F1999.8000
G2 X20.1177 Y21.5046 Z8.5000 I1.4972 J0.2274 K0.0000 F1999.8000
G3 X21.5000 Y23.0000 Z8.5000 I-0.1177 J1.4954 K0.0000 F1999.8000
G1 X21.5000 Y120.0000 Z8.5000 F1999.8000
G3 X21.4998 Y120.0222 Z8.5000 I-1.5000 J-0.0000 K0.0000 F1999.8000
G1 X21.4998 Y120.0222 Z8.0000 F999.6000
G3 X20.0000 Y121.5000 Z8.0000 I-1.4998 J-0.0222 K0.0000 F1999.8000
G1 X0.0000 Y121.5000 Z8.0000 F1999.8000
G3 X-1.5000 Y120.0000 Z8.0000 I0.0000 J-1.5000 K0.0000 F1999.8000
G1 X-1.5000 Y0.0000 Z8.0000 F1999.8000
G3 X0.0000 Y-1.5000 Z8.0000 I1.5000 J0.0000 K0.0000 F1999.8000
G1 X120.0000 Y-1.5000 Z8.0000 F1999.8000
G3 X121.5000 Y0.0000 Z8.0000 I-0.0000 J1.5000 K0.0000 F1999.8000
G1 X121.5000 Y20.0000 Z8.0000 F1999.8000
G3 X120.0000 Y21.5000 Z8.0000 I-1.5000 J-0.0000 K0.0000 F1999.8000
G1 X23.0000 Y21.5000 Z8.0000 F1999.8000
G3 X21.5046 Y20.1177 Z8.0000 I0.0000 J-1.5000 K0.0000 F1999.8000
G2 X18.5230 Y19.7661 Z8.0000 I-1.4985 J-0.1105 K0.0000 F1999.8000
G2 X20.1177 Y21.5046 Z8.0000 I1.4972 J0.2274 K0.0000 F1999.8000
G3 X21.5000 Y23.0000 Z8.0000 I-0.1177 J1.4954 K0.0000 F1999.8000
G1 X21.5000 Y120.0000 Z8.0000 F1999.8000
G3 X21.4998 Y120.0222 Z8.0000 I-1.5000 J-0.0000 K0.0000 F1999.8000
G1 X21.4998 Y120.0222 Z7.5000 F999.6000
G3 X20.0000 Y121.5000 Z7.5000 I-1.4998 J-0.0222 K0.0000 F1999.8000
G1 X0.0000 Y121.5000 Z7.5000 F1999.8000
G3 X-1.5000 Y120.0000 Z7.5000 I0.0000 J-1.5000 K0.0000 F1999.8000
G1 X-1.5000 Y0.0000 Z7.5000 F1999.8000
G3 X0.0000 Y-1.5000 Z7.5000 I1.5000 J0.0000 K0.0000 F1999.8000
G1 X120.0000 Y-1.5000 Z7.5000 F1999.8000
G3 X121.5000 Y0.0000 Z7.5000 I-0.0000 J1.5000 K0.0000 F1999.8000
G1 X121.5000 Y20.0000 Z7.5000 F1999.8000
G3 X120.0000 Y21.5000 Z7.5000 I-1.5000 J-0.0000 K0.0000 F1999.8000
G1 X23.0000 Y21.5000 Z7.5000 F1999.8000
G3 X21.5046 Y20.1177 Z7.5000 I0.0000 J-1.5000 K0.0000 F1999.8000
G2 X18.5230 Y19.7661 Z7.5000 I-1.4985 J-0.1105 K0.0000 F1999.8000
G2 X20.1177 Y21.5046 Z7.5000 I1.4972 J0.2274 K0.0000 F1999.8000
G3 X21.5000 Y23.0000 Z7.5000 I-0.1177 J1.4954 K0.0000 F1999.8000
G1 X21.5000 Y120.0000 Z7.5000 F1999.8000
G3 X21.4998 Y120.0222 Z7.5000 I-1.5000 J-0.0000 K0.0000 F1999.8000
G1 X21.4998 Y120.0222 Z7.0000 F999.6000
G3 X20.0000 Y121.5000 Z7.0000 I-1.4998 J-0.0222 K0.0000 F1999.8000
G1 X9.0563 Y121.5000 Z7.0000 F1999.8000
G1 X8.7600 Y121.5000 Z7.2993 F1496.5321
G1 X8.4637 Y121.5000 Z7.0000 F1496.5321
G1 X0.0000 Y121.5000 Z7.0000 F1999.8000
G3 X-1.5000 Y120.0000 Z7.0000 I0.0000 J-1.5000 K0.0000 F1999.8000
G1 X-1.5000 Y60.2963 Z7.0000 F1999.8000
G1 X-1.5000 Y60.0000 Z7.2993 F1496.5321
G1 X-1.5000 Y59.7037 Z7.0000 F1496.5321
G1 X-1.5000 Y0.0000 Z7.0000 F1999.8000
G3 X0.0000 Y-1.5000 Z7.0000 I1.5000 J0.0000 K0.0000 F1999.8000
G1 X59.7037 Y-1.5000 Z7.0000 F1999.8000
G1 X60.0000 Y-1.5000 Z7.2993 F1496.5321
G1 X60.2963 Y-1.5000 Z7.0000 F1496.5321
G1 X120.0000 Y-1.5000 Z7.0000 F1999.8000
G3 X121.5000 Y0.0000 Z7.0000 I-0.0000 J1.5000 K0.0000 F1999.8000
G1 X121.5000 Y8.9737 Z7.0000 F1999.8000
G1 X121.5000 Y9.2700 Z7.2993 F1496.5321
G1 X121.5000 Y9.5663 Z7.0000 F1496.5321
G1 X121.5000 Y20.0000 Z7.0000 F1999.8000
G3 X120.0000 Y21.5000 Z7.0000 I-1.5000 J-0.0000 K0.0000 F1999.8000
G1 X71.7963 Y21.5000 Z7.0000 F1999.8000
G1 X71.5000 Y21.5000 Z7.2993 F1496.5321
G1 X71.2037 Y21.5000 Z7.0000 F1496.5321
G1 X23.0000 Y21.5000 Z7.0000 F1999.8000
G3 X21.5046 Y20.1177 Z7.0000 I0.0000 J-1.5000 K0.0000 F1999.8000
G2 X18.5230 Y19.7661 Z7.0000 I-1.4985 J-0.1105 K0.0000 F1999.8000
G2 X20.1177 Y21.5046 Z7.0000 I1.4972 J0.2274 K0.0000 F1999.8000
G3 X21.5000 Y23.0000 Z7.0000 I-0.1177 J1.4954 K0.0000 F1999.8000
G1 X21.5000 Y71.2037 Z7.0000 F1999.8000
G1 X21.5000 Y71.5000 Z7.2993 F1496.5321
G1 X21.5000 Y71.7963 Z7.0000 F1496.5321
G1 X21.5000 Y120.0000 Z7.0000 F1999.8000
G3 X21.4998 Y120.0222 Z7.0000 I-1.5000 J-0.0000 K0.0000 F1999.8000
G1 X21.4998 Y120.0222 Z6.5000 F999.6000
G3 X20.0000 Y121.5000 Z6.5000 I-1.4998 J-0.0222 K0.0000 F1999.8000
G1 X9.5513 Y121.5000 Z6.5000 F1999.8000
G1 X8.7600 Y121.5000 Z7.2993 F1496.5321
G1 X7.9687 Y121.5000 Z6.5000 F1496.5321
G1 X0.0000 Y121.5000 Z6.5000 F1999.8000
G3 X-1.5000 Y120.0000 Z6.5000 I0.0000 J-1.5000 K0.0000 F1999.8000
G1 X-1.5000 Y60.7913 Z6.5000 F1999.8000
G1 X-1.5000 Y60.0000 Z7.2993 F1496.5321
G1 X-1.5000 Y59.2087 Z6.5000 F1496.5321
G1 X-1.5000 Y0.0000 Z6.5000 F1999.8000
G3 X0.0000 Y-1.5000 Z6.5000 I1.5000 J0.0000 K0.0000 F1999.8000
G1 X59.2087 Y-1.5000 Z6.5000 F1999.8000
G1 X60.0000 Y-1.5000 Z7.2993 F1496.5321
G1 X60.7913 Y-1.5000 Z6.5000 F1496.5321
G1 X120.0000 Y-1.5000 Z6.5000 F1999.8000
G3 X121.5000 Y0.0000 Z6.5000 I-0.0000 J1.5000 K0.0000 F1999.8000
G1 X121.5000 Y8.4787 Z6.5000 F1999.8000
G1 X121.5000 Y9.2700 Z7.2993 F1496.5321
G1 X121.5000 Y10.0613 Z6.5000 F1496.5321
G1 X121.5000 Y20.0000 Z6.5000 F1999.8000
G3 X120.0000 Y21.5000 Z6.5000 I-1.5000 J-0.0000 K0.0000 F1999.8000
G1 X72.2913 Y21.5000 Z6.5000 F1999.8000
G1 X71.5000 Y21.5000 Z7.2993 F1496.5321
G1 X70.7087 Y21.5000 Z6.5000 F1496.5321
G1 X23.0000 Y21.5000 Z6.5000 F1999.8000
G3 X21.5046 Y20.1177 Z6.5000 I0.0000 J-1.5000 K0.0000 F1999.8000
G2 X18.5230 Y19.7661 Z6.5000 I-1.4985 J-0.1105 K0.0000 F1999.8000
G2 X20.1177 Y21.5046 Z6.5000 I1.4972 J0.2274 K0.0000 F1999.8000
G3 X21.5000 Y23.0000 Z6.5000 I-0.1177 J1.4954 K0.0000 F1999.8000
G1 X21.5000 Y70.7087 Z6.5000 F1999.8000
G1 X21.5000 Y71.5000 Z7.2993 F1496.5321
G1 X21.5000 Y72.2913 Z6.5000 F1496.5321
G1 X21.5000 Y120.0000 Z6.5000 F1999.8000
G3 X21.4998 Y120.0222 Z6.5000 I-1.5000 J-0.0000 K0.0000 F1999.8000
G1 X21.4998 Y120.0222 Z6.0000 F999.6000
G3 X20.0000 Y121.5000 Z6.0000 I-1.4998 J-0.0222 K0.0000 F1999.8000
G1 X10.0464 Y121.5000 Z6.0000 F1999.8000
G1 X8.7600 Y121.5000 Z7.2993 F1496.5321
G1 X7.4736 Y121.5000 Z6.0000 F1496.5321
G1 X0.0000 Y121.5000 Z6.0000 F1999.8000
G3 X-1.5000 Y120.0000 Z6.0000 I0.0000 J-1.5000 K0.0000 F1999.8000
G1 X-1.5000 Y61.2864 Z6.0000 F1999.8000
G1 X-1.5000 Y60.0000 Z7.2993 F1496.5321
G1 X-1.5000 Y58.7136 Z6.0000 F1496.5321
G1 X-1.5000 Y0.0000 Z6.0000 F1999.8000
G3 X0.0000 Y-1.5000 Z6.0000 I1.5000 J0.0000 K0.0000 F1999.8000
G1 X58.7136 Y-1.5000 Z6.0000 F1999.8000
G1 X60.0000 Y-1.5000 Z7.2993 F1496.5321
G1 X61.2864 Y-1.5000 Z6.0000 F1496.5321
G1 X120.0000 Y-1.5000 Z6.0000 F1999.8000
G3 X121.5000 Y0.0000 Z6.0000 I-0.0000 J1.5000 K0.0000 F1999.8000
G1 X121.5000 Y7.9836 Z6.0000 F1999.8000
G1 X121.5000 Y9.2700 Z7.2993 F1496.5321
G1 X121.5000 Y10.5564 Z6.0000 F1496.5321
G1 X121.5000 Y20.0000 Z6.0000 F1999.8000
G3 X120.0000 Y21.5000 Z6.0000 I-1.5000 J-0.0000 K0.0000 F1999.8000
G1 X72.7864 Y21.5000 Z6.0000 F1999.8000
G1 X71.5000 Y21.5000 Z7.2993 F1496.5321
G1 X70.2136 Y21.5000 Z6.0000 F1496.5321
G1 X23.0000 Y21.5000 Z6.0000 F1999.8000
G3 X21.5046 Y20.1177 Z6.0000 I0.0000 J-1.5000 K0.0000 F1999.8000
G2 X18.5230 Y19.7661 Z6.0000 I-1.4985 J-0.1105 K0.0000 F1999.8000
G2 X20.1177 Y21.5046 Z6.0000 I1.4972 J0.2274 K0.0000 F1999.8000
G3 X21.5000 Y23.0000 Z6.0000 I-0.1177 J1.4954 K0.0000 F1999.8000
G1 X21.5000 Y70.2136 Z6.0000 F1999.8000
G1 X21.5000 Y71.5000 Z7.2993 F1496.5321
G1 X21.5000 Y72.7864 Z6.0000 F1496.5321
G1 X21.5000 Y120.0000 Z6.0000 F1999.8000
G3 X21.4998 Y120.0222 Z6.0000 I-1.5000 J-0.0000 K0.0000 F1999.8000
G1 X21.4998 Y120.0222 Z5.5000 F999.6000
G3 X20.0000 Y121.5000 Z5.5000 I-1.4998 J-0.0222 K0.0000 F1999.8000
G1 X10.5414 Y121.5000 Z5.5000 F1999.8000
G1 X8.7600 Y121.5000 Z7.2993 F1496.5321
G1 X6.9786 Y121.5000 Z5.5000 F1496.5321
G1 X0.0000 Y121.5000 Z5.5000 F1999.8000
G3 X-1.5000 Y120.0000 Z5.5000 I0.0000 J-1.5000 K0.0000 F1999.8000
G1 X-1.5000 Y61.7814 Z5.5000 F1999.8000
G1 X-1.5000 Y60.0000 Z7.2993 F1496.5321
G1 X-1.5000 Y58.2186 Z5.5000 F1496.5321
G1 X-1.5000 Y0.0000 Z5.5000 F1999.8000
G3 X0.0000 Y-1.5000 Z5.5000 I1.5000 J0.0000 K0.0000 F1999.8000
G1 X58.2186 Y-1.5000 Z5.5000 F1999.8000
G1 X60.0000 Y-1.5000 Z7.2993 F1496.5321
G1 X61.7814 Y-1.5000 Z5.5000 F1496.5321
G1 X120.0000 Y-1.5000 Z5.5000 F1999.8000
G3 X121.5000 Y0.0000 Z5.5000 I-0.0000 J1.5000 K0.0000 F1999.8000
G1 X121.5000 Y7.4886 Z5.5000 F1999.8000
G1 X121.5000 Y9.2700 Z7.2993 F1496.5321
G1 X121.5000 Y11.0514 Z5.5000 F1496.5321
G1 X121.5000 Y20.0000 Z5.5000 F1999.8000
G3 X120.0000 Y21.5000 Z5.5000 I-1.5000 J-0.0000 K0.0000 F1999.8000
G1 X73.2814 Y21.5000 Z5.5000 F1999.8000
G1 X71.5000 Y21.5000 Z7.2993 F1496.5321
G1 X69.7186 Y21.5000 Z5.5000 F1496.5321
G1 X23.0000 Y21.5000 Z5.5000 F1999.8000
G3 X21.5046 Y20.1177 Z5.5000 I0.0000 J-1.5000 K0.0000 F1999.8000
G2 X18.5230 Y19.7661 Z5.5000 I-1.4985 J-0.1105 K0.0000 F1999.8000
G2 X20.1177 Y21.5046 Z5.5000 I1.4972 J0.2274 K0.0000 F1999.8000
G3 X21.5000 Y23.0000 Z5.5000 I-0.1177 J1.4954 K0.0000 F1999.8000
G1 X21.5000 Y69.7186 Z5.5000 F1999.8000
G1 X21.5000 Y71.5000 Z7.2993 F1496.5321
G1 X21.5000 Y73.2814 Z5.5000 F1496.5321
G1 X21.5000 Y120.0000 Z5.5000 F1999.8000
G3 X21.4998 Y120.0222 Z5.5000 I-1.5000 J-0.0000 K0.0000 F1999.8000
G1 X21.4998 Y120.0222 Z5.0000 F999.6000
G3 X20.0000 Y121.5000 Z5.0000 I-1.4998 J-0.0222 K0.0000 F1999.8000
G1 X11.0365 Y121.5000 Z5.0000 F1999.8000
G1 X8.7600 Y121.5000 Z7.2993 F1496.5321
G1 X6.4835 Y121.5000 Z5.0000 F1496.5321
G1 X0.0000 Y121.5000 Z5.0000 F1999.8000
G3 X-1.5000 Y120.0000 Z5.0000 I0.0000 J-1.5000 K0.0000 F1999.8000
G1 X-1.5000 Y62.2765 Z5.0000 F1999.8000
G1 X-1.5000 Y60.0000 Z7.2993 F1496.5321
G1 X-1.5000 Y57.7235 Z5.0000 F1496.5321
G1 X-1.5000 Y0.0000 Z5.0000 F1999.8000
G3 X0.0000 Y-1.5000 Z5.0000 I1.5000 J0.0000 K0.0000 F1999.8000
G1 X57.7235 Y-1.5000 Z5.0000 F1999.8000
G1 X60.0000 Y-1.5000 Z7.2993 F1496.5321
G1 X62.2765 Y-1.5000 Z5.0000 F1496.5321
G1 X120.0000 Y-1.5000 Z5.0000 F1999.8000
G3 X121.5000 Y0.0000 Z5.0000 I-0.0000 J1.5000 K0.0000 F1999.8000
G1 X121.5000 Y6.9935 Z5.0000 F1999.8000
G1 X121.5000 Y9.2700 Z7.2993 F1496.5321
G1 X121.5000 Y11.5465 Z5.0000 F1496.5321
G1 X121.5000 Y20.0000 Z5.0000 F1999.8000
G3 X120.0000 Y21.5000 Z5.0000 I-1.5000 J-0.0000 K0.0000 F1999.8000
G1 X73.7765 Y21.5000 Z5.0000 F1999.8000
G1 X71.5000 Y21.5000 Z7.2993 F1496.5321
G1 X69.2235 Y21.5000 Z5.0000 F1496.5321
G1 X23.0000 Y21.5000 Z5.0000 F1999.8000
G3 X21.5046 Y20.1177 Z5.0000 I0.0000 J-1.5000 K0.0000 F1999.8000
G2 X18.5230 Y19.7661 Z5.0000 I-1.4985 J-0.1105 K0.0000 F1999.8000
G2 X20.1177 Y21.5046 Z5.0000 I1.4972 J0.2274 K0.0000 F1999.8000
G3 X21.5000 Y23.0000 Z5.0000 I-0.1177 J1.4954 K0.0000 F1999.8000
G1 X21.5000 Y69.2235 Z5.0000 F1999.8000
G1 X21.5000 Y71.5000 Z7.2993 F1496.5321
G1 X21.5000 Y73.7765 Z5.0000 F1496.5321
G1 X21.5000 Y120.0000 Z5.0000 F1999.8000
G3 X21.4998 Y120.0222 Z5.0000 I-1.5000 J-0.0000 K0.0000 F1999.8000
G1 X21.4998 Y120.0222 Z4.5000 F999.6000
G3 X20.0000 Y121.5000 Z4.5000 I-1.4998 J-0.0222 K0.0000 F1999.8000
G1 X11.5315 Y121.5000 Z4.5000 F1999.8000
G1 X8.7600 Y121.5000 Z7.2993 F1496.5321
G1 X5.9885 Y121.5000 Z4.5000 F1496.5321
G1 X0.0000 Y121.5000 Z4.5000 F1999.8000
G3 X-1.5000 Y120.0000 Z4.5000 I0.0000 J-1.5000 K0.0000 F1999.8000
G1 X-1.5000 Y62.7715 Z4.5000 F1999.8000
G1 X-1.5000 Y60.0000 Z7.2993 F1496.5321
G1 X-1.5000 Y57.2285 Z4.5000 F1496.5321
G1 X-1.5000 Y0.0000 Z4.5000 F1999.8000
G3 X0.0000 Y-1.5000 Z4.5000 I1.5000 J0.0000 K0.0000 F1999.8000
G1 X57.2285 Y-1.5000 Z4.5000 F1999.8000
G1 X60.0000 Y-1.5000 Z7.2993 F1496.5321
G1 X62.7715 Y-1.5000 Z4.5000 F1496.5321
G1 X120.0000 Y-1.5000 Z4.5000 F1999.8000
G3 X121.5000 Y0.0000 Z4.5000 I-0.0000 J1.5000 K0.0000 F1999.8000
G1 X121.5000 Y6.4985 Z4.5000 F1999.8000
G1 X121.5000 Y9.2700 Z7.2993 F1496.5321
G1 X121.5000 Y12.0415 Z4.5000 F1496.5321
G1 X121.5000 Y20.0000 Z4.5000 F1999.8000
G3 X120.0000 Y21.5000 Z4.5000 I-1.5000 J-0.0000 K0.0000 F1999.8000
G1 X74.2715 Y21.5000 Z4.5000 F1999.8000
G1 X71.5000 Y21.5000 Z7.2993 F1496.5321
G1 X68.7285 Y21.5000 Z4.5000 F1496.5321
G1 X23.0000 Y21.5000 Z4.5000 F1999.8000
G3 X21.5046 Y20.1177 Z4.5000 I0.0000 J-1.5000 K0.0000 F1999.8000
G2 X18.5230 Y19.7661 Z4.5000 I-1.4985 J-0.1105 K0.0000 F1999.8000
G2 X20.1177 Y21.5046 Z4.5000 I1.4972 J0.2274 K0.0000 F1999.8000
G3 X21.5000 Y23.0000 Z4.5000 I-0.1177 J1.4954 K0.0000 F1999.8000
G1 X21.5000 Y68.7285 Z4.5000 F1999.8000
G1 X21.5000 Y71.5000 Z7.2993 F1496.5321
G1 X21.5000 Y74.2715 Z4.5000 F1496.5321
G1 X21.5000 Y120.0000 Z4.5000 F1999.8000
G3 X21.4998 Y120.0222 Z4.5000 I-1.5000 J-0.0000 K0.0000 F1999.8000
G1 X21.4998 Y120.0222 Z4.0000 F999.6000
G3 X20.0000 Y121.5000 Z4.0000 I-1.4998 J-0.0222 K0.0000 F1999.8000
G1 X12.0266 Y121.5000 Z4.0000 F1999.8000
G1 X8.7600 Y121.5000 Z7.2993 F1496.5321
G1 X5.4934 Y121.5000 Z4.0000 F1496.5321
G1 X0.0000 Y121.5000 Z4.0000 F1999.8000
G3 X-1.5000 Y120.0000 Z4.0000 I0.0000 J-1.5000 K0.0000 F1999.8000
G1 X-1.5000 Y63.2666 Z4.0000 F1999.8000
G1 X-1.5000 Y60.0000 Z7.2993 F1496.5321
G1 X-1.5000 Y56.7334 Z4.0000 F1496.5321
G1 X-1.5000 Y0.0000 Z4.0000 F1999.8000
G3 X0.0000 Y-1.5000 Z4.0000 I1.5000 J0.0000 K0.0000 F1999.8000
G1 X56.7334 Y-1.5000 Z4.0000 F1999.8000
G1 X60.0000 Y-1.5000 Z7.2993 F1496.5321
G1 X63.2666 Y-1.5000 Z4.0000 F1496.5321
G1 X120.0000 Y-1.5000 Z4.0000 F1999.8000
G3 X121.5000 Y0.0000 Z4.0000 I-0.0000 J1.5000 K0.0000 F1999.8000
G1 X121.5000 Y6.0034 Z4.0000 F1999.8000
G1 X121.5000 Y9.2700 Z7.2993 F1496.5321
G1 X121.5000 Y12.5366 Z4.0000 F1496.5321
G1 X121.5000 Y20.0000 Z4.0000 F1999.8000
G3 X120.0000 Y21.5000 Z4.0000 I-1.5000 J-0.0000 K0.0000 F1999.8000
G1 X74.7666 Y21.5000 Z4.0000 F1999.8000
G1 X71.5000 Y21.5000 Z7.2993 F1496.5321
G1 X68.2334 Y21.5000 Z4.0000 F1496.5321
G1 X23.0000 Y21.5000 Z4.0000 F1999.8000
G3 X21.5046 Y20.1177 Z4.0000 I0.0000 J-1.5000 K0.0000 F1999.8000
G2 X18.5230 Y19.7661 Z4.0000 I-1.4985 J-0.1105 K0.0000 F1999.8000
G2 X20.1177 Y21.5046 Z4.0000 I1.4972 J0.2274 K0.0000 F1999.8000
G3 X21.5000 Y23.0000 Z4.0000 I-0.1177 J1.4954 K0.0000 F1999.8000
G1 X21.5000 Y68.2334 Z4.0000 F1999.8000
G1 X21.5000 Y71.5000 Z7.2993 F1496.5321
G1 X21.5000 Y74.7666 Z4.0000 F1496.5321
G1 X21.5000 Y120.0000 Z4.0000 F1999.8000
G3 X21.4998 Y120.0222 Z4.0000 I-1.5000 J-0.0000 K0.0000 F1999.8000
G1 X21.4998 Y120.0222 Z3.5000 F999.6000
G3 X20.0000 Y121.5000 Z3.5000 I-1.4998 J-0.0222 K0.0000 F1999.8000
G1 X12.5216 Y121.5000 Z3.5000 F1999.8000
G1 X8.7600 Y121.5000 Z7.2993 F1496.5321
G1 X4.9984 Y121.5000 Z3.5000 F1496.5321
G1 X0.0000 Y121.5000 Z3.5000 F1999.8000
G3 X-1.5000 Y120.0000 Z3.5000 I0.0000 J-1.5000 K0.0000 F1999.8000
G1 X-1.5000 Y63.7616 Z3.5000 F1999.8000
G1 X-1.5000 Y60.0000 Z7.2993 F1496.5321
G1 X-1.5000 Y56.2384 Z3.5000 F1496.5321
G1 X-1.5000 Y0.0000 Z3.5000 F1999.8000
G3 X0.0000 Y-1.5000 Z3.5000 I1.5000 J0.0000 K0.0000 F1999.8000
G1 X56.2384 Y-1.5000 Z3.5000 F1999.8000
G1 X60.0000 Y-1.5000 Z7.2993 F1496.5321
G1 X63.7616 Y-1.5000 Z3.5000 F1496.5321
G1 X120.0000 Y-1.5000 Z3.5000 F1999.8000
G3 X121.5000 Y0.0000 Z3.5000 I-0.0000 J1.5000 K0.0000 F1999.8000
G1 X121.5000 Y5.5084 Z3.5000 F1999.8000
G1 X121.5000 Y9.2700 Z7.2993 F1496.5321
G1 X121.5000 Y13.0316 Z3.5000 F1496.5321
G1 X121.5000 Y20.0000 Z3.5000 F1999.8000
G3 X120.0000 Y21.5000 Z3.5000 I-1.5000 J-0.0000 K0.0000 F1999.8000
G1 X75.2616 Y21.5000 Z3.5000 F1999.8000
G1 X71.5000 Y21.5000 Z7.2993 F1496.5321
G1 X67.7384 Y21.5000 Z3.5000 F1496.5321
G1 X23.0000 Y21.5000 Z3.5000 F1999.8000
G3 X21.5046 Y20.1177 Z3.5000 I0.0000 J-1.5000 K0.0000 F1999.8000
G2 X18.5230 Y19.7661 Z3.5000 I-1.4985 J-0.1105 K0.0000 F1999.8000
G2 X20.1177 Y21.5046 Z3.5000 I1.4972 J0.2274 K0.0000 F1999.8000
G3 X21.5000 Y23.0000 Z3.5000 I-0.1177 J1.4954 K0.0000 F1999.8000
G1 X21.5000 Y67.7384 Z3.5000 F1999.8000
G1 X21.5000 Y71.5000 Z7.2993 F1496.5321
G1 X21.5000 Y75.2616 Z3.5000 F1496.5321
G1 X21.5000 Y120.0000 Z3.5000 F1999.8000
G3 X21.4998 Y120.0222 Z3.5000 I-1.5000 J-0.0000 K0.0000 F1999.8000
G1 X21.4998 Y120.0222 Z3.0000 F999.6000
G3 X20.0000 Y121.5000 Z3.0000 I-1.4998 J-0.0222 K0.0000 F1999.8000
G1 X13.0167 Y121.5000 Z3.0000 F1999.8000
G1 X8.7600 Y121.5000 Z7.2993 F1496.5321
G1 X4.5033 Y121.5000 Z3.0000 F1496.5321
G1 X0.0000 Y121.5000 Z3.0000 F1999.8000
G3 X-1.5000 Y120.0000 Z3.0000 I0.0000 J-1.5000 K0.0000 F1999.8000
G1 X-1.5000 Y64.2567 Z3.0000 F1999.8000
G1 X-1.5000 Y60.0000 Z7.2993 F1496.5321
G1 X-1.5000 Y55.7433 Z3.0000 F1496.5321
G1 X-1.5000 Y0.0000 Z3.0000 F1999.8000
G3 X0.0000 Y-1.5000 Z3.0000 I1.5000 J0.0000 K0.0000 F1999.8000
G1 X55.7433 Y-1.5000 Z3.0000 F1999.8000
G1 X60.0000 Y-1.5000 Z7.2993 F1496.5321
G1 X64.2567 Y-1.5000 Z3.0000 F1496.5321
G1 X120.0000 Y-1.5000 Z3.0000 F1999.8000
G3 X121.5000 Y0.0000 Z3.0000 I-0.0000 J1.5000 K0.0000 F1999.8000
G1 X121.5000 Y5.0133 Z3.0000 F1999.8000
G1 X121.5000 Y9.2700 Z7.2993 F1496.5321
G1 X121.5000 Y13.5267 Z3.0000 F1496.5321
G1 X121.5000 Y20.0000 Z3.0000 F1999.8000
G3 X120.0000 Y21.5000 Z3.0000 I-1.5000 J-0.0000 K0.0000 F1999.8000
G1 X75.7567 Y21.5000 Z3.0000 F1999.8000
G1 X71.5000 Y21.5000 Z7.2993 F1496.5321
G1 X67.2433 Y21.5000 Z3.0000 F1496.5321
G1 X23.0000 Y21.5000 Z3.0000 F1999.8000
G3 X21.5046 Y20.1177 Z3.0000 I0.0000 J-1.5000 K0.0000 F1999.8000
G2 X18.5230 Y19.7661 Z3.0000 I-1.4985 J-0.1105 K0.0000 F1999.8000
G2 X20.1177 Y21.5046 Z3.0000 I1.4972 J0.2274 K0.0000 F1999.8000
G3 X21.5000 Y23.0000 Z3.0000 I-0.1177 J1.4954 K0.0000 F1999.8000
G1 X21.5000 Y67.2433 Z3.0000 F1999.8000
G1 X21.5000 Y71.5000 Z7.2993 F1496.5321
G1 X21.5000 Y75.7567 Z3.0000 F1496.5321
G1 X21.5000 Y120.0000 Z3.0000 F1999.8000
G3 X21.4998 Y120.0222 Z3.0000 I-1.5000 J-0.0000 K0.0000 F1999.8000
G1 X21.4998 Y120.0222 Z2.5000 F999.6000
G3 X20.0000 Y121.5000 Z2.5000 I-1.4998 J-0.0222 K0.0000 F1999.8000
G1 X13.5117 Y121.5000 Z2.5000 F1999.8000
G1 X8.7600 Y121.5000 Z7.2993 F1496.5321
G1 X4.0083 Y121.5000 Z2.5000 F1496.5321
G1 X0.0000 Y121.5000 Z2.5000 F1999.8000
G3 X-1.5000 Y120.0000 Z2.5000 I0.0000 J-1.5000 K0.0000 F1999.8000
G1 X-1.5000 Y64.7517 Z2.5000 F1999.8000
G1 X-1.5000 Y60.0000 Z7.2993 F1496.5321
G1 X-1.5000 Y55.2483 Z2.5000 F1496.5321
G1 X-1.5000 Y0.0000 Z2.5000 F1999.8000
G3 X0.0000 Y-1.5000 Z2.5000 I1.5000 J0.0000 K0.0000 F1999.8000
G1 X55.2483 Y-1.5000 Z2.5000 F1999.8000
G1 X60.0000 Y-1.5000 Z7.2993 F1496.5321
G1 X64.7517 Y-1.5000 Z2.5000 F1496.5321
G1 X120.0000 Y-1.5000 Z2.5000 F1999.8000
G3 X121.5000 Y0.0000 Z2.5000 I-0.0000 J1.5000 K0.0000 F1999.8000
G1 X121.5000 Y4.5183 Z2.5000 F1999.8000
G1 X121.5000 Y9.2700 Z7.2993 F1496.5321
G1 X121.5000 Y14.0217 Z2.5000 F1496.5321
G1 X121.5000 Y20.0000 Z2.5000 F1999.8000
G3 X120.0000 Y21.5000 Z2.5000 I-1.5000 J-0.0000 K0.0000 F1999.8000
G1 X76.2517 Y21.5000 Z2.5000 F1999.8000
G1 X71.5000 Y21.5000 Z7.2993 F1496.5321
G1 X66.7483 Y21.5000 Z2.5000 F1496.5321
G1 X23.0000 Y21.5000 Z2.5000 F1999.8000
G3 X21.5046 Y20.1177 Z2.5000 I0.0000 J-1.5000 K0.0000 F1999.8000
G2 X18.5230 Y19.7661 Z2.5000 I-1.4985 J-0.1105 K0.0000 F1999.8000
G2 X20.1177 Y21.5046 Z2.5000 I1.4972 J0.2274 K0.0000 F1999.8000
G3 X21.5000 Y23.0000 Z2.5000 I-0.1177 J1.4954 K0.0000 F1999.8000
G1 X21.5000 Y66.7483 Z2.5000 F1999.8000
G1 X21.5000 Y71.5000 Z7.2993 F1496.5321
G1 X21.5000 Y76.2517 Z2.5000 F1496.5321
G1 X21.5000 Y120.0000 Z2.5000 F1999.8000
G3 X21.4998 Y120.0222 Z2.5000 I-1.5000 J-0.0000 K0.0000 F1999.8000
G1 X21.4998 Y120.0222 Z2.0000 F999.6000
G3 X20.0000 Y121.5000 Z2.0000 I-1.4998 J-0.0222 K0.0000 F1999.8000
G1 X14.0068 Y121.5000 Z2.0000 F1999.8000
G1 X8.7600 Y121.5000 Z7.2993 F1496.5321
G1 X3.5132 Y121.5000 Z2.0000 F1496.5321
G1 X0.0000 Y121.5000 Z2.0000 F1999.8000
G3 X-1.5000 Y120.0000 Z2.0000 I0.0000 J-1.5000 K0.0000 F1999.8000
G1 X-1.5000 Y65.2468 Z2.0000 F1999.8000
G1 X-1.5000 Y60.0000 Z7.2993 F1496.5321
G1 X-1.5000 Y54.7532 Z2.0000 F1496.5321
G1 X-1.5000 Y0.0000 Z2.0000 F1999.8000
G3 X0.0000 Y-1.5000 Z2.0000 I1.5000 J0.0000 K0.0000 F1999.8000
G1 X54.7532 Y-1.5000 Z2.0000 F1999.8000
G1 X60.0000 Y-1.5000 Z7.2993 F1496.5321
G1 X65.2468 Y-1.5000 Z2.0000 F1496.5321
G1 X120.0000 Y-1.5000 Z2.0000 F1999.8000
G3 X121.5000 Y0.0000 Z2.0000 I-0.0000 J1.5000 K0.0000 F1999.8000
G1 X121.5000 Y4.0232 Z2.0000 F1999.8000
G1 X121.5000 Y9.2700 Z7.2993 F1496.5321
G1 X121.5000 Y14.5168 Z2.0000 F1496.5321
G1 X121.5000 Y20.0000 Z2.0000 F1999.8000
G3 X120.0000 Y21.5000 Z2.0000 I-1.5000 J-0.0000 K0.0000 F1999.8000
G1 X76.7468 Y21.5000 Z2.0000 F1999.8000
G1 X71.5000 Y21.5000 Z7.2993 F1496.5321
G1 X66.2532 Y21.5000 Z2.0000 F1496.5321
G1 X23.0000 Y21.5000 Z2.0000 F1999.8000
G3 X21.5046 Y20.1177 Z2.0000 I0.0000 J-1.5000 K0.0000 F1999.8000
G2 X18.5230 Y19.7661 Z2.0000 I-1.4985 J-0.1105 K0.0000 F1999.8000
G2 X20.1177 Y21.5046 Z2.0000 I1.4972 J0.2274 K0.0000 F1999.8000
G3 X21.5000 Y23.0000 Z2.0000 I-0.1177 J1.4954 K0.0000 F1999.8000
G1 X21.5000 Y66.2532 Z2.0000 F1999.8000
G1 X21.5000 Y71.5000 Z7.2993 F1496.5321
G1 X21.5000 Y76.7468 Z2.0000 F1496.5321
G1 X21.5000 Y120.0000 Z2.0000 F1999.8000
G3 X21.4998 Y120.0222 Z2.0000 I-1.5000 J-0.0000 K0.0000 F1999.8000
G1 X21.4998 Y120.0222 Z1.5000 F999.6000
G3 X20.0000 Y121.5000 Z1.5000 I-1.4998 J-0.0222 K0.0000 F1999.8000
G1 X14.5018 Y121.5000 Z1.5000 F1999.8000
G1 X8.7600 Y121.5000 Z7.2993 F1496.5321
G1 X3.0182 Y121.5000 Z1.5000 F1496.5321
G1 X0.0000 Y121.5000 Z1.5000 F1999.8000
G3 X-1.5000 Y120.0000 Z1.5000 I0.0000 J-1.5000 K0.0000 F1999.8000
G1 X-1.5000 Y65.7418 Z1.5000 F1999.8000
G1 X-1.5000 Y60.0000 Z7.2993 F1496.5321
G1 X-1.5000 Y54.2582 Z1.5000 F1496.5321
G1 X-1.5000 Y0.0000 Z1.5000 F1999.8000
G3 X0.0000 Y-1.5000 Z1.5000 I1.5000 J0.0000 K0.0000 F1999.8000
G1 X54.2582 Y-1.5000 Z1.5000 F1999.8000
G1 X60.0000 Y-1.5000 Z7.2993 F1496.5321
G1 X65.7418 Y-1.5000 Z1.5000 F1496.5321
G1 X120.0000 Y-1.5000 Z1.5000 F1999.8000
G3 X121.5000 Y0.0000 Z1.5000 I-0.0000 J1.5000 K0.0000 F1999.8000
G1 X121.5000 Y3.5282 Z1.5000 F1999.8000
G1 X121.5000 Y9.2700 Z7.2993 F1496.5321
G1 X121.5000 Y15.0118 Z1.5000 F1496.5321
G1 X121.5000 Y20.0000 Z1.5000 F1999.8000
G3 X120.0000 Y21.5000 Z1.5000 I-1.5000 J-0.0000 K0.0000 F1999.8000
G1 X77.2418 Y21.5000 Z1.5000 F1999.8000
G1 X71.5000 Y21.5000 Z7.2993 F1496.5321
G1 X65.7582 Y21.5000 Z1.5000 F1496.5321
G1 X23.0000 Y21.5000 Z1.5000 F1999.8000
G3 X21.5046 Y20.1177 Z1.5000 I0.0000 J-1.5000 K0.0000 F1999.8000
G2 X18.5230 Y19.7661 Z1.5000 I-1.4985 J-0.1105 K0.0000 F1999.8000
G2 X20.1177 Y21.5046 Z1.5000 I1.4972 J0.2274 K0.0000 F1999.8000
G3 X21.5000 Y23.0000 Z1.5000 I-0.1177 J1.4954 K0.0000 F1999.8000
G1 X21.5000 Y65.7582 Z1.5000 F1999.8000
G1 X21.5000 Y71.5000 Z7.2993 F1496.5321
G1 X21.5000 Y77.2418 Z1.5000 F1496.5321
G1 X21.5000 Y120.0000 Z1.5000 F1999.8000
G3 X21.4998 Y120.0222 Z1.5000 I-1.5000 J-0.0000 K0.0000 F1999.8000
G1 X21.4998 Y120.0222 Z1.0000 F999.6000
G3 X20.0000 Y121.5000 Z1.0000 I-1.4998 J-0.0222 K0.0000 F1999.8000
G1 X14.9969 Y121.5000 Z1.0000 F1999.8000
G1 X8.7600 Y121.5000 Z7.2993 F1496.5321
G1 X2.5231 Y121.5000 Z1.0000 F1496.5321
G1 X0.0000 Y121.5000 Z1.0000 F1999.8000
G3 X-1.5000 Y120.0000 Z1.0000 I0.0000 J-1.5000 K0.0000 F1999.8000
G1 X-1.5000 Y66.2369 Z1.0000 F1999.8000
G1 X-1.5000 Y60.0000 Z7.2993 F1496.5321
G1 X-1.5000 Y53.7631 Z1.0000 F1496.5321
G1 X-1.5000 Y0.0000 Z1.0000 F1999.8000
G3 X0.0000 Y-1.5000 Z1.0000 I1.5000 J0.0000 K0.0000 F1999.8000
G1 X53.7631 Y-1.5000 Z1.0000 F1999.8000
G1 X60.0000 Y-1.5000 Z7.2993 F1496.5321
G1 X66.2369 Y-1.5000 Z1.0000 F1496.5321
G1 X120.0000 Y-1.5000 Z1.0000 F1999.8000
G3 X121.5000 Y0.0000 Z1.0000 I-0.0000 J1.5000 K0.0000 F1999.8000
G1 X121.5000 Y3.0331 Z1.0000 F1999.8000
G1 X121.5000 Y9.2700 Z7.2993 F1496.5321
G1 X121.5000 Y15.5069 Z1.0000 F1496.5321
G1 X121.5000 Y20.0000 Z1.0000 F1999.8000
G3 X120.0000 Y21.5000 Z1.0000 I-1.5000 J-0.0000 K0.0000 F1999.8000
G1 X77.7369 Y21.5000 Z1.0000 F1999.8000
G1 X71.5000 Y21.5000 Z7.2993 F1496.5321
G1 X65.2631 Y21.5000 Z1.0000 F1496.5321
G1 X23.0000 Y21.5000 Z1.0000 F1999.8000
G3 X21.5046 Y20.1177 Z1.0000 I0.0000 J-1.5000 K0.0000 F1999.8000
G2 X18.5230 Y19.7661 Z1.0000 I-1.4985 J-0.1105 K0.0000 F1999.8000
G2 X20.1177 Y21.5046 Z1.0000 I1.4972 J0.2274 K0.0000 F1999.8000
G3 X21.5000 Y23.0000 Z1.0000 I-0.1177 J1.4954 K0.0000 F1999.8000
G1 X21.5000 Y65.2631 Z1.0000 F1999.8000
G1 X21.5000 Y71.5000 Z7.2993 F1496.5321
G1 X21.5000 Y77.7369 Z1.0000 F1496.5321
G1 X21.5000 Y120.0000 Z1.0000 F1999.8000
G3 X21.4998 Y120.0222 Z1.0000 I-1.5000 J-0.0000 K0.0000 F1999.8000
G1 X21.4998 Y120.0222 Z0.5000 F999.6000
G3 X20.0000 Y121.5000 Z0.5000 I-1.4998 J-0.0222 K0.0000 F1999.8000
G1 X15.4919 Y121.5000 Z0.5000 F1999.8000
G1 X8.7600 Y121.5000 Z7.2993 F1496.5321
G1 X2.0281 Y121.5000 Z0.5000 F1496.5321
G1 X0.0000 Y121.5000 Z0.5000 F1999.8000
G3 X-1.5000 Y120.0000 Z0.5000 I0.0000 J-1.5000 K0.0000 F1999.8000
G1 X-1.5000 Y66.7319 Z0.5000 F1999.8000
G1 X-1.5000 Y60.0000 Z7.2993 F1496.5321
G1 X-1.5000 Y53.2681 Z0.5000 F1496.5321
G1 X-1.5000 Y0.0000 Z0.5000 F1999.8000
G3 X0.0000 Y-1.5000 Z0.5000 I1.5000 J0.0000 K0.0000 F1999.8000
G1 X53.2681 Y-1.5000 Z0.5000 F1999.8000
G1 X60.0000 Y-1.5000 Z7.2993 F1496.5321
G1 X66.7319 Y-1.5000 Z0.5000 F1496.5321
G1 X120.0000 Y-1.5000 Z0.5000 F1999.8000
G3 X121.5000 Y0.0000 Z0.5000 I-0.0000 J1.5000 K0.0000 F1999.8000
G1 X121.5000 Y2.5381 Z0.5000 F1999.8000
G1 X121.5000 Y9.2700 Z7.2993 F1496.5321
G1 X121.5000 Y16.0019 Z0.5000 F1496.5321
G1 X121.5000 Y20.0000 Z0.5000 F1999.8000
G3 X120.0000 Y21.5000 Z0.5000 I-1.5000 J-0.0000 K0.0000 F1999.8000
G1 X78.2319 Y21.5000 Z0.5000 F1999.8000
G1 X71.5000 Y21.5000 Z7.2993 F1496.5321
G1 X64.7681 Y21.5000 Z0.5000 F1496.5321
G1 X23.0000 Y21.5000 Z0.5000 F1999.8000
G3 X21.5046 Y20.1177 Z0.5000 I0.0000 J-1.5000 K0.0000 F1999.8000
G2 X18.5230 Y19.7661 Z0.5000 I-1.4985 J-0.1105 K0.0000 F1999.8000
G2 X20.1177 Y21.5046 Z0.5000 I1.4972 J0.2274 K0.0000 F1999.8000
G3 X21.5000 Y23.0000 Z0.5000 I-0.1177 J1.4954 K0.0000 F1999.8000
G1 X21.5000 Y64.7681 Z0.5000 F1999.8000
G1 X21.5000 Y71.5000 Z7.2993 F1496.5321
G1 X21.5000 Y78.2319 Z0.5000 F1496.5321
G1 X21.5000 Y120.0000 Z0.5000 F1999.8000
G3 X21.4998 Y120.0222 Z0.5000 I-1.5000 J-0.0000 K0.0000 F1999.8000
G1 X21.4998 Y120.0222 Z0.0000 F999.6000
G3 X20.0000 Y121.5000 Z-0.0000 I-1.4998 J-0.0222 K-0.0000 F1999.8000
G1 X15.9870 Y121.5000 Z-0.0000 F1999.8000
G1 X8.7600 Y121.5000 Z7.2993 F1496.5321
G1 X1.5330 Y121.5000 Z0.0000 F1496.5321
G1 X0.0000 Y121.5000 Z-0.0000 F1999.8000
G3 X-1.5000 Y120.0000 Z-0.0000 I0.0000 J-1.5000 K-0.0000 F1999.8000
G1 X-1.5000 Y67.2270 Z-0.0000 F1999.8000
G1 X-1.5000 Y60.0000 Z7.2993 F1496.5321
G1 X-1.5000 Y52.7730 Z0.0000 F1496.5321
G1 X-1.5000 Y0.0000 Z-0.0000 F1999.8000
G3 X0.0000 Y-1.5000 Z-0.0000 I1.5000 J0.0000 K0.0000 F1999.8000
G1 X52.7730 Y-1.5000 Z-0.0000 F1999.8000
G1 X60.0000 Y-1.5000 Z7.2993 F1496.5321
G1 X67.2270 Y-1.5000 Z0.0000 F1496.5321
G1 X120.0000 Y-1.5000 Z0.0000 F1999.8000
G3 X121.5000 Y0.0000 Z0.0000 I-0.0000 J1.5000 K0.0000 F1999.8000
G1 X121.5000 Y2.0430 Z0.0000 F1999.8000
G1 X121.5000 Y9.2700 Z7.2993 F1496.5321
G1 X121.5000 Y16.4970 Z0.0000 F1496.5321
G1 X121.5000 Y20.0000 Z0.0000 F1999.8000
G3 X120.0000 Y21.5000 Z0.0000 I-1.5000 J-0.0000 K-0.0000 F1999.8000
G1 X78.7270 Y21.5000 Z0.0000 F1999.8000
G1 X71.5000 Y21.5000 Z7.2993 F1496.5321
G1 X64.2730 Y21.5000 Z0.0000 F1496.5321
G1 X23.0000 Y21.5000 Z-0.0000 F1999.8000
G3 X21.5046 Y20.1177 Z-0.0000 I0.0000 J-1.5000 K-0.0000 F1999.8000
G2 X18.5230 Y19.7661 Z-0.0000 I-1.4985 J-0.1105 K-0.0000 F1999.8000
G2 X20.1177 Y21.5046 Z-0.0000 I1.4972 J0.2274 K0.0000 F1999.8000
G3 X21.5000 Y23.0000 Z-0.0000 I-0.1177 J1.4954 K0.0000 F1999.8000
G1 X21.5000 Y64.2730 Z-0.0000 F1999.8000
G1 X21.5000 Y71.5000 Z7.2993 F1496.5321
G1 X21.5000 Y78.7270 Z0.0000 F1496.5321
G1 X21.5000 Y120.0000 Z-0.0000 F1999.8000
G3 X21.4998 Y120.0222 Z-0.0000 I-1.5000 J-0.0000 K-0.0000 F1999.8000
G1 X21.4998 Y120.0222 Z-0.2000 F999.6000
G3 X20.0000 Y121.5000 Z-0.2000 I-1.4998 J-0.0222 K0.0000 F1999.8000
G1 X16.1850 Y121.5000 Z-0.2000 F1999.8000
G1 X8.7600 Y121.5000 Z7.2993 F1496.5321
G1 X1.3350 Y121.5000 Z-0.2000 F1496.5321
G1 X0.0000 Y121.5000 Z-0.2000 F1999.8000
G3 X-1.5000 Y120.0000 Z-0.2000 I0.0000 J-1.5000 K0.0000 F1999.8000
G1 X-1.5000 Y67.4250 Z-0.2000 F1999.8000
G1 X-1.5000 Y60.0000 Z7.2993 F1496.5321
G1 X-1.5000 Y52.5750 Z-0.2000 F1496.5321
G1 X-1.5000 Y0.0000 Z-0.2000 F1999.8000
G3 X0.0000 Y-1.5000 Z-0.2000 I1.5000 J0.0000 K0.0000 F1999.8000
G1 X52.5750 Y-1.5000 Z-0.2000 F1999.8000
G1 X60.0000 Y-1.5000 Z7.2993 F1496.5321
G1 X67.4250 Y-1.5000 Z-0.2000 F1496.5321
G1 X120.0000 Y-1.5000 Z-0.2000 F1999.8000
G3 X121.5000 Y0.0000 Z-0.2000 I-0.0000 J1.5000 K0.0000 F1999.8000
G1 X121.5000 Y1.8450 Z-0.2000 F1999.8000
G1 X121.5000 Y9.2700 Z7.2993 F1496.5321
G1 X121.5000 Y16.6950 Z-0.2000 F1496.5321
G1 X121.5000 Y20.0000 Z-0.2000 F1999.8000
G3 X120.0000 Y21.5000 Z-0.2000 I-1.5000 J-0.0000 K0.0000 F1999.8000
G1 X78.9250 Y21.5000 Z-0.2000 F1999.8000
G1 X71.5000 Y21.5000 Z7.2993 F1496.5321
G1 X64.0750 Y21.5000 Z-0.2000 F1496.5321
G1 X23.0000 Y21.5000 Z-0.2000 F1999.8000
G3 X21.5046 Y20.1177 Z-0.2000 I0.0000 J-1.5000 K0.0000 F1999.8000
G2 X18.5230 Y19.7661 Z-0.2000 I-1.4985 J-0.1105 K0.0000 F1999.8000
G2 X20.1177 Y21.5046 Z-0.2000 I1.4972 J0.2274 K0.0000 F1999.8000
G3 X21.5000 Y23.0000 Z-0.2000 I-0.1177 J1.4954 K0.0000 F1999.8000
G1 X21.5000 Y64.0750 Z-0.2000 F1999.8000
G1 X21.5000 Y71.5000 Z7.2993 F1496.5321
G1 X21.5000 Y78.9250 Z-0.2000 F1496.5321
G1 X21.5000 Y120.0000 Z-0.2000 F1999.8000
G3 X21.4998 Y120.0222 Z-0.2000 I-1.5000 J-0.0000 K0.0000 F1999.8000
G0 X21.4998 Y120.0222 Z23.0000
(Finish operation: DressupTag)
(Begin operation: Fixture)
(Path: Fixture)
G54
G0 Z23.0000
(Finish operation: Fixture)
(Begin operation: Helix)
(Path: Helix)
(Helix)
(helix cut operation)
G0 Z23.0000
G0 X11.0500 Y10.0000
G0 Z21.0000
G1 Z18.0000 F999.6000
G2 X8.9500 Y10.0000 Z17.7541 I-1.0500 J0.0000 F1999.8000
G2 X11.0500 Y10.0000 Z17.5081 I1.0500 J0.0000 F1999.8000
G2 X8.9500 Y10.0000 Z17.2622 I-1.0500 J0.0000 F1999.8000
G2 X11.0500 Y10.0000 Z17.0162 I1.0500 J0.0000 F1999.8000
G2 X8.9500 Y10.0000 Z16.7703 I-1.0500 J0.0000 F1999.8000
G2 X11.0500 Y10.0000 Z16.5243 I1.0500 J0.0000 F1999.8000
G2 X8.9500 Y10.0000 Z16.2784 I-1.0500 J0.0000 F1999.8000
G2 X11.0500 Y10.0000 Z16.0324 I1.0500 J0.0000 F1999.8000
G2 X8.9500 Y10.0000 Z15.7865 I-1.0500 J0.0000 F1999.8000
G2 X11.0500 Y10.0000 Z15.5405 I1.0500 J0.0000 F1999.8000
G2 X8.9500 Y10.0000 Z15.2946 I-1.0500 J0.0000 F1999.8000
G2 X11.0500 Y10.0000 Z15.0486 I1.0500 J0.0000 F1999.8000
G2 X8.9500 Y10.0000 Z14.8027 I-1.0500 J0.0000 F1999.8000
G2 X11.0500 Y10.0000 Z14.5568 I1.0500 J0.0000 F1999.8000
G2 X8.9500 Y10.0000 Z14.3108 I-1.0500 J0.0000 F1999.8000
G2 X11.0500 Y10.0000 Z14.0649 I1.0500 J0.0000 F1999.8000
G2 X8.9500 Y10.0000 Z13.8189 I-1.0500 J0.0000 F1999.8000
G2 X11.0500 Y10.0000 Z13.5730 I1.0500 J0.0000 F1999.8000
G2 X8.9500 Y10.0000 Z13.3270 I-1.0500 J0.0000 F1999.8000
G2 X11.0500 Y10.0000 Z13.0811 I1.0500 J0.0000 F1999.8000
G2 X8.9500 Y10.0000 Z12.8351 I-1.0500 J0.0000 F1999.8000
G2 X11.0500 Y10.0000 Z12.5892 I1.0500 J0.0000 F1999.8000
G2 X8.9500 Y10.0000 Z12.3432 I-1.0500 J0.0000 F1999.8000
G2 X11.0500 Y10.0000 Z12.0973 I1.0500 J0.0000 F1999.8000
G2 X8.9500 Y10.0000 Z11.8514 I-1.0500 J0.0000 F1999.8000
G2 X11.0500 Y10.0000 Z11.6054 I1.0500 J0.0000 F1999.8000
G2 X8.9500 Y10.0000 Z11.3595 I-1.0500 J0.0000 F1999.8000
G2 X11.0500 Y10.0000 Z11.1135 I1.0500 J0.0000 F1999.8000
G2 X8.9500 Y10.0000 Z10.8676 I-1.0500 J0.0000 F1999.8000
G2 X11.0500 Y10.0000 Z10.6216 I1.0500 J0.0000 F1999.8000
G2 X8.9500 Y10.0000 Z10.3757 I-1.0500 J0.0000 F1999.8000
G2 X11.0500 Y10.0000 Z10.1297 I1.0500 J0.0000 F1999.8000
G2 X8.9500 Y10.0000 Z9.8838 I-1.0500 J0.0000 F1999.8000
G2 X11.0500 Y10.0000 Z9.6378 I1.0500 J0.0000 F1999.8000
G2 X8.9500 Y10.0000 Z9.3919 I-1.0500 J0.0000 F1999.8000
G2 X11.0500 Y10.0000 Z9.1459 I1.0500 J0.0000 F1999.8000
G2 X8.9500 Y10.0000 Z8.9000 I-1.0500 J0.0000 F1999.8000
G2 X11.0500 Y10.0000 Z8.6541 I1.0500 J0.0000 F1999.8000
G2 X8.9500 Y10.0000 Z8.4081 I-1.0500 J0.0000 F1999.8000
G2 X11.0500 Y10.0000 Z8.1622 I1.0500 J0.0000 F1999.8000
G2 X8.9500 Y10.0000 Z7.9162 I-1.0500 J0.0000 F1999.8000
G2 X11.0500 Y10.0000 Z7.6703 I1.0500 J0.0000 F1999.8000
G2 X8.9500 Y10.0000 Z7.4243 I-1.0500 J0.0000 F1999.8000
G2 X11.0500 Y10.0000 Z7.1784 I1.0500 J0.0000 F1999.8000
G2 X8.9500 Y10.0000 Z6.9324 I-1.0500 J0.0000 F1999.8000
G2 X11.0500 Y10.0000 Z6.6865 I1.0500 J0.0000 F1999.8000
G2 X8.9500 Y10.0000 Z6.4405 I-1.0500 J0.0000 F1999.8000
G2 X11.0500 Y10.0000 Z6.1946 I1.0500 J0.0000 F1999.8000
G2 X8.9500 Y10.0000 Z5.9486 I-1.0500 J0.0000 F1999.8000
G2 X11.0500 Y10.0000 Z5.7027 I1.0500 J0.0000 F1999.8000
G2 X8.9500 Y10.0000 Z5.4568 I-1.0500 J0.0000 F1999.8000
G2 X11.0500 Y10.0000 Z5.2108 I1.0500 J0.0000 F1999.8000
G2 X8.9500 Y10.0000 Z4.9649 I-1.0500 J0.0000 F1999.8000
G2 X11.0500 Y10.0000 Z4.7189 I1.0500 J0.0000 F1999.8000
G2 X8.9500 Y10.0000 Z4.4730 I-1.0500 J0.0000 F1999.8000
G2 X11.0500 Y10.0000 Z4.2270 I1.0500 J0.0000 F1999.8000
G2 X8.9500 Y10.0000 Z3.9811 I-1.0500 J0.0000 F1999.8000
G2 X11.0500 Y10.0000 Z3.7351 I1.0500 J0.0000 F1999.8000
G2 X8.9500 Y10.0000 Z3.4892 I-1.0500 J0.0000 F1999.8000
G2 X11.0500 Y10.0000 Z3.2432 I1.0500 J0.0000 F1999.8000
G2 X8.9500 Y10.0000 Z2.9973 I-1.0500 J0.0000 F1999.8000
G2 X11.0500 Y10.0000 Z2.7514 I1.0500 J0.0000 F1999.8000
G2 X8.9500 Y10.0000 Z2.5054 I-1.0500 J0.0000 F1999.8000
G2 X11.0500 Y10.0000 Z2.2595 I1.0500 J0.0000 F1999.8000
G2 X8.9500 Y10.0000 Z2.0135 I-1.0500 J0.0000 F1999.8000
G2 X11.0500 Y10.0000 Z1.7676 I1.0500 J0.0000 F1999.8000
G2 X8.9500 Y10.0000 Z1.5216 I-1.0500 J0.0000 F1999.8000
G2 X11.0500 Y10.0000 Z1.2757 I1.0500 J0.0000 F1999.8000
G2 X8.9500 Y10.0000 Z1.0297 I-1.0500 J0.0000 F1999.8000
G2 X11.0500 Y10.0000 Z0.7838 I1.0500 J0.0000 F1999.8000
G2 X8.9500 Y10.0000 Z0.5378 I-1.0500 J0.0000 F1999.8000
G2 X11.0500 Y10.0000 Z0.2919 I1.0500 J0.0000 F1999.8000
G2 X8.9500 Y10.0000 Z0.0459 I-1.0500 J0.0000 F1999.8000
G2 X11.0500 Y10.0000 Z-0.2000 I1.0500 J0.0000 F1999.8000
G2 X8.9500 Y10.0000 Z-0.2000 I-1.0500 J0.0000 F1999.8000
G2 X11.0500 Y10.0000 Z-0.2000 I1.0500 J0.0000 F1999.8000
G0 Z21.0000
G0 X11.0500 Y60.0000
G0 Z21.0000
G1 Z18.0000 F999.6000
G2 X8.9500 Y60.0000 Z17.7541 I-1.0500 J0.0000 F1999.8000
G2 X11.0500 Y60.0000 Z17.5081 I1.0500 J0.0000 F1999.8000
G2 X8.9500 Y60.0000 Z17.2622 I-1.0500 J0.0000 F1999.8000
G2 X11.0500 Y60.0000 Z17.0162 I1.0500 J0.0000 F1999.8000
G2 X8.9500 Y60.0000 Z16.7703 I-1.0500 J0.0000 F1999.8000
G2 X11.0500 Y60.0000 Z16.5243 I1.0500 J0.0000 F1999.8000
G2 X8.9500 Y60.0000 Z16.2784 I-1.0500 J0.0000 F1999.8000
G2 X11.0500 Y60.0000 Z16.0324 I1.0500 J0.0000 F1999.8000
G2 X8.9500 Y60.0000 Z15.7865 I-1.0500 J0.0000 F1999.8000
G2 X11.0500 Y60.0000 Z15.5405 I1.0500 J0.0000 F1999.8000
G2 X8.9500 Y60.0000 Z15.2946 I-1.0500 J0.0000 F1999.8000
G2 X11.0500 Y60.0000 Z15.0486 I1.0500 J0.0000 F1999.8000
G2 X8.9500 Y60.0000 Z14.8027 I-1.0500 J0.0000 F1999.8000
G2 X11.0500 Y60.0000 Z14.5568 I1.0500 J0.0000 F1999.8000
G2 X8.9500 Y60.0000 Z14.3108 I-1.0500 J0.0000 F1999.8000
G2 X11.0500 Y60.0000 Z14.0649 I1.0500 J0.0000 F1999.8000
G2 X8.9500 Y60.0000 Z13.8189 I-1.0500 J0.0000 F1999.8000
G2 X11.0500 Y60.0000 Z13.5730 I1.0500 J0.0000 F1999.8000
G2 X8.9500 Y60.0000 Z13.3270 I-1.0500 J0.0000 F1999.8000
G2 X11.0500 Y60.0000 Z13.0811 I1.0500 J0.0000 F1999.8000
G2 X8.9500 Y60.0000 Z12.8351 I-1.0500 J0.0000 F1999.8000
G2 X11.0500 Y60.0000 Z12.5892 I1.0500 J0.0000 F1999.8000
G2 X8.9500 Y60.0000 Z12.3432 I-1.0500 J0.0000 F1999.8000
G2 X11.0500 Y60.0000 Z12.0973 I1.0500 J0.0000 F1999.8000
G2 X8.9500 Y60.0000 Z11.8514 I-1.0500 J0.0000 F1999.8000
G2 X11.0500 Y60.0000 Z11.6054 I1.0500 J0.0000 F1999.8000
G2 X8.9500 Y60.0000 Z11.3595 I-1.0500 J0.0000 F1999.8000
G2 X11.0500 Y60.0000 Z11.1135 I1.0500 J0.0000 F1999.8000
G2 X8.9500 Y60.0000 Z10.8676 I-1.0500 J0.0000 F1999.8000
G2 X11.0500 Y60.0000 Z10.6216 I1.0500 J0.0000 F1999.8000
G2 X8.9500 Y60.0000 Z10.3757 I-1.0500 J0.0000 F1999.8000
G2 X11.0500 Y60.0000 Z10.1297 I1.0500 J0.0000 F1999.8000
G2 X8.9500 Y60.0000 Z9.8838 I-1.0500 J0.0000 F1999.8000
G2 X11.0500 Y60.0000 Z9.6378 I1.0500 J0.0000 F1999.8000
G2 X8.9500 Y60.0000 Z9.3919 I-1.0500 J0.0000 F1999.8000
G2 X11.0500 Y60.0000 Z9.1459 I1.0500 J0.0000 F1999.8000
G2 X8.9500 Y60.0000 Z8.9000 I-1.0500 J0.0000 F1999.8000
G2 X11.0500 Y60.0000 Z8.6541 I1.0500 J0.0000 F1999.8000
G2 X8.9500 Y60.0000 Z8.4081 I-1.0500 J0.0000 F1999.8000
G2 X11.0500 Y60.0000 Z8.1622 I1.0500 J0.0000 F1999.8000
G2 X8.9500 Y60.0000 Z7.9162 I-1.0500 J0.0000 F1999.8000
G2 X11.0500 Y60.0000 Z7.6703 I1.0500 J0.0000 F1999.8000
G2 X8.9500 Y60.0000 Z7.4243 I-1.0500 J0.0000 F1999.8000
G2 X11.0500 Y60.0000 Z7.1784 I1.0500 J0.0000 F1999.8000
G2 X8.9500 Y60.0000 Z6.9324 I-1.0500 J0.0000 F1999.8000
G2 X11.0500 Y60.0000 Z6.6865 I1.0500 J0.0000 F1999.8000
G2 X8.9500 Y60.0000 Z6.4405 I-1.0500 J0.0000 F1999.8000
G2 X11.0500 Y60.0000 Z6.1946 I1.0500 J0.0000 F1999.8000
G2 X8.9500 Y60.0000 Z5.9486 I-1.0500 J0.0000 F1999.8000
G2 X11.0500 Y60.0000 Z5.7027 I1.0500 J0.0000 F1999.8000
G2 X8.9500 Y60.0000 Z5.4568 I-1.0500 J0.0000 F1999.8000
G2 X11.0500 Y60.0000 Z5.2108 I1.0500 J0.0000 F1999.8000
G2 X8.9500 Y60.0000 Z4.9649 I-1.0500 J0.0000 F1999.8000
G2 X11.0500 Y60.0000 Z4.7189 I1.0500 J0.0000 F1999.8000
G2 X8.9500 Y60.0000 Z4.4730 I-1.0500 J0.0000 F1999.8000
G2 X11.0500 Y60.0000 Z4.2270 I1.0500 J0.0000 F1999.8000
G2 X8.9500 Y60.0000 Z3.9811 I-1.0500 J0.0000 F1999.8000
G2 X11.0500 Y60.0000 Z3.7351 I1.0500 J0.0000 F1999.8000
G2 X8.9500 Y60.0000 Z3.4892 I-1.0500 J0.0000 F1999.8000
G2 X11.0500 Y60.0000 Z3.2432 I1.0500 J0.0000 F1999.8000
G2 X8.9500 Y60.0000 Z2.9973 I-1.0500 J0.0000 F1999.8000
G2 X11.0500 Y60.0000 Z2.7514 I1.0500 J0.0000 F1999.8000
G2 X8.9500 Y60.0000 Z2.5054 I-1.0500 J0.0000 F1999.8000
G2 X11.0500 Y60.0000 Z2.2595 I1.0500 J0.0000 F1999.8000
G2 X8.9500 Y60.0000 Z2.0135 I-1.0500 J0.0000 F1999.8000
G2 X11.0500 Y60.0000 Z1.7676 I1.0500 J0.0000 F1999.8000
G2 X8.9500 Y60.0000 Z1.5216 I-1.0500 J0.0000 F1999.8000
G2 X11.0500 Y60.0000 Z1.2757 I1.0500 J0.0000 F1999.8000
G2 X8.9500 Y60.0000 Z1.0297 I-1.0500 J0.0000 F1999.8000
G2 X11.0500 Y60.0000 Z0.7838 I1.0500 J0.0000 F1999.8000
G2 X8.9500 Y60.0000 Z0.5378 I-1.0500 J0.0000 F1999.8000
G2 X11.0500 Y60.0000 Z0.2919 I1.0500 J0.0000 F1999.8000
G2 X8.9500 Y60.0000 Z0.0459 I-1.0500 J0.0000 F1999.8000
G2 X11.0500 Y60.0000 Z-0.2000 I1.0500 J0.0000 F1999.8000
G2 X8.9500 Y60.0000 Z-0.2000 I-1.0500 J0.0000 F1999.8000
G2 X11.0500 Y60.0000 Z-0.2000 I1.0500 J0.0000 F1999.8000
G0 Z21.0000
G0 X11.0500 Y110.0000
G0 Z21.0000
G1 Z18.0000 F999.6000
G2 X8.9500 Y110.0000 Z17.7541 I-1.0500 J0.0000 F1999.8000
G2 X11.0500 Y110.0000 Z17.5081 I1.0500 J0.0000 F1999.8000
G2 X8.9500 Y110.0000 Z17.2622 I-1.0500 J0.0000 F1999.8000
G2 X11.0500 Y110.0000 Z17.0162 I1.0500 J0.0000 F1999.8000
G2 X8.9500 Y110.0000 Z16.7703 I-1.0500 J0.0000 F1999.8000
G2 X11.0500 Y110.0000 Z16.5243 I1.0500 J0.0000 F1999.8000
G2 X8.9500 Y110.0000 Z16.2784 I-1.0500 J0.0000 F1999.8000
G2 X11.0500 Y110.0000 Z16.0324 I1.0500 J0.0000 F1999.8000
G2 X8.9500 Y110.0000 Z15.7865 I-1.0500 J0.0000 F1999.8000
G2 X11.0500 Y110.0000 Z15.5405 I1.0500 J0.0000 F1999.8000
G2 X8.9500 Y110.0000 Z15.2946 I-1.0500 J0.0000 F1999.8000
G2 X11.0500 Y110.0000 Z15.0486 I1.0500 J0.0000 F1999.8000
G2 X8.9500 Y110.0000 Z14.8027 I-1.0500 J0.0000 F1999.8000
G2 X11.0500 Y110.0000 Z14.5568 I1.0500 J0.0000 F1999.8000
G2 X8.9500 Y110.0000 Z14.3108 I-1.0500 J0.0000 F1999.8000
G2 X11.0500 Y110.0000 Z14.0649 I1.0500 J0.0000 F1999.8000
G2 X8.9500 Y110.0000 Z13.8189 I-1.0500 J0.0000 F1999.8000
G2 X11.0500 Y110.0000 Z13.5730 I1.0500 J0.0000 F1999.8000
G2 X8.9500 Y110.0000 Z13.3270 I-1.0500 J0.0000 F1999.8000
G2 X11.0500 Y110.0000 Z13.0811 I1.0500 J0.0000 F1999.8000
G2 X8.9500 Y110.0000 Z12.8351 I-1.0500 J0.0000 F1999.8000
G2 X11.0500 Y110.0000 Z12.5892 I1.0500 J0.0000 F1999.8000
G2 X8.9500 Y110.0000 Z12.3432 I-1.0500 J0.0000 F1999.8000
G2 X11.0500 Y110.0000 Z12.0973 I1.0500 J0.0000 F1999.8000
G2 X8.9500 Y110.0000 Z11.8514 I-1.0500 J0.0000 F1999.8000
G2 X11.0500 Y110.0000 Z11.6054 I1.0500 J0.0000 F1999.8000
G2 X8.9500 Y110.0000 Z11.3595 I-1.0500 J0.0000 F1999.8000
G2 X11.0500 Y110.0000 Z11.1135 I1.0500 J0.0000 F1999.8000
G2 X8.9500 Y110.0000 Z10.8676 I-1.0500 J0.0000 F1999.8000
G2 X11.0500 Y110.0000 Z10.6216 I1.0500 J0.0000 F1999.8000
G2 X8.9500 Y110.0000 Z10.3757 I-1.0500 J0.0000 F1999.8000
G2 X11.0500 Y110.0000 Z10.1297 I1.0500 J0.0000 F1999.8000
G2 X8.9500 Y110.0000 Z9.8838 I-1.0500 J0.0000 F1999.8000
G2 X11.0500 Y110.0000 Z9.6378 I1.0500 J0.0000 F1999.8000
G2 X8.9500 Y110.0000 Z9.3919 I-1.0500 J0.0000 F1999.8000
G2 X11.0500 Y110.0000 Z9.1459 I1.0500 J0.0000 F1999.8000
G2 X8.9500 Y110.0000 Z8.9000 I-1.0500 J0.0000 F1999.8000
G2 X11.0500 Y110.0000 Z8.6541 I1.0500 J0.0000 F1999.8000
G2 X8.9500 Y110.0000 Z8.4081 I-1.0500 J0.0000 F1999.8000
G2 X11.0500 Y110.0000 Z8.1622 I1.0500 J0.0000 F1999.8000
G2 X8.9500 Y110.0000 Z7.9162 I-1.0500 J0.0000 F1999.8000
G2 X11.0500 Y110.0000 Z7.6703 I1.0500 J0.0000 F1999.8000
G2 X8.9500 Y110.0000 Z7.4243 I-1.0500 J0.0000 F1999.8000
G2 X11.0500 Y110.0000 Z7.1784 I1.0500 J0.0000 F1999.8000
G2 X8.9500 Y110.0000 Z6.9324 I-1.0500 J0.0000 F1999.8000
G2 X11.0500 Y110.0000 Z6.6865 I1.0500 J0.0000 F1999.8000
G2 X8.9500 Y110.0000 Z6.4405 I-1.0500 J0.0000 F1999.8000
G2 X11.0500 Y110.0000 Z6.1946 I1.0500 J0.0000 F1999.8000
G2 X8.9500 Y110.0000 Z5.9486 I-1.0500 J0.0000 F1999.8000
G2 X11.0500 Y110.0000 Z5.7027 I1.0500 J0.0000 F1999.8000
G2 X8.9500 Y110.0000 Z5.4568 I-1.0500 J0.0000 F1999.8000
G2 X11.0500 Y110.0000 Z5.2108 I1.0500 J0.0000 F1999.8000
G2 X8.9500 Y110.0000 Z4.9649 I-1.0500 J0.0000 F1999.8000
G2 X11.0500 Y110.0000 Z4.7189 I1.0500 J0.0000 F1999.8000
G2 X8.9500 Y110.0000 Z4.4730 I-1.0500 J0.0000 F1999.8000
G2 X11.0500 Y110.0000 Z4.2270 I1.0500 J0.0000 F1999.8000
G2 X8.9500 Y110.0000 Z3.9811 I-1.0500 J0.0000 F1999.8000
G2 X11.0500 Y110.0000 Z3.7351 I1.0500 J0.0000 F1999.8000
G2 X8.9500 Y110.0000 Z3.4892 I-1.0500 J0.0000 F1999.8000
G2 X11.0500 Y110.0000 Z3.2432 I1.0500 J0.0000 F1999.8000
G2 X8.9500 Y110.0000 Z2.9973 I-1.0500 J0.0000 F1999.8000
G2 X11.0500 Y110.0000 Z2.7514 I1.0500 J0.0000 F1999.8000
G2 X8.9500 Y110.0000 Z2.5054 I-1.0500 J0.0000 F1999.8000
G2 X11.0500 Y110.0000 Z2.2595 I1.0500 J0.0000 F1999.8000
G2 X8.9500 Y110.0000 Z2.0135 I-1.0500 J0.0000 F1999.8000
G2 X11.0500 Y110.0000 Z1.7676 I1.0500 J0.0000 F1999.8000
G2 X8.9500 Y110.0000 Z1.5216 I-1.0500 J0.0000 F1999.8000
G2 X11.0500 Y110.0000 Z1.2757 I1.0500 J0.0000 F1999.8000
G2 X8.9500 Y110.0000 Z1.0297 I-1.0500 J0.0000 F1999.8000
G2 X11.0500 Y110.0000 Z0.7838 I1.0500 J0.0000 F1999.8000
G2 X8.9500 Y110.0000 Z0.5378 I-1.0500 J0.0000 F1999.8000
G2 X11.0500 Y110.0000 Z0.2919 I1.0500 J0.0000 F1999.8000
G2 X8.9500 Y110.0000 Z0.0459 I-1.0500 J0.0000 F1999.8000
G2 X11.0500 Y110.0000 Z-0.2000 I1.0500 J0.0000 F1999.8000
G2 X8.9500 Y110.0000 Z-0.2000 I-1.0500 J0.0000 F1999.8000
G2 X11.0500 Y110.0000 Z-0.2000 I1.0500 J0.0000 F1999.8000
G0 Z21.0000
G0 X61.0500 Y10.0000
G0 Z21.0000
G1 Z18.0000 F999.6000
G2 X58.9500 Y10.0000 Z17.7541 I-1.0500 J0.0000 F1999.8000
G2 X61.0500 Y10.0000 Z17.5081 I1.0500 J0.0000 F1999.8000
G2 X58.9500 Y10.0000 Z17.2622 I-1.0500 J0.0000 F1999.8000
G2 X61.0500 Y10.0000 Z17.0162 I1.0500 J0.0000 F1999.8000
G2 X58.9500 Y10.0000 Z16.7703 I-1.0500 J0.0000 F1999.8000
G2 X61.0500 Y10.0000 Z16.5243 I1.0500 J0.0000 F1999.8000
G2 X58.9500 Y10.0000 Z16.2784 I-1.0500 J0.0000 F1999.8000
G2 X61.0500 Y10.0000 Z16.0324 I1.0500 J0.0000 F1999.8000
G2 X58.9500 Y10.0000 Z15.7865 I-1.0500 J0.0000 F1999.8000
G2 X61.0500 Y10.0000 Z15.5405 I1.0500 J0.0000 F1999.8000
G2 X58.9500 Y10.0000 Z15.2946 I-1.0500 J0.0000 F1999.8000
G2 X61.0500 Y10.0000 Z15.0486 I1.0500 J0.0000 F1999.8000
G2 X58.9500 Y10.0000 Z14.8027 I-1.0500 J0.0000 F1999.8000
G2 X61.0500 Y10.0000 Z14.5568 I1.0500 J0.0000 F1999.8000
G2 X58.9500 Y10.0000 Z14.3108 I-1.0500 J0.0000 F1999.8000
G2 X61.0500 Y10.0000 Z14.0649 I1.0500 J0.0000 F1999.8000
G2 X58.9500 Y10.0000 Z13.8189 I-1.0500 J0.0000 F1999.8000
G2 X61.0500 Y10.0000 Z13.5730 I1.0500 J0.0000 F1999.8000
G2 X58.9500 Y10.0000 Z13.3270 I-1.0500 J0.0000 F1999.8000
G2 X61.0500 Y10.0000 Z13.0811 I1.0500 J0.0000 F1999.8000
G2 X58.9500 Y10.0000 Z12.8351 I-1.0500 J0.0000 F1999.8000
G2 X61.0500 Y10.0000 Z12.5892 I1.0500 J0.0000 F1999.8000
G2 X58.9500 Y10.0000 Z12.3432 I-1.0500 J0.0000 F1999.8000
G2 X61.0500 Y10.0000 Z12.0973 I1.0500 J0.0000 F1999.8000
G2 X58.9500 Y10.0000 Z11.8514 I-1.0500 J0.0000 F1999.8000
G2 X61.0500 Y10.0000 Z11.6054 I1.0500 J0.0000 F1999.8000
G2 X58.9500 Y10.0000 Z11.3595 I-1.0500 J0.0000 F1999.8000
G2 X61.0500 Y10.0000 Z11.1135 I1.0500 J0.0000 F1999.8000
G2 X58.9500 Y10.0000 Z10.8676 I-1.0500 J0.0000 F1999.8000
G2 X61.0500 Y10.0000 Z10.6216 I1.0500 J0.0000 F1999.8000
G2 X58.9500 Y10.0000 Z10.3757 I-1.0500 J0.0000 F1999.8000
G2 X61.0500 Y10.0000 Z10.1297 I1.0500 J0.0000 F1999.8000
G2 X58.9500 Y10.0000 Z9.8838 I-1.0500 J0.0000 F1999.8000
G2 X61.0500 Y10.0000 Z9.6378 I1.0500 J0.0000 F1999.8000
G2 X58.9500 Y10.0000 Z9.3919 I-1.0500 J0.0000 F1999.8000
G2 X61.0500 Y10.0000 Z9.1459 I1.0500 J0.0000 F1999.8000
G2 X58.9500 Y10.0000 Z8.9000 I-1.0500 J0.0000 F1999.8000
G2 X61.0500 Y10.0000 Z8.6541 I1.0500 J0.0000 F1999.8000
G2 X58.9500 Y10.0000 Z8.4081 I-1.0500 J0.0000 F1999.8000
G2 X61.0500 Y10.0000 Z8.1622 I1.0500 J0.0000 F1999.8000
G2 X58.9500 Y10.0000 Z7.9162 I-1.0500 J0.0000 F1999.8000
G2 X61.0500 Y10.0000 Z7.6703 I1.0500 J0.0000 F1999.8000
G2 X58.9500 Y10.0000 Z7.4243 I-1.0500 J0.0000 F1999.8000
G2 X61.0500 Y10.0000 Z7.1784 I1.0500 J0.0000 F1999.8000
G2 X58.9500 Y10.0000 Z6.9324 I-1.0500 J0.0000 F1999.8000
G2 X61.0500 Y10.0000 Z6.6865 I1.0500 J0.0000 F1999.8000
G2 X58.9500 Y10.0000 Z6.4405 I-1.0500 J0.0000 F1999.8000
G2 X61.0500 Y10.0000 Z6.1946 I1.0500 J0.0000 F1999.8000
G2 X58.9500 Y10.0000 Z5.9486 I-1.0500 J0.0000 F1999.8000
G2 X61.0500 Y10.0000 Z5.7027 I1.0500 J0.0000 F1999.8000
G2 X58.9500 Y10.0000 Z5.4568 I-1.0500 J0.0000 F1999.8000
G2 X61.0500 Y10.0000 Z5.2108 I1.0500 J0.0000 F1999.8000
G2 X58.9500 Y10.0000 Z4.9649 I-1.0500 J0.0000 F1999.8000
G2 X61.0500 Y10.0000 Z4.7189 I1.0500 J0.0000 F1999.8000
G2 X58.9500 Y10.0000 Z4.4730 I-1.0500 J0.0000 F1999.8000
G2 X61.0500 Y10.0000 Z4.2270 I1.0500 J0.0000 F1999.8000
G2 X58.9500 Y10.0000 Z3.9811 I-1.0500 J0.0000 F1999.8000
G2 X61.0500 Y10.0000 Z3.7351 I1.0500 J0.0000 F1999.8000
G2 X58.9500 Y10.0000 Z3.4892 I-1.0500 J0.0000 F1999.8000
G2 X61.0500 Y10.0000 Z3.2432 I1.0500 J0.0000 F1999.8000
G2 X58.9500 Y10.0000 Z2.9973 I-1.0500 J0.0000 F1999.8000
G2 X61.0500 Y10.0000 Z2.7514 I1.0500 J0.0000 F1999.8000
G2 X58.9500 Y10.0000 Z2.5054 I-1.0500 J0.0000 F1999.8000
G2 X61.0500 Y10.0000 Z2.2595 I1.0500 J0.0000 F1999.8000
G2 X58.9500 Y10.0000 Z2.0135 I-1.0500 J0.0000 F1999.8000
G2 X61.0500 Y10.0000 Z1.7676 I1.0500 J0.0000 F1999.8000
G2 X58.9500 Y10.0000 Z1.5216 I-1.0500 J0.0000 F1999.8000
G2 X61.0500 Y10.0000 Z1.2757 I1.0500 J0.0000 F1999.8000
G2 X58.9500 Y10.0000 Z1.0297 I-1.0500 J0.0000 F1999.8000
G2 X61.0500 Y10.0000 Z0.7838 I1.0500 J0.0000 F1999.8000
G2 X58.9500 Y10.0000 Z0.5378 I-1.0500 J0.0000 F1999.8000
G2 X61.0500 Y10.0000 Z0.2919 I1.0500 J0.0000 F1999.8000
G2 X58.9500 Y10.0000 Z0.0459 I-1.0500 J0.0000 F1999.8000
G2 X61.0500 Y10.0000 Z-0.2000 I1.0500 J0.0000 F1999.8000
G2 X58.9500 Y10.0000 Z-0.2000 I-1.0500 J0.0000 F1999.8000
G2 X61.0500 Y10.0000 Z-0.2000 I1.0500 J0.0000 F1999.8000
G0 Z21.0000
G0 X111.0500 Y10.0000
G0 Z21.0000
G1 Z18.0000 F999.6000
G2 X108.9500 Y10.0000 Z17.7541 I-1.0500 J0.0000 F1999.8000
G2 X111.0500 Y10.0000 Z17.5081 I1.0500 J0.0000 F1999.8000
G2 X108.9500 Y10.0000 Z17.2622 I-1.0500 J0.0000 F1999.8000
G2 X111.0500 Y10.0000 Z17.0162 I1.0500 J0.0000 F1999.8000
G2 X108.9500 Y10.0000 Z16.7703 I-1.0500 J0.0000 F1999.8000
G2 X111.0500 Y10.0000 Z16.5243 I1.0500 J0.0000 F1999.8000
G2 X108.9500 Y10.0000 Z16.2784 I-1.0500 J0.0000 F1999.8000
G2 X111.0500 Y10.0000 Z16.0324 I1.0500 J0.0000 F1999.8000
G2 X108.9500 Y10.0000 Z15.7865 I-1.0500 J0.0000 F1999.8000
G2 X111.0500 Y10.0000 Z15.5405 I1.0500 J0.0000 F1999.8000
G2 X108.9500 Y10.0000 Z15.2946 I-1.0500 J0.0000 F1999.8000
G2 X111.0500 Y10.0000 Z15.0486 I1.0500 J0.0000 F1999.8000
G2 X108.9500 Y10.0000 Z14.8027 I-1.0500 J0.0000 F1999.8000
G2 X111.0500 Y10.0000 Z14.5568 I1.0500 J0.0000 F1999.8000
G2 X108.9500 Y10.0000 Z14.3108 I-1.0500 J0.0000 F1999.8000
G2 X111.0500 Y10.0000 Z14.0649 I1.0500 J0.0000 F1999.8000
G2 X108.9500 Y10.0000 Z13.8189 I-1.0500 J0.0000 F1999.8000
G2 X111.0500 Y10.0000 Z13.5730 I1.0500 J0.0000 F1999.8000
G2 X108.9500 Y10.0000 Z13.3270 I-1.0500 J0.0000 F1999.8000
G2 X111.0500 Y10.0000 Z13.0811 I1.0500 J0.0000 F1999.8000
G2 X108.9500 Y10.0000 Z12.8351 I-1.0500 J0.0000 F1999.8000
G2 X111.0500 Y10.0000 Z12.5892 I1.0500 J0.0000 F1999.8000
G2 X108.9500 Y10.0000 Z12.3432 I-1.0500 J0.0000 F1999.8000
G2 X111.0500 Y10.0000 Z12.0973 I1.0500 J0.0000 F1999.8000
G2 X108.9500 Y10.0000 Z11.8514 I-1.0500 J0.0000 F1999.8000
G2 X111.0500 Y10.0000 Z11.6054 I1.0500 J0.0000 F1999.8000
G2 X108.9500 Y10.0000 Z11.3595 I-1.0500 J0.0000 F1999.8000
G2 X111.0500 Y10.0000 Z11.1135 I1.0500 J0.0000 F1999.8000
G2 X108.9500 Y10.0000 Z10.8676 I-1.0500 J0.0000 F1999.8000
G2 X111.0500 Y10.0000 Z10.6216 I1.0500 J0.0000 F1999.8000
G2 X108.9500 Y10.0000 Z10.3757 I-1.0500 J0.0000 F1999.8000
G2 X111.0500 Y10.0000 Z10.1297 I1.0500 J0.0000 F1999.8000
G2 X108.9500 Y10.0000 Z9.8838 I-1.0500 J0.0000 F1999.8000
G2 X111.0500 Y10.0000 Z9.6378 I1.0500 J0.0000 F1999.8000
G2 X108.9500 Y10.0000 Z9.3919 I-1.0500 J0.0000 F1999.8000
G2 X111.0500 Y10.0000 Z9.1459 I1.0500 J0.0000 F1999.8000
G2 X108.9500 Y10.0000 Z8.9000 I-1.0500 J0.0000 F1999.8000
G2 X111.0500 Y10.0000 Z8.6541 I1.0500 J0.0000 F1999.8000
G2 X108.9500 Y10.0000 Z8.4081 I-1.0500 J0.0000 F1999.8000
G2 X111.0500 Y10.0000 Z8.1622 I1.0500 J0.0000 F1999.8000
G2 X108.9500 Y10.0000 Z7.9162 I-1.0500 J0.0000 F1999.8000
G2 X111.0500 Y10.0000 Z7.6703 I1.0500 J0.0000 F1999.8000
G2 X108.9500 Y10.0000 Z7.4243 I-1.0500 J0.0000 F1999.8000
G2 X111.0500 Y10.0000 Z7.1784 I1.0500 J0.0000 F1999.8000
G2 X108.9500 Y10.0000 Z6.9324 I-1.0500 J0.0000 F1999.8000
G2 X111.0500 Y10.0000 Z6.6865 I1.0500 J0.0000 F1999.8000
G2 X108.9500 Y10.0000 Z6.4405 I-1.0500 J0.0000 F1999.8000
G2 X111.0500 Y10.0000 Z6.1946 I1.0500 J0.0000 F1999.8000
G2 X108.9500 Y10.0000 Z5.9486 I-1.0500 J0.0000 F1999.8000
G2 X111.0500 Y10.0000 Z5.7027 I1.0500 J0.0000 F1999.8000
G2 X108.9500 Y10.0000 Z5.4568 I-1.0500 J0.0000 F1999.8000
G2 X111.0500 Y10.0000 Z5.2108 I1.0500 J0.0000 F1999.8000
G2 X108.9500 Y10.0000 Z4.9649 I-1.0500 J0.0000 F1999.8000
G2 X111.0500 Y10.0000 Z4.7189 I1.0500 J0.0000 F1999.8000
G2 X108.9500 Y10.0000 Z4.4730 I-1.0500 J0.0000 F1999.8000
G2 X111.0500 Y10.0000 Z4.2270 I1.0500 J0.0000 F1999.8000
G2 X108.9500 Y10.0000 Z3.9811 I-1.0500 J0.0000 F1999.8000
G2 X111.0500 Y10.0000 Z3.7351 I1.0500 J0.0000 F1999.8000
G2 X108.9500 Y10.0000 Z3.4892 I-1.0500 J0.0000 F1999.8000
G2 X111.0500 Y10.0000 Z3.2432 I1.0500 J0.0000 F1999.8000
G2 X108.9500 Y10.0000 Z2.9973 I-1.0500 J0.0000 F1999.8000
G2 X111.0500 Y10.0000 Z2.7514 I1.0500 J0.0000 F1999.8000
G2 X108.9500 Y10.0000 Z2.5054 I-1.0500 J0.0000 F1999.8000
G2 X111.0500 Y10.0000 Z2.2595 I1.0500 J0.0000 F1999.8000
G2 X108.9500 Y10.0000 Z2.0135 I-1.0500 J0.0000 F1999.8000
G2 X111.0500 Y10.0000 Z1.7676 I1.0500 J0.0000 F1999.8000
G2 X108.9500 Y10.0000 Z1.5216 I-1.0500 J0.0000 F1999.8000
G2 X111.0500 Y10.0000 Z1.2757 I1.0500 J0.0000 F1999.8000
G2 X108.9500 Y10.0000 Z1.0297 I-1.0500 J0.0000 F1999.8000
G2 X111.0500 Y10.0000 Z0.7838 I1.0500 J0.0000 F1999.8000
G2 X108.9500 Y10.0000 Z0.5378 I-1.0500 J0.0000 F1999.8000
G2 X111.0500 Y10.0000 Z0.2919 I1.0500 J0.0000 F1999.8000
G2 X108.9500 Y10.0000 Z0.0459 I-1.0500 J0.0000 F1999.8000
G2 X111.0500 Y10.0000 Z-0.2000 I1.0500 J0.0000 F1999.8000
G2 X108.9500 Y10.0000 Z-0.2000 I-1.0500 J0.0000 F1999.8000
G2 X111.0500 Y10.0000 Z-0.2000 I1.0500 J0.0000 F1999.8000
G0 Z21.0000
G0 Z23.0000
(Finish operation: Helix)
(Begin postamble)
M5
G17 G90
M2
