(Exported by FreeCAD)
(Post Processor: grbl_post)
(Output Time:2020-04-13 23:08:38.401874)
(Begin preamble)
G17 G90
G21
(Begin operation: Fixture)
(Path: Fixture)
G54
(Finish operation: Fixture)
(Begin operation: T6: 2FluteWoodMill002)
(Path: T6: 2FluteWoodMill002)
(T6: 2FluteWoodMill002)
(Begin toolchange)
(M6 T6.0)
M3 S12000.0
(Finish operation: T6: 2FluteWoodMill002)
(Begin operation: DressupTag)
(Path: DressupTag)
G0 Z23.0000
G0 X381.0607 Y258.0607 Z23.0000
G0 X381.0607 Y258.0607 Z21.0000
G1 X381.0607 Y258.0607 Z17.5000 F999.6000
G3 X380.0000 Y258.5000 Z17.5000 I-1.0607 J-1.0607 K0.0000 F1999.8000
G1 X0.0000 Y258.5000 Z17.5000 F1999.8000
G3 X-1.5000 Y257.0000 Z17.5000 I0.0000 J-1.5000 K0.0000 F1999.8000
G1 X-1.5000 Y0.0000 Z17.5000 F1999.8000
G3 X0.0000 Y-1.5000 Z17.5000 I1.5000 J0.0000 K0.0000 F1999.8000
G1 X30.0000 Y-1.5000 Z17.5000 F1999.8000
G3 X31.5000 Y0.0000 Z17.5000 I-0.0000 J1.5000 K0.0000 F1999.8000
G1 X31.5000 Y127.0000 Z17.5000 F1999.8000
G1 X31.0607 Y127.4393 Z17.5000 F1999.8000
G1 X31.5000 Y127.0000 Z17.5000 F1999.8000
G1 X46.5000 Y127.0000 Z17.5000 F1999.8000
G1 X46.9393 Y127.4393 Z17.5000 F1999.8000
G1 X46.5000 Y127.0000 Z17.5000 F1999.8000
G1 X46.5000 Y0.0000 Z17.5000 F1999.8000
G3 X48.0000 Y-1.5000 Z17.5000 I1.5000 J0.0000 K0.0000 F1999.8000
G1 X78.0000 Y-1.5000 Z17.5000 F1999.8000
G3 X79.4966 Y-0.1003 Z17.5000 I-0.0000 J1.5000 K0.0000 F1999.8000
G1 X89.6187 Y150.8876 Z17.5000 F1999.8000
G2 X118.0750 Y177.5000 Z17.5000 I28.4386 J-1.8889 K0.0000 F1999.8000
G1 X261.9250 Y177.5000 Z17.5000 F1999.8000
G2 X290.3813 Y150.8876 Z17.5000 I0.0176 J-28.5013 K0.0000 F1999.8000
G1 X300.5034 Y-0.1003 Z17.5000 F1999.8000
G3 X302.0000 Y-1.5000 Z17.5000 I1.4966 J0.1003 K0.0000 F1999.8000
G1 X332.0000 Y-1.5000 Z17.5000 F1999.8000
G3 X333.5000 Y0.0000 Z17.5000 I-0.0000 J1.5000 K0.0000 F1999.8000
G1 X333.5000 Y127.0000 Z17.5000 F1999.8000
G1 X333.0607 Y127.4393 Z17.5000 F1999.8000
G1 X333.5000 Y127.0000 Z17.5000 F1999.8000
G1 X348.5000 Y127.0000 Z17.5000 F1999.8000
G1 X348.9393 Y127.4393 Z17.5000 F1999.8000
G1 X348.5000 Y127.0000 Z17.5000 F1999.8000
G1 X348.5000 Y0.0000 Z17.5000 F1999.8000
G3 X350.0000 Y-1.5000 Z17.5000 I1.5000 J0.0000 K0.0000 F1999.8000
G1 X380.0000 Y-1.5000 Z17.5000 F1999.8000
G3 X381.5000 Y0.0000 Z17.5000 I-0.0000 J1.5000 K0.0000 F1999.8000
G1 X381.5000 Y257.0000 Z17.5000 F1999.8000
G3 X381.0607 Y258.0607 Z17.5000 I-1.5000 J-0.0000 K0.0000 F1999.8000
G1 X381.0607 Y258.0607 Z17.0000 F999.6000
G3 X380.0000 Y258.5000 Z17.0000 I-1.0607 J-1.0607 K0.0000 F1999.8000
G1 X0.0000 Y258.5000 Z17.0000 F1999.8000
G3 X-1.5000 Y257.0000 Z17.0000 I0.0000 J-1.5000 K0.0000 F1999.8000
G1 X-1.5000 Y0.0000 Z17.0000 F1999.8000
G3 X0.0000 Y-1.5000 Z17.0000 I1.5000 J0.0000 K0.0000 F1999.8000
G1 X30.0000 Y-1.5000 Z17.0000 F1999.8000
G3 X31.5000 Y0.0000 Z17.0000 I-0.0000 J1.5000 K0.0000 F1999.8000
G1 X31.5000 Y127.0000 Z17.0000 F1999.8000
G1 X31.0607 Y127.4393 Z17.0000 F1999.8000
G1 X31.5000 Y127.0000 Z17.0000 F1999.8000
G1 X46.5000 Y127.0000 Z17.0000 F1999.8000
G1 X46.9393 Y127.4393 Z17.0000 F1999.8000
G1 X46.5000 Y127.0000 Z17.0000 F1999.8000
G1 X46.5000 Y0.0000 Z17.0000 F1999.8000
G3 X48.0000 Y-1.5000 Z17.0000 I1.5000 J0.0000 K0.0000 F1999.8000
G1 X78.0000 Y-1.5000 Z17.0000 F1999.8000
G3 X79.4966 Y-0.1003 Z17.0000 I-0.0000 J1.5000 K0.0000 F1999.8000
G1 X89.6187 Y150.8876 Z17.0000 F1999.8000
G2 X118.0750 Y177.5000 Z17.0000 I28.4386 J-1.8889 K0.0000 F1999.8000
G1 X261.9250 Y177.5000 Z17.0000 F1999.8000
G2 X290.3813 Y150.8876 Z17.0000 I0.0176 J-28.5013 K0.0000 F1999.8000
G1 X300.5034 Y-0.1003 Z17.0000 F1999.8000
G3 X302.0000 Y-1.5000 Z17.0000 I1.4966 J0.1003 K0.0000 F1999.8000
G1 X332.0000 Y-1.5000 Z17.0000 F1999.8000
G3 X333.5000 Y0.0000 Z17.0000 I-0.0000 J1.5000 K0.0000 F1999.8000
G1 X333.5000 Y127.0000 Z17.0000 F1999.8000
G1 X333.0607 Y127.4393 Z17.0000 F1999.8000
G1 X333.5000 Y127.0000 Z17.0000 F1999.8000
G1 X348.5000 Y127.0000 Z17.0000 F1999.8000
G1 X348.9393 Y127.4393 Z17.0000 F1999.8000
G1 X348.5000 Y127.0000 Z17.0000 F1999.8000
G1 X348.5000 Y0.0000 Z17.0000 F1999.8000
G3 X350.0000 Y-1.5000 Z17.0000 I1.5000 J0.0000 K0.0000 F1999.8000
G1 X380.0000 Y-1.5000 Z17.0000 F1999.8000
G3 X381.5000 Y0.0000 Z17.0000 I-0.0000 J1.5000 K0.0000 F1999.8000
G1 X381.5000 Y257.0000 Z17.0000 F1999.8000
G3 X381.0607 Y258.0607 Z17.0000 I-1.5000 J-0.0000 K0.0000 F1999.8000
G1 X381.0607 Y258.0607 Z16.5000 F999.6000
G3 X380.0000 Y258.5000 Z16.5000 I-1.0607 J-1.0607 K0.0000 F1999.8000
G1 X0.0000 Y258.5000 Z16.5000 F1999.8000
G3 X-1.5000 Y257.0000 Z16.5000 I0.0000 J-1.5000 K0.0000 F1999.8000
G1 X-1.5000 Y0.0000 Z16.5000 F1999.8000
G3 X0.0000 Y-1.5000 Z16.5000 I1.5000 J0.0000 K0.0000 F1999.8000
G1 X30.0000 Y-1.5000 Z16.5000 F1999.8000
G3 X31.5000 Y0.0000 Z16.5000 I-0.0000 J1.5000 K0.0000 F1999.8000
G1 X31.5000 Y127.0000 Z16.5000 F1999.8000
G1 X31.0607 Y127.4393 Z16.5000 F1999.8000
G1 X31.5000 Y127.0000 Z16.5000 F1999.8000
G1 X46.5000 Y127.0000 Z16.5000 F1999.8000
G1 X46.9393 Y127.4393 Z16.5000 F1999.8000
G1 X46.5000 Y127.0000 Z16.5000 F1999.8000
G1 X46.5000 Y0.0000 Z16.5000 F1999.8000
G3 X48.0000 Y-1.5000 Z16.5000 I1.5000 J0.0000 K0.0000 F1999.8000
G1 X78.0000 Y-1.5000 Z16.5000 F1999.8000
G3 X79.4966 Y-0.1003 Z16.5000 I-0.0000 J1.5000 K0.0000 F1999.8000
G1 X89.6187 Y150.8876 Z16.5000 F1999.8000
G2 X118.0750 Y177.5000 Z16.5000 I28.4386 J-1.8889 K0.0000 F1999.8000
G1 X261.9250 Y177.5000 Z16.5000 F1999.8000
G2 X290.3813 Y150.8876 Z16.5000 I0.0176 J-28.5013 K0.0000 F1999.8000
G1 X300.5034 Y-0.1003 Z16.5000 F1999.8000
G3 X302.0000 Y-1.5000 Z16.5000 I1.4966 J0.1003 K0.0000 F1999.8000
G1 X332.0000 Y-1.5000 Z16.5000 F1999.8000
G3 X333.5000 Y0.0000 Z16.5000 I-0.0000 J1.5000 K0.0000 F1999.8000
G1 X333.5000 Y127.0000 Z16.5000 F1999.8000
G1 X333.0607 Y127.4393 Z16.5000 F1999.8000
G1 X333.5000 Y127.0000 Z16.5000 F1999.8000
G1 X348.5000 Y127.0000 Z16.5000 F1999.8000
G1 X348.9393 Y127.4393 Z16.5000 F1999.8000
G1 X348.5000 Y127.0000 Z16.5000 F1999.8000
G1 X348.5000 Y0.0000 Z16.5000 F1999.8000
G3 X350.0000 Y-1.5000 Z16.5000 I1.5000 J0.0000 K0.0000 F1999.8000
G1 X380.0000 Y-1.5000 Z16.5000 F1999.8000
G3 X381.5000 Y0.0000 Z16.5000 I-0.0000 J1.5000 K0.0000 F1999.8000
G1 X381.5000 Y257.0000 Z16.5000 F1999.8000
G3 X381.0607 Y258.0607 Z16.5000 I-1.5000 J-0.0000 K0.0000 F1999.8000
G1 X381.0607 Y258.0607 Z16.0000 F999.6000
G3 X380.0000 Y258.5000 Z16.0000 I-1.0607 J-1.0607 K0.0000 F1999.8000
G1 X0.0000 Y258.5000 Z16.0000 F1999.8000
G3 X-1.5000 Y257.0000 Z16.0000 I0.0000 J-1.5000 K0.0000 F1999.8000
G1 X-1.5000 Y0.0000 Z16.0000 F1999.8000
G3 X0.0000 Y-1.5000 Z16.0000 I1.5000 J0.0000 K0.0000 F1999.8000
G1 X30.0000 Y-1.5000 Z16.0000 F1999.8000
G3 X31.5000 Y0.0000 Z16.0000 I-0.0000 J1.5000 K0.0000 F1999.8000
G1 X31.5000 Y127.0000 Z16.0000 F1999.8000
G1 X31.0607 Y127.4393 Z16.0000 F1999.8000
G1 X31.5000 Y127.0000 Z16.0000 F1999.8000
G1 X46.5000 Y127.0000 Z16.0000 F1999.8000
G1 X46.9393 Y127.4393 Z16.0000 F1999.8000
G1 X46.5000 Y127.0000 Z16.0000 F1999.8000
G1 X46.5000 Y0.0000 Z16.0000 F1999.8000
G3 X48.0000 Y-1.5000 Z16.0000 I1.5000 J0.0000 K0.0000 F1999.8000
G1 X78.0000 Y-1.5000 Z16.0000 F1999.8000
G3 X79.4966 Y-0.1003 Z16.0000 I-0.0000 J1.5000 K0.0000 F1999.8000
G1 X89.6187 Y150.8876 Z16.0000 F1999.8000
G2 X118.0750 Y177.5000 Z16.0000 I28.4386 J-1.8889 K0.0000 F1999.8000
G1 X261.9250 Y177.5000 Z16.0000 F1999.8000
G2 X290.3813 Y150.8876 Z16.0000 I0.0176 J-28.5013 K0.0000 F1999.8000
G1 X300.5034 Y-0.1003 Z16.0000 F1999.8000
G3 X302.0000 Y-1.5000 Z16.0000 I1.4966 J0.1003 K0.0000 F1999.8000
G1 X332.0000 Y-1.5000 Z16.0000 F1999.8000
G3 X333.5000 Y0.0000 Z16.0000 I-0.0000 J1.5000 K0.0000 F1999.8000
G1 X333.5000 Y127.0000 Z16.0000 F1999.8000
G1 X333.0607 Y127.4393 Z16.0000 F1999.8000
G1 X333.5000 Y127.0000 Z16.0000 F1999.8000
G1 X348.5000 Y127.0000 Z16.0000 F1999.8000
G1 X348.9393 Y127.4393 Z16.0000 F1999.8000
G1 X348.5000 Y127.0000 Z16.0000 F1999.8000
G1 X348.5000 Y0.0000 Z16.0000 F1999.8000
G3 X350.0000 Y-1.5000 Z16.0000 I1.5000 J0.0000 K0.0000 F1999.8000
G1 X380.0000 Y-1.5000 Z16.0000 F1999.8000
G3 X381.5000 Y0.0000 Z16.0000 I-0.0000 J1.5000 K0.0000 F1999.8000
G1 X381.5000 Y257.0000 Z16.0000 F1999.8000
G3 X381.0607 Y258.0607 Z16.0000 I-1.5000 J-0.0000 K0.0000 F1999.8000
G1 X381.0607 Y258.0607 Z15.5000 F999.6000
G3 X380.0000 Y258.5000 Z15.5000 I-1.0607 J-1.0607 K0.0000 F1999.8000
G1 X0.0000 Y258.5000 Z15.5000 F1999.8000
G3 X-1.5000 Y257.0000 Z15.5000 I0.0000 J-1.5000 K0.0000 F1999.8000
G1 X-1.5000 Y0.0000 Z15.5000 F1999.8000
G3 X0.0000 Y-1.5000 Z15.5000 I1.5000 J0.0000 K0.0000 F1999.8000
G1 X30.0000 Y-1.5000 Z15.5000 F1999.8000
G3 X31.5000 Y0.0000 Z15.5000 I-0.0000 J1.5000 K0.0000 F1999.8000
G1 X31.5000 Y127.0000 Z15.5000 F1999.8000
G1 X31.0607 Y127.4393 Z15.5000 F1999.8000
G1 X31.5000 Y127.0000 Z15.5000 F1999.8000
G1 X46.5000 Y127.0000 Z15.5000 F1999.8000
G1 X46.9393 Y127.4393 Z15.5000 F1999.8000
G1 X46.5000 Y127.0000 Z15.5000 F1999.8000
G1 X46.5000 Y0.0000 Z15.5000 F1999.8000
G3 X48.0000 Y-1.5000 Z15.5000 I1.5000 J0.0000 K0.0000 F1999.8000
G1 X78.0000 Y-1.5000 Z15.5000 F1999.8000
G3 X79.4966 Y-0.1003 Z15.5000 I-0.0000 J1.5000 K0.0000 F1999.8000
G1 X89.6187 Y150.8876 Z15.5000 F1999.8000
G2 X118.0750 Y177.5000 Z15.5000 I28.4386 J-1.8889 K0.0000 F1999.8000
G1 X261.9250 Y177.5000 Z15.5000 F1999.8000
G2 X290.3813 Y150.8876 Z15.5000 I0.0176 J-28.5013 K0.0000 F1999.8000
G1 X300.5034 Y-0.1003 Z15.5000 F1999.8000
G3 X302.0000 Y-1.5000 Z15.5000 I1.4966 J0.1003 K0.0000 F1999.8000
G1 X332.0000 Y-1.5000 Z15.5000 F1999.8000
G3 X333.5000 Y0.0000 Z15.5000 I-0.0000 J1.5000 K0.0000 F1999.8000
G1 X333.5000 Y127.0000 Z15.5000 F1999.8000
G1 X333.0607 Y127.4393 Z15.5000 F1999.8000
G1 X333.5000 Y127.0000 Z15.5000 F1999.8000
G1 X348.5000 Y127.0000 Z15.5000 F1999.8000
G1 X348.9393 Y127.4393 Z15.5000 F1999.8000
G1 X348.5000 Y127.0000 Z15.5000 F1999.8000
G1 X348.5000 Y0.0000 Z15.5000 F1999.8000
G3 X350.0000 Y-1.5000 Z15.5000 I1.5000 J0.0000 K0.0000 F1999.8000
G1 X380.0000 Y-1.5000 Z15.5000 F1999.8000
G3 X381.5000 Y0.0000 Z15.5000 I-0.0000 J1.5000 K0.0000 F1999.8000
G1 X381.5000 Y257.0000 Z15.5000 F1999.8000
G3 X381.0607 Y258.0607 Z15.5000 I-1.5000 J-0.0000 K0.0000 F1999.8000
G1 X381.0607 Y258.0607 Z15.0000 F999.6000
G3 X380.0000 Y258.5000 Z15.0000 I-1.0607 J-1.0607 K0.0000 F1999.8000
G1 X0.0000 Y258.5000 Z15.0000 F1999.8000
G3 X-1.5000 Y257.0000 Z15.0000 I0.0000 J-1.5000 K0.0000 F1999.8000
G1 X-1.5000 Y0.0000 Z15.0000 F1999.8000
G3 X0.0000 Y-1.5000 Z15.0000 I1.5000 J0.0000 K0.0000 F1999.8000
G1 X30.0000 Y-1.5000 Z15.0000 F1999.8000
G3 X31.5000 Y0.0000 Z15.0000 I-0.0000 J1.5000 K0.0000 F1999.8000
G1 X31.5000 Y127.0000 Z15.0000 F1999.8000
G1 X31.0607 Y127.4393 Z15.0000 F1999.8000
G1 X31.5000 Y127.0000 Z15.0000 F1999.8000
G1 X46.5000 Y127.0000 Z15.0000 F1999.8000
G1 X46.9393 Y127.4393 Z15.0000 F1999.8000
G1 X46.5000 Y127.0000 Z15.0000 F1999.8000
G1 X46.5000 Y0.0000 Z15.0000 F1999.8000
G3 X48.0000 Y-1.5000 Z15.0000 I1.5000 J0.0000 K0.0000 F1999.8000
G1 X78.0000 Y-1.5000 Z15.0000 F1999.8000
G3 X79.4966 Y-0.1003 Z15.0000 I-0.0000 J1.5000 K0.0000 F1999.8000
G1 X89.6187 Y150.8876 Z15.0000 F1999.8000
G2 X118.0750 Y177.5000 Z15.0000 I28.4386 J-1.8889 K0.0000 F1999.8000
G1 X261.9250 Y177.5000 Z15.0000 F1999.8000
G2 X290.3813 Y150.8876 Z15.0000 I0.0176 J-28.5013 K0.0000 F1999.8000
G1 X300.5034 Y-0.1003 Z15.0000 F1999.8000
G3 X302.0000 Y-1.5000 Z15.0000 I1.4966 J0.1003 K0.0000 F1999.8000
G1 X332.0000 Y-1.5000 Z15.0000 F1999.8000
G3 X333.5000 Y0.0000 Z15.0000 I-0.0000 J1.5000 K0.0000 F1999.8000
G1 X333.5000 Y127.0000 Z15.0000 F1999.8000
G1 X333.0607 Y127.4393 Z15.0000 F1999.8000
G1 X333.5000 Y127.0000 Z15.0000 F1999.8000
G1 X348.5000 Y127.0000 Z15.0000 F1999.8000
G1 X348.9393 Y127.4393 Z15.0000 F1999.8000
G1 X348.5000 Y127.0000 Z15.0000 F1999.8000
G1 X348.5000 Y0.0000 Z15.0000 F1999.8000
G3 X350.0000 Y-1.5000 Z15.0000 I1.5000 J0.0000 K0.0000 F1999.8000
G1 X380.0000 Y-1.5000 Z15.0000 F1999.8000
G3 X381.5000 Y0.0000 Z15.0000 I-0.0000 J1.5000 K0.0000 F1999.8000
G1 X381.5000 Y257.0000 Z15.0000 F1999.8000
G3 X381.0607 Y258.0607 Z15.0000 I-1.5000 J-0.0000 K0.0000 F1999.8000
G1 X381.0607 Y258.0607 Z14.5000 F999.6000
G3 X380.0000 Y258.5000 Z14.5000 I-1.0607 J-1.0607 K0.0000 F1999.8000
G1 X0.0000 Y258.5000 Z14.5000 F1999.8000
G3 X-1.5000 Y257.0000 Z14.5000 I0.0000 J-1.5000 K0.0000 F1999.8000
G1 X-1.5000 Y0.0000 Z14.5000 F1999.8000
G3 X0.0000 Y-1.5000 Z14.5000 I1.5000 J0.0000 K0.0000 F1999.8000
G1 X30.0000 Y-1.5000 Z14.5000 F1999.8000
G3 X31.5000 Y0.0000 Z14.5000 I-0.0000 J1.5000 K0.0000 F1999.8000
G1 X31.5000 Y127.0000 Z14.5000 F1999.8000
G1 X31.0607 Y127.4393 Z14.5000 F1999.8000
G1 X31.5000 Y127.0000 Z14.5000 F1999.8000
G1 X46.5000 Y127.0000 Z14.5000 F1999.8000
G1 X46.9393 Y127.4393 Z14.5000 F1999.8000
G1 X46.5000 Y127.0000 Z14.5000 F1999.8000
G1 X46.5000 Y0.0000 Z14.5000 F1999.8000
G3 X48.0000 Y-1.5000 Z14.5000 I1.5000 J0.0000 K0.0000 F1999.8000
G1 X78.0000 Y-1.5000 Z14.5000 F1999.8000
G3 X79.4966 Y-0.1003 Z14.5000 I-0.0000 J1.5000 K0.0000 F1999.8000
G1 X89.6187 Y150.8876 Z14.5000 F1999.8000
G2 X118.0750 Y177.5000 Z14.5000 I28.4386 J-1.8889 K0.0000 F1999.8000
G1 X261.9250 Y177.5000 Z14.5000 F1999.8000
G2 X290.3813 Y150.8876 Z14.5000 I0.0176 J-28.5013 K0.0000 F1999.8000
G1 X300.5034 Y-0.1003 Z14.5000 F1999.8000
G3 X302.0000 Y-1.5000 Z14.5000 I1.4966 J0.1003 K0.0000 F1999.8000
G1 X332.0000 Y-1.5000 Z14.5000 F1999.8000
G3 X333.5000 Y0.0000 Z14.5000 I-0.0000 J1.5000 K0.0000 F1999.8000
G1 X333.5000 Y127.0000 Z14.5000 F1999.8000
G1 X333.0607 Y127.4393 Z14.5000 F1999.8000
G1 X333.5000 Y127.0000 Z14.5000 F1999.8000
G1 X348.5000 Y127.0000 Z14.5000 F1999.8000
G1 X348.9393 Y127.4393 Z14.5000 F1999.8000
G1 X348.5000 Y127.0000 Z14.5000 F1999.8000
G1 X348.5000 Y0.0000 Z14.5000 F1999.8000
G3 X350.0000 Y-1.5000 Z14.5000 I1.5000 J0.0000 K0.0000 F1999.8000
G1 X380.0000 Y-1.5000 Z14.5000 F1999.8000
G3 X381.5000 Y0.0000 Z14.5000 I-0.0000 J1.5000 K0.0000 F1999.8000
G1 X381.5000 Y257.0000 Z14.5000 F1999.8000
G3 X381.0607 Y258.0607 Z14.5000 I-1.5000 J-0.0000 K0.0000 F1999.8000
G1 X381.0607 Y258.0607 Z14.0000 F999.6000
G3 X380.0000 Y258.5000 Z14.0000 I-1.0607 J-1.0607 K0.0000 F1999.8000
G1 X0.0000 Y258.5000 Z14.0000 F1999.8000
G3 X-1.5000 Y257.0000 Z14.0000 I0.0000 J-1.5000 K0.0000 F1999.8000
G1 X-1.5000 Y0.0000 Z14.0000 F1999.8000
G3 X0.0000 Y-1.5000 Z14.0000 I1.5000 J0.0000 K0.0000 F1999.8000
G1 X30.0000 Y-1.5000 Z14.0000 F1999.8000
G3 X31.5000 Y0.0000 Z14.0000 I-0.0000 J1.5000 K0.0000 F1999.8000
G1 X31.5000 Y127.0000 Z14.0000 F1999.8000
G1 X31.0607 Y127.4393 Z14.0000 F1999.8000
G1 X31.5000 Y127.0000 Z14.0000 F1999.8000
G1 X46.5000 Y127.0000 Z14.0000 F1999.8000
G1 X46.9393 Y127.4393 Z14.0000 F1999.8000
G1 X46.5000 Y127.0000 Z14.0000 F1999.8000
G1 X46.5000 Y0.0000 Z14.0000 F1999.8000
G3 X48.0000 Y-1.5000 Z14.0000 I1.5000 J0.0000 K0.0000 F1999.8000
G1 X78.0000 Y-1.5000 Z14.0000 F1999.8000
G3 X79.4966 Y-0.1003 Z14.0000 I-0.0000 J1.5000 K0.0000 F1999.8000
G1 X89.6187 Y150.8876 Z14.0000 F1999.8000
G2 X118.0750 Y177.5000 Z14.0000 I28.4386 J-1.8889 K0.0000 F1999.8000
G1 X261.9250 Y177.5000 Z14.0000 F1999.8000
G2 X290.3813 Y150.8876 Z14.0000 I0.0176 J-28.5013 K0.0000 F1999.8000
G1 X300.5034 Y-0.1003 Z14.0000 F1999.8000
G3 X302.0000 Y-1.5000 Z14.0000 I1.4966 J0.1003 K0.0000 F1999.8000
G1 X332.0000 Y-1.5000 Z14.0000 F1999.8000
G3 X333.5000 Y0.0000 Z14.0000 I-0.0000 J1.5000 K0.0000 F1999.8000
G1 X333.5000 Y127.0000 Z14.0000 F1999.8000
G1 X333.0607 Y127.4393 Z14.0000 F1999.8000
G1 X333.5000 Y127.0000 Z14.0000 F1999.8000
G1 X348.5000 Y127.0000 Z14.0000 F1999.8000
G1 X348.9393 Y127.4393 Z14.0000 F1999.8000
G1 X348.5000 Y127.0000 Z14.0000 F1999.8000
G1 X348.5000 Y0.0000 Z14.0000 F1999.8000
G3 X350.0000 Y-1.5000 Z14.0000 I1.5000 J0.0000 K0.0000 F1999.8000
G1 X380.0000 Y-1.5000 Z14.0000 F1999.8000
G3 X381.5000 Y0.0000 Z14.0000 I-0.0000 J1.5000 K0.0000 F1999.8000
G1 X381.5000 Y257.0000 Z14.0000 F1999.8000
G3 X381.0607 Y258.0607 Z14.0000 I-1.5000 J-0.0000 K0.0000 F1999.8000
G1 X381.0607 Y258.0607 Z13.5000 F999.6000
G3 X380.0000 Y258.5000 Z13.5000 I-1.0607 J-1.0607 K0.0000 F1999.8000
G1 X0.0000 Y258.5000 Z13.5000 F1999.8000
G3 X-1.5000 Y257.0000 Z13.5000 I0.0000 J-1.5000 K0.0000 F1999.8000
G1 X-1.5000 Y0.0000 Z13.5000 F1999.8000
G3 X0.0000 Y-1.5000 Z13.5000 I1.5000 J0.0000 K0.0000 F1999.8000
G1 X30.0000 Y-1.5000 Z13.5000 F1999.8000
G3 X31.5000 Y0.0000 Z13.5000 I-0.0000 J1.5000 K0.0000 F1999.8000
G1 X31.5000 Y127.0000 Z13.5000 F1999.8000
G1 X31.0607 Y127.4393 Z13.5000 F1999.8000
G1 X31.5000 Y127.0000 Z13.5000 F1999.8000
G1 X46.5000 Y127.0000 Z13.5000 F1999.8000
G1 X46.9393 Y127.4393 Z13.5000 F1999.8000
G1 X46.5000 Y127.0000 Z13.5000 F1999.8000
G1 X46.5000 Y0.0000 Z13.5000 F1999.8000
G3 X48.0000 Y-1.5000 Z13.5000 I1.5000 J0.0000 K0.0000 F1999.8000
G1 X78.0000 Y-1.5000 Z13.5000 F1999.8000
G3 X79.4966 Y-0.1003 Z13.5000 I-0.0000 J1.5000 K0.0000 F1999.8000
G1 X89.6187 Y150.8876 Z13.5000 F1999.8000
G2 X118.0750 Y177.5000 Z13.5000 I28.4386 J-1.8889 K0.0000 F1999.8000
G1 X261.9250 Y177.5000 Z13.5000 F1999.8000
G2 X290.3813 Y150.8876 Z13.5000 I0.0176 J-28.5013 K0.0000 F1999.8000
G1 X300.5034 Y-0.1003 Z13.5000 F1999.8000
G3 X302.0000 Y-1.5000 Z13.5000 I1.4966 J0.1003 K0.0000 F1999.8000
G1 X332.0000 Y-1.5000 Z13.5000 F1999.8000
G3 X333.5000 Y0.0000 Z13.5000 I-0.0000 J1.5000 K0.0000 F1999.8000
G1 X333.5000 Y127.0000 Z13.5000 F1999.8000
G1 X333.0607 Y127.4393 Z13.5000 F1999.8000
G1 X333.5000 Y127.0000 Z13.5000 F1999.8000
G1 X348.5000 Y127.0000 Z13.5000 F1999.8000
G1 X348.9393 Y127.4393 Z13.5000 F1999.8000
G1 X348.5000 Y127.0000 Z13.5000 F1999.8000
G1 X348.5000 Y0.0000 Z13.5000 F1999.8000
G3 X350.0000 Y-1.5000 Z13.5000 I1.5000 J0.0000 K0.0000 F1999.8000
G1 X380.0000 Y-1.5000 Z13.5000 F1999.8000
G3 X381.5000 Y0.0000 Z13.5000 I-0.0000 J1.5000 K0.0000 F1999.8000
G1 X381.5000 Y257.0000 Z13.5000 F1999.8000
G3 X381.0607 Y258.0607 Z13.5000 I-1.5000 J-0.0000 K0.0000 F1999.8000
G1 X381.0607 Y258.0607 Z13.0000 F999.6000
G3 X380.0000 Y258.5000 Z13.0000 I-1.0607 J-1.0607 K0.0000 F1999.8000
G1 X0.0000 Y258.5000 Z13.0000 F1999.8000
G3 X-1.5000 Y257.0000 Z13.0000 I0.0000 J-1.5000 K0.0000 F1999.8000
G1 X-1.5000 Y0.0000 Z13.0000 F1999.8000
G3 X0.0000 Y-1.5000 Z13.0000 I1.5000 J0.0000 K0.0000 F1999.8000
G1 X30.0000 Y-1.5000 Z13.0000 F1999.8000
G3 X31.5000 Y0.0000 Z13.0000 I-0.0000 J1.5000 K0.0000 F1999.8000
G1 X31.5000 Y127.0000 Z13.0000 F1999.8000
G1 X31.0607 Y127.4393 Z13.0000 F1999.8000
G1 X31.5000 Y127.0000 Z13.0000 F1999.8000
G1 X46.5000 Y127.0000 Z13.0000 F1999.8000
G1 X46.9393 Y127.4393 Z13.0000 F1999.8000
G1 X46.5000 Y127.0000 Z13.0000 F1999.8000
G1 X46.5000 Y0.0000 Z13.0000 F1999.8000
G3 X48.0000 Y-1.5000 Z13.0000 I1.5000 J0.0000 K0.0000 F1999.8000
G1 X78.0000 Y-1.5000 Z13.0000 F1999.8000
G3 X79.4966 Y-0.1003 Z13.0000 I-0.0000 J1.5000 K0.0000 F1999.8000
G1 X89.6187 Y150.8876 Z13.0000 F1999.8000
G2 X118.0750 Y177.5000 Z13.0000 I28.4386 J-1.8889 K0.0000 F1999.8000
G1 X261.9250 Y177.5000 Z13.0000 F1999.8000
G2 X290.3813 Y150.8876 Z13.0000 I0.0176 J-28.5013 K0.0000 F1999.8000
G1 X300.5034 Y-0.1003 Z13.0000 F1999.8000
G3 X302.0000 Y-1.5000 Z13.0000 I1.4966 J0.1003 K0.0000 F1999.8000
G1 X332.0000 Y-1.5000 Z13.0000 F1999.8000
G3 X333.5000 Y0.0000 Z13.0000 I-0.0000 J1.5000 K0.0000 F1999.8000
G1 X333.5000 Y127.0000 Z13.0000 F1999.8000
G1 X333.0607 Y127.4393 Z13.0000 F1999.8000
G1 X333.5000 Y127.0000 Z13.0000 F1999.8000
G1 X348.5000 Y127.0000 Z13.0000 F1999.8000
G1 X348.9393 Y127.4393 Z13.0000 F1999.8000
G1 X348.5000 Y127.0000 Z13.0000 F1999.8000
G1 X348.5000 Y0.0000 Z13.0000 F1999.8000
G3 X350.0000 Y-1.5000 Z13.0000 I1.5000 J0.0000 K0.0000 F1999.8000
G1 X380.0000 Y-1.5000 Z13.0000 F1999.8000
G3 X381.5000 Y0.0000 Z13.0000 I-0.0000 J1.5000 K0.0000 F1999.8000
G1 X381.5000 Y257.0000 Z13.0000 F1999.8000
G3 X381.0607 Y258.0607 Z13.0000 I-1.5000 J-0.0000 K0.0000 F1999.8000
G1 X381.0607 Y258.0607 Z12.5000 F999.6000
G3 X380.0000 Y258.5000 Z12.5000 I-1.0607 J-1.0607 K0.0000 F1999.8000
G1 X0.0000 Y258.5000 Z12.5000 F1999.8000
G3 X-1.5000 Y257.0000 Z12.5000 I0.0000 J-1.5000 K0.0000 F1999.8000
G1 X-1.5000 Y0.0000 Z12.5000 F1999.8000
G3 X0.0000 Y-1.5000 Z12.5000 I1.5000 J0.0000 K0.0000 F1999.8000
G1 X30.0000 Y-1.5000 Z12.5000 F1999.8000
G3 X31.5000 Y0.0000 Z12.5000 I-0.0000 J1.5000 K0.0000 F1999.8000
G1 X31.5000 Y127.0000 Z12.5000 F1999.8000
G1 X31.0607 Y127.4393 Z12.5000 F1999.8000
G1 X31.5000 Y127.0000 Z12.5000 F1999.8000
G1 X46.5000 Y127.0000 Z12.5000 F1999.8000
G1 X46.9393 Y127.4393 Z12.5000 F1999.8000
G1 X46.5000 Y127.0000 Z12.5000 F1999.8000
G1 X46.5000 Y0.0000 Z12.5000 F1999.8000
G3 X48.0000 Y-1.5000 Z12.5000 I1.5000 J0.0000 K0.0000 F1999.8000
G1 X78.0000 Y-1.5000 Z12.5000 F1999.8000
G3 X79.4966 Y-0.1003 Z12.5000 I-0.0000 J1.5000 K0.0000 F1999.8000
G1 X89.6187 Y150.8876 Z12.5000 F1999.8000
G2 X118.0750 Y177.5000 Z12.5000 I28.4386 J-1.8889 K0.0000 F1999.8000
G1 X261.9250 Y177.5000 Z12.5000 F1999.8000
G2 X290.3813 Y150.8876 Z12.5000 I0.0176 J-28.5013 K0.0000 F1999.8000
G1 X300.5034 Y-0.1003 Z12.5000 F1999.8000
G3 X302.0000 Y-1.5000 Z12.5000 I1.4966 J0.1003 K0.0000 F1999.8000
G1 X332.0000 Y-1.5000 Z12.5000 F1999.8000
G3 X333.5000 Y0.0000 Z12.5000 I-0.0000 J1.5000 K0.0000 F1999.8000
G1 X333.5000 Y127.0000 Z12.5000 F1999.8000
G1 X333.0607 Y127.4393 Z12.5000 F1999.8000
G1 X333.5000 Y127.0000 Z12.5000 F1999.8000
G1 X348.5000 Y127.0000 Z12.5000 F1999.8000
G1 X348.9393 Y127.4393 Z12.5000 F1999.8000
G1 X348.5000 Y127.0000 Z12.5000 F1999.8000
G1 X348.5000 Y0.0000 Z12.5000 F1999.8000
G3 X350.0000 Y-1.5000 Z12.5000 I1.5000 J0.0000 K0.0000 F1999.8000
G1 X380.0000 Y-1.5000 Z12.5000 F1999.8000
G3 X381.5000 Y0.0000 Z12.5000 I-0.0000 J1.5000 K0.0000 F1999.8000
G1 X381.5000 Y257.0000 Z12.5000 F1999.8000
G3 X381.0607 Y258.0607 Z12.5000 I-1.5000 J-0.0000 K0.0000 F1999.8000
G1 X381.0607 Y258.0607 Z12.0000 F999.6000
G3 X380.0000 Y258.5000 Z12.0000 I-1.0607 J-1.0607 K0.0000 F1999.8000
G1 X0.0000 Y258.5000 Z12.0000 F1999.8000
G3 X-1.5000 Y257.0000 Z12.0000 I0.0000 J-1.5000 K0.0000 F1999.8000
G1 X-1.5000 Y0.0000 Z12.0000 F1999.8000
G3 X0.0000 Y-1.5000 Z12.0000 I1.5000 J0.0000 K0.0000 F1999.8000
G1 X30.0000 Y-1.5000 Z12.0000 F1999.8000
G3 X31.5000 Y0.0000 Z12.0000 I-0.0000 J1.5000 K0.0000 F1999.8000
G1 X31.5000 Y127.0000 Z12.0000 F1999.8000
G1 X31.0607 Y127.4393 Z12.0000 F1999.8000
G1 X31.5000 Y127.0000 Z12.0000 F1999.8000
G1 X46.5000 Y127.0000 Z12.0000 F1999.8000
G1 X46.9393 Y127.4393 Z12.0000 F1999.8000
G1 X46.5000 Y127.0000 Z12.0000 F1999.8000
G1 X46.5000 Y0.0000 Z12.0000 F1999.8000
G3 X48.0000 Y-1.5000 Z12.0000 I1.5000 J0.0000 K0.0000 F1999.8000
G1 X78.0000 Y-1.5000 Z12.0000 F1999.8000
G3 X79.4966 Y-0.1003 Z12.0000 I-0.0000 J1.5000 K0.0000 F1999.8000
G1 X89.6187 Y150.8876 Z12.0000 F1999.8000
G2 X118.0750 Y177.5000 Z12.0000 I28.4386 J-1.8889 K0.0000 F1999.8000
G1 X261.9250 Y177.5000 Z12.0000 F1999.8000
G2 X290.3813 Y150.8876 Z12.0000 I0.0176 J-28.5013 K0.0000 F1999.8000
G1 X300.5034 Y-0.1003 Z12.0000 F1999.8000
G3 X302.0000 Y-1.5000 Z12.0000 I1.4966 J0.1003 K0.0000 F1999.8000
G1 X332.0000 Y-1.5000 Z12.0000 F1999.8000
G3 X333.5000 Y0.0000 Z12.0000 I-0.0000 J1.5000 K0.0000 F1999.8000
G1 X333.5000 Y127.0000 Z12.0000 F1999.8000
G1 X333.0607 Y127.4393 Z12.0000 F1999.8000
G1 X333.5000 Y127.0000 Z12.0000 F1999.8000
G1 X348.5000 Y127.0000 Z12.0000 F1999.8000
G1 X348.9393 Y127.4393 Z12.0000 F1999.8000
G1 X348.5000 Y127.0000 Z12.0000 F1999.8000
G1 X348.5000 Y0.0000 Z12.0000 F1999.8000
G3 X350.0000 Y-1.5000 Z12.0000 I1.5000 J0.0000 K0.0000 F1999.8000
G1 X380.0000 Y-1.5000 Z12.0000 F1999.8000
G3 X381.5000 Y0.0000 Z12.0000 I-0.0000 J1.5000 K0.0000 F1999.8000
G1 X381.5000 Y257.0000 Z12.0000 F1999.8000
G3 X381.0607 Y258.0607 Z12.0000 I-1.5000 J-0.0000 K0.0000 F1999.8000
G1 X381.0607 Y258.0607 Z11.5000 F999.6000
G3 X380.0000 Y258.5000 Z11.5000 I-1.0607 J-1.0607 K0.0000 F1999.8000
G1 X0.0000 Y258.5000 Z11.5000 F1999.8000
G3 X-1.5000 Y257.0000 Z11.5000 I0.0000 J-1.5000 K0.0000 F1999.8000
G1 X-1.5000 Y0.0000 Z11.5000 F1999.8000
G3 X0.0000 Y-1.5000 Z11.5000 I1.5000 J0.0000 K0.0000 F1999.8000
G1 X30.0000 Y-1.5000 Z11.5000 F1999.8000
G3 X31.5000 Y0.0000 Z11.5000 I-0.0000 J1.5000 K0.0000 F1999.8000
G1 X31.5000 Y127.0000 Z11.5000 F1999.8000
G1 X31.0607 Y127.4393 Z11.5000 F1999.8000
G1 X31.5000 Y127.0000 Z11.5000 F1999.8000
G1 X46.5000 Y127.0000 Z11.5000 F1999.8000
G1 X46.9393 Y127.4393 Z11.5000 F1999.8000
G1 X46.5000 Y127.0000 Z11.5000 F1999.8000
G1 X46.5000 Y0.0000 Z11.5000 F1999.8000
G3 X48.0000 Y-1.5000 Z11.5000 I1.5000 J0.0000 K0.0000 F1999.8000
G1 X78.0000 Y-1.5000 Z11.5000 F1999.8000
G3 X79.4966 Y-0.1003 Z11.5000 I-0.0000 J1.5000 K0.0000 F1999.8000
G1 X89.6187 Y150.8876 Z11.5000 F1999.8000
G2 X118.0750 Y177.5000 Z11.5000 I28.4386 J-1.8889 K0.0000 F1999.8000
G1 X261.9250 Y177.5000 Z11.5000 F1999.8000
G2 X290.3813 Y150.8876 Z11.5000 I0.0176 J-28.5013 K0.0000 F1999.8000
G1 X300.5034 Y-0.1003 Z11.5000 F1999.8000
G3 X302.0000 Y-1.5000 Z11.5000 I1.4966 J0.1003 K0.0000 F1999.8000
G1 X332.0000 Y-1.5000 Z11.5000 F1999.8000
G3 X333.5000 Y0.0000 Z11.5000 I-0.0000 J1.5000 K0.0000 F1999.8000
G1 X333.5000 Y127.0000 Z11.5000 F1999.8000
G1 X333.0607 Y127.4393 Z11.5000 F1999.8000
G1 X333.5000 Y127.0000 Z11.5000 F1999.8000
G1 X348.5000 Y127.0000 Z11.5000 F1999.8000
G1 X348.9393 Y127.4393 Z11.5000 F1999.8000
G1 X348.5000 Y127.0000 Z11.5000 F1999.8000
G1 X348.5000 Y0.0000 Z11.5000 F1999.8000
G3 X350.0000 Y-1.5000 Z11.5000 I1.5000 J0.0000 K0.0000 F1999.8000
G1 X380.0000 Y-1.5000 Z11.5000 F1999.8000
G3 X381.5000 Y0.0000 Z11.5000 I-0.0000 J1.5000 K0.0000 F1999.8000
G1 X381.5000 Y257.0000 Z11.5000 F1999.8000
G3 X381.0607 Y258.0607 Z11.5000 I-1.5000 J-0.0000 K0.0000 F1999.8000
G1 X381.0607 Y258.0607 Z11.0000 F999.6000
G3 X380.0000 Y258.5000 Z11.0000 I-1.0607 J-1.0607 K0.0000 F1999.8000
G1 X0.0000 Y258.5000 Z11.0000 F1999.8000
G3 X-1.5000 Y257.0000 Z11.0000 I0.0000 J-1.5000 K0.0000 F1999.8000
G1 X-1.5000 Y0.0000 Z11.0000 F1999.8000
G3 X0.0000 Y-1.5000 Z11.0000 I1.5000 J0.0000 K0.0000 F1999.8000
G1 X30.0000 Y-1.5000 Z11.0000 F1999.8000
G3 X31.5000 Y0.0000 Z11.0000 I-0.0000 J1.5000 K0.0000 F1999.8000
G1 X31.5000 Y127.0000 Z11.0000 F1999.8000
G1 X31.0607 Y127.4393 Z11.0000 F1999.8000
G1 X31.5000 Y127.0000 Z11.0000 F1999.8000
G1 X46.5000 Y127.0000 Z11.0000 F1999.8000
G1 X46.9393 Y127.4393 Z11.0000 F1999.8000
G1 X46.5000 Y127.0000 Z11.0000 F1999.8000
G1 X46.5000 Y0.0000 Z11.0000 F1999.8000
G3 X48.0000 Y-1.5000 Z11.0000 I1.5000 J0.0000 K0.0000 F1999.8000
G1 X78.0000 Y-1.5000 Z11.0000 F1999.8000
G3 X79.4966 Y-0.1003 Z11.0000 I-0.0000 J1.5000 K0.0000 F1999.8000
G1 X89.6187 Y150.8876 Z11.0000 F1999.8000
G2 X118.0750 Y177.5000 Z11.0000 I28.4386 J-1.8889 K0.0000 F1999.8000
G1 X261.9250 Y177.5000 Z11.0000 F1999.8000
G2 X290.3813 Y150.8876 Z11.0000 I0.0176 J-28.5013 K0.0000 F1999.8000
G1 X300.5034 Y-0.1003 Z11.0000 F1999.8000
G3 X302.0000 Y-1.5000 Z11.0000 I1.4966 J0.1003 K0.0000 F1999.8000
G1 X332.0000 Y-1.5000 Z11.0000 F1999.8000
G3 X333.5000 Y0.0000 Z11.0000 I-0.0000 J1.5000 K0.0000 F1999.8000
G1 X333.5000 Y127.0000 Z11.0000 F1999.8000
G1 X333.0607 Y127.4393 Z11.0000 F1999.8000
G1 X333.5000 Y127.0000 Z11.0000 F1999.8000
G1 X348.5000 Y127.0000 Z11.0000 F1999.8000
G1 X348.9393 Y127.4393 Z11.0000 F1999.8000
G1 X348.5000 Y127.0000 Z11.0000 F1999.8000
G1 X348.5000 Y0.0000 Z11.0000 F1999.8000
G3 X350.0000 Y-1.5000 Z11.0000 I1.5000 J0.0000 K0.0000 F1999.8000
G1 X380.0000 Y-1.5000 Z11.0000 F1999.8000
G3 X381.5000 Y0.0000 Z11.0000 I-0.0000 J1.5000 K0.0000 F1999.8000
G1 X381.5000 Y257.0000 Z11.0000 F1999.8000
G3 X381.0607 Y258.0607 Z11.0000 I-1.5000 J-0.0000 K0.0000 F1999.8000
G1 X381.0607 Y258.0607 Z10.5000 F999.6000
G3 X380.0000 Y258.5000 Z10.5000 I-1.0607 J-1.0607 K0.0000 F1999.8000
G1 X0.0000 Y258.5000 Z10.5000 F1999.8000
G3 X-1.5000 Y257.0000 Z10.5000 I0.0000 J-1.5000 K0.0000 F1999.8000
G1 X-1.5000 Y0.0000 Z10.5000 F1999.8000
G3 X0.0000 Y-1.5000 Z10.5000 I1.5000 J0.0000 K0.0000 F1999.8000
G1 X30.0000 Y-1.5000 Z10.5000 F1999.8000
G3 X31.5000 Y0.0000 Z10.5000 I-0.0000 J1.5000 K0.0000 F1999.8000
G1 X31.5000 Y127.0000 Z10.5000 F1999.8000
G1 X31.0607 Y127.4393 Z10.5000 F1999.8000
G1 X31.5000 Y127.0000 Z10.5000 F1999.8000
G1 X46.5000 Y127.0000 Z10.5000 F1999.8000
G1 X46.9393 Y127.4393 Z10.5000 F1999.8000
G1 X46.5000 Y127.0000 Z10.5000 F1999.8000
G1 X46.5000 Y0.0000 Z10.5000 F1999.8000
G3 X48.0000 Y-1.5000 Z10.5000 I1.5000 J0.0000 K0.0000 F1999.8000
G1 X78.0000 Y-1.5000 Z10.5000 F1999.8000
G3 X79.4966 Y-0.1003 Z10.5000 I-0.0000 J1.5000 K0.0000 F1999.8000
G1 X89.6187 Y150.8876 Z10.5000 F1999.8000
G2 X118.0750 Y177.5000 Z10.5000 I28.4386 J-1.8889 K0.0000 F1999.8000
G1 X261.9250 Y177.5000 Z10.5000 F1999.8000
G2 X290.3813 Y150.8876 Z10.5000 I0.0176 J-28.5013 K0.0000 F1999.8000
G1 X300.5034 Y-0.1003 Z10.5000 F1999.8000
G3 X302.0000 Y-1.5000 Z10.5000 I1.4966 J0.1003 K0.0000 F1999.8000
G1 X332.0000 Y-1.5000 Z10.5000 F1999.8000
G3 X333.5000 Y0.0000 Z10.5000 I-0.0000 J1.5000 K0.0000 F1999.8000
G1 X333.5000 Y127.0000 Z10.5000 F1999.8000
G1 X333.0607 Y127.4393 Z10.5000 F1999.8000
G1 X333.5000 Y127.0000 Z10.5000 F1999.8000
G1 X348.5000 Y127.0000 Z10.5000 F1999.8000
G1 X348.9393 Y127.4393 Z10.5000 F1999.8000
G1 X348.5000 Y127.0000 Z10.5000 F1999.8000
G1 X348.5000 Y0.0000 Z10.5000 F1999.8000
G3 X350.0000 Y-1.5000 Z10.5000 I1.5000 J0.0000 K0.0000 F1999.8000
G1 X380.0000 Y-1.5000 Z10.5000 F1999.8000
G3 X381.5000 Y0.0000 Z10.5000 I-0.0000 J1.5000 K0.0000 F1999.8000
G1 X381.5000 Y257.0000 Z10.5000 F1999.8000
G3 X381.0607 Y258.0607 Z10.5000 I-1.5000 J-0.0000 K0.0000 F1999.8000
G1 X381.0607 Y258.0607 Z10.0000 F999.6000
G3 X380.0000 Y258.5000 Z10.0000 I-1.0607 J-1.0607 K0.0000 F1999.8000
G1 X0.0000 Y258.5000 Z10.0000 F1999.8000
G3 X-1.5000 Y257.0000 Z10.0000 I0.0000 J-1.5000 K0.0000 F1999.8000
G1 X-1.5000 Y0.0000 Z10.0000 F1999.8000
G3 X0.0000 Y-1.5000 Z10.0000 I1.5000 J0.0000 K0.0000 F1999.8000
G1 X30.0000 Y-1.5000 Z10.0000 F1999.8000
G3 X31.5000 Y0.0000 Z10.0000 I-0.0000 J1.5000 K0.0000 F1999.8000
G1 X31.5000 Y127.0000 Z10.0000 F1999.8000
G1 X31.0607 Y127.4393 Z10.0000 F1999.8000
G1 X31.5000 Y127.0000 Z10.0000 F1999.8000
G1 X46.5000 Y127.0000 Z10.0000 F1999.8000
G1 X46.9393 Y127.4393 Z10.0000 F1999.8000
G1 X46.5000 Y127.0000 Z10.0000 F1999.8000
G1 X46.5000 Y0.0000 Z10.0000 F1999.8000
G3 X48.0000 Y-1.5000 Z10.0000 I1.5000 J0.0000 K0.0000 F1999.8000
G1 X78.0000 Y-1.5000 Z10.0000 F1999.8000
G3 X79.4966 Y-0.1003 Z10.0000 I-0.0000 J1.5000 K0.0000 F1999.8000
G1 X89.6187 Y150.8876 Z10.0000 F1999.8000
G2 X118.0750 Y177.5000 Z10.0000 I28.4386 J-1.8889 K0.0000 F1999.8000
G1 X261.9250 Y177.5000 Z10.0000 F1999.8000
G2 X290.3813 Y150.8876 Z10.0000 I0.0176 J-28.5013 K0.0000 F1999.8000
G1 X300.5034 Y-0.1003 Z10.0000 F1999.8000
G3 X302.0000 Y-1.5000 Z10.0000 I1.4966 J0.1003 K0.0000 F1999.8000
G1 X332.0000 Y-1.5000 Z10.0000 F1999.8000
G3 X333.5000 Y0.0000 Z10.0000 I-0.0000 J1.5000 K0.0000 F1999.8000
G1 X333.5000 Y127.0000 Z10.0000 F1999.8000
G1 X333.0607 Y127.4393 Z10.0000 F1999.8000
G1 X333.5000 Y127.0000 Z10.0000 F1999.8000
G1 X348.5000 Y127.0000 Z10.0000 F1999.8000
G1 X348.9393 Y127.4393 Z10.0000 F1999.8000
G1 X348.5000 Y127.0000 Z10.0000 F1999.8000
G1 X348.5000 Y0.0000 Z10.0000 F1999.8000
G3 X350.0000 Y-1.5000 Z10.0000 I1.5000 J0.0000 K0.0000 F1999.8000
G1 X380.0000 Y-1.5000 Z10.0000 F1999.8000
G3 X381.5000 Y0.0000 Z10.0000 I-0.0000 J1.5000 K0.0000 F1999.8000
G1 X381.5000 Y257.0000 Z10.0000 F1999.8000
G3 X381.0607 Y258.0607 Z10.0000 I-1.5000 J-0.0000 K0.0000 F1999.8000
G1 X381.0607 Y258.0607 Z9.5000 F999.6000
G3 X380.0000 Y258.5000 Z9.5000 I-1.0607 J-1.0607 K0.0000 F1999.8000
G1 X0.0000 Y258.5000 Z9.5000 F1999.8000
G3 X-1.5000 Y257.0000 Z9.5000 I0.0000 J-1.5000 K0.0000 F1999.8000
G1 X-1.5000 Y0.0000 Z9.5000 F1999.8000
G3 X0.0000 Y-1.5000 Z9.5000 I1.5000 J0.0000 K0.0000 F1999.8000
G1 X30.0000 Y-1.5000 Z9.5000 F1999.8000
G3 X31.5000 Y0.0000 Z9.5000 I-0.0000 J1.5000 K0.0000 F1999.8000
G1 X31.5000 Y127.0000 Z9.5000 F1999.8000
G1 X31.0607 Y127.4393 Z9.5000 F1999.8000
G1 X31.5000 Y127.0000 Z9.5000 F1999.8000
G1 X46.5000 Y127.0000 Z9.5000 F1999.8000
G1 X46.9393 Y127.4393 Z9.5000 F1999.8000
G1 X46.5000 Y127.0000 Z9.5000 F1999.8000
G1 X46.5000 Y0.0000 Z9.5000 F1999.8000
G3 X48.0000 Y-1.5000 Z9.5000 I1.5000 J0.0000 K0.0000 F1999.8000
G1 X78.0000 Y-1.5000 Z9.5000 F1999.8000
G3 X79.4966 Y-0.1003 Z9.5000 I-0.0000 J1.5000 K0.0000 F1999.8000
G1 X89.6187 Y150.8876 Z9.5000 F1999.8000
G2 X118.0750 Y177.5000 Z9.5000 I28.4386 J-1.8889 K0.0000 F1999.8000
G1 X261.9250 Y177.5000 Z9.5000 F1999.8000
G2 X290.3813 Y150.8876 Z9.5000 I0.0176 J-28.5013 K0.0000 F1999.8000
G1 X300.5034 Y-0.1003 Z9.5000 F1999.8000
G3 X302.0000 Y-1.5000 Z9.5000 I1.4966 J0.1003 K0.0000 F1999.8000
G1 X332.0000 Y-1.5000 Z9.5000 F1999.8000
G3 X333.5000 Y0.0000 Z9.5000 I-0.0000 J1.5000 K0.0000 F1999.8000
G1 X333.5000 Y127.0000 Z9.5000 F1999.8000
G1 X333.0607 Y127.4393 Z9.5000 F1999.8000
G1 X333.5000 Y127.0000 Z9.5000 F1999.8000
G1 X348.5000 Y127.0000 Z9.5000 F1999.8000
G1 X348.9393 Y127.4393 Z9.5000 F1999.8000
G1 X348.5000 Y127.0000 Z9.5000 F1999.8000
G1 X348.5000 Y0.0000 Z9.5000 F1999.8000
G3 X350.0000 Y-1.5000 Z9.5000 I1.5000 J0.0000 K0.0000 F1999.8000
G1 X380.0000 Y-1.5000 Z9.5000 F1999.8000
G3 X381.5000 Y0.0000 Z9.5000 I-0.0000 J1.5000 K0.0000 F1999.8000
G1 X381.5000 Y257.0000 Z9.5000 F1999.8000
G3 X381.0607 Y258.0607 Z9.5000 I-1.5000 J-0.0000 K0.0000 F1999.8000
G1 X381.0607 Y258.0607 Z9.0000 F999.6000
G3 X380.0000 Y258.5000 Z9.0000 I-1.0607 J-1.0607 K0.0000 F1999.8000
G1 X0.0000 Y258.5000 Z9.0000 F1999.8000
G3 X-1.5000 Y257.0000 Z9.0000 I0.0000 J-1.5000 K0.0000 F1999.8000
G1 X-1.5000 Y0.0000 Z9.0000 F1999.8000
G3 X0.0000 Y-1.5000 Z9.0000 I1.5000 J0.0000 K0.0000 F1999.8000
G1 X30.0000 Y-1.5000 Z9.0000 F1999.8000
G3 X31.5000 Y0.0000 Z9.0000 I-0.0000 J1.5000 K0.0000 F1999.8000
G1 X31.5000 Y127.0000 Z9.0000 F1999.8000
G1 X31.0607 Y127.4393 Z9.0000 F1999.8000
G1 X31.5000 Y127.0000 Z9.0000 F1999.8000
G1 X46.5000 Y127.0000 Z9.0000 F1999.8000
G1 X46.9393 Y127.4393 Z9.0000 F1999.8000
G1 X46.5000 Y127.0000 Z9.0000 F1999.8000
G1 X46.5000 Y0.0000 Z9.0000 F1999.8000
G3 X48.0000 Y-1.5000 Z9.0000 I1.5000 J0.0000 K0.0000 F1999.8000
G1 X78.0000 Y-1.5000 Z9.0000 F1999.8000
G3 X79.4966 Y-0.1003 Z9.0000 I-0.0000 J1.5000 K0.0000 F1999.8000
G1 X89.6187 Y150.8876 Z9.0000 F1999.8000
G2 X118.0750 Y177.5000 Z9.0000 I28.4386 J-1.8889 K0.0000 F1999.8000
G1 X261.9250 Y177.5000 Z9.0000 F1999.8000
G2 X290.3813 Y150.8876 Z9.0000 I0.0176 J-28.5013 K0.0000 F1999.8000
G1 X300.5034 Y-0.1003 Z9.0000 F1999.8000
G3 X302.0000 Y-1.5000 Z9.0000 I1.4966 J0.1003 K0.0000 F1999.8000
G1 X332.0000 Y-1.5000 Z9.0000 F1999.8000
G3 X333.5000 Y0.0000 Z9.0000 I-0.0000 J1.5000 K0.0000 F1999.8000
G1 X333.5000 Y127.0000 Z9.0000 F1999.8000
G1 X333.0607 Y127.4393 Z9.0000 F1999.8000
G1 X333.5000 Y127.0000 Z9.0000 F1999.8000
G1 X348.5000 Y127.0000 Z9.0000 F1999.8000
G1 X348.9393 Y127.4393 Z9.0000 F1999.8000
G1 X348.5000 Y127.0000 Z9.0000 F1999.8000
G1 X348.5000 Y0.0000 Z9.0000 F1999.8000
G3 X350.0000 Y-1.5000 Z9.0000 I1.5000 J0.0000 K0.0000 F1999.8000
G1 X380.0000 Y-1.5000 Z9.0000 F1999.8000
G3 X381.5000 Y0.0000 Z9.0000 I-0.0000 J1.5000 K0.0000 F1999.8000
G1 X381.5000 Y257.0000 Z9.0000 F1999.8000
G3 X381.0607 Y258.0607 Z9.0000 I-1.5000 J-0.0000 K0.0000 F1999.8000
G1 X381.0607 Y258.0607 Z8.5000 F999.6000
G3 X380.0000 Y258.5000 Z8.5000 I-1.0607 J-1.0607 K0.0000 F1999.8000
G1 X0.0000 Y258.5000 Z8.5000 F1999.8000
G3 X-1.5000 Y257.0000 Z8.5000 I0.0000 J-1.5000 K0.0000 F1999.8000
G1 X-1.5000 Y0.0000 Z8.5000 F1999.8000
G3 X0.0000 Y-1.5000 Z8.5000 I1.5000 J0.0000 K0.0000 F1999.8000
G1 X30.0000 Y-1.5000 Z8.5000 F1999.8000
G3 X31.5000 Y0.0000 Z8.5000 I-0.0000 J1.5000 K0.0000 F1999.8000
G1 X31.5000 Y127.0000 Z8.5000 F1999.8000
G1 X31.0607 Y127.4393 Z8.5000 F1999.8000
G1 X31.5000 Y127.0000 Z8.5000 F1999.8000
G1 X46.5000 Y127.0000 Z8.5000 F1999.8000
G1 X46.9393 Y127.4393 Z8.5000 F1999.8000
G1 X46.5000 Y127.0000 Z8.5000 F1999.8000
G1 X46.5000 Y0.0000 Z8.5000 F1999.8000
G3 X48.0000 Y-1.5000 Z8.5000 I1.5000 J0.0000 K0.0000 F1999.8000
G1 X78.0000 Y-1.5000 Z8.5000 F1999.8000
G3 X79.4966 Y-0.1003 Z8.5000 I-0.0000 J1.5000 K0.0000 F1999.8000
G1 X89.6187 Y150.8876 Z8.5000 F1999.8000
G2 X118.0750 Y177.5000 Z8.5000 I28.4386 J-1.8889 K0.0000 F1999.8000
G1 X261.9250 Y177.5000 Z8.5000 F1999.8000
G2 X290.3813 Y150.8876 Z8.5000 I0.0176 J-28.5013 K0.0000 F1999.8000
G1 X300.5034 Y-0.1003 Z8.5000 F1999.8000
G3 X302.0000 Y-1.5000 Z8.5000 I1.4966 J0.1003 K0.0000 F1999.8000
G1 X332.0000 Y-1.5000 Z8.5000 F1999.8000
G3 X333.5000 Y0.0000 Z8.5000 I-0.0000 J1.5000 K0.0000 F1999.8000
G1 X333.5000 Y127.0000 Z8.5000 F1999.8000
G1 X333.0607 Y127.4393 Z8.5000 F1999.8000
G1 X333.5000 Y127.0000 Z8.5000 F1999.8000
G1 X348.5000 Y127.0000 Z8.5000 F1999.8000
G1 X348.9393 Y127.4393 Z8.5000 F1999.8000
G1 X348.5000 Y127.0000 Z8.5000 F1999.8000
G1 X348.5000 Y0.0000 Z8.5000 F1999.8000
G3 X350.0000 Y-1.5000 Z8.5000 I1.5000 J0.0000 K0.0000 F1999.8000
G1 X380.0000 Y-1.5000 Z8.5000 F1999.8000
G3 X381.5000 Y0.0000 Z8.5000 I-0.0000 J1.5000 K0.0000 F1999.8000
G1 X381.5000 Y257.0000 Z8.5000 F1999.8000
G3 X381.0607 Y258.0607 Z8.5000 I-1.5000 J-0.0000 K0.0000 F1999.8000
G1 X381.0607 Y258.0607 Z8.0000 F999.6000
G3 X380.0000 Y258.5000 Z8.0000 I-1.0607 J-1.0607 K0.0000 F1999.8000
G1 X0.0000 Y258.5000 Z8.0000 F1999.8000
G3 X-1.5000 Y257.0000 Z8.0000 I0.0000 J-1.5000 K0.0000 F1999.8000
G1 X-1.5000 Y0.0000 Z8.0000 F1999.8000
G3 X0.0000 Y-1.5000 Z8.0000 I1.5000 J0.0000 K0.0000 F1999.8000
G1 X30.0000 Y-1.5000 Z8.0000 F1999.8000
G3 X31.5000 Y0.0000 Z8.0000 I-0.0000 J1.5000 K0.0000 F1999.8000
G1 X31.5000 Y127.0000 Z8.0000 F1999.8000
G1 X31.0607 Y127.4393 Z8.0000 F1999.8000
G1 X31.5000 Y127.0000 Z8.0000 F1999.8000
G1 X46.5000 Y127.0000 Z8.0000 F1999.8000
G1 X46.9393 Y127.4393 Z8.0000 F1999.8000
G1 X46.5000 Y127.0000 Z8.0000 F1999.8000
G1 X46.5000 Y0.0000 Z8.0000 F1999.8000
G3 X48.0000 Y-1.5000 Z8.0000 I1.5000 J0.0000 K0.0000 F1999.8000
G1 X78.0000 Y-1.5000 Z8.0000 F1999.8000
G3 X79.4966 Y-0.1003 Z8.0000 I-0.0000 J1.5000 K0.0000 F1999.8000
G1 X89.6187 Y150.8876 Z8.0000 F1999.8000
G2 X118.0750 Y177.5000 Z8.0000 I28.4386 J-1.8889 K0.0000 F1999.8000
G1 X261.9250 Y177.5000 Z8.0000 F1999.8000
G2 X290.3813 Y150.8876 Z8.0000 I0.0176 J-28.5013 K0.0000 F1999.8000
G1 X300.5034 Y-0.1003 Z8.0000 F1999.8000
G3 X302.0000 Y-1.5000 Z8.0000 I1.4966 J0.1003 K0.0000 F1999.8000
G1 X332.0000 Y-1.5000 Z8.0000 F1999.8000
G3 X333.5000 Y0.0000 Z8.0000 I-0.0000 J1.5000 K0.0000 F1999.8000
G1 X333.5000 Y127.0000 Z8.0000 F1999.8000
G1 X333.0607 Y127.4393 Z8.0000 F1999.8000
G1 X333.5000 Y127.0000 Z8.0000 F1999.8000
G1 X348.5000 Y127.0000 Z8.0000 F1999.8000
G1 X348.9393 Y127.4393 Z8.0000 F1999.8000
G1 X348.5000 Y127.0000 Z8.0000 F1999.8000
G1 X348.5000 Y0.0000 Z8.0000 F1999.8000
G3 X350.0000 Y-1.5000 Z8.0000 I1.5000 J0.0000 K0.0000 F1999.8000
G1 X380.0000 Y-1.5000 Z8.0000 F1999.8000
G3 X381.5000 Y0.0000 Z8.0000 I-0.0000 J1.5000 K0.0000 F1999.8000
G1 X381.5000 Y257.0000 Z8.0000 F1999.8000
G3 X381.0607 Y258.0607 Z8.0000 I-1.5000 J-0.0000 K0.0000 F1999.8000
G1 X381.0607 Y258.0607 Z7.5000 F999.6000
G3 X380.0000 Y258.5000 Z7.5000 I-1.0607 J-1.0607 K0.0000 F1999.8000
G1 X0.0000 Y258.5000 Z7.5000 F1999.8000
G3 X-1.5000 Y257.0000 Z7.5000 I0.0000 J-1.5000 K0.0000 F1999.8000
G1 X-1.5000 Y0.0000 Z7.5000 F1999.8000
G3 X0.0000 Y-1.5000 Z7.5000 I1.5000 J0.0000 K0.0000 F1999.8000
G1 X30.0000 Y-1.5000 Z7.5000 F1999.8000
G3 X31.5000 Y0.0000 Z7.5000 I-0.0000 J1.5000 K0.0000 F1999.8000
G1 X31.5000 Y127.0000 Z7.5000 F1999.8000
G1 X31.0607 Y127.4393 Z7.5000 F1999.8000
G1 X31.5000 Y127.0000 Z7.5000 F1999.8000
G1 X46.5000 Y127.0000 Z7.5000 F1999.8000
G1 X46.9393 Y127.4393 Z7.5000 F1999.8000
G1 X46.5000 Y127.0000 Z7.5000 F1999.8000
G1 X46.5000 Y0.0000 Z7.5000 F1999.8000
G3 X48.0000 Y-1.5000 Z7.5000 I1.5000 J0.0000 K0.0000 F1999.8000
G1 X78.0000 Y-1.5000 Z7.5000 F1999.8000
G3 X79.4966 Y-0.1003 Z7.5000 I-0.0000 J1.5000 K0.0000 F1999.8000
G1 X89.6187 Y150.8876 Z7.5000 F1999.8000
G2 X118.0750 Y177.5000 Z7.5000 I28.4386 J-1.8889 K0.0000 F1999.8000
G1 X261.9250 Y177.5000 Z7.5000 F1999.8000
G2 X290.3813 Y150.8876 Z7.5000 I0.0176 J-28.5013 K0.0000 F1999.8000
G1 X300.5034 Y-0.1003 Z7.5000 F1999.8000
G3 X302.0000 Y-1.5000 Z7.5000 I1.4966 J0.1003 K0.0000 F1999.8000
G1 X332.0000 Y-1.5000 Z7.5000 F1999.8000
G3 X333.5000 Y0.0000 Z7.5000 I-0.0000 J1.5000 K0.0000 F1999.8000
G1 X333.5000 Y127.0000 Z7.5000 F1999.8000
G1 X333.0607 Y127.4393 Z7.5000 F1999.8000
G1 X333.5000 Y127.0000 Z7.5000 F1999.8000
G1 X348.5000 Y127.0000 Z7.5000 F1999.8000
G1 X348.9393 Y127.4393 Z7.5000 F1999.8000
G1 X348.5000 Y127.0000 Z7.5000 F1999.8000
G1 X348.5000 Y0.0000 Z7.5000 F1999.8000
G3 X350.0000 Y-1.5000 Z7.5000 I1.5000 J0.0000 K0.0000 F1999.8000
G1 X380.0000 Y-1.5000 Z7.5000 F1999.8000
G3 X381.5000 Y0.0000 Z7.5000 I-0.0000 J1.5000 K0.0000 F1999.8000
G1 X381.5000 Y257.0000 Z7.5000 F1999.8000
G3 X381.0607 Y258.0607 Z7.5000 I-1.5000 J-0.0000 K0.0000 F1999.8000
G1 X381.0607 Y258.0607 Z7.0000 F999.6000
G3 X380.0000 Y258.5000 Z7.0000 I-1.0607 J-1.0607 K0.0000 F1999.8000
G1 X0.0000 Y258.5000 Z7.0000 F1999.8000
G3 X-1.5000 Y257.0000 Z7.0000 I0.0000 J-1.5000 K0.0000 F1999.8000
G1 X-1.5000 Y0.0000 Z7.0000 F1999.8000
G3 X0.0000 Y-1.5000 Z7.0000 I1.5000 J0.0000 K0.0000 F1999.8000
G1 X30.0000 Y-1.5000 Z7.0000 F1999.8000
G3 X31.5000 Y0.0000 Z7.0000 I-0.0000 J1.5000 K0.0000 F1999.8000
G1 X31.5000 Y127.0000 Z7.0000 F1999.8000
G1 X31.0607 Y127.4393 Z7.0000 F1999.8000
G1 X31.5000 Y127.0000 Z7.0000 F1999.8000
G1 X46.5000 Y127.0000 Z7.0000 F1999.8000
G1 X46.9393 Y127.4393 Z7.0000 F1999.8000
G1 X46.5000 Y127.0000 Z7.0000 F1999.8000
G1 X46.5000 Y0.0000 Z7.0000 F1999.8000
G3 X48.0000 Y-1.5000 Z7.0000 I1.5000 J0.0000 K0.0000 F1999.8000
G1 X78.0000 Y-1.5000 Z7.0000 F1999.8000
G3 X79.4966 Y-0.1003 Z7.0000 I-0.0000 J1.5000 K0.0000 F1999.8000
G1 X89.6187 Y150.8876 Z7.0000 F1999.8000
G2 X118.0750 Y177.5000 Z7.0000 I28.4386 J-1.8889 K0.0000 F1999.8000
G1 X261.9250 Y177.5000 Z7.0000 F1999.8000
G2 X290.3813 Y150.8876 Z7.0000 I0.0176 J-28.5013 K0.0000 F1999.8000
G1 X300.5034 Y-0.1003 Z7.0000 F1999.8000
G3 X302.0000 Y-1.5000 Z7.0000 I1.4966 J0.1003 K0.0000 F1999.8000
G1 X332.0000 Y-1.5000 Z7.0000 F1999.8000
G3 X333.5000 Y0.0000 Z7.0000 I-0.0000 J1.5000 K0.0000 F1999.8000
G1 X333.5000 Y127.0000 Z7.0000 F1999.8000
G1 X333.0607 Y127.4393 Z7.0000 F1999.8000
G1 X333.5000 Y127.0000 Z7.0000 F1999.8000
G1 X348.5000 Y127.0000 Z7.0000 F1999.8000
G1 X348.9393 Y127.4393 Z7.0000 F1999.8000
G1 X348.5000 Y127.0000 Z7.0000 F1999.8000
G1 X348.5000 Y0.0000 Z7.0000 F1999.8000
G3 X350.0000 Y-1.5000 Z7.0000 I1.5000 J0.0000 K0.0000 F1999.8000
G1 X380.0000 Y-1.5000 Z7.0000 F1999.8000
G3 X381.5000 Y0.0000 Z7.0000 I-0.0000 J1.5000 K0.0000 F1999.8000
G1 X381.5000 Y257.0000 Z7.0000 F1999.8000
G3 X381.0607 Y258.0607 Z7.0000 I-1.5000 J-0.0000 K0.0000 F1999.8000
G1 X381.0607 Y258.0607 Z6.5000 F999.6000
G3 X380.0000 Y258.5000 Z6.5000 I-1.0607 J-1.0607 K0.0000 F1999.8000
G1 X0.0000 Y258.5000 Z6.5000 F1999.8000
G3 X-1.5000 Y257.0000 Z6.5000 I0.0000 J-1.5000 K0.0000 F1999.8000
G1 X-1.5000 Y0.0000 Z6.5000 F1999.8000
G3 X0.0000 Y-1.5000 Z6.5000 I1.5000 J0.0000 K0.0000 F1999.8000
G1 X30.0000 Y-1.5000 Z6.5000 F1999.8000
G3 X31.5000 Y0.0000 Z6.5000 I-0.0000 J1.5000 K0.0000 F1999.8000
G1 X31.5000 Y127.0000 Z6.5000 F1999.8000
G1 X31.0607 Y127.4393 Z6.5000 F1999.8000
G1 X31.5000 Y127.0000 Z6.5000 F1999.8000
G1 X46.5000 Y127.0000 Z6.5000 F1999.8000
G1 X46.9393 Y127.4393 Z6.5000 F1999.8000
G1 X46.5000 Y127.0000 Z6.5000 F1999.8000
G1 X46.5000 Y0.0000 Z6.5000 F1999.8000
G3 X48.0000 Y-1.5000 Z6.5000 I1.5000 J0.0000 K0.0000 F1999.8000
G1 X78.0000 Y-1.5000 Z6.5000 F1999.8000
G3 X79.4966 Y-0.1003 Z6.5000 I-0.0000 J1.5000 K0.0000 F1999.8000
G1 X89.6187 Y150.8876 Z6.5000 F1999.8000
G2 X118.0750 Y177.5000 Z6.5000 I28.4386 J-1.8889 K0.0000 F1999.8000
G1 X261.9250 Y177.5000 Z6.5000 F1999.8000
G2 X290.3813 Y150.8876 Z6.5000 I0.0176 J-28.5013 K0.0000 F1999.8000
G1 X300.5034 Y-0.1003 Z6.5000 F1999.8000
G3 X302.0000 Y-1.5000 Z6.5000 I1.4966 J0.1003 K0.0000 F1999.8000
G1 X332.0000 Y-1.5000 Z6.5000 F1999.8000
G3 X333.5000 Y0.0000 Z6.5000 I-0.0000 J1.5000 K0.0000 F1999.8000
G1 X333.5000 Y127.0000 Z6.5000 F1999.8000
G1 X333.0607 Y127.4393 Z6.5000 F1999.8000
G1 X333.5000 Y127.0000 Z6.5000 F1999.8000
G1 X348.5000 Y127.0000 Z6.5000 F1999.8000
G1 X348.9393 Y127.4393 Z6.5000 F1999.8000
G1 X348.5000 Y127.0000 Z6.5000 F1999.8000
G1 X348.5000 Y0.0000 Z6.5000 F1999.8000
G3 X350.0000 Y-1.5000 Z6.5000 I1.5000 J0.0000 K0.0000 F1999.8000
G1 X380.0000 Y-1.5000 Z6.5000 F1999.8000
G3 X381.5000 Y0.0000 Z6.5000 I-0.0000 J1.5000 K0.0000 F1999.8000
G1 X381.5000 Y257.0000 Z6.5000 F1999.8000
G3 X381.0607 Y258.0607 Z6.5000 I-1.5000 J-0.0000 K0.0000 F1999.8000
G1 X381.0607 Y258.0607 Z6.0000 F999.6000
G3 X380.0000 Y258.5000 Z6.0000 I-1.0607 J-1.0607 K0.0000 F1999.8000
G1 X0.0000 Y258.5000 Z6.0000 F1999.8000
G3 X-1.5000 Y257.0000 Z6.0000 I0.0000 J-1.5000 K0.0000 F1999.8000
G1 X-1.5000 Y0.0000 Z6.0000 F1999.8000
G3 X0.0000 Y-1.5000 Z6.0000 I1.5000 J0.0000 K0.0000 F1999.8000
G1 X30.0000 Y-1.5000 Z6.0000 F1999.8000
G3 X31.5000 Y0.0000 Z6.0000 I-0.0000 J1.5000 K0.0000 F1999.8000
G1 X31.5000 Y127.0000 Z6.0000 F1999.8000
G1 X31.0607 Y127.4393 Z6.0000 F1999.8000
G1 X31.5000 Y127.0000 Z6.0000 F1999.8000
G1 X46.5000 Y127.0000 Z6.0000 F1999.8000
G1 X46.9393 Y127.4393 Z6.0000 F1999.8000
G1 X46.5000 Y127.0000 Z6.0000 F1999.8000
G1 X46.5000 Y0.0000 Z6.0000 F1999.8000
G3 X48.0000 Y-1.5000 Z6.0000 I1.5000 J0.0000 K0.0000 F1999.8000
G1 X78.0000 Y-1.5000 Z6.0000 F1999.8000
G3 X79.4966 Y-0.1003 Z6.0000 I-0.0000 J1.5000 K0.0000 F1999.8000
G1 X89.6187 Y150.8876 Z6.0000 F1999.8000
G2 X118.0750 Y177.5000 Z6.0000 I28.4386 J-1.8889 K0.0000 F1999.8000
G1 X261.9250 Y177.5000 Z6.0000 F1999.8000
G2 X290.3813 Y150.8876 Z6.0000 I0.0176 J-28.5013 K0.0000 F1999.8000
G1 X300.5034 Y-0.1003 Z6.0000 F1999.8000
G3 X302.0000 Y-1.5000 Z6.0000 I1.4966 J0.1003 K0.0000 F1999.8000
G1 X332.0000 Y-1.5000 Z6.0000 F1999.8000
G3 X333.5000 Y0.0000 Z6.0000 I-0.0000 J1.5000 K0.0000 F1999.8000
G1 X333.5000 Y127.0000 Z6.0000 F1999.8000
G1 X333.0607 Y127.4393 Z6.0000 F1999.8000
G1 X333.5000 Y127.0000 Z6.0000 F1999.8000
G1 X348.5000 Y127.0000 Z6.0000 F1999.8000
G1 X348.9393 Y127.4393 Z6.0000 F1999.8000
G1 X348.5000 Y127.0000 Z6.0000 F1999.8000
G1 X348.5000 Y0.0000 Z6.0000 F1999.8000
G3 X350.0000 Y-1.5000 Z6.0000 I1.5000 J0.0000 K0.0000 F1999.8000
G1 X380.0000 Y-1.5000 Z6.0000 F1999.8000
G3 X381.5000 Y0.0000 Z6.0000 I-0.0000 J1.5000 K0.0000 F1999.8000
G1 X381.5000 Y257.0000 Z6.0000 F1999.8000
G3 X381.0607 Y258.0607 Z6.0000 I-1.5000 J-0.0000 K0.0000 F1999.8000
G1 X381.0607 Y258.0607 Z5.5000 F999.6000
G3 X380.0000 Y258.5000 Z5.5000 I-1.0607 J-1.0607 K0.0000 F1999.8000
G1 X0.0000 Y258.5000 Z5.5000 F1999.8000
G3 X-1.5000 Y257.0000 Z5.5000 I0.0000 J-1.5000 K0.0000 F1999.8000
G1 X-1.5000 Y0.0000 Z5.5000 F1999.8000
G3 X0.0000 Y-1.5000 Z5.5000 I1.5000 J0.0000 K0.0000 F1999.8000
G1 X30.0000 Y-1.5000 Z5.5000 F1999.8000
G3 X31.5000 Y0.0000 Z5.5000 I-0.0000 J1.5000 K0.0000 F1999.8000
G1 X31.5000 Y127.0000 Z5.5000 F1999.8000
G1 X31.0607 Y127.4393 Z5.5000 F1999.8000
G1 X31.5000 Y127.0000 Z5.5000 F1999.8000
G1 X46.5000 Y127.0000 Z5.5000 F1999.8000
G1 X46.9393 Y127.4393 Z5.5000 F1999.8000
G1 X46.5000 Y127.0000 Z5.5000 F1999.8000
G1 X46.5000 Y0.0000 Z5.5000 F1999.8000
G3 X48.0000 Y-1.5000 Z5.5000 I1.5000 J0.0000 K0.0000 F1999.8000
G1 X78.0000 Y-1.5000 Z5.5000 F1999.8000
G3 X79.4966 Y-0.1003 Z5.5000 I-0.0000 J1.5000 K0.0000 F1999.8000
G1 X89.6187 Y150.8876 Z5.5000 F1999.8000
G2 X118.0750 Y177.5000 Z5.5000 I28.4386 J-1.8889 K0.0000 F1999.8000
G1 X261.9250 Y177.5000 Z5.5000 F1999.8000
G2 X290.3813 Y150.8876 Z5.5000 I0.0176 J-28.5013 K0.0000 F1999.8000
G1 X300.5034 Y-0.1003 Z5.5000 F1999.8000
G3 X302.0000 Y-1.5000 Z5.5000 I1.4966 J0.1003 K0.0000 F1999.8000
G1 X332.0000 Y-1.5000 Z5.5000 F1999.8000
G3 X333.5000 Y0.0000 Z5.5000 I-0.0000 J1.5000 K0.0000 F1999.8000
G1 X333.5000 Y127.0000 Z5.5000 F1999.8000
G1 X333.0607 Y127.4393 Z5.5000 F1999.8000
G1 X333.5000 Y127.0000 Z5.5000 F1999.8000
G1 X348.5000 Y127.0000 Z5.5000 F1999.8000
G1 X348.9393 Y127.4393 Z5.5000 F1999.8000
G1 X348.5000 Y127.0000 Z5.5000 F1999.8000
G1 X348.5000 Y0.0000 Z5.5000 F1999.8000
G3 X350.0000 Y-1.5000 Z5.5000 I1.5000 J0.0000 K0.0000 F1999.8000
G1 X380.0000 Y-1.5000 Z5.5000 F1999.8000
G3 X381.5000 Y0.0000 Z5.5000 I-0.0000 J1.5000 K0.0000 F1999.8000
G1 X381.5000 Y257.0000 Z5.5000 F1999.8000
G3 X381.0607 Y258.0607 Z5.5000 I-1.5000 J-0.0000 K0.0000 F1999.8000
G1 X381.0607 Y258.0607 Z5.0000 F999.6000
G3 X380.0000 Y258.5000 Z5.0000 I-1.0607 J-1.0607 K0.0000 F1999.8000
G1 X0.0000 Y258.5000 Z5.0000 F1999.8000
G3 X-1.5000 Y257.0000 Z5.0000 I0.0000 J-1.5000 K0.0000 F1999.8000
G1 X-1.5000 Y0.0000 Z5.0000 F1999.8000
G3 X0.0000 Y-1.5000 Z5.0000 I1.5000 J0.0000 K0.0000 F1999.8000
G1 X30.0000 Y-1.5000 Z5.0000 F1999.8000
G3 X31.5000 Y0.0000 Z5.0000 I-0.0000 J1.5000 K0.0000 F1999.8000
G1 X31.5000 Y127.0000 Z5.0000 F1999.8000
G1 X31.0607 Y127.4393 Z5.0000 F1999.8000
G1 X31.5000 Y127.0000 Z5.0000 F1999.8000
G1 X46.5000 Y127.0000 Z5.0000 F1999.8000
G1 X46.9393 Y127.4393 Z5.0000 F1999.8000
G1 X46.5000 Y127.0000 Z5.0000 F1999.8000
G1 X46.5000 Y0.0000 Z5.0000 F1999.8000
G3 X48.0000 Y-1.5000 Z5.0000 I1.5000 J0.0000 K0.0000 F1999.8000
G1 X78.0000 Y-1.5000 Z5.0000 F1999.8000
G3 X79.4966 Y-0.1003 Z5.0000 I-0.0000 J1.5000 K0.0000 F1999.8000
G1 X89.6187 Y150.8876 Z5.0000 F1999.8000
G2 X118.0750 Y177.5000 Z5.0000 I28.4386 J-1.8889 K0.0000 F1999.8000
G1 X261.9250 Y177.5000 Z5.0000 F1999.8000
G2 X290.3813 Y150.8876 Z5.0000 I0.0176 J-28.5013 K0.0000 F1999.8000
G1 X300.5034 Y-0.1003 Z5.0000 F1999.8000
G3 X302.0000 Y-1.5000 Z5.0000 I1.4966 J0.1003 K0.0000 F1999.8000
G1 X332.0000 Y-1.5000 Z5.0000 F1999.8000
G3 X333.5000 Y0.0000 Z5.0000 I-0.0000 J1.5000 K0.0000 F1999.8000
G1 X333.5000 Y127.0000 Z5.0000 F1999.8000
G1 X333.0607 Y127.4393 Z5.0000 F1999.8000
G1 X333.5000 Y127.0000 Z5.0000 F1999.8000
G1 X348.5000 Y127.0000 Z5.0000 F1999.8000
G1 X348.9393 Y127.4393 Z5.0000 F1999.8000
G1 X348.5000 Y127.0000 Z5.0000 F1999.8000
G1 X348.5000 Y0.0000 Z5.0000 F1999.8000
G3 X350.0000 Y-1.5000 Z5.0000 I1.5000 J0.0000 K0.0000 F1999.8000
G1 X380.0000 Y-1.5000 Z5.0000 F1999.8000
G3 X381.5000 Y0.0000 Z5.0000 I-0.0000 J1.5000 K0.0000 F1999.8000
G1 X381.5000 Y257.0000 Z5.0000 F1999.8000
G3 X381.0607 Y258.0607 Z5.0000 I-1.5000 J-0.0000 K0.0000 F1999.8000
G1 X381.0607 Y258.0607 Z4.5000 F999.6000
G3 X380.0000 Y258.5000 Z4.5000 I-1.0607 J-1.0607 K0.0000 F1999.8000
G1 X0.0000 Y258.5000 Z4.5000 F1999.8000
G3 X-1.5000 Y257.0000 Z4.5000 I0.0000 J-1.5000 K0.0000 F1999.8000
G1 X-1.5000 Y0.0000 Z4.5000 F1999.8000
G3 X0.0000 Y-1.5000 Z4.5000 I1.5000 J0.0000 K0.0000 F1999.8000
G1 X30.0000 Y-1.5000 Z4.5000 F1999.8000
G3 X31.5000 Y0.0000 Z4.5000 I-0.0000 J1.5000 K0.0000 F1999.8000
G1 X31.5000 Y127.0000 Z4.5000 F1999.8000
G1 X31.0607 Y127.4393 Z4.5000 F1999.8000
G1 X31.5000 Y127.0000 Z4.5000 F1999.8000
G1 X46.5000 Y127.0000 Z4.5000 F1999.8000
G1 X46.9393 Y127.4393 Z4.5000 F1999.8000
G1 X46.5000 Y127.0000 Z4.5000 F1999.8000
G1 X46.5000 Y0.0000 Z4.5000 F1999.8000
G3 X48.0000 Y-1.5000 Z4.5000 I1.5000 J0.0000 K0.0000 F1999.8000
G1 X78.0000 Y-1.5000 Z4.5000 F1999.8000
G3 X79.4966 Y-0.1003 Z4.5000 I-0.0000 J1.5000 K0.0000 F1999.8000
G1 X89.6187 Y150.8876 Z4.5000 F1999.8000
G2 X118.0750 Y177.5000 Z4.5000 I28.4386 J-1.8889 K0.0000 F1999.8000
G1 X261.9250 Y177.5000 Z4.5000 F1999.8000
G2 X290.3813 Y150.8876 Z4.5000 I0.0176 J-28.5013 K0.0000 F1999.8000
G1 X300.5034 Y-0.1003 Z4.5000 F1999.8000
G3 X302.0000 Y-1.5000 Z4.5000 I1.4966 J0.1003 K0.0000 F1999.8000
G1 X332.0000 Y-1.5000 Z4.5000 F1999.8000
G3 X333.5000 Y0.0000 Z4.5000 I-0.0000 J1.5000 K0.0000 F1999.8000
G1 X333.5000 Y127.0000 Z4.5000 F1999.8000
G1 X333.0607 Y127.4393 Z4.5000 F1999.8000
G1 X333.5000 Y127.0000 Z4.5000 F1999.8000
G1 X348.5000 Y127.0000 Z4.5000 F1999.8000
G1 X348.9393 Y127.4393 Z4.5000 F1999.8000
G1 X348.5000 Y127.0000 Z4.5000 F1999.8000
G1 X348.5000 Y0.0000 Z4.5000 F1999.8000
G3 X350.0000 Y-1.5000 Z4.5000 I1.5000 J0.0000 K0.0000 F1999.8000
G1 X380.0000 Y-1.5000 Z4.5000 F1999.8000
G3 X381.5000 Y0.0000 Z4.5000 I-0.0000 J1.5000 K0.0000 F1999.8000
G1 X381.5000 Y257.0000 Z4.5000 F1999.8000
G3 X381.0607 Y258.0607 Z4.5000 I-1.5000 J-0.0000 K0.0000 F1999.8000
G1 X381.0607 Y258.0607 Z4.0000 F999.6000
G3 X380.0000 Y258.5000 Z4.0000 I-1.0607 J-1.0607 K0.0000 F1999.8000
G1 X0.0000 Y258.5000 Z4.0000 F1999.8000
G3 X-1.5000 Y257.0000 Z4.0000 I0.0000 J-1.5000 K0.0000 F1999.8000
G1 X-1.5000 Y0.0000 Z4.0000 F1999.8000
G3 X0.0000 Y-1.5000 Z4.0000 I1.5000 J0.0000 K0.0000 F1999.8000
G1 X30.0000 Y-1.5000 Z4.0000 F1999.8000
G3 X31.5000 Y0.0000 Z4.0000 I-0.0000 J1.5000 K0.0000 F1999.8000
G1 X31.5000 Y127.0000 Z4.0000 F1999.8000
G1 X31.0607 Y127.4393 Z4.0000 F1999.8000
G1 X31.5000 Y127.0000 Z4.0000 F1999.8000
G1 X46.5000 Y127.0000 Z4.0000 F1999.8000
G1 X46.9393 Y127.4393 Z4.0000 F1999.8000
G1 X46.5000 Y127.0000 Z4.0000 F1999.8000
G1 X46.5000 Y0.0000 Z4.0000 F1999.8000
G3 X48.0000 Y-1.5000 Z4.0000 I1.5000 J0.0000 K0.0000 F1999.8000
G1 X78.0000 Y-1.5000 Z4.0000 F1999.8000
G3 X79.4966 Y-0.1003 Z4.0000 I-0.0000 J1.5000 K0.0000 F1999.8000
G1 X89.6187 Y150.8876 Z4.0000 F1999.8000
G2 X118.0750 Y177.5000 Z4.0000 I28.4386 J-1.8889 K0.0000 F1999.8000
G1 X261.9250 Y177.5000 Z4.0000 F1999.8000
G2 X290.3813 Y150.8876 Z4.0000 I0.0176 J-28.5013 K0.0000 F1999.8000
G1 X300.5034 Y-0.1003 Z4.0000 F1999.8000
G3 X302.0000 Y-1.5000 Z4.0000 I1.4966 J0.1003 K0.0000 F1999.8000
G1 X332.0000 Y-1.5000 Z4.0000 F1999.8000
G3 X333.5000 Y0.0000 Z4.0000 I-0.0000 J1.5000 K0.0000 F1999.8000
G1 X333.5000 Y127.0000 Z4.0000 F1999.8000
G1 X333.0607 Y127.4393 Z4.0000 F1999.8000
G1 X333.5000 Y127.0000 Z4.0000 F1999.8000
G1 X348.5000 Y127.0000 Z4.0000 F1999.8000
G1 X348.9393 Y127.4393 Z4.0000 F1999.8000
G1 X348.5000 Y127.0000 Z4.0000 F1999.8000
G1 X348.5000 Y0.0000 Z4.0000 F1999.8000
G3 X350.0000 Y-1.5000 Z4.0000 I1.5000 J0.0000 K0.0000 F1999.8000
G1 X380.0000 Y-1.5000 Z4.0000 F1999.8000
G3 X381.5000 Y0.0000 Z4.0000 I-0.0000 J1.5000 K0.0000 F1999.8000
G1 X381.5000 Y257.0000 Z4.0000 F1999.8000
G3 X381.0607 Y258.0607 Z4.0000 I-1.5000 J-0.0000 K0.0000 F1999.8000
G1 X381.0607 Y258.0607 Z3.5000 F999.6000
G3 X380.0000 Y258.5000 Z3.5000 I-1.0607 J-1.0607 K0.0000 F1999.8000
G1 X200.2600 Y258.5000 Z3.5000 F1999.8000
G1 X199.9600 Y258.5000 Z3.8000 F1499.7000
G1 X180.0400 Y258.5000 Z3.8000 F1999.8000
G1 X179.7400 Y258.5000 Z3.5000 F1499.7000
G1 X0.0000 Y258.5000 Z3.5000 F1999.8000
G3 X-1.5000 Y257.0000 Z3.5000 I0.0000 J-1.5000 K0.0000 F1999.8000
G1 X-1.5000 Y202.1300 Z3.5000 F1999.8000
G1 X-1.5000 Y201.8300 Z3.8000 F1499.7000
G1 X-1.5000 Y181.9100 Z3.8000 F1999.8000
G1 X-1.5000 Y181.6100 Z3.5000 F1499.7000
G1 X-1.5000 Y82.9800 Z3.5000 F1999.8000
G1 X-1.5000 Y82.6800 Z3.8000 F1499.7000
G1 X-1.5000 Y62.7600 Z3.8000 F1999.8000
G1 X-1.5000 Y62.4600 Z3.5000 F1499.7000
G1 X-1.5000 Y0.0000 Z3.5000 F1999.8000
G3 X0.0000 Y-1.5000 Z3.5000 I1.5000 J0.0000 K0.0000 F1999.8000
G1 X30.0000 Y-1.5000 Z3.5000 F1999.8000
G3 X31.5000 Y0.0000 Z3.5000 I-0.0000 J1.5000 K0.0000 F1999.8000
G1 X31.5000 Y53.2400 Z3.5000 F1999.8000
G1 X31.5000 Y53.5400 Z3.8000 F1499.7000
G1 X31.5000 Y73.4600 Z3.8000 F1999.8000
G1 X31.5000 Y73.7600 Z3.5000 F1499.7000
G1 X31.5000 Y127.0000 Z3.5000 F1999.8000
G1 X31.0607 Y127.4393 Z3.5000 F1999.8000
G1 X31.5000 Y127.0000 Z3.5000 F1999.8000
G1 X46.5000 Y127.0000 Z3.5000 F1999.8000
G1 X46.9393 Y127.4393 Z3.5000 F1999.8000
G1 X46.5000 Y127.0000 Z3.5000 F1999.8000
G1 X46.5000 Y0.0000 Z3.5000 F1999.8000
G3 X48.0000 Y-1.5000 Z3.5000 I1.5000 J0.0000 K0.0000 F1999.8000
G1 X78.0000 Y-1.5000 Z3.5000 F1999.8000
G3 X79.4966 Y-0.1003 Z3.5000 I-0.0000 J1.5000 K0.0000 F1999.8000
G1 X85.1885 Y84.8027 Z3.5000 F1999.8000
G1 X85.2085 Y85.1020 Z3.8000 F1499.7000
G1 X86.5410 Y104.9774 Z3.8000 F1999.8000
G1 X86.5610 Y105.2767 Z3.5000 F1499.7000
G1 X89.6187 Y150.8876 Z3.5000 F1999.8000
G2 X118.0750 Y177.5000 Z3.5000 I28.4386 J-1.8889 K0.0000 F1999.8000
G1 X179.7400 Y177.5000 Z3.5000 F1999.8000
G1 X180.0400 Y177.5000 Z3.8000 F1499.7000
G1 X199.9600 Y177.5000 Z3.8000 F1999.8000
G1 X200.2600 Y177.5000 Z3.5000 F1499.7000
G1 X261.9250 Y177.5000 Z3.5000 F1999.8000
G2 X290.3813 Y150.8876 Z3.5000 I0.0176 J-28.5013 K0.0000 F1999.8000
G1 X293.8673 Y98.8873 Z3.5000 F1999.8000
G1 X293.8874 Y98.5879 Z3.8000 F1499.7000
G1 X295.2198 Y78.7125 Z3.8000 F1999.8000
G1 X295.2399 Y78.4132 Z3.5000 F1499.7000
G1 X300.5034 Y-0.1003 Z3.5000 F1999.8000
G3 X302.0000 Y-1.5000 Z3.5000 I1.4966 J0.1003 K0.0000 F1999.8000
G1 X332.0000 Y-1.5000 Z3.5000 F1999.8000
G3 X333.5000 Y0.0000 Z3.5000 I-0.0000 J1.5000 K0.0000 F1999.8000
G1 X333.5000 Y127.0000 Z3.5000 F1999.8000
G1 X333.0607 Y127.4393 Z3.5000 F1999.8000
G1 X333.5000 Y127.0000 Z3.5000 F1999.8000
G1 X348.5000 Y127.0000 Z3.5000 F1999.8000
G1 X348.9393 Y127.4393 Z3.5000 F1999.8000
G1 X348.5000 Y127.0000 Z3.5000 F1999.8000
G1 X348.5000 Y73.7600 Z3.5000 F1999.8000
G1 X348.5000 Y73.4600 Z3.8000 F1499.7000
G1 X348.5000 Y53.5400 Z3.8000 F1999.8000
G1 X348.5000 Y53.2400 Z3.5000 F1499.7000
G1 X348.5000 Y0.0000 Z3.5000 F1999.8000
G3 X350.0000 Y-1.5000 Z3.5000 I1.5000 J0.0000 K0.0000 F1999.8000
G1 X380.0000 Y-1.5000 Z3.5000 F1999.8000
G3 X381.5000 Y0.0000 Z3.5000 I-0.0000 J1.5000 K0.0000 F1999.8000
G1 X381.5000 Y56.9000 Z3.5000 F1999.8000
G1 X381.5000 Y57.2000 Z3.8000 F1499.7000
G1 X381.5000 Y77.1200 Z3.8000 F1999.8000
G1 X381.5000 Y77.4200 Z3.5000 F1499.7000
G1 X381.5000 Y184.6100 Z3.5000 F1999.8000
G1 X381.5000 Y184.9100 Z3.8000 F1499.7000
G1 X381.5000 Y204.8300 Z3.8000 F1999.8000
G1 X381.5000 Y205.1300 Z3.5000 F1499.7000
G1 X381.5000 Y257.0000 Z3.5000 F1999.8000
G3 X381.0607 Y258.0607 Z3.5000 I-1.5000 J-0.0000 K0.0000 F1999.8000
G1 X381.0607 Y258.0607 Z3.0000 F999.6000
G3 X380.0000 Y258.5000 Z3.0000 I-1.0607 J-1.0607 K0.0000 F1999.8000
G1 X200.7600 Y258.5000 Z3.0000 F1999.8000
G1 X199.9600 Y258.5000 Z3.8000 F1499.7000
G1 X180.0400 Y258.5000 Z3.8000 F1999.8000
G1 X179.2400 Y258.5000 Z3.0000 F1499.7000
G1 X0.0000 Y258.5000 Z3.0000 F1999.8000
G3 X-1.5000 Y257.0000 Z3.0000 I0.0000 J-1.5000 K0.0000 F1999.8000
G1 X-1.5000 Y202.6300 Z3.0000 F1999.8000
G1 X-1.5000 Y201.8300 Z3.8000 F1499.7000
G1 X-1.5000 Y181.9100 Z3.8000 F1999.8000
G1 X-1.5000 Y181.1100 Z3.0000 F1499.7000
G1 X-1.5000 Y83.4800 Z3.0000 F1999.8000
G1 X-1.5000 Y82.6800 Z3.8000 F1499.7000
G1 X-1.5000 Y62.7600 Z3.8000 F1999.8000
G1 X-1.5000 Y61.9600 Z3.0000 F1499.7000
G1 X-1.5000 Y0.0000 Z3.0000 F1999.8000
G3 X0.0000 Y-1.5000 Z3.0000 I1.5000 J0.0000 K0.0000 F1999.8000
G1 X30.0000 Y-1.5000 Z3.0000 F1999.8000
G3 X31.5000 Y0.0000 Z3.0000 I-0.0000 J1.5000 K0.0000 F1999.8000
G1 X31.5000 Y52.7400 Z3.0000 F1999.8000
G1 X31.5000 Y53.5400 Z3.8000 F1499.7000
G1 X31.5000 Y73.4600 Z3.8000 F1999.8000
G1 X31.5000 Y74.2600 Z3.0000 F1499.7000
G1 X31.5000 Y127.0000 Z3.0000 F1999.8000
G1 X31.0607 Y127.4393 Z3.0000 F1999.8000
G1 X31.5000 Y127.0000 Z3.0000 F1999.8000
G1 X46.5000 Y127.0000 Z3.0000 F1999.8000
G1 X46.9393 Y127.4393 Z3.0000 F1999.8000
G1 X46.5000 Y127.0000 Z3.0000 F1999.8000
G1 X46.5000 Y0.0000 Z3.0000 F1999.8000
G3 X48.0000 Y-1.5000 Z3.0000 I1.5000 J0.0000 K0.0000 F1999.8000
G1 X78.0000 Y-1.5000 Z3.0000 F1999.8000
G3 X79.4966 Y-0.1003 Z3.0000 I-0.0000 J1.5000 K0.0000 F1999.8000
G1 X85.1550 Y84.3038 Z3.0000 F1999.8000
G1 X85.2085 Y85.1020 Z3.8000 F1499.7000
G1 X86.5410 Y104.9774 Z3.8000 F1999.8000
G1 X86.5945 Y105.7756 Z3.0000 F1499.7000
G1 X89.6187 Y150.8876 Z3.0000 F1999.8000
G2 X118.0750 Y177.5000 Z3.0000 I28.4386 J-1.8889 K0.0000 F1999.8000
G1 X179.2400 Y177.5000 Z3.0000 F1999.8000
G1 X180.0400 Y177.5000 Z3.8000 F1499.7000
G1 X199.9600 Y177.5000 Z3.8000 F1999.8000
G1 X200.7600 Y177.5000 Z3.0000 F1499.7000
G1 X261.9250 Y177.5000 Z3.0000 F1999.8000
G2 X290.3813 Y150.8876 Z3.0000 I0.0176 J-28.5013 K0.0000 F1999.8000
G1 X293.8339 Y99.3861 Z3.0000 F1999.8000
G1 X293.8874 Y98.5879 Z3.8000 F1499.7000
G1 X295.2198 Y78.7125 Z3.8000 F1999.8000
G1 X295.2733 Y77.9143 Z3.0000 F1499.7000
G1 X300.5034 Y-0.1003 Z3.0000 F1999.8000
G3 X302.0000 Y-1.5000 Z3.0000 I1.4966 J0.1003 K0.0000 F1999.8000
G1 X332.0000 Y-1.5000 Z3.0000 F1999.8000
G3 X333.5000 Y0.0000 Z3.0000 I-0.0000 J1.5000 K0.0000 F1999.8000
G1 X333.5000 Y127.0000 Z3.0000 F1999.8000
G1 X333.0607 Y127.4393 Z3.0000 F1999.8000
G1 X333.5000 Y127.0000 Z3.0000 F1999.8000
G1 X348.5000 Y127.0000 Z3.0000 F1999.8000
G1 X348.9393 Y127.4393 Z3.0000 F1999.8000
G1 X348.5000 Y127.0000 Z3.0000 F1999.8000
G1 X348.5000 Y74.2600 Z3.0000 F1999.8000
G1 X348.5000 Y73.4600 Z3.8000 F1499.7000
G1 X348.5000 Y53.5400 Z3.8000 F1999.8000
G1 X348.5000 Y52.7400 Z3.0000 F1499.7000
G1 X348.5000 Y0.0000 Z3.0000 F1999.8000
G3 X350.0000 Y-1.5000 Z3.0000 I1.5000 J0.0000 K0.0000 F1999.8000
G1 X380.0000 Y-1.5000 Z3.0000 F1999.8000
G3 X381.5000 Y0.0000 Z3.0000 I-0.0000 J1.5000 K0.0000 F1999.8000
G1 X381.5000 Y56.4000 Z3.0000 F1999.8000
G1 X381.5000 Y57.2000 Z3.8000 F1499.7000
G1 X381.5000 Y77.1200 Z3.8000 F1999.8000
G1 X381.5000 Y77.9200 Z3.0000 F1499.7000
G1 X381.5000 Y184.1100 Z3.0000 F1999.8000
G1 X381.5000 Y184.9100 Z3.8000 F1499.7000
G1 X381.5000 Y204.8300 Z3.8000 F1999.8000
G1 X381.5000 Y205.6300 Z3.0000 F1499.7000
G1 X381.5000 Y257.0000 Z3.0000 F1999.8000
G3 X381.0607 Y258.0607 Z3.0000 I-1.5000 J-0.0000 K0.0000 F1999.8000
G1 X381.0607 Y258.0607 Z2.5000 F999.6000
G3 X380.0000 Y258.5000 Z2.5000 I-1.0607 J-1.0607 K0.0000 F1999.8000
G1 X201.2600 Y258.5000 Z2.5000 F1999.8000
G1 X199.9600 Y258.5000 Z3.8000 F1499.7000
G1 X180.0400 Y258.5000 Z3.8000 F1999.8000
G1 X178.7400 Y258.5000 Z2.5000 F1499.7000
G1 X0.0000 Y258.5000 Z2.5000 F1999.8000
G3 X-1.5000 Y257.0000 Z2.5000 I0.0000 J-1.5000 K0.0000 F1999.8000
G1 X-1.5000 Y203.1300 Z2.5000 F1999.8000
G1 X-1.5000 Y201.8300 Z3.8000 F1499.7000
G1 X-1.5000 Y181.9100 Z3.8000 F1999.8000
G1 X-1.5000 Y180.6100 Z2.5000 F1499.7000
G1 X-1.5000 Y83.9800 Z2.5000 F1999.8000
G1 X-1.5000 Y82.6800 Z3.8000 F1499.7000
G1 X-1.5000 Y62.7600 Z3.8000 F1999.8000
G1 X-1.5000 Y61.4600 Z2.5000 F1499.7000
G1 X-1.5000 Y0.0000 Z2.5000 F1999.8000
G3 X0.0000 Y-1.5000 Z2.5000 I1.5000 J0.0000 K0.0000 F1999.8000
G1 X30.0000 Y-1.5000 Z2.5000 F1999.8000
G3 X31.5000 Y0.0000 Z2.5000 I-0.0000 J1.5000 K0.0000 F1999.8000
G1 X31.5000 Y52.2400 Z2.5000 F1999.8000
G1 X31.5000 Y53.5400 Z3.8000 F1499.7000
G1 X31.5000 Y73.4600 Z3.8000 F1999.8000
G1 X31.5000 Y74.7600 Z2.5000 F1499.7000
G1 X31.5000 Y127.0000 Z2.5000 F1999.8000
G1 X31.0607 Y127.4393 Z2.5000 F1999.8000
G1 X31.5000 Y127.0000 Z2.5000 F1999.8000
G1 X46.5000 Y127.0000 Z2.5000 F1999.8000
G1 X46.9393 Y127.4393 Z2.5000 F1999.8000
G1 X46.5000 Y127.0000 Z2.5000 F1999.8000
G1 X46.5000 Y0.0000 Z2.5000 F1999.8000
G3 X48.0000 Y-1.5000 Z2.5000 I1.5000 J0.0000 K0.0000 F1999.8000
G1 X78.0000 Y-1.5000 Z2.5000 F1999.8000
G3 X79.4966 Y-0.1003 Z2.5000 I-0.0000 J1.5000 K0.0000 F1999.8000
G1 X85.1216 Y83.8049 Z2.5000 F1999.8000
G1 X85.2085 Y85.1020 Z3.8000 F1499.7000
G1 X86.5410 Y104.9774 Z3.8000 F1999.8000
G1 X86.6279 Y106.2745 Z2.5000 F1499.7000
G1 X89.6187 Y150.8876 Z2.5000 F1999.8000
G2 X118.0750 Y177.5000 Z2.5000 I28.4386 J-1.8889 K0.0000 F1999.8000
G1 X178.7400 Y177.5000 Z2.5000 F1999.8000
G1 X180.0400 Y177.5000 Z3.8000 F1499.7000
G1 X199.9600 Y177.5000 Z3.8000 F1999.8000
G1 X201.2600 Y177.5000 Z2.5000 F1499.7000
G1 X261.9250 Y177.5000 Z2.5000 F1999.8000
G2 X290.3813 Y150.8876 Z2.5000 I0.0176 J-28.5013 K0.0000 F1999.8000
G1 X293.8004 Y99.8850 Z2.5000 F1999.8000
G1 X293.8874 Y98.5879 Z3.8000 F1499.7000
G1 X295.2198 Y78.7125 Z3.8000 F1999.8000
G1 X295.3068 Y77.4155 Z2.5000 F1499.7000
G1 X300.5034 Y-0.1003 Z2.5000 F1999.8000
G3 X302.0000 Y-1.5000 Z2.5000 I1.4966 J0.1003 K0.0000 F1999.8000
G1 X332.0000 Y-1.5000 Z2.5000 F1999.8000
G3 X333.5000 Y0.0000 Z2.5000 I-0.0000 J1.5000 K0.0000 F1999.8000
G1 X333.5000 Y127.0000 Z2.5000 F1999.8000
G1 X333.0607 Y127.4393 Z2.5000 F1999.8000
G1 X333.5000 Y127.0000 Z2.5000 F1999.8000
G1 X348.5000 Y127.0000 Z2.5000 F1999.8000
G1 X348.9393 Y127.4393 Z2.5000 F1999.8000
G1 X348.5000 Y127.0000 Z2.5000 F1999.8000
G1 X348.5000 Y74.7600 Z2.5000 F1999.8000
G1 X348.5000 Y73.4600 Z3.8000 F1499.7000
G1 X348.5000 Y53.5400 Z3.8000 F1999.8000
G1 X348.5000 Y52.2400 Z2.5000 F1499.7000
G1 X348.5000 Y0.0000 Z2.5000 F1999.8000
G3 X350.0000 Y-1.5000 Z2.5000 I1.5000 J0.0000 K0.0000 F1999.8000
G1 X380.0000 Y-1.5000 Z2.5000 F1999.8000
G3 X381.5000 Y0.0000 Z2.5000 I-0.0000 J1.5000 K0.0000 F1999.8000
G1 X381.5000 Y55.9000 Z2.5000 F1999.8000
G1 X381.5000 Y57.2000 Z3.8000 F1499.7000
G1 X381.5000 Y77.1200 Z3.8000 F1999.8000
G1 X381.5000 Y78.4200 Z2.5000 F1499.7000
G1 X381.5000 Y183.6100 Z2.5000 F1999.8000
G1 X381.5000 Y184.9100 Z3.8000 F1499.7000
G1 X381.5000 Y204.8300 Z3.8000 F1999.8000
G1 X381.5000 Y206.1300 Z2.5000 F1499.7000
G1 X381.5000 Y257.0000 Z2.5000 F1999.8000
G3 X381.0607 Y258.0607 Z2.5000 I-1.5000 J-0.0000 K0.0000 F1999.8000
G1 X381.0607 Y258.0607 Z2.0000 F999.6000
G3 X380.0000 Y258.5000 Z2.0000 I-1.0607 J-1.0607 K0.0000 F1999.8000
G1 X201.7600 Y258.5000 Z2.0000 F1999.8000
G1 X199.9600 Y258.5000 Z3.8000 F1499.7000
G1 X180.0400 Y258.5000 Z3.8000 F1999.8000
G1 X178.2400 Y258.5000 Z2.0000 F1499.7000
G1 X0.0000 Y258.5000 Z2.0000 F1999.8000
G3 X-1.5000 Y257.0000 Z2.0000 I0.0000 J-1.5000 K0.0000 F1999.8000
G1 X-1.5000 Y203.6300 Z2.0000 F1999.8000
G1 X-1.5000 Y201.8300 Z3.8000 F1499.7000
G1 X-1.5000 Y181.9100 Z3.8000 F1999.8000
G1 X-1.5000 Y180.1100 Z2.0000 F1499.7000
G1 X-1.5000 Y84.4800 Z2.0000 F1999.8000
G1 X-1.5000 Y82.6800 Z3.8000 F1499.7000
G1 X-1.5000 Y62.7600 Z3.8000 F1999.8000
G1 X-1.5000 Y60.9600 Z2.0000 F1499.7000
G1 X-1.5000 Y0.0000 Z2.0000 F1999.8000
G3 X0.0000 Y-1.5000 Z2.0000 I1.5000 J0.0000 K0.0000 F1999.8000
G1 X30.0000 Y-1.5000 Z2.0000 F1999.8000
G3 X31.5000 Y0.0000 Z2.0000 I-0.0000 J1.5000 K0.0000 F1999.8000
G1 X31.5000 Y51.7400 Z2.0000 F1999.8000
G1 X31.5000 Y53.5400 Z3.8000 F1499.7000
G1 X31.5000 Y73.4600 Z3.8000 F1999.8000
G1 X31.5000 Y75.2600 Z2.0000 F1499.7000
G1 X31.5000 Y127.0000 Z2.0000 F1999.8000
G1 X31.0607 Y127.4393 Z2.0000 F1999.8000
G1 X31.5000 Y127.0000 Z2.0000 F1999.8000
G1 X46.5000 Y127.0000 Z2.0000 F1999.8000
G1 X46.9393 Y127.4393 Z2.0000 F1999.8000
G1 X46.5000 Y127.0000 Z2.0000 F1999.8000
G1 X46.5000 Y0.0000 Z2.0000 F1999.8000
G3 X48.0000 Y-1.5000 Z2.0000 I1.5000 J0.0000 K0.0000 F1999.8000
G1 X78.0000 Y-1.5000 Z2.0000 F1999.8000
G3 X79.4966 Y-0.1003 Z2.0000 I-0.0000 J1.5000 K0.0000 F1999.8000
G1 X85.0881 Y83.3060 Z2.0000 F1999.8000
G1 X85.2085 Y85.1020 Z3.8000 F1499.7000
G1 X86.5410 Y104.9774 Z3.8000 F1999.8000
G1 X86.6614 Y106.7733 Z2.0000 F1499.7000
G1 X89.6187 Y150.8876 Z2.0000 F1999.8000
G2 X118.0750 Y177.5000 Z2.0000 I28.4386 J-1.8889 K0.0000 F1999.8000
G1 X178.2400 Y177.5000 Z2.0000 F1999.8000
G1 X180.0400 Y177.5000 Z3.8000 F1499.7000
G1 X199.9600 Y177.5000 Z3.8000 F1999.8000
G1 X201.7600 Y177.5000 Z2.0000 F1499.7000
G1 X261.9250 Y177.5000 Z2.0000 F1999.8000
G2 X290.3813 Y150.8876 Z2.0000 I0.0176 J-28.5013 K0.0000 F1999.8000
G1 X293.7670 Y100.3839 Z2.0000 F1999.8000
G1 X293.8874 Y98.5879 Z3.8000 F1499.7000
G1 X295.2198 Y78.7125 Z3.8000 F1999.8000
G1 X295.3402 Y76.9166 Z2.0000 F1499.7000
G1 X300.5034 Y-0.1003 Z2.0000 F1999.8000
G3 X302.0000 Y-1.5000 Z2.0000 I1.4966 J0.1003 K0.0000 F1999.8000
G1 X332.0000 Y-1.5000 Z2.0000 F1999.8000
G3 X333.5000 Y0.0000 Z2.0000 I-0.0000 J1.5000 K0.0000 F1999.8000
G1 X333.5000 Y127.0000 Z2.0000 F1999.8000
G1 X333.0607 Y127.4393 Z2.0000 F1999.8000
G1 X333.5000 Y127.0000 Z2.0000 F1999.8000
G1 X348.5000 Y127.0000 Z2.0000 F1999.8000
G1 X348.9393 Y127.4393 Z2.0000 F1999.8000
G1 X348.5000 Y127.0000 Z2.0000 F1999.8000
G1 X348.5000 Y75.2600 Z2.0000 F1999.8000
G1 X348.5000 Y73.4600 Z3.8000 F1499.7000
G1 X348.5000 Y53.5400 Z3.8000 F1999.8000
G1 X348.5000 Y51.7400 Z2.0000 F1499.7000
G1 X348.5000 Y0.0000 Z2.0000 F1999.8000
G3 X350.0000 Y-1.5000 Z2.0000 I1.5000 J0.0000 K0.0000 F1999.8000
G1 X380.0000 Y-1.5000 Z2.0000 F1999.8000
G3 X381.5000 Y0.0000 Z2.0000 I-0.0000 J1.5000 K0.0000 F1999.8000
G1 X381.5000 Y55.4000 Z2.0000 F1999.8000
G1 X381.5000 Y57.2000 Z3.8000 F1499.7000
G1 X381.5000 Y77.1200 Z3.8000 F1999.8000
G1 X381.5000 Y78.9200 Z2.0000 F1499.7000
G1 X381.5000 Y183.1100 Z2.0000 F1999.8000
G1 X381.5000 Y184.9100 Z3.8000 F1499.7000
G1 X381.5000 Y204.8300 Z3.8000 F1999.8000
G1 X381.5000 Y206.6300 Z2.0000 F1499.7000
G1 X381.5000 Y257.0000 Z2.0000 F1999.8000
G3 X381.0607 Y258.0607 Z2.0000 I-1.5000 J-0.0000 K0.0000 F1999.8000
G1 X381.0607 Y258.0607 Z1.5000 F999.6000
G3 X380.0000 Y258.5000 Z1.5000 I-1.0607 J-1.0607 K0.0000 F1999.8000
G1 X202.2600 Y258.5000 Z1.5000 F1999.8000
G1 X199.9600 Y258.5000 Z3.8000 F1499.7000
G1 X180.0400 Y258.5000 Z3.8000 F1999.8000
G1 X177.7400 Y258.5000 Z1.5000 F1499.7000
G1 X0.0000 Y258.5000 Z1.5000 F1999.8000
G3 X-1.5000 Y257.0000 Z1.5000 I0.0000 J-1.5000 K0.0000 F1999.8000
G1 X-1.5000 Y204.1300 Z1.5000 F1999.8000
G1 X-1.5000 Y201.8300 Z3.8000 F1499.7000
G1 X-1.5000 Y181.9100 Z3.8000 F1999.8000
G1 X-1.5000 Y179.6100 Z1.5000 F1499.7000
G1 X-1.5000 Y84.9800 Z1.5000 F1999.8000
G1 X-1.5000 Y82.6800 Z3.8000 F1499.7000
G1 X-1.5000 Y62.7600 Z3.8000 F1999.8000
G1 X-1.5000 Y60.4600 Z1.5000 F1499.7000
G1 X-1.5000 Y0.0000 Z1.5000 F1999.8000
G3 X0.0000 Y-1.5000 Z1.5000 I1.5000 J0.0000 K0.0000 F1999.8000
G1 X30.0000 Y-1.5000 Z1.5000 F1999.8000
G3 X31.5000 Y0.0000 Z1.5000 I-0.0000 J1.5000 K0.0000 F1999.8000
G1 X31.5000 Y51.2400 Z1.5000 F1999.8000
G1 X31.5000 Y53.5400 Z3.8000 F1499.7000
G1 X31.5000 Y73.4600 Z3.8000 F1999.8000
G1 X31.5000 Y75.7600 Z1.5000 F1499.7000
G1 X31.5000 Y127.0000 Z1.5000 F1999.8000
G1 X31.0607 Y127.4393 Z1.5000 F1999.8000
G1 X31.5000 Y127.0000 Z1.5000 F1999.8000
G1 X46.5000 Y127.0000 Z1.5000 F1999.8000
G1 X46.9393 Y127.4393 Z1.5000 F1999.8000
G1 X46.5000 Y127.0000 Z1.5000 F1999.8000
G1 X46.5000 Y0.0000 Z1.5000 F1999.8000
G3 X48.0000 Y-1.5000 Z1.5000 I1.5000 J0.0000 K0.0000 F1999.8000
G1 X78.0000 Y-1.5000 Z1.5000 F1999.8000
G3 X79.4966 Y-0.1003 Z1.5000 I-0.0000 J1.5000 K0.0000 F1999.8000
G1 X85.0547 Y82.8071 Z1.5000 F1999.8000
G1 X85.2085 Y85.1020 Z3.8000 F1499.7000
G1 X86.5410 Y104.9774 Z3.8000 F1999.8000
G1 X86.6948 Y107.2722 Z1.5000 F1499.7000
G1 X89.6187 Y150.8876 Z1.5000 F1999.8000
G2 X118.0750 Y177.5000 Z1.5000 I28.4386 J-1.8889 K0.0000 F1999.8000
G1 X177.7400 Y177.5000 Z1.5000 F1999.8000
G1 X180.0400 Y177.5000 Z3.8000 F1499.7000
G1 X199.9600 Y177.5000 Z3.8000 F1999.8000
G1 X202.2600 Y177.5000 Z1.5000 F1499.7000
G1 X261.9250 Y177.5000 Z1.5000 F1999.8000
G2 X290.3813 Y150.8876 Z1.5000 I0.0176 J-28.5013 K0.0000 F1999.8000
G1 X293.7335 Y100.8828 Z1.5000 F1999.8000
G1 X293.8874 Y98.5879 Z3.8000 F1499.7000
G1 X295.2198 Y78.7125 Z3.8000 F1999.8000
G1 X295.3737 Y76.4177 Z1.5000 F1499.7000
G1 X300.5034 Y-0.1003 Z1.5000 F1999.8000
G3 X302.0000 Y-1.5000 Z1.5000 I1.4966 J0.1003 K0.0000 F1999.8000
G1 X332.0000 Y-1.5000 Z1.5000 F1999.8000
G3 X333.5000 Y0.0000 Z1.5000 I-0.0000 J1.5000 K0.0000 F1999.8000
G1 X333.5000 Y127.0000 Z1.5000 F1999.8000
G1 X333.0607 Y127.4393 Z1.5000 F1999.8000
G1 X333.5000 Y127.0000 Z1.5000 F1999.8000
G1 X348.5000 Y127.0000 Z1.5000 F1999.8000
G1 X348.9393 Y127.4393 Z1.5000 F1999.8000
G1 X348.5000 Y127.0000 Z1.5000 F1999.8000
G1 X348.5000 Y75.7600 Z1.5000 F1999.8000
G1 X348.5000 Y73.4600 Z3.8000 F1499.7000
G1 X348.5000 Y53.5400 Z3.8000 F1999.8000
G1 X348.5000 Y51.2400 Z1.5000 F1499.7000
G1 X348.5000 Y0.0000 Z1.5000 F1999.8000
G3 X350.0000 Y-1.5000 Z1.5000 I1.5000 J0.0000 K0.0000 F1999.8000
G1 X380.0000 Y-1.5000 Z1.5000 F1999.8000
G3 X381.5000 Y0.0000 Z1.5000 I-0.0000 J1.5000 K0.0000 F1999.8000
G1 X381.5000 Y54.9000 Z1.5000 F1999.8000
G1 X381.5000 Y57.2000 Z3.8000 F1499.7000
G1 X381.5000 Y77.1200 Z3.8000 F1999.8000
G1 X381.5000 Y79.4200 Z1.5000 F1499.7000
G1 X381.5000 Y182.6100 Z1.5000 F1999.8000
G1 X381.5000 Y184.9100 Z3.8000 F1499.7000
G1 X381.5000 Y204.8300 Z3.8000 F1999.8000
G1 X381.5000 Y207.1300 Z1.5000 F1499.7000
G1 X381.5000 Y257.0000 Z1.5000 F1999.8000
G3 X381.0607 Y258.0607 Z1.5000 I-1.5000 J-0.0000 K0.0000 F1999.8000
G1 X381.0607 Y258.0607 Z1.0000 F999.6000
G3 X380.0000 Y258.5000 Z1.0000 I-1.0607 J-1.0607 K0.0000 F1999.8000
G1 X202.7600 Y258.5000 Z1.0000 F1999.8000
G1 X199.9600 Y258.5000 Z3.8000 F1499.7000
G1 X180.0400 Y258.5000 Z3.8000 F1999.8000
G1 X177.2400 Y258.5000 Z1.0000 F1499.7000
G1 X0.0000 Y258.5000 Z1.0000 F1999.8000
G3 X-1.5000 Y257.0000 Z1.0000 I0.0000 J-1.5000 K0.0000 F1999.8000
G1 X-1.5000 Y204.6300 Z1.0000 F1999.8000
G1 X-1.5000 Y201.8300 Z3.8000 F1499.7000
G1 X-1.5000 Y181.9100 Z3.8000 F1999.8000
G1 X-1.5000 Y179.1100 Z1.0000 F1499.7000
G1 X-1.5000 Y85.4800 Z1.0000 F1999.8000
G1 X-1.5000 Y82.6800 Z3.8000 F1499.7000
G1 X-1.5000 Y62.7600 Z3.8000 F1999.8000
G1 X-1.5000 Y59.9600 Z1.0000 F1499.7000
G1 X-1.5000 Y0.0000 Z1.0000 F1999.8000
G3 X0.0000 Y-1.5000 Z1.0000 I1.5000 J0.0000 K0.0000 F1999.8000
G1 X30.0000 Y-1.5000 Z1.0000 F1999.8000
G3 X31.5000 Y0.0000 Z1.0000 I-0.0000 J1.5000 K0.0000 F1999.8000
G1 X31.5000 Y50.7400 Z1.0000 F1999.8000
G1 X31.5000 Y53.5400 Z3.8000 F1499.7000
G1 X31.5000 Y73.4600 Z3.8000 F1999.8000
G1 X31.5000 Y76.2600 Z1.0000 F1499.7000
G1 X31.5000 Y127.0000 Z1.0000 F1999.8000
G1 X31.0607 Y127.4393 Z1.0000 F1999.8000
G1 X31.5000 Y127.0000 Z1.0000 F1999.8000
G1 X46.5000 Y127.0000 Z1.0000 F1999.8000
G1 X46.9393 Y127.4393 Z1.0000 F1999.8000
G1 X46.5000 Y127.0000 Z1.0000 F1999.8000
G1 X46.5000 Y0.0000 Z1.0000 F1999.8000
G3 X48.0000 Y-1.5000 Z1.0000 I1.5000 J0.0000 K0.0000 F1999.8000
G1 X78.0000 Y-1.5000 Z1.0000 F1999.8000
G3 X79.4966 Y-0.1003 Z1.0000 I-0.0000 J1.5000 K0.0000 F1999.8000
G1 X85.0212 Y82.3083 Z1.0000 F1999.8000
G1 X85.2085 Y85.1020 Z3.8000 F1499.7000
G1 X86.5410 Y104.9774 Z3.8000 F1999.8000
G1 X86.7282 Y107.7711 Z1.0000 F1499.7000
G1 X89.6187 Y150.8876 Z1.0000 F1999.8000
G2 X118.0750 Y177.5000 Z1.0000 I28.4386 J-1.8889 K0.0000 F1999.8000
G1 X177.2400 Y177.5000 Z1.0000 F1999.8000
G1 X180.0400 Y177.5000 Z3.8000 F1499.7000
G1 X199.9600 Y177.5000 Z3.8000 F1999.8000
G1 X202.7600 Y177.5000 Z1.0000 F1499.7000
G1 X261.9250 Y177.5000 Z1.0000 F1999.8000
G2 X290.3813 Y150.8876 Z1.0000 I0.0176 J-28.5013 K0.0000 F1999.8000
G1 X293.7001 Y101.3817 Z1.0000 F1999.8000
G1 X293.8874 Y98.5879 Z3.8000 F1499.7000
G1 X295.2198 Y78.7125 Z3.8000 F1999.8000
G1 X295.4071 Y75.9188 Z1.0000 F1499.7000
G1 X300.5034 Y-0.1003 Z1.0000 F1999.8000
G3 X302.0000 Y-1.5000 Z1.0000 I1.4966 J0.1003 K0.0000 F1999.8000
G1 X332.0000 Y-1.5000 Z1.0000 F1999.8000
G3 X333.5000 Y0.0000 Z1.0000 I-0.0000 J1.5000 K0.0000 F1999.8000
G1 X333.5000 Y127.0000 Z1.0000 F1999.8000
G1 X333.0607 Y127.4393 Z1.0000 F1999.8000
G1 X333.5000 Y127.0000 Z1.0000 F1999.8000
G1 X348.5000 Y127.0000 Z1.0000 F1999.8000
G1 X348.9393 Y127.4393 Z1.0000 F1999.8000
G1 X348.5000 Y127.0000 Z1.0000 F1999.8000
G1 X348.5000 Y76.2600 Z1.0000 F1999.8000
G1 X348.5000 Y73.4600 Z3.8000 F1499.7000
G1 X348.5000 Y53.5400 Z3.8000 F1999.8000
G1 X348.5000 Y50.7400 Z1.0000 F1499.7000
G1 X348.5000 Y0.0000 Z1.0000 F1999.8000
G3 X350.0000 Y-1.5000 Z1.0000 I1.5000 J0.0000 K0.0000 F1999.8000
G1 X380.0000 Y-1.5000 Z1.0000 F1999.8000
G3 X381.5000 Y0.0000 Z1.0000 I-0.0000 J1.5000 K0.0000 F1999.8000
G1 X381.5000 Y54.4000 Z1.0000 F1999.8000
G1 X381.5000 Y57.2000 Z3.8000 F1499.7000
G1 X381.5000 Y77.1200 Z3.8000 F1999.8000
G1 X381.5000 Y79.9200 Z1.0000 F1499.7000
G1 X381.5000 Y182.1100 Z1.0000 F1999.8000
G1 X381.5000 Y184.9100 Z3.8000 F1499.7000
G1 X381.5000 Y204.8300 Z3.8000 F1999.8000
G1 X381.5000 Y207.6300 Z1.0000 F1499.7000
G1 X381.5000 Y257.0000 Z1.0000 F1999.8000
G3 X381.0607 Y258.0607 Z1.0000 I-1.5000 J-0.0000 K0.0000 F1999.8000
G1 X381.0607 Y258.0607 Z0.5000 F999.6000
G3 X380.0000 Y258.5000 Z0.5000 I-1.0607 J-1.0607 K0.0000 F1999.8000
G1 X203.2600 Y258.5000 Z0.5000 F1999.8000
G1 X199.9600 Y258.5000 Z3.8000 F1499.7000
G1 X180.0400 Y258.5000 Z3.8000 F1999.8000
G1 X176.7400 Y258.5000 Z0.5000 F1499.7000
G1 X0.0000 Y258.5000 Z0.5000 F1999.8000
G3 X-1.5000 Y257.0000 Z0.5000 I0.0000 J-1.5000 K0.0000 F1999.8000
G1 X-1.5000 Y205.1300 Z0.5000 F1999.8000
G1 X-1.5000 Y201.8300 Z3.8000 F1499.7000
G1 X-1.5000 Y181.9100 Z3.8000 F1999.8000
G1 X-1.5000 Y178.6100 Z0.5000 F1499.7000
G1 X-1.5000 Y85.9800 Z0.5000 F1999.8000
G1 X-1.5000 Y82.6800 Z3.8000 F1499.7000
G1 X-1.5000 Y62.7600 Z3.8000 F1999.8000
G1 X-1.5000 Y59.4600 Z0.5000 F1499.7000
G1 X-1.5000 Y0.0000 Z0.5000 F1999.8000
G3 X0.0000 Y-1.5000 Z0.5000 I1.5000 J0.0000 K0.0000 F1999.8000
G1 X30.0000 Y-1.5000 Z0.5000 F1999.8000
G3 X31.5000 Y0.0000 Z0.5000 I-0.0000 J1.5000 K0.0000 F1999.8000
G1 X31.5000 Y50.2400 Z0.5000 F1999.8000
G1 X31.5000 Y53.5400 Z3.8000 F1499.7000
G1 X31.5000 Y73.4600 Z3.8000 F1999.8000
G1 X31.5000 Y76.7600 Z0.5000 F1499.7000
G1 X31.5000 Y127.0000 Z0.5000 F1999.8000
G1 X31.0607 Y127.4393 Z0.5000 F1999.8000
G1 X31.5000 Y127.0000 Z0.5000 F1999.8000
G1 X46.5000 Y127.0000 Z0.5000 F1999.8000
G1 X46.9393 Y127.4393 Z0.5000 F1999.8000
G1 X46.5000 Y127.0000 Z0.5000 F1999.8000
G1 X46.5000 Y0.0000 Z0.5000 F1999.8000
G3 X48.0000 Y-1.5000 Z0.5000 I1.5000 J0.0000 K0.0000 F1999.8000
G1 X78.0000 Y-1.5000 Z0.5000 F1999.8000
G3 X79.4966 Y-0.1003 Z0.5000 I-0.0000 J1.5000 K0.0000 F1999.8000
G1 X84.9878 Y81.8094 Z0.5000 F1999.8000
G1 X85.2085 Y85.1020 Z3.8000 F1499.7000
G1 X86.5410 Y104.9774 Z3.8000 F1999.8000
G1 X86.7617 Y108.2700 Z0.5000 F1499.7000
G1 X89.6187 Y150.8876 Z0.5000 F1999.8000
G2 X118.0750 Y177.5000 Z0.5000 I28.4386 J-1.8889 K0.0000 F1999.8000
G1 X176.7400 Y177.5000 Z0.5000 F1999.8000
G1 X180.0400 Y177.5000 Z3.8000 F1499.7000
G1 X199.9600 Y177.5000 Z3.8000 F1999.8000
G1 X203.2600 Y177.5000 Z0.5000 F1499.7000
G1 X261.9250 Y177.5000 Z0.5000 F1999.8000
G2 X290.3813 Y150.8876 Z0.5000 I0.0176 J-28.5013 K0.0000 F1999.8000
G1 X293.6667 Y101.8805 Z0.5000 F1999.8000
G1 X293.8874 Y98.5879 Z3.8000 F1499.7000
G1 X295.2198 Y78.7125 Z3.8000 F1999.8000
G1 X295.4405 Y75.4199 Z0.5000 F1499.7000
G1 X300.5034 Y-0.1003 Z0.5000 F1999.8000
G3 X302.0000 Y-1.5000 Z0.5000 I1.4966 J0.1003 K0.0000 F1999.8000
G1 X332.0000 Y-1.5000 Z0.5000 F1999.8000
G3 X333.5000 Y0.0000 Z0.5000 I-0.0000 J1.5000 K0.0000 F1999.8000
G1 X333.5000 Y127.0000 Z0.5000 F1999.8000
G1 X333.0607 Y127.4393 Z0.5000 F1999.8000
G1 X333.5000 Y127.0000 Z0.5000 F1999.8000
G1 X348.5000 Y127.0000 Z0.5000 F1999.8000
G1 X348.9393 Y127.4393 Z0.5000 F1999.8000
G1 X348.5000 Y127.0000 Z0.5000 F1999.8000
G1 X348.5000 Y76.7600 Z0.5000 F1999.8000
G1 X348.5000 Y73.4600 Z3.8000 F1499.7000
G1 X348.5000 Y53.5400 Z3.8000 F1999.8000
G1 X348.5000 Y50.2400 Z0.5000 F1499.7000
G1 X348.5000 Y0.0000 Z0.5000 F1999.8000
G3 X350.0000 Y-1.5000 Z0.5000 I1.5000 J0.0000 K0.0000 F1999.8000
G1 X380.0000 Y-1.5000 Z0.5000 F1999.8000
G3 X381.5000 Y0.0000 Z0.5000 I-0.0000 J1.5000 K0.0000 F1999.8000
G1 X381.5000 Y53.9000 Z0.5000 F1999.8000
G1 X381.5000 Y57.2000 Z3.8000 F1499.7000
G1 X381.5000 Y77.1200 Z3.8000 F1999.8000
G1 X381.5000 Y80.4200 Z0.5000 F1499.7000
G1 X381.5000 Y181.6100 Z0.5000 F1999.8000
G1 X381.5000 Y184.9100 Z3.8000 F1499.7000
G1 X381.5000 Y204.8300 Z3.8000 F1999.8000
G1 X381.5000 Y208.1300 Z0.5000 F1499.7000
G1 X381.5000 Y257.0000 Z0.5000 F1999.8000
G3 X381.0607 Y258.0607 Z0.5000 I-1.5000 J-0.0000 K0.0000 F1999.8000
G1 X381.0607 Y258.0607 Z-0.0000 F999.6000
G3 X380.0000 Y258.5000 Z-0.0000 I-1.0607 J-1.0607 K0.0000 F1999.8000
G1 X203.7600 Y258.5000 Z-0.0000 F1999.8000
G1 X199.9600 Y258.5000 Z3.8000 F1499.7000
G1 X180.0400 Y258.5000 Z3.8000 F1999.8000
G1 X176.2400 Y258.5000 Z-0.0000 F1499.7000
G1 X0.0000 Y258.5000 Z-0.0000 F1999.8000
G3 X-1.5000 Y257.0000 Z-0.0000 I0.0000 J-1.5000 K0.0000 F1999.8000
G1 X-1.5000 Y205.6300 Z-0.0000 F1999.8000
G1 X-1.5000 Y201.8300 Z3.8000 F1499.7000
G1 X-1.5000 Y181.9100 Z3.8000 F1999.8000
G1 X-1.5000 Y178.1100 Z-0.0000 F1499.7000
G1 X-1.5000 Y86.4800 Z-0.0000 F1999.8000
G1 X-1.5000 Y82.6800 Z3.8000 F1499.7000
G1 X-1.5000 Y62.7600 Z3.8000 F1999.8000
G1 X-1.5000 Y58.9600 Z-0.0000 F1499.7000
G1 X-1.5000 Y0.0000 Z-0.0000 F1999.8000
G3 X0.0000 Y-1.5000 Z-0.0000 I1.5000 J0.0000 K0.0000 F1999.8000
G1 X30.0000 Y-1.5000 Z-0.0000 F1999.8000
G3 X31.5000 Y0.0000 Z-0.0000 I-0.0000 J1.5000 K0.0000 F1999.8000
G1 X31.5000 Y49.7400 Z-0.0000 F1999.8000
G1 X31.5000 Y53.5400 Z3.8000 F1499.7000
G1 X31.5000 Y73.4600 Z3.8000 F1999.8000
G1 X31.5000 Y77.2600 Z-0.0000 F1499.7000
G1 X31.5000 Y127.0000 Z-0.0000 F1999.8000
G1 X31.0607 Y127.4393 Z-0.0000 F1999.8000
G1 X31.5000 Y127.0000 Z-0.0000 F1999.8000
G1 X46.5000 Y127.0000 Z-0.0000 F1999.8000
G1 X46.9393 Y127.4393 Z-0.0000 F1999.8000
G1 X46.5000 Y127.0000 Z-0.0000 F1999.8000
G1 X46.5000 Y0.0000 Z-0.0000 F1999.8000
G3 X48.0000 Y-1.5000 Z-0.0000 I1.5000 J0.0000 K0.0000 F1999.8000
G1 X78.0000 Y-1.5000 Z-0.0000 F1999.8000
G3 X79.4966 Y-0.1003 Z-0.0000 I-0.0000 J1.5000 K0.0000 F1999.8000
G1 X84.9544 Y81.3105 Z-0.0000 F1999.8000
G1 X85.2085 Y85.1020 Z3.8000 F1499.7000
G1 X86.5410 Y104.9774 Z3.8000 F1999.8000
G1 X86.7951 Y108.7689 Z-0.0000 F1499.7000
G1 X89.6187 Y150.8876 Z-0.0000 F1999.8000
G2 X118.0750 Y177.5000 Z-0.0000 I28.4386 J-1.8889 K0.0000 F1999.8000
G1 X176.2400 Y177.5000 Z-0.0000 F1999.8000
G1 X180.0400 Y177.5000 Z3.8000 F1499.7000
G1 X199.9600 Y177.5000 Z3.8000 F1999.8000
G1 X203.7600 Y177.5000 Z-0.0000 F1499.7000
G1 X261.9250 Y177.5000 Z-0.0000 F1999.8000
G2 X290.3813 Y150.8876 Z-0.0000 I0.0176 J-28.5013 K0.0000 F1999.8000
G1 X293.6332 Y102.3794 Z-0.0000 F1999.8000
G1 X293.8874 Y98.5879 Z3.8000 F1499.7000
G1 X295.2198 Y78.7125 Z3.8000 F1999.8000
G1 X295.4740 Y74.9211 Z-0.0000 F1499.7000
G1 X300.5034 Y-0.1003 Z-0.0000 F1999.8000
G3 X302.0000 Y-1.5000 Z-0.0000 I1.4966 J0.1003 K0.0000 F1999.8000
G1 X332.0000 Y-1.5000 Z-0.0000 F1999.8000
G3 X333.5000 Y0.0000 Z-0.0000 I-0.0000 J1.5000 K0.0000 F1999.8000
G1 X333.5000 Y127.0000 Z-0.0000 F1999.8000
G1 X333.0607 Y127.4393 Z-0.0000 F1999.8000
G1 X333.5000 Y127.0000 Z-0.0000 F1999.8000
G1 X348.5000 Y127.0000 Z-0.0000 F1999.8000
G1 X348.9393 Y127.4393 Z-0.0000 F1999.8000
G1 X348.5000 Y127.0000 Z-0.0000 F1999.8000
G1 X348.5000 Y77.2600 Z-0.0000 F1999.8000
G1 X348.5000 Y73.4600 Z3.8000 F1499.7000
G1 X348.5000 Y53.5400 Z3.8000 F1999.8000
G1 X348.5000 Y49.7400 Z-0.0000 F1499.7000
G1 X348.5000 Y0.0000 Z-0.0000 F1999.8000
G3 X350.0000 Y-1.5000 Z-0.0000 I1.5000 J0.0000 K0.0000 F1999.8000
G1 X380.0000 Y-1.5000 Z-0.0000 F1999.8000
G3 X381.5000 Y0.0000 Z-0.0000 I-0.0000 J1.5000 K0.0000 F1999.8000
G1 X381.5000 Y53.4000 Z-0.0000 F1999.8000
G1 X381.5000 Y57.2000 Z3.8000 F1499.7000
G1 X381.5000 Y77.1200 Z3.8000 F1999.8000
G1 X381.5000 Y80.9200 Z-0.0000 F1499.7000
G1 X381.5000 Y181.1100 Z-0.0000 F1999.8000
G1 X381.5000 Y184.9100 Z3.8000 F1499.7000
G1 X381.5000 Y204.8300 Z3.8000 F1999.8000
G1 X381.5000 Y208.6300 Z-0.0000 F1499.7000
G1 X381.5000 Y257.0000 Z-0.0000 F1999.8000
G3 X381.0607 Y258.0607 Z-0.0000 I-1.5000 J-0.0000 K0.0000 F1999.8000
G1 X381.0607 Y258.0607 Z-0.2000 F999.6000
G3 X380.0000 Y258.5000 Z-0.2000 I-1.0607 J-1.0607 K0.0000 F1999.8000
G1 X203.9600 Y258.5000 Z-0.2000 F1999.8000
G1 X199.9600 Y258.5000 Z3.8000 F1499.7000
G1 X180.0400 Y258.5000 Z3.8000 F1999.8000
G1 X176.0400 Y258.5000 Z-0.2000 F1499.7000
G1 X0.0000 Y258.5000 Z-0.2000 F1999.8000
G3 X-1.5000 Y257.0000 Z-0.2000 I0.0000 J-1.5000 K0.0000 F1999.8000
G1 X-1.5000 Y205.8300 Z-0.2000 F1999.8000
G1 X-1.5000 Y201.8300 Z3.8000 F1499.7000
G1 X-1.5000 Y181.9100 Z3.8000 F1999.8000
G1 X-1.5000 Y177.9100 Z-0.2000 F1499.7000
G1 X-1.5000 Y86.6800 Z-0.2000 F1999.8000
G1 X-1.5000 Y82.6800 Z3.8000 F1499.7000
G1 X-1.5000 Y62.7600 Z3.8000 F1999.8000
G1 X-1.5000 Y58.7600 Z-0.2000 F1499.7000
G1 X-1.5000 Y0.0000 Z-0.2000 F1999.8000
G3 X0.0000 Y-1.5000 Z-0.2000 I1.5000 J0.0000 K0.0000 F1999.8000
G1 X30.0000 Y-1.5000 Z-0.2000 F1999.8000
G3 X31.5000 Y0.0000 Z-0.2000 I-0.0000 J1.5000 K0.0000 F1999.8000
G1 X31.5000 Y49.5400 Z-0.2000 F1999.8000
G1 X31.5000 Y53.5400 Z3.8000 F1499.7000
G1 X31.5000 Y73.4600 Z3.8000 F1999.8000
G1 X31.5000 Y77.4600 Z-0.2000 F1499.7000
G1 X31.5000 Y127.0000 Z-0.2000 F1999.8000
G1 X31.0607 Y127.4393 Z-0.2000 F1999.8000
G1 X31.5000 Y127.0000 Z-0.2000 F1999.8000
G1 X46.5000 Y127.0000 Z-0.2000 F1999.8000
G1 X46.9393 Y127.4393 Z-0.2000 F1999.8000
G1 X46.5000 Y127.0000 Z-0.2000 F1999.8000
G1 X46.5000 Y0.0000 Z-0.2000 F1999.8000
G3 X48.0000 Y-1.5000 Z-0.2000 I1.5000 J0.0000 K0.0000 F1999.8000
G1 X78.0000 Y-1.5000 Z-0.2000 F1999.8000
G3 X79.4966 Y-0.1003 Z-0.2000 I-0.0000 J1.5000 K0.0000 F1999.8000
G1 X84.9410 Y81.1109 Z-0.2000 F1999.8000
G1 X85.2085 Y85.1020 Z3.8000 F1499.7000
G1 X86.5410 Y104.9774 Z3.8000 F1999.8000
G1 X86.8085 Y108.9684 Z-0.2000 F1499.7000
G1 X89.6187 Y150.8876 Z-0.2000 F1999.8000
G2 X118.0750 Y177.5000 Z-0.2000 I28.4386 J-1.8889 K0.0000 F1999.8000
G1 X176.0400 Y177.5000 Z-0.2000 F1999.8000
G1 X180.0400 Y177.5000 Z3.8000 F1499.7000
G1 X199.9600 Y177.5000 Z3.8000 F1999.8000
G1 X203.9600 Y177.5000 Z-0.2000 F1499.7000
G1 X261.9250 Y177.5000 Z-0.2000 F1999.8000
G2 X290.3813 Y150.8876 Z-0.2000 I0.0176 J-28.5013 K0.0000 F1999.8000
G1 X293.6198 Y102.5790 Z-0.2000 F1999.8000
G1 X293.8874 Y98.5879 Z3.8000 F1499.7000
G1 X295.2198 Y78.7125 Z3.8000 F1999.8000
G1 X295.4874 Y74.7215 Z-0.2000 F1499.7000
G1 X300.5034 Y-0.1003 Z-0.2000 F1999.8000
G3 X302.0000 Y-1.5000 Z-0.2000 I1.4966 J0.1003 K0.0000 F1999.8000
G1 X332.0000 Y-1.5000 Z-0.2000 F1999.8000
G3 X333.5000 Y0.0000 Z-0.2000 I-0.0000 J1.5000 K0.0000 F1999.8000
G1 X333.5000 Y127.0000 Z-0.2000 F1999.8000
G1 X333.0607 Y127.4393 Z-0.2000 F1999.8000
G1 X333.5000 Y127.0000 Z-0.2000 F1999.8000
G1 X348.5000 Y127.0000 Z-0.2000 F1999.8000
G1 X348.9393 Y127.4393 Z-0.2000 F1999.8000
G1 X348.5000 Y127.0000 Z-0.2000 F1999.8000
G1 X348.5000 Y77.4600 Z-0.2000 F1999.8000
G1 X348.5000 Y73.4600 Z3.8000 F1499.7000
G1 X348.5000 Y53.5400 Z3.8000 F1999.8000
G1 X348.5000 Y49.5400 Z-0.2000 F1499.7000
G1 X348.5000 Y0.0000 Z-0.2000 F1999.8000
G3 X350.0000 Y-1.5000 Z-0.2000 I1.5000 J0.0000 K0.0000 F1999.8000
G1 X380.0000 Y-1.5000 Z-0.2000 F1999.8000
G3 X381.5000 Y0.0000 Z-0.2000 I-0.0000 J1.5000 K0.0000 F1999.8000
G1 X381.5000 Y53.2000 Z-0.2000 F1999.8000
G1 X381.5000 Y57.2000 Z3.8000 F1499.7000
G1 X381.5000 Y77.1200 Z3.8000 F1999.8000
G1 X381.5000 Y81.1200 Z-0.2000 F1499.7000
G1 X381.5000 Y180.9100 Z-0.2000 F1999.8000
G1 X381.5000 Y184.9100 Z3.8000 F1499.7000
G1 X381.5000 Y204.8300 Z3.8000 F1999.8000
G1 X381.5000 Y208.8300 Z-0.2000 F1499.7000
G1 X381.5000 Y257.0000 Z-0.2000 F1999.8000
G3 X381.0607 Y258.0607 Z-0.2000 I-1.5000 J-0.0000 K0.0000 F1999.8000
G0 X381.0607 Y258.0607 Z23.0000
(Finish operation: DressupTag)
(Begin postamble)
M5
G17 G90
M2
