(Exported by FreeCAD)
(Post Processor: grbl_post)
(Output Time:2020-04-13 19:15:39.665090)
(Begin preamble)
G17 G90
G21
(Begin operation: Fixture)
(Path: Fixture)
G54
(Finish operation: Fixture)
(Begin operation: T6: 2FluteWoodMill001)
(Path: T6: 2FluteWoodMill001)
(T6: 2FluteWoodMill001)
(Begin toolchange)
(M6 T6.0)
M3 S12000.0
(Finish operation: T6: 2FluteWoodMill001)
(Begin operation: SeatTop_Holes_Helix)
(Path: SeatTop_Holes_Helix)
(Helix)
(helix cut operation)
G0 Z23.0000
G0 X39.0500 Y39.0000
G0 Z21.0000
G1 Z18.0000 F999.6000
G2 X38.9500 Y39.0000 Z17.7541 I-0.0500 J0.0000 F1999.8000
G2 X39.0500 Y39.0000 Z17.5081 I0.0500 J0.0000 F1999.8000
G2 X38.9500 Y39.0000 Z17.2622 I-0.0500 J0.0000 F1999.8000
G2 X39.0500 Y39.0000 Z17.0162 I0.0500 J0.0000 F1999.8000
G2 X38.9500 Y39.0000 Z16.7703 I-0.0500 J0.0000 F1999.8000
G2 X39.0500 Y39.0000 Z16.5243 I0.0500 J0.0000 F1999.8000
G2 X38.9500 Y39.0000 Z16.2784 I-0.0500 J0.0000 F1999.8000
G2 X39.0500 Y39.0000 Z16.0324 I0.0500 J0.0000 F1999.8000
G2 X38.9500 Y39.0000 Z15.7865 I-0.0500 J0.0000 F1999.8000
G2 X39.0500 Y39.0000 Z15.5405 I0.0500 J0.0000 F1999.8000
G2 X38.9500 Y39.0000 Z15.2946 I-0.0500 J0.0000 F1999.8000
G2 X39.0500 Y39.0000 Z15.0486 I0.0500 J0.0000 F1999.8000
G2 X38.9500 Y39.0000 Z14.8027 I-0.0500 J0.0000 F1999.8000
G2 X39.0500 Y39.0000 Z14.5568 I0.0500 J0.0000 F1999.8000
G2 X38.9500 Y39.0000 Z14.3108 I-0.0500 J0.0000 F1999.8000
G2 X39.0500 Y39.0000 Z14.0649 I0.0500 J0.0000 F1999.8000
G2 X38.9500 Y39.0000 Z13.8189 I-0.0500 J0.0000 F1999.8000
G2 X39.0500 Y39.0000 Z13.5730 I0.0500 J0.0000 F1999.8000
G2 X38.9500 Y39.0000 Z13.3270 I-0.0500 J0.0000 F1999.8000
G2 X39.0500 Y39.0000 Z13.0811 I0.0500 J0.0000 F1999.8000
G2 X38.9500 Y39.0000 Z12.8351 I-0.0500 J0.0000 F1999.8000
G2 X39.0500 Y39.0000 Z12.5892 I0.0500 J0.0000 F1999.8000
G2 X38.9500 Y39.0000 Z12.3432 I-0.0500 J0.0000 F1999.8000
G2 X39.0500 Y39.0000 Z12.0973 I0.0500 J0.0000 F1999.8000
G2 X38.9500 Y39.0000 Z11.8514 I-0.0500 J0.0000 F1999.8000
G2 X39.0500 Y39.0000 Z11.6054 I0.0500 J0.0000 F1999.8000
G2 X38.9500 Y39.0000 Z11.3595 I-0.0500 J0.0000 F1999.8000
G2 X39.0500 Y39.0000 Z11.1135 I0.0500 J0.0000 F1999.8000
G2 X38.9500 Y39.0000 Z10.8676 I-0.0500 J0.0000 F1999.8000
G2 X39.0500 Y39.0000 Z10.6216 I0.0500 J0.0000 F1999.8000
G2 X38.9500 Y39.0000 Z10.3757 I-0.0500 J0.0000 F1999.8000
G2 X39.0500 Y39.0000 Z10.1297 I0.0500 J0.0000 F1999.8000
G2 X38.9500 Y39.0000 Z9.8838 I-0.0500 J0.0000 F1999.8000
G2 X39.0500 Y39.0000 Z9.6378 I0.0500 J0.0000 F1999.8000
G2 X38.9500 Y39.0000 Z9.3919 I-0.0500 J0.0000 F1999.8000
G2 X39.0500 Y39.0000 Z9.1459 I0.0500 J0.0000 F1999.8000
G2 X38.9500 Y39.0000 Z8.9000 I-0.0500 J0.0000 F1999.8000
G2 X39.0500 Y39.0000 Z8.6541 I0.0500 J0.0000 F1999.8000
G2 X38.9500 Y39.0000 Z8.4081 I-0.0500 J0.0000 F1999.8000
G2 X39.0500 Y39.0000 Z8.1622 I0.0500 J0.0000 F1999.8000
G2 X38.9500 Y39.0000 Z7.9162 I-0.0500 J0.0000 F1999.8000
G2 X39.0500 Y39.0000 Z7.6703 I0.0500 J0.0000 F1999.8000
G2 X38.9500 Y39.0000 Z7.4243 I-0.0500 J0.0000 F1999.8000
G2 X39.0500 Y39.0000 Z7.1784 I0.0500 J0.0000 F1999.8000
G2 X38.9500 Y39.0000 Z6.9324 I-0.0500 J0.0000 F1999.8000
G2 X39.0500 Y39.0000 Z6.6865 I0.0500 J0.0000 F1999.8000
G2 X38.9500 Y39.0000 Z6.4405 I-0.0500 J0.0000 F1999.8000
G2 X39.0500 Y39.0000 Z6.1946 I0.0500 J0.0000 F1999.8000
G2 X38.9500 Y39.0000 Z5.9486 I-0.0500 J0.0000 F1999.8000
G2 X39.0500 Y39.0000 Z5.7027 I0.0500 J0.0000 F1999.8000
G2 X38.9500 Y39.0000 Z5.4568 I-0.0500 J0.0000 F1999.8000
G2 X39.0500 Y39.0000 Z5.2108 I0.0500 J0.0000 F1999.8000
G2 X38.9500 Y39.0000 Z4.9649 I-0.0500 J0.0000 F1999.8000
G2 X39.0500 Y39.0000 Z4.7189 I0.0500 J0.0000 F1999.8000
G2 X38.9500 Y39.0000 Z4.4730 I-0.0500 J0.0000 F1999.8000
G2 X39.0500 Y39.0000 Z4.2270 I0.0500 J0.0000 F1999.8000
G2 X38.9500 Y39.0000 Z3.9811 I-0.0500 J0.0000 F1999.8000
G2 X39.0500 Y39.0000 Z3.7351 I0.0500 J0.0000 F1999.8000
G2 X38.9500 Y39.0000 Z3.4892 I-0.0500 J0.0000 F1999.8000
G2 X39.0500 Y39.0000 Z3.2432 I0.0500 J0.0000 F1999.8000
G2 X38.9500 Y39.0000 Z2.9973 I-0.0500 J0.0000 F1999.8000
G2 X39.0500 Y39.0000 Z2.7514 I0.0500 J0.0000 F1999.8000
G2 X38.9500 Y39.0000 Z2.5054 I-0.0500 J0.0000 F1999.8000
G2 X39.0500 Y39.0000 Z2.2595 I0.0500 J0.0000 F1999.8000
G2 X38.9500 Y39.0000 Z2.0135 I-0.0500 J0.0000 F1999.8000
G2 X39.0500 Y39.0000 Z1.7676 I0.0500 J0.0000 F1999.8000
G2 X38.9500 Y39.0000 Z1.5216 I-0.0500 J0.0000 F1999.8000
G2 X39.0500 Y39.0000 Z1.2757 I0.0500 J0.0000 F1999.8000
G2 X38.9500 Y39.0000 Z1.0297 I-0.0500 J0.0000 F1999.8000
G2 X39.0500 Y39.0000 Z0.7838 I0.0500 J0.0000 F1999.8000
G2 X38.9500 Y39.0000 Z0.5378 I-0.0500 J0.0000 F1999.8000
G2 X39.0500 Y39.0000 Z0.2919 I0.0500 J0.0000 F1999.8000
G2 X38.9500 Y39.0000 Z0.0459 I-0.0500 J0.0000 F1999.8000
G2 X39.0500 Y39.0000 Z-0.2000 I0.0500 J0.0000 F1999.8000
G2 X38.9500 Y39.0000 Z-0.2000 I-0.0500 J0.0000 F1999.8000
G2 X39.0500 Y39.0000 Z-0.2000 I0.0500 J0.0000 F1999.8000
G0 Z21.0000
G0 X190.0500 Y39.0000
G0 Z21.0000
G1 Z18.0000 F999.6000
G2 X189.9500 Y39.0000 Z17.7541 I-0.0500 J0.0000 F1999.8000
G2 X190.0500 Y39.0000 Z17.5081 I0.0500 J0.0000 F1999.8000
G2 X189.9500 Y39.0000 Z17.2622 I-0.0500 J0.0000 F1999.8000
G2 X190.0500 Y39.0000 Z17.0162 I0.0500 J0.0000 F1999.8000
G2 X189.9500 Y39.0000 Z16.7703 I-0.0500 J0.0000 F1999.8000
G2 X190.0500 Y39.0000 Z16.5243 I0.0500 J0.0000 F1999.8000
G2 X189.9500 Y39.0000 Z16.2784 I-0.0500 J0.0000 F1999.8000
G2 X190.0500 Y39.0000 Z16.0324 I0.0500 J0.0000 F1999.8000
G2 X189.9500 Y39.0000 Z15.7865 I-0.0500 J0.0000 F1999.8000
G2 X190.0500 Y39.0000 Z15.5405 I0.0500 J0.0000 F1999.8000
G2 X189.9500 Y39.0000 Z15.2946 I-0.0500 J0.0000 F1999.8000
G2 X190.0500 Y39.0000 Z15.0486 I0.0500 J0.0000 F1999.8000
G2 X189.9500 Y39.0000 Z14.8027 I-0.0500 J0.0000 F1999.8000
G2 X190.0500 Y39.0000 Z14.5568 I0.0500 J0.0000 F1999.8000
G2 X189.9500 Y39.0000 Z14.3108 I-0.0500 J0.0000 F1999.8000
G2 X190.0500 Y39.0000 Z14.0649 I0.0500 J0.0000 F1999.8000
G2 X189.9500 Y39.0000 Z13.8189 I-0.0500 J0.0000 F1999.8000
G2 X190.0500 Y39.0000 Z13.5730 I0.0500 J0.0000 F1999.8000
G2 X189.9500 Y39.0000 Z13.3270 I-0.0500 J0.0000 F1999.8000
G2 X190.0500 Y39.0000 Z13.0811 I0.0500 J0.0000 F1999.8000
G2 X189.9500 Y39.0000 Z12.8351 I-0.0500 J0.0000 F1999.8000
G2 X190.0500 Y39.0000 Z12.5892 I0.0500 J0.0000 F1999.8000
G2 X189.9500 Y39.0000 Z12.3432 I-0.0500 J0.0000 F1999.8000
G2 X190.0500 Y39.0000 Z12.0973 I0.0500 J0.0000 F1999.8000
G2 X189.9500 Y39.0000 Z11.8514 I-0.0500 J0.0000 F1999.8000
G2 X190.0500 Y39.0000 Z11.6054 I0.0500 J0.0000 F1999.8000
G2 X189.9500 Y39.0000 Z11.3595 I-0.0500 J0.0000 F1999.8000
G2 X190.0500 Y39.0000 Z11.1135 I0.0500 J0.0000 F1999.8000
G2 X189.9500 Y39.0000 Z10.8676 I-0.0500 J0.0000 F1999.8000
G2 X190.0500 Y39.0000 Z10.6216 I0.0500 J0.0000 F1999.8000
G2 X189.9500 Y39.0000 Z10.3757 I-0.0500 J0.0000 F1999.8000
G2 X190.0500 Y39.0000 Z10.1297 I0.0500 J0.0000 F1999.8000
G2 X189.9500 Y39.0000 Z9.8838 I-0.0500 J0.0000 F1999.8000
G2 X190.0500 Y39.0000 Z9.6378 I0.0500 J0.0000 F1999.8000
G2 X189.9500 Y39.0000 Z9.3919 I-0.0500 J0.0000 F1999.8000
G2 X190.0500 Y39.0000 Z9.1459 I0.0500 J0.0000 F1999.8000
G2 X189.9500 Y39.0000 Z8.9000 I-0.0500 J0.0000 F1999.8000
G2 X190.0500 Y39.0000 Z8.6541 I0.0500 J0.0000 F1999.8000
G2 X189.9500 Y39.0000 Z8.4081 I-0.0500 J0.0000 F1999.8000
G2 X190.0500 Y39.0000 Z8.1622 I0.0500 J0.0000 F1999.8000
G2 X189.9500 Y39.0000 Z7.9162 I-0.0500 J0.0000 F1999.8000
G2 X190.0500 Y39.0000 Z7.6703 I0.0500 J0.0000 F1999.8000
G2 X189.9500 Y39.0000 Z7.4243 I-0.0500 J0.0000 F1999.8000
G2 X190.0500 Y39.0000 Z7.1784 I0.0500 J0.0000 F1999.8000
G2 X189.9500 Y39.0000 Z6.9324 I-0.0500 J0.0000 F1999.8000
G2 X190.0500 Y39.0000 Z6.6865 I0.0500 J0.0000 F1999.8000
G2 X189.9500 Y39.0000 Z6.4405 I-0.0500 J0.0000 F1999.8000
G2 X190.0500 Y39.0000 Z6.1946 I0.0500 J0.0000 F1999.8000
G2 X189.9500 Y39.0000 Z5.9486 I-0.0500 J0.0000 F1999.8000
G2 X190.0500 Y39.0000 Z5.7027 I0.0500 J0.0000 F1999.8000
G2 X189.9500 Y39.0000 Z5.4568 I-0.0500 J0.0000 F1999.8000
G2 X190.0500 Y39.0000 Z5.2108 I0.0500 J0.0000 F1999.8000
G2 X189.9500 Y39.0000 Z4.9649 I-0.0500 J0.0000 F1999.8000
G2 X190.0500 Y39.0000 Z4.7189 I0.0500 J0.0000 F1999.8000
G2 X189.9500 Y39.0000 Z4.4730 I-0.0500 J0.0000 F1999.8000
G2 X190.0500 Y39.0000 Z4.2270 I0.0500 J0.0000 F1999.8000
G2 X189.9500 Y39.0000 Z3.9811 I-0.0500 J0.0000 F1999.8000
G2 X190.0500 Y39.0000 Z3.7351 I0.0500 J0.0000 F1999.8000
G2 X189.9500 Y39.0000 Z3.4892 I-0.0500 J0.0000 F1999.8000
G2 X190.0500 Y39.0000 Z3.2432 I0.0500 J0.0000 F1999.8000
G2 X189.9500 Y39.0000 Z2.9973 I-0.0500 J0.0000 F1999.8000
G2 X190.0500 Y39.0000 Z2.7514 I0.0500 J0.0000 F1999.8000
G2 X189.9500 Y39.0000 Z2.5054 I-0.0500 J0.0000 F1999.8000
G2 X190.0500 Y39.0000 Z2.2595 I0.0500 J0.0000 F1999.8000
G2 X189.9500 Y39.0000 Z2.0135 I-0.0500 J0.0000 F1999.8000
G2 X190.0500 Y39.0000 Z1.7676 I0.0500 J0.0000 F1999.8000
G2 X189.9500 Y39.0000 Z1.5216 I-0.0500 J0.0000 F1999.8000
G2 X190.0500 Y39.0000 Z1.2757 I0.0500 J0.0000 F1999.8000
G2 X189.9500 Y39.0000 Z1.0297 I-0.0500 J0.0000 F1999.8000
G2 X190.0500 Y39.0000 Z0.7838 I0.0500 J0.0000 F1999.8000
G2 X189.9500 Y39.0000 Z0.5378 I-0.0500 J0.0000 F1999.8000
G2 X190.0500 Y39.0000 Z0.2919 I0.0500 J0.0000 F1999.8000
G2 X189.9500 Y39.0000 Z0.0459 I-0.0500 J0.0000 F1999.8000
G2 X190.0500 Y39.0000 Z-0.2000 I0.0500 J0.0000 F1999.8000
G2 X189.9500 Y39.0000 Z-0.2000 I-0.0500 J0.0000 F1999.8000
G2 X190.0500 Y39.0000 Z-0.2000 I0.0500 J0.0000 F1999.8000
G0 Z21.0000
G0 X341.0500 Y39.0000
G0 Z21.0000
G1 Z18.0000 F999.6000
G2 X340.9500 Y39.0000 Z17.7541 I-0.0500 J0.0000 F1999.8000
G2 X341.0500 Y39.0000 Z17.5081 I0.0500 J0.0000 F1999.8000
G2 X340.9500 Y39.0000 Z17.2622 I-0.0500 J0.0000 F1999.8000
G2 X341.0500 Y39.0000 Z17.0162 I0.0500 J0.0000 F1999.8000
G2 X340.9500 Y39.0000 Z16.7703 I-0.0500 J0.0000 F1999.8000
G2 X341.0500 Y39.0000 Z16.5243 I0.0500 J0.0000 F1999.8000
G2 X340.9500 Y39.0000 Z16.2784 I-0.0500 J0.0000 F1999.8000
G2 X341.0500 Y39.0000 Z16.0324 I0.0500 J0.0000 F1999.8000
G2 X340.9500 Y39.0000 Z15.7865 I-0.0500 J0.0000 F1999.8000
G2 X341.0500 Y39.0000 Z15.5405 I0.0500 J0.0000 F1999.8000
G2 X340.9500 Y39.0000 Z15.2946 I-0.0500 J0.0000 F1999.8000
G2 X341.0500 Y39.0000 Z15.0486 I0.0500 J0.0000 F1999.8000
G2 X340.9500 Y39.0000 Z14.8027 I-0.0500 J0.0000 F1999.8000
G2 X341.0500 Y39.0000 Z14.5568 I0.0500 J0.0000 F1999.8000
G2 X340.9500 Y39.0000 Z14.3108 I-0.0500 J0.0000 F1999.8000
G2 X341.0500 Y39.0000 Z14.0649 I0.0500 J0.0000 F1999.8000
G2 X340.9500 Y39.0000 Z13.8189 I-0.0500 J0.0000 F1999.8000
G2 X341.0500 Y39.0000 Z13.5730 I0.0500 J0.0000 F1999.8000
G2 X340.9500 Y39.0000 Z13.3270 I-0.0500 J0.0000 F1999.8000
G2 X341.0500 Y39.0000 Z13.0811 I0.0500 J0.0000 F1999.8000
G2 X340.9500 Y39.0000 Z12.8351 I-0.0500 J0.0000 F1999.8000
G2 X341.0500 Y39.0000 Z12.5892 I0.0500 J0.0000 F1999.8000
G2 X340.9500 Y39.0000 Z12.3432 I-0.0500 J0.0000 F1999.8000
G2 X341.0500 Y39.0000 Z12.0973 I0.0500 J0.0000 F1999.8000
G2 X340.9500 Y39.0000 Z11.8514 I-0.0500 J0.0000 F1999.8000
G2 X341.0500 Y39.0000 Z11.6054 I0.0500 J0.0000 F1999.8000
G2 X340.9500 Y39.0000 Z11.3595 I-0.0500 J0.0000 F1999.8000
G2 X341.0500 Y39.0000 Z11.1135 I0.0500 J0.0000 F1999.8000
G2 X340.9500 Y39.0000 Z10.8676 I-0.0500 J0.0000 F1999.8000
G2 X341.0500 Y39.0000 Z10.6216 I0.0500 J0.0000 F1999.8000
G2 X340.9500 Y39.0000 Z10.3757 I-0.0500 J0.0000 F1999.8000
G2 X341.0500 Y39.0000 Z10.1297 I0.0500 J0.0000 F1999.8000
G2 X340.9500 Y39.0000 Z9.8838 I-0.0500 J0.0000 F1999.8000
G2 X341.0500 Y39.0000 Z9.6378 I0.0500 J0.0000 F1999.8000
G2 X340.9500 Y39.0000 Z9.3919 I-0.0500 J0.0000 F1999.8000
G2 X341.0500 Y39.0000 Z9.1459 I0.0500 J0.0000 F1999.8000
G2 X340.9500 Y39.0000 Z8.9000 I-0.0500 J0.0000 F1999.8000
G2 X341.0500 Y39.0000 Z8.6541 I0.0500 J0.0000 F1999.8000
G2 X340.9500 Y39.0000 Z8.4081 I-0.0500 J0.0000 F1999.8000
G2 X341.0500 Y39.0000 Z8.1622 I0.0500 J0.0000 F1999.8000
G2 X340.9500 Y39.0000 Z7.9162 I-0.0500 J0.0000 F1999.8000
G2 X341.0500 Y39.0000 Z7.6703 I0.0500 J0.0000 F1999.8000
G2 X340.9500 Y39.0000 Z7.4243 I-0.0500 J0.0000 F1999.8000
G2 X341.0500 Y39.0000 Z7.1784 I0.0500 J0.0000 F1999.8000
G2 X340.9500 Y39.0000 Z6.9324 I-0.0500 J0.0000 F1999.8000
G2 X341.0500 Y39.0000 Z6.6865 I0.0500 J0.0000 F1999.8000
G2 X340.9500 Y39.0000 Z6.4405 I-0.0500 J0.0000 F1999.8000
G2 X341.0500 Y39.0000 Z6.1946 I0.0500 J0.0000 F1999.8000
G2 X340.9500 Y39.0000 Z5.9486 I-0.0500 J0.0000 F1999.8000
G2 X341.0500 Y39.0000 Z5.7027 I0.0500 J0.0000 F1999.8000
G2 X340.9500 Y39.0000 Z5.4568 I-0.0500 J0.0000 F1999.8000
G2 X341.0500 Y39.0000 Z5.2108 I0.0500 J0.0000 F1999.8000
G2 X340.9500 Y39.0000 Z4.9649 I-0.0500 J0.0000 F1999.8000
G2 X341.0500 Y39.0000 Z4.7189 I0.0500 J0.0000 F1999.8000
G2 X340.9500 Y39.0000 Z4.4730 I-0.0500 J0.0000 F1999.8000
G2 X341.0500 Y39.0000 Z4.2270 I0.0500 J0.0000 F1999.8000
G2 X340.9500 Y39.0000 Z3.9811 I-0.0500 J0.0000 F1999.8000
G2 X341.0500 Y39.0000 Z3.7351 I0.0500 J0.0000 F1999.8000
G2 X340.9500 Y39.0000 Z3.4892 I-0.0500 J0.0000 F1999.8000
G2 X341.0500 Y39.0000 Z3.2432 I0.0500 J0.0000 F1999.8000
G2 X340.9500 Y39.0000 Z2.9973 I-0.0500 J0.0000 F1999.8000
G2 X341.0500 Y39.0000 Z2.7514 I0.0500 J0.0000 F1999.8000
G2 X340.9500 Y39.0000 Z2.5054 I-0.0500 J0.0000 F1999.8000
G2 X341.0500 Y39.0000 Z2.2595 I0.0500 J0.0000 F1999.8000
G2 X340.9500 Y39.0000 Z2.0135 I-0.0500 J0.0000 F1999.8000
G2 X341.0500 Y39.0000 Z1.7676 I0.0500 J0.0000 F1999.8000
G2 X340.9500 Y39.0000 Z1.5216 I-0.0500 J0.0000 F1999.8000
G2 X341.0500 Y39.0000 Z1.2757 I0.0500 J0.0000 F1999.8000
G2 X340.9500 Y39.0000 Z1.0297 I-0.0500 J0.0000 F1999.8000
G2 X341.0500 Y39.0000 Z0.7838 I0.0500 J0.0000 F1999.8000
G2 X340.9500 Y39.0000 Z0.5378 I-0.0500 J0.0000 F1999.8000
G2 X341.0500 Y39.0000 Z0.2919 I0.0500 J0.0000 F1999.8000
G2 X340.9500 Y39.0000 Z0.0459 I-0.0500 J0.0000 F1999.8000
G2 X341.0500 Y39.0000 Z-0.2000 I0.0500 J0.0000 F1999.8000
G2 X340.9500 Y39.0000 Z-0.2000 I-0.0500 J0.0000 F1999.8000
G2 X341.0500 Y39.0000 Z-0.2000 I0.0500 J0.0000 F1999.8000
G0 Z21.0000
G0 X341.0500 Y211.0000
G0 Z21.0000
G1 Z18.0000 F999.6000
G2 X340.9500 Y211.0000 Z17.7541 I-0.0500 J0.0000 F1999.8000
G2 X341.0500 Y211.0000 Z17.5081 I0.0500 J0.0000 F1999.8000
G2 X340.9500 Y211.0000 Z17.2622 I-0.0500 J0.0000 F1999.8000
G2 X341.0500 Y211.0000 Z17.0162 I0.0500 J0.0000 F1999.8000
G2 X340.9500 Y211.0000 Z16.7703 I-0.0500 J0.0000 F1999.8000
G2 X341.0500 Y211.0000 Z16.5243 I0.0500 J0.0000 F1999.8000
G2 X340.9500 Y211.0000 Z16.2784 I-0.0500 J0.0000 F1999.8000
G2 X341.0500 Y211.0000 Z16.0324 I0.0500 J0.0000 F1999.8000
G2 X340.9500 Y211.0000 Z15.7865 I-0.0500 J0.0000 F1999.8000
G2 X341.0500 Y211.0000 Z15.5405 I0.0500 J0.0000 F1999.8000
G2 X340.9500 Y211.0000 Z15.2946 I-0.0500 J0.0000 F1999.8000
G2 X341.0500 Y211.0000 Z15.0486 I0.0500 J0.0000 F1999.8000
G2 X340.9500 Y211.0000 Z14.8027 I-0.0500 J0.0000 F1999.8000
G2 X341.0500 Y211.0000 Z14.5568 I0.0500 J0.0000 F1999.8000
G2 X340.9500 Y211.0000 Z14.3108 I-0.0500 J0.0000 F1999.8000
G2 X341.0500 Y211.0000 Z14.0649 I0.0500 J0.0000 F1999.8000
G2 X340.9500 Y211.0000 Z13.8189 I-0.0500 J0.0000 F1999.8000
G2 X341.0500 Y211.0000 Z13.5730 I0.0500 J0.0000 F1999.8000
G2 X340.9500 Y211.0000 Z13.3270 I-0.0500 J0.0000 F1999.8000
G2 X341.0500 Y211.0000 Z13.0811 I0.0500 J0.0000 F1999.8000
G2 X340.9500 Y211.0000 Z12.8351 I-0.0500 J0.0000 F1999.8000
G2 X341.0500 Y211.0000 Z12.5892 I0.0500 J0.0000 F1999.8000
G2 X340.9500 Y211.0000 Z12.3432 I-0.0500 J0.0000 F1999.8000
G2 X341.0500 Y211.0000 Z12.0973 I0.0500 J0.0000 F1999.8000
G2 X340.9500 Y211.0000 Z11.8514 I-0.0500 J0.0000 F1999.8000
G2 X341.0500 Y211.0000 Z11.6054 I0.0500 J0.0000 F1999.8000
G2 X340.9500 Y211.0000 Z11.3595 I-0.0500 J0.0000 F1999.8000
G2 X341.0500 Y211.0000 Z11.1135 I0.0500 J0.0000 F1999.8000
G2 X340.9500 Y211.0000 Z10.8676 I-0.0500 J0.0000 F1999.8000
G2 X341.0500 Y211.0000 Z10.6216 I0.0500 J0.0000 F1999.8000
G2 X340.9500 Y211.0000 Z10.3757 I-0.0500 J0.0000 F1999.8000
G2 X341.0500 Y211.0000 Z10.1297 I0.0500 J0.0000 F1999.8000
G2 X340.9500 Y211.0000 Z9.8838 I-0.0500 J0.0000 F1999.8000
G2 X341.0500 Y211.0000 Z9.6378 I0.0500 J0.0000 F1999.8000
G2 X340.9500 Y211.0000 Z9.3919 I-0.0500 J0.0000 F1999.8000
G2 X341.0500 Y211.0000 Z9.1459 I0.0500 J0.0000 F1999.8000
G2 X340.9500 Y211.0000 Z8.9000 I-0.0500 J0.0000 F1999.8000
G2 X341.0500 Y211.0000 Z8.6541 I0.0500 J0.0000 F1999.8000
G2 X340.9500 Y211.0000 Z8.4081 I-0.0500 J0.0000 F1999.8000
G2 X341.0500 Y211.0000 Z8.1622 I0.0500 J0.0000 F1999.8000
G2 X340.9500 Y211.0000 Z7.9162 I-0.0500 J0.0000 F1999.8000
G2 X341.0500 Y211.0000 Z7.6703 I0.0500 J0.0000 F1999.8000
G2 X340.9500 Y211.0000 Z7.4243 I-0.0500 J0.0000 F1999.8000
G2 X341.0500 Y211.0000 Z7.1784 I0.0500 J0.0000 F1999.8000
G2 X340.9500 Y211.0000 Z6.9324 I-0.0500 J0.0000 F1999.8000
G2 X341.0500 Y211.0000 Z6.6865 I0.0500 J0.0000 F1999.8000
G2 X340.9500 Y211.0000 Z6.4405 I-0.0500 J0.0000 F1999.8000
G2 X341.0500 Y211.0000 Z6.1946 I0.0500 J0.0000 F1999.8000
G2 X340.9500 Y211.0000 Z5.9486 I-0.0500 J0.0000 F1999.8000
G2 X341.0500 Y211.0000 Z5.7027 I0.0500 J0.0000 F1999.8000
G2 X340.9500 Y211.0000 Z5.4568 I-0.0500 J0.0000 F1999.8000
G2 X341.0500 Y211.0000 Z5.2108 I0.0500 J0.0000 F1999.8000
G2 X340.9500 Y211.0000 Z4.9649 I-0.0500 J0.0000 F1999.8000
G2 X341.0500 Y211.0000 Z4.7189 I0.0500 J0.0000 F1999.8000
G2 X340.9500 Y211.0000 Z4.4730 I-0.0500 J0.0000 F1999.8000
G2 X341.0500 Y211.0000 Z4.2270 I0.0500 J0.0000 F1999.8000
G2 X340.9500 Y211.0000 Z3.9811 I-0.0500 J0.0000 F1999.8000
G2 X341.0500 Y211.0000 Z3.7351 I0.0500 J0.0000 F1999.8000
G2 X340.9500 Y211.0000 Z3.4892 I-0.0500 J0.0000 F1999.8000
G2 X341.0500 Y211.0000 Z3.2432 I0.0500 J0.0000 F1999.8000
G2 X340.9500 Y211.0000 Z2.9973 I-0.0500 J0.0000 F1999.8000
G2 X341.0500 Y211.0000 Z2.7514 I0.0500 J0.0000 F1999.8000
G2 X340.9500 Y211.0000 Z2.5054 I-0.0500 J0.0000 F1999.8000
G2 X341.0500 Y211.0000 Z2.2595 I0.0500 J0.0000 F1999.8000
G2 X340.9500 Y211.0000 Z2.0135 I-0.0500 J0.0000 F1999.8000
G2 X341.0500 Y211.0000 Z1.7676 I0.0500 J0.0000 F1999.8000
G2 X340.9500 Y211.0000 Z1.5216 I-0.0500 J0.0000 F1999.8000
G2 X341.0500 Y211.0000 Z1.2757 I0.0500 J0.0000 F1999.8000
G2 X340.9500 Y211.0000 Z1.0297 I-0.0500 J0.0000 F1999.8000
G2 X341.0500 Y211.0000 Z0.7838 I0.0500 J0.0000 F1999.8000
G2 X340.9500 Y211.0000 Z0.5378 I-0.0500 J0.0000 F1999.8000
G2 X341.0500 Y211.0000 Z0.2919 I0.0500 J0.0000 F1999.8000
G2 X340.9500 Y211.0000 Z0.0459 I-0.0500 J0.0000 F1999.8000
G2 X341.0500 Y211.0000 Z-0.2000 I0.0500 J0.0000 F1999.8000
G2 X340.9500 Y211.0000 Z-0.2000 I-0.0500 J0.0000 F1999.8000
G2 X341.0500 Y211.0000 Z-0.2000 I0.0500 J0.0000 F1999.8000
G0 Z21.0000
G0 X190.0500 Y211.0000
G0 Z21.0000
G1 Z18.0000 F999.6000
G2 X189.9500 Y211.0000 Z17.7541 I-0.0500 J0.0000 F1999.8000
G2 X190.0500 Y211.0000 Z17.5081 I0.0500 J0.0000 F1999.8000
G2 X189.9500 Y211.0000 Z17.2622 I-0.0500 J0.0000 F1999.8000
G2 X190.0500 Y211.0000 Z17.0162 I0.0500 J0.0000 F1999.8000
G2 X189.9500 Y211.0000 Z16.7703 I-0.0500 J0.0000 F1999.8000
G2 X190.0500 Y211.0000 Z16.5243 I0.0500 J0.0000 F1999.8000
G2 X189.9500 Y211.0000 Z16.2784 I-0.0500 J0.0000 F1999.8000
G2 X190.0500 Y211.0000 Z16.0324 I0.0500 J0.0000 F1999.8000
G2 X189.9500 Y211.0000 Z15.7865 I-0.0500 J0.0000 F1999.8000
G2 X190.0500 Y211.0000 Z15.5405 I0.0500 J0.0000 F1999.8000
G2 X189.9500 Y211.0000 Z15.2946 I-0.0500 J0.0000 F1999.8000
G2 X190.0500 Y211.0000 Z15.0486 I0.0500 J0.0000 F1999.8000
G2 X189.9500 Y211.0000 Z14.8027 I-0.0500 J0.0000 F1999.8000
G2 X190.0500 Y211.0000 Z14.5568 I0.0500 J0.0000 F1999.8000
G2 X189.9500 Y211.0000 Z14.3108 I-0.0500 J0.0000 F1999.8000
G2 X190.0500 Y211.0000 Z14.0649 I0.0500 J0.0000 F1999.8000
G2 X189.9500 Y211.0000 Z13.8189 I-0.0500 J0.0000 F1999.8000
G2 X190.0500 Y211.0000 Z13.5730 I0.0500 J0.0000 F1999.8000
G2 X189.9500 Y211.0000 Z13.3270 I-0.0500 J0.0000 F1999.8000
G2 X190.0500 Y211.0000 Z13.0811 I0.0500 J0.0000 F1999.8000
G2 X189.9500 Y211.0000 Z12.8351 I-0.0500 J0.0000 F1999.8000
G2 X190.0500 Y211.0000 Z12.5892 I0.0500 J0.0000 F1999.8000
G2 X189.9500 Y211.0000 Z12.3432 I-0.0500 J0.0000 F1999.8000
G2 X190.0500 Y211.0000 Z12.0973 I0.0500 J0.0000 F1999.8000
G2 X189.9500 Y211.0000 Z11.8514 I-0.0500 J0.0000 F1999.8000
G2 X190.0500 Y211.0000 Z11.6054 I0.0500 J0.0000 F1999.8000
G2 X189.9500 Y211.0000 Z11.3595 I-0.0500 J0.0000 F1999.8000
G2 X190.0500 Y211.0000 Z11.1135 I0.0500 J0.0000 F1999.8000
G2 X189.9500 Y211.0000 Z10.8676 I-0.0500 J0.0000 F1999.8000
G2 X190.0500 Y211.0000 Z10.6216 I0.0500 J0.0000 F1999.8000
G2 X189.9500 Y211.0000 Z10.3757 I-0.0500 J0.0000 F1999.8000
G2 X190.0500 Y211.0000 Z10.1297 I0.0500 J0.0000 F1999.8000
G2 X189.9500 Y211.0000 Z9.8838 I-0.0500 J0.0000 F1999.8000
G2 X190.0500 Y211.0000 Z9.6378 I0.0500 J0.0000 F1999.8000
G2 X189.9500 Y211.0000 Z9.3919 I-0.0500 J0.0000 F1999.8000
G2 X190.0500 Y211.0000 Z9.1459 I0.0500 J0.0000 F1999.8000
G2 X189.9500 Y211.0000 Z8.9000 I-0.0500 J0.0000 F1999.8000
G2 X190.0500 Y211.0000 Z8.6541 I0.0500 J0.0000 F1999.8000
G2 X189.9500 Y211.0000 Z8.4081 I-0.0500 J0.0000 F1999.8000
G2 X190.0500 Y211.0000 Z8.1622 I0.0500 J0.0000 F1999.8000
G2 X189.9500 Y211.0000 Z7.9162 I-0.0500 J0.0000 F1999.8000
G2 X190.0500 Y211.0000 Z7.6703 I0.0500 J0.0000 F1999.8000
G2 X189.9500 Y211.0000 Z7.4243 I-0.0500 J0.0000 F1999.8000
G2 X190.0500 Y211.0000 Z7.1784 I0.0500 J0.0000 F1999.8000
G2 X189.9500 Y211.0000 Z6.9324 I-0.0500 J0.0000 F1999.8000
G2 X190.0500 Y211.0000 Z6.6865 I0.0500 J0.0000 F1999.8000
G2 X189.9500 Y211.0000 Z6.4405 I-0.0500 J0.0000 F1999.8000
G2 X190.0500 Y211.0000 Z6.1946 I0.0500 J0.0000 F1999.8000
G2 X189.9500 Y211.0000 Z5.9486 I-0.0500 J0.0000 F1999.8000
G2 X190.0500 Y211.0000 Z5.7027 I0.0500 J0.0000 F1999.8000
G2 X189.9500 Y211.0000 Z5.4568 I-0.0500 J0.0000 F1999.8000
G2 X190.0500 Y211.0000 Z5.2108 I0.0500 J0.0000 F1999.8000
G2 X189.9500 Y211.0000 Z4.9649 I-0.0500 J0.0000 F1999.8000
G2 X190.0500 Y211.0000 Z4.7189 I0.0500 J0.0000 F1999.8000
G2 X189.9500 Y211.0000 Z4.4730 I-0.0500 J0.0000 F1999.8000
G2 X190.0500 Y211.0000 Z4.2270 I0.0500 J0.0000 F1999.8000
G2 X189.9500 Y211.0000 Z3.9811 I-0.0500 J0.0000 F1999.8000
G2 X190.0500 Y211.0000 Z3.7351 I0.0500 J0.0000 F1999.8000
G2 X189.9500 Y211.0000 Z3.4892 I-0.0500 J0.0000 F1999.8000
G2 X190.0500 Y211.0000 Z3.2432 I0.0500 J0.0000 F1999.8000
G2 X189.9500 Y211.0000 Z2.9973 I-0.0500 J0.0000 F1999.8000
G2 X190.0500 Y211.0000 Z2.7514 I0.0500 J0.0000 F1999.8000
G2 X189.9500 Y211.0000 Z2.5054 I-0.0500 J0.0000 F1999.8000
G2 X190.0500 Y211.0000 Z2.2595 I0.0500 J0.0000 F1999.8000
G2 X189.9500 Y211.0000 Z2.0135 I-0.0500 J0.0000 F1999.8000
G2 X190.0500 Y211.0000 Z1.7676 I0.0500 J0.0000 F1999.8000
G2 X189.9500 Y211.0000 Z1.5216 I-0.0500 J0.0000 F1999.8000
G2 X190.0500 Y211.0000 Z1.2757 I0.0500 J0.0000 F1999.8000
G2 X189.9500 Y211.0000 Z1.0297 I-0.0500 J0.0000 F1999.8000
G2 X190.0500 Y211.0000 Z0.7838 I0.0500 J0.0000 F1999.8000
G2 X189.9500 Y211.0000 Z0.5378 I-0.0500 J0.0000 F1999.8000
G2 X190.0500 Y211.0000 Z0.2919 I0.0500 J0.0000 F1999.8000
G2 X189.9500 Y211.0000 Z0.0459 I-0.0500 J0.0000 F1999.8000
G2 X190.0500 Y211.0000 Z-0.2000 I0.0500 J0.0000 F1999.8000
G2 X189.9500 Y211.0000 Z-0.2000 I-0.0500 J0.0000 F1999.8000
G2 X190.0500 Y211.0000 Z-0.2000 I0.0500 J0.0000 F1999.8000
G0 Z21.0000
G0 X39.0500 Y211.0000
G0 Z21.0000
G1 Z18.0000 F999.6000
G2 X38.9500 Y211.0000 Z17.7541 I-0.0500 J0.0000 F1999.8000
G2 X39.0500 Y211.0000 Z17.5081 I0.0500 J0.0000 F1999.8000
G2 X38.9500 Y211.0000 Z17.2622 I-0.0500 J0.0000 F1999.8000
G2 X39.0500 Y211.0000 Z17.0162 I0.0500 J0.0000 F1999.8000
G2 X38.9500 Y211.0000 Z16.7703 I-0.0500 J0.0000 F1999.8000
G2 X39.0500 Y211.0000 Z16.5243 I0.0500 J0.0000 F1999.8000
G2 X38.9500 Y211.0000 Z16.2784 I-0.0500 J0.0000 F1999.8000
G2 X39.0500 Y211.0000 Z16.0324 I0.0500 J0.0000 F1999.8000
G2 X38.9500 Y211.0000 Z15.7865 I-0.0500 J0.0000 F1999.8000
G2 X39.0500 Y211.0000 Z15.5405 I0.0500 J0.0000 F1999.8000
G2 X38.9500 Y211.0000 Z15.2946 I-0.0500 J0.0000 F1999.8000
G2 X39.0500 Y211.0000 Z15.0486 I0.0500 J0.0000 F1999.8000
G2 X38.9500 Y211.0000 Z14.8027 I-0.0500 J0.0000 F1999.8000
G2 X39.0500 Y211.0000 Z14.5568 I0.0500 J0.0000 F1999.8000
G2 X38.9500 Y211.0000 Z14.3108 I-0.0500 J0.0000 F1999.8000
G2 X39.0500 Y211.0000 Z14.0649 I0.0500 J0.0000 F1999.8000
G2 X38.9500 Y211.0000 Z13.8189 I-0.0500 J0.0000 F1999.8000
G2 X39.0500 Y211.0000 Z13.5730 I0.0500 J0.0000 F1999.8000
G2 X38.9500 Y211.0000 Z13.3270 I-0.0500 J0.0000 F1999.8000
G2 X39.0500 Y211.0000 Z13.0811 I0.0500 J0.0000 F1999.8000
G2 X38.9500 Y211.0000 Z12.8351 I-0.0500 J0.0000 F1999.8000
G2 X39.0500 Y211.0000 Z12.5892 I0.0500 J0.0000 F1999.8000
G2 X38.9500 Y211.0000 Z12.3432 I-0.0500 J0.0000 F1999.8000
G2 X39.0500 Y211.0000 Z12.0973 I0.0500 J0.0000 F1999.8000
G2 X38.9500 Y211.0000 Z11.8514 I-0.0500 J0.0000 F1999.8000
G2 X39.0500 Y211.0000 Z11.6054 I0.0500 J0.0000 F1999.8000
G2 X38.9500 Y211.0000 Z11.3595 I-0.0500 J0.0000 F1999.8000
G2 X39.0500 Y211.0000 Z11.1135 I0.0500 J0.0000 F1999.8000
G2 X38.9500 Y211.0000 Z10.8676 I-0.0500 J0.0000 F1999.8000
G2 X39.0500 Y211.0000 Z10.6216 I0.0500 J0.0000 F1999.8000
G2 X38.9500 Y211.0000 Z10.3757 I-0.0500 J0.0000 F1999.8000
G2 X39.0500 Y211.0000 Z10.1297 I0.0500 J0.0000 F1999.8000
G2 X38.9500 Y211.0000 Z9.8838 I-0.0500 J0.0000 F1999.8000
G2 X39.0500 Y211.0000 Z9.6378 I0.0500 J0.0000 F1999.8000
G2 X38.9500 Y211.0000 Z9.3919 I-0.0500 J0.0000 F1999.8000
G2 X39.0500 Y211.0000 Z9.1459 I0.0500 J0.0000 F1999.8000
G2 X38.9500 Y211.0000 Z8.9000 I-0.0500 J0.0000 F1999.8000
G2 X39.0500 Y211.0000 Z8.6541 I0.0500 J0.0000 F1999.8000
G2 X38.9500 Y211.0000 Z8.4081 I-0.0500 J0.0000 F1999.8000
G2 X39.0500 Y211.0000 Z8.1622 I0.0500 J0.0000 F1999.8000
G2 X38.9500 Y211.0000 Z7.9162 I-0.0500 J0.0000 F1999.8000
G2 X39.0500 Y211.0000 Z7.6703 I0.0500 J0.0000 F1999.8000
G2 X38.9500 Y211.0000 Z7.4243 I-0.0500 J0.0000 F1999.8000
G2 X39.0500 Y211.0000 Z7.1784 I0.0500 J0.0000 F1999.8000
G2 X38.9500 Y211.0000 Z6.9324 I-0.0500 J0.0000 F1999.8000
G2 X39.0500 Y211.0000 Z6.6865 I0.0500 J0.0000 F1999.8000
G2 X38.9500 Y211.0000 Z6.4405 I-0.0500 J0.0000 F1999.8000
G2 X39.0500 Y211.0000 Z6.1946 I0.0500 J0.0000 F1999.8000
G2 X38.9500 Y211.0000 Z5.9486 I-0.0500 J0.0000 F1999.8000
G2 X39.0500 Y211.0000 Z5.7027 I0.0500 J0.0000 F1999.8000
G2 X38.9500 Y211.0000 Z5.4568 I-0.0500 J0.0000 F1999.8000
G2 X39.0500 Y211.0000 Z5.2108 I0.0500 J0.0000 F1999.8000
G2 X38.9500 Y211.0000 Z4.9649 I-0.0500 J0.0000 F1999.8000
G2 X39.0500 Y211.0000 Z4.7189 I0.0500 J0.0000 F1999.8000
G2 X38.9500 Y211.0000 Z4.4730 I-0.0500 J0.0000 F1999.8000
G2 X39.0500 Y211.0000 Z4.2270 I0.0500 J0.0000 F1999.8000
G2 X38.9500 Y211.0000 Z3.9811 I-0.0500 J0.0000 F1999.8000
G2 X39.0500 Y211.0000 Z3.7351 I0.0500 J0.0000 F1999.8000
G2 X38.9500 Y211.0000 Z3.4892 I-0.0500 J0.0000 F1999.8000
G2 X39.0500 Y211.0000 Z3.2432 I0.0500 J0.0000 F1999.8000
G2 X38.9500 Y211.0000 Z2.9973 I-0.0500 J0.0000 F1999.8000
G2 X39.0500 Y211.0000 Z2.7514 I0.0500 J0.0000 F1999.8000
G2 X38.9500 Y211.0000 Z2.5054 I-0.0500 J0.0000 F1999.8000
G2 X39.0500 Y211.0000 Z2.2595 I0.0500 J0.0000 F1999.8000
G2 X38.9500 Y211.0000 Z2.0135 I-0.0500 J0.0000 F1999.8000
G2 X39.0500 Y211.0000 Z1.7676 I0.0500 J0.0000 F1999.8000
G2 X38.9500 Y211.0000 Z1.5216 I-0.0500 J0.0000 F1999.8000
G2 X39.0500 Y211.0000 Z1.2757 I0.0500 J0.0000 F1999.8000
G2 X38.9500 Y211.0000 Z1.0297 I-0.0500 J0.0000 F1999.8000
G2 X39.0500 Y211.0000 Z0.7838 I0.0500 J0.0000 F1999.8000
G2 X38.9500 Y211.0000 Z0.5378 I-0.0500 J0.0000 F1999.8000
G2 X39.0500 Y211.0000 Z0.2919 I0.0500 J0.0000 F1999.8000
G2 X38.9500 Y211.0000 Z0.0459 I-0.0500 J0.0000 F1999.8000
G2 X39.0500 Y211.0000 Z-0.2000 I0.0500 J0.0000 F1999.8000
G2 X38.9500 Y211.0000 Z-0.2000 I-0.0500 J0.0000 F1999.8000
G2 X39.0500 Y211.0000 Z-0.2000 I0.0500 J0.0000 F1999.8000
G0 Z21.0000
G0 Z23.0000
(Finish operation: SeatTop_Holes_Helix)
(Begin operation: Fixture)
(Path: Fixture)
G54
G0 Z23.0000
(Finish operation: Fixture)
(Begin operation: SeatTop_Groove_Pocket)
(Path: SeatTop_Groove_Pocket)
(Pocket_Shape)
G0 Z23.0000
G0 X348.5000 Y248.5000
G0 Z21.0000
G1 X348.5000 Y248.5000 Z17.5000 F999.6000
G1 X348.5000 Y220.0000 Z17.5000 F1999.8000
G3 X350.0000 Y218.5000 Z17.5000 I1.5000 J0.0000 K0.0000 F1999.8000
G1 X378.5000 Y218.5000 Z17.5000 F1999.8000
G1 X378.5000 Y203.5000 Z17.5000 F1999.8000
G1 X350.0000 Y203.5000 Z17.5000 F1999.8000
G3 X348.5000 Y202.0000 Z17.5000 I0.0000 J-1.5000 K0.0000 F1999.8000
G1 X348.5000 Y48.0000 Z17.5000 F1999.8000
G3 X350.0000 Y46.5000 Z17.5000 I1.5000 J0.0000 K0.0000 F1999.8000
G1 X378.5000 Y46.5000 Z17.5000 F1999.8000
G1 X378.5000 Y31.5000 Z17.5000 F1999.8000
G1 X350.0000 Y31.5000 Z17.5000 F1999.8000
G3 X348.5000 Y30.0000 Z17.5000 I0.0000 J-1.5000 K0.0000 F1999.8000
G1 X348.5000 Y1.5000 Z17.5000 F1999.8000
G1 X333.5000 Y1.5000 Z17.5000 F1999.8000
G1 X333.5000 Y30.0000 Z17.5000 F1999.8000
G3 X332.0000 Y31.5000 Z17.5000 I-1.5000 J-0.0000 K0.0000 F1999.8000
G1 X48.0000 Y31.5000 Z17.5000 F1999.8000
G3 X46.5000 Y30.0000 Z17.5000 I0.0000 J-1.5000 K0.0000 F1999.8000
G1 X46.5000 Y1.5000 Z17.5000 F1999.8000
G1 X31.5000 Y1.5000 Z17.5000 F1999.8000
G1 X31.5000 Y30.0000 Z17.5000 F1999.8000
G3 X30.0000 Y31.5000 Z17.5000 I-1.5000 J-0.0000 K0.0000 F1999.8000
G1 X1.5000 Y31.5000 Z17.5000 F1999.8000
G1 X1.5000 Y46.5000 Z17.5000 F1999.8000
G1 X30.0000 Y46.5000 Z17.5000 F1999.8000
G3 X31.5000 Y48.0000 Z17.5000 I-0.0000 J1.5000 K0.0000 F1999.8000
G1 X31.5000 Y202.0000 Z17.5000 F1999.8000
G3 X30.0000 Y203.5000 Z17.5000 I-1.5000 J-0.0000 K0.0000 F1999.8000
G1 X1.5000 Y203.5000 Z17.5000 F1999.8000
G1 X1.5000 Y218.5000 Z17.5000 F1999.8000
G1 X30.0000 Y218.5000 Z17.5000 F1999.8000
G3 X31.5000 Y220.0000 Z17.5000 I-0.0000 J1.5000 K0.0000 F1999.8000
G1 X31.5000 Y248.5000 Z17.5000 F1999.8000
G1 X46.5000 Y248.5000 Z17.5000 F1999.8000
G1 X46.5000 Y220.0000 Z17.5000 F1999.8000
G3 X48.0000 Y218.5000 Z17.5000 I1.5000 J0.0000 K0.0000 F1999.8000
G1 X332.0000 Y218.5000 Z17.5000 F1999.8000
G3 X333.5000 Y220.0000 Z17.5000 I-0.0000 J1.5000 K0.0000 F1999.8000
G1 X333.5000 Y248.5000 Z17.5000 F1999.8000
G1 X348.5000 Y248.5000 Z17.5000 F1999.8000
G0 X348.5000 Y248.5000 Z23.0000
G0 X346.2500 Y246.2500 Z23.0000
G1 X346.2500 Y246.2500 Z17.5000 F999.6000
G1 X346.2500 Y220.0000 Z17.5000 F1999.8000
G3 X350.0000 Y216.2500 Z17.5000 I3.7500 J-0.0000 K0.0000 F1999.8000
G1 X376.2500 Y216.2500 Z17.5000 F1999.8000
G1 X376.2500 Y205.7500 Z17.5000 F1999.8000
G1 X350.0000 Y205.7500 Z17.5000 F1999.8000
G3 X346.2500 Y202.0000 Z17.5000 I-0.0000 J-3.7500 K0.0000 F1999.8000
G1 X346.2500 Y48.0000 Z17.5000 F1999.8000
G3 X350.0000 Y44.2500 Z17.5000 I3.7500 J-0.0000 K0.0000 F1999.8000
G1 X376.2500 Y44.2500 Z17.5000 F1999.8000
G1 X376.2500 Y33.7500 Z17.5000 F1999.8000
G1 X350.0000 Y33.7500 Z17.5000 F1999.8000
G3 X346.2500 Y30.0000 Z17.5000 I-0.0000 J-3.7500 K0.0000 F1999.8000
G1 X346.2500 Y3.7500 Z17.5000 F1999.8000
G1 X335.7500 Y3.7500 Z17.5000 F1999.8000
G1 X335.7500 Y30.0000 Z17.5000 F1999.8000
G3 X332.0000 Y33.7500 Z17.5000 I-3.7500 J0.0000 K0.0000 F1999.8000
G1 X190.6544 Y33.7500 Z17.5000 F1999.8000
G3 X190.6544 Y44.2500 Z17.5000 I-0.6443 J5.2500 K0.0000 F1999.8000
G1 X332.0000 Y44.2500 Z17.5000 F1999.8000
G3 X335.7500 Y48.0000 Z17.5000 I0.0000 J3.7500 K0.0000 F1999.8000
G1 X335.7500 Y202.0000 Z17.5000 F1999.8000
G3 X332.0000 Y205.7500 Z17.5000 I-3.7500 J0.0000 K0.0000 F1999.8000
G1 X190.6544 Y205.7500 Z17.5000 F1999.8000
G3 X190.6544 Y216.2500 Z17.5000 I-0.6443 J5.2500 K0.0000 F1999.8000
G1 X332.0000 Y216.2500 Z17.5000 F1999.8000
G3 X335.7500 Y220.0000 Z17.5000 I0.0000 J3.7500 K0.0000 F1999.8000
G1 X335.7500 Y246.2500 Z17.5000 F1999.8000
G1 X346.2500 Y246.2500 Z17.5000 F1999.8000
G0 X346.2500 Y246.2500 Z23.0000
G0 X344.0000 Y244.0000 Z23.0000
G1 X344.0000 Y244.0000 Z17.5000 F999.6000
G1 X344.0000 Y220.0000 Z17.5000 F1999.8000
G3 X344.4687 Y217.6962 Z17.5000 I5.7944 J-0.0206 K0.0000 F1999.8000
G3 X337.5285 Y217.6936 Z17.5000 I-3.4677 J-6.6152 K0.0000 F1999.8000
G3 X338.0000 Y220.0000 Z17.5000 I-5.2468 J2.2740 K0.0000 F1999.8000
G1 X338.0000 Y244.0000 Z17.5000 F1999.8000
G1 X344.0000 Y244.0000 Z17.5000 F1999.8000
G0 X344.0000 Y244.0000 Z23.0000
G0 X341.7500 Y241.7500 Z23.0000
G1 X341.7500 Y241.7500 Z17.5000 F999.6000
G1 X341.7500 Y220.7567 Z17.5000 F1999.8000
G3 X340.2500 Y220.7591 Z17.5000 I-0.7608 J-6.6552 K0.0000 F1999.8000
G1 X340.2500 Y241.7500 Z17.5000 F1999.8000
G1 X341.7500 Y241.7500 Z17.5000 F1999.8000
G0 X341.7500 Y241.7500 Z23.0000
G0 X341.1291 Y216.2915 Z23.0000
G1 X341.1291 Y216.2915 Z17.5000 F999.6000
G2 X341.7648 Y216.2376 Z17.5000 I-0.1291 J-5.2915 K0.0000 F1999.8000
G2 X346.2376 Y210.2352 Z17.5000 I-0.7648 J-5.2376 K0.0000 F1999.8000
G2 X340.2352 Y205.7624 Z17.5000 I-5.2376 J0.7648 K0.0000 F1999.8000
G2 X341.1291 Y216.2915 Z17.5000 I0.7648 J5.2376 K0.0000 F1999.8000
G0 X341.1291 Y216.2915 Z23.0000
G0 X341.0743 Y214.0443 Z23.0000
G1 X341.0743 Y214.0443 Z17.5000 F999.6000
G2 X341.5129 Y214.0017 Z17.5000 I-0.0743 J-3.0443 K0.0000 F1999.8000
G2 X344.0017 Y210.4871 Z17.5000 I-0.5129 J-3.0017 K0.0000 F1999.8000
G2 X340.4871 Y207.9983 Z17.5000 I-3.0017 J0.5129 K0.0000 F1999.8000
G2 X341.0743 Y214.0443 Z17.5000 I0.5129 J3.0017 K0.0000 F1999.8000
G0 X341.0743 Y214.0443 Z23.0000
G0 X347.6936 Y214.4715 Z23.0000
G1 X347.6936 Y214.4715 Z17.5000 F999.6000
G3 X350.0000 Y214.0000 Z17.5000 I2.2740 J5.2468 K0.0000 F1999.8000
G1 X374.0000 Y214.0000 Z17.5000 F1999.8000
G1 X374.0000 Y208.0000 Z17.5000 F1999.8000
G1 X350.0000 Y208.0000 Z17.5000 F1999.8000
G3 X347.6962 Y207.5313 Z17.5000 I-0.0206 J-5.7944 K0.0000 F1999.8000
G3 X347.6936 Y214.4715 Z17.5000 I-6.6152 J3.4677 K0.0000 F1999.8000
G0 X347.6936 Y214.4715 Z23.0000
G0 X350.7591 Y211.7500 Z23.0000
G1 X350.7591 Y211.7500 Z17.5000 F999.6000
G1 X371.7500 Y211.7500 Z17.5000 F1999.8000
G1 X371.7500 Y210.2500 Z17.5000 F1999.8000
G1 X350.7567 Y210.2500 Z17.5000 F1999.8000
G3 X350.7591 Y211.7500 Z17.5000 I-6.6552 J0.7608 K0.0000 F1999.8000
G0 X350.7591 Y211.7500 Z23.0000
G0 X344.4715 Y204.3064 Z23.0000
G1 X344.4715 Y204.3064 Z17.5000 F999.6000
G3 X344.0000 Y202.0000 Z17.5000 I5.2468 J-2.2740 K0.0000 F1999.8000
G1 X344.0000 Y48.0000 Z17.5000 F1999.8000
G3 X344.4687 Y45.6962 Z17.5000 I5.7944 J-0.0206 K0.0000 F1999.8000
G3 X337.5285 Y45.6936 Z17.5000 I-3.4677 J-6.6152 K0.0000 F1999.8000
G3 X338.0000 Y48.0000 Z17.5000 I-5.2468 J2.2740 K0.0000 F1999.8000
G1 X338.0000 Y202.0000 Z17.5000 F1999.8000
G3 X337.5313 Y204.3038 Z17.5000 I-5.7944 J0.0206 K0.0000 F1999.8000
G3 X344.4715 Y204.3064 Z17.5000 I3.4677 J6.6152 K0.0000 F1999.8000
G0 X344.4715 Y204.3064 Z23.0000
G0 X341.7500 Y201.2409 Z23.0000
G1 X341.7500 Y201.2409 Z17.5000 F999.6000
G1 X341.7500 Y48.7567 Z17.5000 F1999.8000
G3 X340.2500 Y48.7591 Z17.5000 I-0.7608 J-6.6552 K0.0000 F1999.8000
G1 X340.2500 Y201.2433 Z17.5000 F1999.8000
G3 X341.7500 Y201.2409 Z17.5000 I0.7608 J6.6552 K0.0000 F1999.8000
G0 X341.7500 Y201.2409 Z23.0000
G0 X333.5000 Y201.2409 Z23.0000
G1 X333.5000 Y201.2409 Z17.5000 F999.6000
G1 X333.5000 Y48.0000 Z17.5000 F1999.8000
G2 X332.0000 Y46.5000 Z17.5000 I-1.5000 J0.0000 K0.0000 F1999.8000
G1 X48.0000 Y46.5000 Z17.5000 F1999.8000
G2 X46.5000 Y48.0000 Z17.5000 I0.0000 J1.5000 K0.0000 F1999.8000
G1 X46.5000 Y202.0000 Z17.5000 F1999.8000
G2 X48.0000 Y203.5000 Z17.5000 I1.5000 J-0.0000 K0.0000 F1999.8000
G1 X332.0000 Y203.5000 Z17.5000 F1999.8000
G2 X333.5000 Y202.0000 Z17.5000 I-0.0000 J-1.5000 K0.0000 F1999.8000
G1 X333.5000 Y201.2409 Z17.5000 F1999.8000
G0 X333.5000 Y201.2409 Z23.0000
G0 X334.3064 Y207.5285 Z23.0000
G1 X334.3064 Y207.5285 Z17.5000 F999.6000
G3 X332.0000 Y208.0000 Z17.5000 I-2.2740 J-5.2468 K0.0000 F1999.8000
G1 X196.9162 Y208.0000 Z17.5000 F1999.8000
G3 X196.9170 Y214.0000 Z17.5000 I-6.7870 J3.0009 K0.0000 F1999.8000
G1 X332.0000 Y214.0000 Z17.5000 F1999.8000
G3 X334.3038 Y214.4687 Z17.5000 I0.0206 J5.7944 K0.0000 F1999.8000
G3 X334.3064 Y207.5285 Z17.5000 I6.6152 J-3.4677 K0.0000 F1999.8000
G0 X334.3064 Y207.5285 Z23.0000
G0 X331.2409 Y210.2500 Z23.0000
G1 X331.2409 Y210.2500 Z17.5000 F999.6000
G1 X199.7567 Y210.2500 Z17.5000 F1999.8000
G3 X199.7591 Y211.7500 Z17.5000 I-6.6552 J0.7608 K0.0000 F1999.8000
G1 X331.2433 Y211.7500 Z17.5000 F1999.8000
G3 X331.2409 Y210.2500 Z17.5000 I6.6552 J-0.7608 K0.0000 F1999.8000
G0 X331.2409 Y210.2500 Z23.0000
G0 X193.0452 Y210.9838 Z23.0000
G1 X193.0452 Y210.9838 Z17.5000 F999.6000
G2 X189.4871 Y207.9983 Z17.5000 I-3.0452 J0.0162 K0.0000 F1999.8000
G2 X190.5129 Y214.0017 Z17.5000 I0.5129 J3.0017 K0.0000 F1999.8000
G2 X193.0452 Y210.9838 Z17.5000 I-0.5129 J-3.0017 K0.0000 F1999.8000
G0 X193.0452 Y210.9838 Z23.0000
G0 X189.3456 Y205.7500 Z23.0000
G1 X189.3456 Y205.7500 Z17.5000 F999.6000
G1 X48.0000 Y205.7500 Z17.5000 F1999.8000
G3 X44.2500 Y202.0000 Z17.5000 I-0.0000 J-3.7500 K0.0000 F1999.8000
G1 X44.2500 Y48.0000 Z17.5000 F1999.8000
G3 X48.0000 Y44.2500 Z17.5000 I3.7500 J-0.0000 K0.0000 F1999.8000
G1 X189.3456 Y44.2500 Z17.5000 F1999.8000
G3 X189.3456 Y33.7500 Z17.5000 I0.6443 J-5.2500 K0.0000 F1999.8000
G1 X48.0000 Y33.7500 Z17.5000 F1999.8000
G3 X44.2500 Y30.0000 Z17.5000 I-0.0000 J-3.7500 K0.0000 F1999.8000
G1 X44.2500 Y3.7500 Z17.5000 F1999.8000
G1 X33.7500 Y3.7500 Z17.5000 F1999.8000
G1 X33.7500 Y30.0000 Z17.5000 F1999.8000
G3 X30.0000 Y33.7500 Z17.5000 I-3.7500 J0.0000 K0.0000 F1999.8000
G1 X3.7500 Y33.7500 Z17.5000 F1999.8000
G1 X3.7500 Y44.2500 Z17.5000 F1999.8000
G1 X30.0000 Y44.2500 Z17.5000 F1999.8000
G3 X33.7500 Y48.0000 Z17.5000 I0.0000 J3.7500 K0.0000 F1999.8000
G1 X33.7500 Y202.0000 Z17.5000 F1999.8000
G3 X30.0000 Y205.7500 Z17.5000 I-3.7500 J0.0000 K0.0000 F1999.8000
G1 X3.7500 Y205.7500 Z17.5000 F1999.8000
G1 X3.7500 Y216.2500 Z17.5000 F1999.8000
G1 X30.0000 Y216.2500 Z17.5000 F1999.8000
G3 X33.7500 Y220.0000 Z17.5000 I0.0000 J3.7500 K0.0000 F1999.8000
G1 X33.7500 Y246.2500 Z17.5000 F1999.8000
G1 X44.2500 Y246.2500 Z17.5000 F1999.8000
G1 X44.2500 Y220.0000 Z17.5000 F1999.8000
G3 X48.0000 Y216.2500 Z17.5000 I3.7500 J-0.0000 K0.0000 F1999.8000
G1 X189.3456 Y216.2500 Z17.5000 F1999.8000
G3 X189.3456 Y205.7500 Z17.5000 I0.6443 J-5.2500 K0.0000 F1999.8000
G0 X189.3456 Y205.7500 Z23.0000
G0 X183.0830 Y208.0000 Z23.0000
G1 X183.0830 Y208.0000 Z17.5000 F999.6000
G1 X48.0000 Y208.0000 Z17.5000 F1999.8000
G3 X45.6962 Y207.5313 Z17.5000 I-0.0206 J-5.7944 K0.0000 F1999.8000
G3 X45.6936 Y214.4715 Z17.5000 I-6.6152 J3.4677 K0.0000 F1999.8000
G3 X48.0000 Y214.0000 Z17.5000 I2.2740 J5.2468 K0.0000 F1999.8000
G1 X183.0838 Y214.0000 Z17.5000 F1999.8000
G3 X183.0830 Y208.0000 Z17.5000 I6.7870 J-3.0009 K0.0000 F1999.8000
G0 X183.0830 Y208.0000 Z23.0000
G0 X180.2409 Y210.2500 Z23.0000
G1 X180.2409 Y210.2500 Z17.5000 F999.6000
G1 X48.7567 Y210.2500 Z17.5000 F1999.8000
G3 X48.7591 Y211.7500 Z17.5000 I-6.6552 J0.7608 K0.0000 F1999.8000
G1 X180.2433 Y211.7500 Z17.5000 F1999.8000
G3 X180.2409 Y210.2500 Z17.5000 I6.6552 J-0.7608 K0.0000 F1999.8000
G0 X180.2409 Y210.2500 Z23.0000
G0 X44.2930 Y210.9719 Z23.0000
G1 X44.2930 Y210.9719 Z17.5000 F999.6000
G2 X38.2352 Y205.7624 Z17.5000 I-5.2930 J0.0281 K0.0000 F1999.8000
G2 X39.7648 Y216.2376 Z17.5000 I0.7648 J5.2376 K0.0000 F1999.8000
G2 X44.2930 Y210.9719 Z17.5000 I-0.7648 J-5.2376 K0.0000 F1999.8000
G0 X44.2930 Y210.9719 Z23.0000
G0 X42.0452 Y210.9838 Z23.0000
G1 X42.0452 Y210.9838 Z17.5000 F999.6000
G2 X38.4871 Y207.9983 Z17.5000 I-3.0452 J0.0162 K0.0000 F1999.8000
G2 X39.5129 Y214.0017 Z17.5000 I0.5129 J3.0017 K0.0000 F1999.8000
G2 X42.0452 Y210.9838 Z17.5000 I-0.5129 J-3.0017 K0.0000 F1999.8000
G0 X42.0452 Y210.9838 Z23.0000
G0 X42.4715 Y204.3064 Z23.0000
G1 X42.4715 Y204.3064 Z17.5000 F999.6000
G3 X42.0000 Y202.0000 Z17.5000 I5.2468 J-2.2740 K0.0000 F1999.8000
G1 X42.0000 Y48.0000 Z17.5000 F1999.8000
G3 X42.4687 Y45.6962 Z17.5000 I5.7944 J-0.0206 K0.0000 F1999.8000
G3 X35.5285 Y45.6936 Z17.5000 I-3.4677 J-6.6152 K0.0000 F1999.8000
G3 X36.0000 Y48.0000 Z17.5000 I-5.2468 J2.2740 K0.0000 F1999.8000
G1 X36.0000 Y202.0000 Z17.5000 F1999.8000
G3 X35.5313 Y204.3038 Z17.5000 I-5.7944 J0.0206 K0.0000 F1999.8000
G3 X42.4715 Y204.3064 Z17.5000 I3.4677 J6.6152 K0.0000 F1999.8000
G0 X42.4715 Y204.3064 Z23.0000
G0 X39.7500 Y201.2409 Z23.0000
G1 X39.7500 Y201.2409 Z17.5000 F999.6000
G1 X39.7500 Y48.7567 Z17.5000 F1999.8000
G3 X38.2500 Y48.7591 Z17.5000 I-0.7608 J-6.6552 K0.0000 F1999.8000
G1 X38.2500 Y201.2433 Z17.5000 F1999.8000
G3 X39.7500 Y201.2409 Z17.5000 I0.7608 J6.6552 K0.0000 F1999.8000
G0 X39.7500 Y201.2409 Z23.0000
G0 X32.3064 Y207.5285 Z23.0000
G1 X32.3064 Y207.5285 Z17.5000 F999.6000
G3 X30.0000 Y208.0000 Z17.5000 I-2.2740 J-5.2468 K0.0000 F1999.8000
G1 X6.0000 Y208.0000 Z17.5000 F1999.8000
G1 X6.0000 Y214.0000 Z17.5000 F1999.8000
G1 X30.0000 Y214.0000 Z17.5000 F1999.8000
G3 X32.3038 Y214.4687 Z17.5000 I0.0206 J5.7944 K0.0000 F1999.8000
G3 X32.3064 Y207.5285 Z17.5000 I6.6152 J-3.4677 K0.0000 F1999.8000
G0 X32.3064 Y207.5285 Z23.0000
G0 X29.2409 Y210.2500 Z23.0000
G1 X29.2409 Y210.2500 Z17.5000 F999.6000
G1 X8.2500 Y210.2500 Z17.5000 F1999.8000
G1 X8.2500 Y211.7500 Z17.5000 F1999.8000
G1 X29.2433 Y211.7500 Z17.5000 F1999.8000
G3 X29.2409 Y210.2500 Z17.5000 I6.6552 J-0.7608 K0.0000 F1999.8000
G0 X29.2409 Y210.2500 Z23.0000
G0 X35.5285 Y217.6936 Z23.0000
G1 X35.5285 Y217.6936 Z17.5000 F999.6000
G3 X36.0000 Y220.0000 Z17.5000 I-5.2468 J2.2740 K0.0000 F1999.8000
G1 X36.0000 Y244.0000 Z17.5000 F1999.8000
G1 X42.0000 Y244.0000 Z17.5000 F1999.8000
G1 X42.0000 Y220.0000 Z17.5000 F1999.8000
G3 X42.4687 Y217.6962 Z17.5000 I5.7944 J-0.0206 K0.0000 F1999.8000
G3 X35.5285 Y217.6936 Z17.5000 I-3.4677 J-6.6152 K0.0000 F1999.8000
G0 X35.5285 Y217.6936 Z23.0000
G0 X38.2500 Y220.7591 Z23.0000
G1 X38.2500 Y220.7591 Z17.5000 F999.6000
G1 X38.2500 Y241.7500 Z17.5000 F1999.8000
G1 X39.7500 Y241.7500 Z17.5000 F1999.8000
G1 X39.7500 Y220.7567 Z17.5000 F1999.8000
G3 X38.2500 Y220.7591 Z17.5000 I-0.7608 J-6.6552 K0.0000 F1999.8000
G0 X38.2500 Y220.7591 Z23.0000
G0 X38.9782 Y44.2931 Z23.0000
G1 X38.9782 Y44.2931 Z17.5000 F999.6000
G2 X39.7648 Y44.2376 Z17.5000 I0.0218 J-5.2931 K0.0000 F1999.8000
G2 X38.2352 Y33.7624 Z17.5000 I-0.7648 J-5.2376 K0.0000 F1999.8000
G2 X38.9782 Y44.2931 Z17.5000 I0.7648 J5.2376 K0.0000 F1999.8000
G0 X38.9782 Y44.2931 Z23.0000
G0 X38.9874 Y42.0452 Z23.0000
G1 X38.9874 Y42.0452 Z17.5000 F999.6000
G2 X39.5129 Y42.0017 Z17.5000 I0.0126 J-3.0452 K0.0000 F1999.8000
G2 X38.4871 Y35.9983 Z17.5000 I-0.5129 J-3.0017 K0.0000 F1999.8000
G2 X38.9874 Y42.0452 Z17.5000 I0.5129 J3.0017 K0.0000 F1999.8000
G0 X38.9874 Y42.0452 Z23.0000
G0 X32.3038 Y42.4687 Z23.0000
G1 X32.3038 Y42.4687 Z17.5000 F999.6000
G3 X32.3064 Y35.5285 Z17.5000 I6.6152 J-3.4677 K0.0000 F1999.8000
G3 X30.0000 Y36.0000 Z17.5000 I-2.2740 J-5.2468 K0.0000 F1999.8000
G1 X6.0000 Y36.0000 Z17.5000 F1999.8000
G1 X6.0000 Y42.0000 Z17.5000 F1999.8000
G1 X30.0000 Y42.0000 Z17.5000 F1999.8000
G3 X32.3038 Y42.4687 Z17.5000 I0.0206 J5.7944 K0.0000 F1999.8000
G0 X32.3038 Y42.4687 Z23.0000
G0 X29.2433 Y39.7500 Z23.0000
G1 X29.2433 Y39.7500 Z17.5000 F999.6000
G3 X29.2409 Y38.2500 Z17.5000 I6.6552 J-0.7608 K0.0000 F1999.8000
G1 X8.2500 Y38.2500 Z17.5000 F1999.8000
G1 X8.2500 Y39.7500 Z17.5000 F1999.8000
G1 X29.2433 Y39.7500 Z17.5000 F1999.8000
G0 X29.2433 Y39.7500 Z23.0000
G0 X35.5313 Y32.3038 Z23.0000
G1 X35.5313 Y32.3038 Z17.5000 F999.6000
G3 X42.4715 Y32.3064 Z17.5000 I3.4677 J6.6152 K0.0000 F1999.8000
G3 X42.0000 Y30.0000 Z17.5000 I5.2468 J-2.2740 K0.0000 F1999.8000
G1 X42.0000 Y6.0000 Z17.5000 F1999.8000
G1 X36.0000 Y6.0000 Z17.5000 F1999.8000
G1 X36.0000 Y30.0000 Z17.5000 F1999.8000
G3 X35.5313 Y32.3038 Z17.5000 I-5.7944 J0.0206 K0.0000 F1999.8000
G0 X35.5313 Y32.3038 Z23.0000
G0 X38.2500 Y29.2433 Z23.0000
G1 X38.2500 Y29.2433 Z17.5000 F999.6000
G3 X39.7500 Y29.2409 Z17.5000 I0.7608 J6.6552 K0.0000 F1999.8000
G1 X39.7500 Y8.2500 Z17.5000 F1999.8000
G1 X38.2500 Y8.2500 Z17.5000 F1999.8000
G1 X38.2500 Y29.2433 Z17.5000 F1999.8000
G0 X38.2500 Y29.2433 Z23.0000
G0 X45.6962 Y35.5313 Z23.0000
G1 X45.6962 Y35.5313 Z17.5000 F999.6000
G3 X45.6936 Y42.4715 Z17.5000 I-6.6152 J3.4677 K0.0000 F1999.8000
G3 X48.0000 Y42.0000 Z17.5000 I2.2740 J5.2468 K0.0000 F1999.8000
G1 X183.0838 Y42.0000 Z17.5000 F1999.8000
G3 X183.0830 Y36.0000 Z17.5000 I6.7870 J-3.0009 K0.0000 F1999.8000
G1 X48.0000 Y36.0000 Z17.5000 F1999.8000
G3 X45.6962 Y35.5313 Z17.5000 I-0.0206 J-5.7944 K0.0000 F1999.8000
G0 X45.6962 Y35.5313 Z23.0000
G0 X48.7567 Y38.2500 Z23.0000
G1 X48.7567 Y38.2500 Z17.5000 F999.6000
G3 X48.7591 Y39.7500 Z17.5000 I-6.6552 J0.7608 K0.0000 F1999.8000
G1 X180.2433 Y39.7500 Z17.5000 F1999.8000
G3 X180.2409 Y38.2500 Z17.5000 I6.6552 J-0.7608 K0.0000 F1999.8000
G1 X48.7567 Y38.2500 Z17.5000 F1999.8000
G0 X48.7567 Y38.2500 Z23.0000
G0 X49.5407 Y39.0000 Z23.0000
G1 X49.5407 Y39.0000 Z17.5000 F999.6000
G1 X179.4593 Y39.0000 Z17.5000 F1999.8000
G1 X49.5407 Y39.0000 Z17.5000 F1999.8000
G0 X49.5407 Y39.0000 Z23.0000
G0 X186.9548 Y39.0000 Z23.0000
G1 X186.9548 Y39.0000 Z17.5000 F999.6000
G2 X190.5129 Y42.0017 Z17.5000 I3.0452 J0.0000 K0.0000 F1999.8000
G2 X189.4871 Y35.9983 Z17.5000 I-0.5129 J-3.0017 K0.0000 F1999.8000
G2 X186.9548 Y39.0000 Z17.5000 I0.5129 J3.0017 K0.0000 F1999.8000
G0 X186.9548 Y39.0000 Z23.0000
G0 X196.9162 Y36.0000 Z23.0000
G1 X196.9162 Y36.0000 Z17.5000 F999.6000
G3 X196.9170 Y42.0000 Z17.5000 I-6.7870 J3.0009 K0.0000 F1999.8000
G1 X332.0000 Y42.0000 Z17.5000 F1999.8000
G3 X334.3038 Y42.4687 Z17.5000 I0.0206 J5.7944 K0.0000 F1999.8000
G3 X334.3064 Y35.5285 Z17.5000 I6.6152 J-3.4677 K0.0000 F1999.8000
G3 X332.0000 Y36.0000 Z17.5000 I-2.2740 J-5.2468 K0.0000 F1999.8000
G1 X196.9162 Y36.0000 Z17.5000 F1999.8000
G0 X196.9162 Y36.0000 Z23.0000
G0 X199.7567 Y38.2500 Z23.0000
G1 X199.7567 Y38.2500 Z17.5000 F999.6000
G3 X199.7591 Y39.7500 Z17.5000 I-6.6552 J0.7608 K0.0000 F1999.8000
G1 X331.2433 Y39.7500 Z17.5000 F1999.8000
G3 X331.2409 Y38.2500 Z17.5000 I6.6552 J-0.7608 K0.0000 F1999.8000
G1 X199.7567 Y38.2500 Z17.5000 F1999.8000
G0 X199.7567 Y38.2500 Z23.0000
G0 X335.7070 Y38.9719 Z23.0000
G1 X335.7070 Y38.9719 Z17.5000 F999.6000
G2 X341.7648 Y44.2376 Z17.5000 I5.2930 J0.0281 K0.0000 F1999.8000
G2 X340.2352 Y33.7624 Z17.5000 I-0.7648 J-5.2376 K0.0000 F1999.8000
G2 X335.7070 Y38.9719 Z17.5000 I0.7648 J5.2376 K0.0000 F1999.8000
G0 X335.7070 Y38.9719 Z23.0000
G0 X337.9548 Y38.9838 Z23.0000
G1 X337.9548 Y38.9838 Z17.5000 F999.6000
G2 X341.5129 Y42.0017 Z17.5000 I3.0452 J0.0162 K0.0000 F1999.8000
G2 X340.4871 Y35.9983 Z17.5000 I-0.5129 J-3.0017 K0.0000 F1999.8000
G2 X337.9548 Y38.9838 Z17.5000 I0.5129 J3.0017 K0.0000 F1999.8000
G0 X337.9548 Y38.9838 Z23.0000
G0 X337.5313 Y32.3038 Z23.0000
G1 X337.5313 Y32.3038 Z17.5000 F999.6000
G3 X344.4715 Y32.3064 Z17.5000 I3.4677 J6.6152 K0.0000 F1999.8000
G3 X344.0000 Y30.0000 Z17.5000 I5.2468 J-2.2740 K0.0000 F1999.8000
G1 X344.0000 Y6.0000 Z17.5000 F1999.8000
G1 X338.0000 Y6.0000 Z17.5000 F1999.8000
G1 X338.0000 Y30.0000 Z17.5000 F1999.8000
G3 X337.5313 Y32.3038 Z17.5000 I-5.7944 J0.0206 K0.0000 F1999.8000
G0 X337.5313 Y32.3038 Z23.0000
G0 X340.2500 Y29.2433 Z23.0000
G1 X340.2500 Y29.2433 Z17.5000 F999.6000
G3 X341.7500 Y29.2409 Z17.5000 I0.7608 J6.6552 K0.0000 F1999.8000
G1 X341.7500 Y8.2500 Z17.5000 F1999.8000
G1 X340.2500 Y8.2500 Z17.5000 F1999.8000
G1 X340.2500 Y29.2433 Z17.5000 F1999.8000
G0 X340.2500 Y29.2433 Z23.0000
G0 X347.6962 Y35.5313 Z23.0000
G1 X347.6962 Y35.5313 Z17.5000 F999.6000
G3 X347.6936 Y42.4715 Z17.5000 I-6.6152 J3.4677 K0.0000 F1999.8000
G3 X350.0000 Y42.0000 Z17.5000 I2.2740 J5.2468 K0.0000 F1999.8000
G1 X374.0000 Y42.0000 Z17.5000 F1999.8000
G1 X374.0000 Y36.0000 Z17.5000 F1999.8000
G1 X350.0000 Y36.0000 Z17.5000 F1999.8000
G3 X347.6962 Y35.5313 Z17.5000 I-0.0206 J-5.7944 K0.0000 F1999.8000
G0 X347.6962 Y35.5313 Z23.0000
G0 X350.7567 Y38.2500 Z23.0000
G1 X350.7567 Y38.2500 Z17.5000 F999.6000
G3 X350.7591 Y39.7500 Z17.5000 I-6.6552 J0.7608 K0.0000 F1999.8000
G1 X371.7500 Y39.7500 Z17.5000 F1999.8000
G1 X371.7500 Y38.2500 Z17.5000 F1999.8000
G1 X350.7567 Y38.2500 Z17.5000 F1999.8000
G0 X350.7567 Y38.2500 Z23.0000
G0 X351.5407 Y39.0000 Z23.0000
G1 X351.5407 Y39.0000 Z17.5000 F999.6000
G1 X371.0000 Y39.0000 Z17.5000 F1999.8000
G1 X351.5407 Y39.0000 Z17.5000 F1999.8000
G1 X351.5407 Y39.0000 Z17.0000 F999.6000
G1 X371.0000 Y39.0000 Z17.0000 F1999.8000
G1 X351.5407 Y39.0000 Z17.0000 F1999.8000
G0 X351.5407 Y39.0000 Z23.0000
G0 X350.8000 Y39.0011 Z23.0000
G1 X350.8000 Y39.0011 Z17.0000 F999.6000
G3 X350.7591 Y39.7500 Z17.0000 I-6.6986 J0.0098 K0.0000 F1999.8000
G1 X371.7500 Y39.7500 Z17.0000 F1999.8000
G1 X371.7500 Y38.2500 Z17.0000 F1999.8000
G1 X350.7567 Y38.2500 Z17.0000 F1999.8000
G3 X350.8000 Y39.0011 Z17.0000 I-6.6552 J0.7608 K0.0000 F1999.8000
G0 X350.8000 Y39.0011 Z23.0000
G0 X348.5500 Y39.0006 Z23.0000
G1 X348.5500 Y39.0006 Z17.0000 F999.6000
G3 X347.6936 Y42.4715 Z17.0000 I-7.4690 J-0.0017 K0.0000 F1999.8000
G3 X350.0000 Y42.0000 Z17.0000 I2.2740 J5.2468 K0.0000 F1999.8000
G1 X374.0000 Y42.0000 Z17.0000 F1999.8000
G1 X374.0000 Y36.0000 Z17.0000 F1999.8000
G1 X350.0000 Y36.0000 Z17.0000 F1999.8000
G3 X347.6962 Y35.5313 Z17.0000 I-0.0206 J-5.7944 K0.0000 F1999.8000
G3 X348.5500 Y39.0006 Z17.0000 I-6.6152 J3.4677 K0.0000 F1999.8000
G0 X348.5500 Y39.0006 Z23.0000
G0 X346.2931 Y39.0004 Z23.0000
G1 X346.2931 Y39.0004 Z17.0000 F999.6000
G2 X340.2352 Y33.7624 Z17.0000 I-5.2931 J-0.0004 K0.0000 F1999.8000
G2 X335.7624 Y39.7648 Z17.0000 I0.7648 J5.2376 K0.0000 F1999.8000
G2 X341.7648 Y44.2376 Z17.0000 I5.2376 J-0.7648 K0.0000 F1999.8000
G2 X346.2931 Y39.0004 Z17.0000 I-0.7648 J-5.2376 K0.0000 F1999.8000
G0 X346.2931 Y39.0004 Z23.0000
G0 X344.0452 Y39.0002 Z23.0000
G1 X344.0452 Y39.0002 Z17.0000 F999.6000
G2 X340.4871 Y35.9983 Z17.0000 I-3.0452 J-0.0002 K0.0000 F1999.8000
G2 X337.9983 Y39.5129 Z17.0000 I0.5129 J3.0017 K0.0000 F1999.8000
G2 X341.5129 Y42.0017 Z17.0000 I3.0017 J-0.5129 K0.0000 F1999.8000
G2 X344.0452 Y39.0002 Z17.0000 I-0.5129 J-3.0017 K0.0000 F1999.8000
G0 X344.0452 Y39.0002 Z23.0000
G0 X344.4715 Y32.3064 Z23.0000
G1 X344.4715 Y32.3064 Z17.0000 F999.6000
G3 X344.0000 Y30.0000 Z17.0000 I5.2468 J-2.2740 K0.0000 F1999.8000
G1 X344.0000 Y6.0000 Z17.0000 F1999.8000
G1 X338.0000 Y6.0000 Z17.0000 F1999.8000
G1 X338.0000 Y30.0000 Z17.0000 F1999.8000
G3 X337.5313 Y32.3038 Z17.0000 I-5.7944 J0.0206 K0.0000 F1999.8000
G3 X344.4715 Y32.3064 Z17.0000 I3.4677 J6.6152 K0.0000 F1999.8000
G0 X344.4715 Y32.3064 Z23.0000
G0 X346.5391 Y31.4438 Z23.0000
G1 X346.5391 Y31.4438 Z17.0000 F999.6000
G3 X346.2500 Y30.0000 Z17.0000 I3.4609 J-1.4438 K0.0000 F1999.8000
G1 X346.2500 Y3.7500 Z17.0000 F1999.8000
G1 X335.7500 Y3.7500 Z17.0000 F1999.8000
G1 X335.7500 Y30.0000 Z17.0000 F1999.8000
G3 X332.0000 Y33.7500 Z17.0000 I-3.7500 J0.0000 K0.0000 F1999.8000
G1 X190.6544 Y33.7500 Z17.0000 F1999.8000
G3 X190.6544 Y44.2500 Z17.0000 I-0.6443 J5.2500 K0.0000 F1999.8000
G1 X332.0000 Y44.2500 Z17.0000 F1999.8000
G3 X335.7500 Y48.0000 Z17.0000 I0.0000 J3.7500 K0.0000 F1999.8000
G1 X335.7500 Y202.0000 Z17.0000 F1999.8000
G3 X332.0000 Y205.7500 Z17.0000 I-3.7500 J0.0000 K0.0000 F1999.8000
G1 X190.6544 Y205.7500 Z17.0000 F1999.8000
G3 X190.6544 Y216.2500 Z17.0000 I-0.6443 J5.2500 K0.0000 F1999.8000
G1 X332.0000 Y216.2500 Z17.0000 F1999.8000
G3 X335.7500 Y220.0000 Z17.0000 I0.0000 J3.7500 K0.0000 F1999.8000
G1 X335.7500 Y246.2500 Z17.0000 F1999.8000
G1 X346.2500 Y246.2500 Z17.0000 F1999.8000
G1 X346.2500 Y220.0000 Z17.0000 F1999.8000
G3 X350.0000 Y216.2500 Z17.0000 I3.7500 J-0.0000 K0.0000 F1999.8000
G1 X376.2500 Y216.2500 Z17.0000 F1999.8000
G1 X376.2500 Y205.7500 Z17.0000 F1999.8000
G1 X350.0000 Y205.7500 Z17.0000 F1999.8000
G3 X346.2500 Y202.0000 Z17.0000 I-0.0000 J-3.7500 K0.0000 F1999.8000
G1 X346.2500 Y48.0000 Z17.0000 F1999.8000
G3 X350.0000 Y44.2500 Z17.0000 I3.7500 J-0.0000 K0.0000 F1999.8000
G1 X376.2500 Y44.2500 Z17.0000 F1999.8000
G1 X376.2500 Y33.7500 Z17.0000 F1999.8000
G1 X350.0000 Y33.7500 Z17.0000 F1999.8000
G3 X346.5391 Y31.4438 Z17.0000 I-0.0000 J-3.7500 K0.0000 F1999.8000
G0 X346.5391 Y31.4438 Z23.0000
G0 X348.6156 Y30.5775 Z23.0000
G1 X348.6156 Y30.5775 Z17.0000 F999.6000
G3 X348.5000 Y30.0000 Z17.0000 I1.3844 J-0.5775 K0.0000 F1999.8000
G1 X348.5000 Y1.5000 Z17.0000 F1999.8000
G1 X333.5000 Y1.5000 Z17.0000 F1999.8000
G1 X333.5000 Y30.0000 Z17.0000 F1999.8000
G3 X332.0000 Y31.5000 Z17.0000 I-1.5000 J-0.0000 K0.0000 F1999.8000
G1 X48.0000 Y31.5000 Z17.0000 F1999.8000
G3 X46.5000 Y30.0000 Z17.0000 I0.0000 J-1.5000 K0.0000 F1999.8000
G1 X46.5000 Y1.5000 Z17.0000 F1999.8000
G1 X31.5000 Y1.5000 Z17.0000 F1999.8000
G1 X31.5000 Y30.0000 Z17.0000 F1999.8000
G3 X30.0000 Y31.5000 Z17.0000 I-1.5000 J-0.0000 K0.0000 F1999.8000
G1 X1.5000 Y31.5000 Z17.0000 F1999.8000
G1 X1.5000 Y46.5000 Z17.0000 F1999.8000
G1 X30.0000 Y46.5000 Z17.0000 F1999.8000
G3 X31.5000 Y48.0000 Z17.0000 I-0.0000 J1.5000 K0.0000 F1999.8000
G1 X31.5000 Y202.0000 Z17.0000 F1999.8000
G3 X30.0000 Y203.5000 Z17.0000 I-1.5000 J-0.0000 K0.0000 F1999.8000
G1 X1.5000 Y203.5000 Z17.0000 F1999.8000
G1 X1.5000 Y218.5000 Z17.0000 F1999.8000
G1 X30.0000 Y218.5000 Z17.0000 F1999.8000
G3 X31.5000 Y220.0000 Z17.0000 I-0.0000 J1.5000 K0.0000 F1999.8000
G1 X31.5000 Y248.5000 Z17.0000 F1999.8000
G1 X46.5000 Y248.5000 Z17.0000 F1999.8000
G1 X46.5000 Y220.0000 Z17.0000 F1999.8000
G3 X48.0000 Y218.5000 Z17.0000 I1.5000 J0.0000 K0.0000 F1999.8000
G1 X332.0000 Y218.5000 Z17.0000 F1999.8000
G3 X333.5000 Y220.0000 Z17.0000 I-0.0000 J1.5000 K0.0000 F1999.8000
G1 X333.5000 Y248.5000 Z17.0000 F1999.8000
G1 X348.5000 Y248.5000 Z17.0000 F1999.8000
G1 X348.5000 Y220.0000 Z17.0000 F1999.8000
G3 X350.0000 Y218.5000 Z17.0000 I1.5000 J0.0000 K0.0000 F1999.8000
G1 X378.5000 Y218.5000 Z17.0000 F1999.8000
G1 X378.5000 Y203.5000 Z17.0000 F1999.8000
G1 X350.0000 Y203.5000 Z17.0000 F1999.8000
G3 X348.5000 Y202.0000 Z17.0000 I0.0000 J-1.5000 K0.0000 F1999.8000
G1 X348.5000 Y48.0000 Z17.0000 F1999.8000
G3 X350.0000 Y46.5000 Z17.0000 I1.5000 J0.0000 K0.0000 F1999.8000
G1 X378.5000 Y46.5000 Z17.0000 F1999.8000
G1 X378.5000 Y31.5000 Z17.0000 F1999.8000
G1 X350.0000 Y31.5000 Z17.0000 F1999.8000
G3 X348.6156 Y30.5775 Z17.0000 I0.0000 J-1.5000 K0.0000 F1999.8000
G0 X348.6156 Y30.5775 Z23.0000
G0 X341.7500 Y29.2409 Z23.0000
G1 X341.7500 Y29.2409 Z17.0000 F999.6000
G1 X341.7500 Y8.2500 Z17.0000 F1999.8000
G1 X340.2500 Y8.2500 Z17.0000 F1999.8000
G1 X340.2500 Y29.2433 Z17.0000 F1999.8000
G3 X341.7500 Y29.2409 Z17.0000 I0.7608 J6.6552 K0.0000 F1999.8000
G0 X341.7500 Y29.2409 Z23.0000
G0 X334.3064 Y35.5285 Z23.0000
G1 X334.3064 Y35.5285 Z17.0000 F999.6000
G3 X332.0000 Y36.0000 Z17.0000 I-2.2740 J-5.2468 K0.0000 F1999.8000
G1 X196.9162 Y36.0000 Z17.0000 F1999.8000
G3 X196.9170 Y42.0000 Z17.0000 I-6.7870 J3.0009 K0.0000 F1999.8000
G1 X332.0000 Y42.0000 Z17.0000 F1999.8000
G3 X334.3038 Y42.4687 Z17.0000 I0.0206 J5.7944 K0.0000 F1999.8000
G3 X334.3064 Y35.5285 Z17.0000 I6.6152 J-3.4677 K0.0000 F1999.8000
G0 X334.3064 Y35.5285 Z23.0000
G0 X331.2409 Y38.2500 Z23.0000
G1 X331.2409 Y38.2500 Z17.0000 F999.6000
G1 X199.7567 Y38.2500 Z17.0000 F1999.8000
G3 X199.7591 Y39.7500 Z17.0000 I-6.6552 J0.7608 K0.0000 F1999.8000
G1 X331.2433 Y39.7500 Z17.0000 F1999.8000
G3 X331.2409 Y38.2500 Z17.0000 I6.6552 J-0.7608 K0.0000 F1999.8000
G0 X331.2409 Y38.2500 Z23.0000
G0 X331.2409 Y46.5000 Z23.0000
G1 X331.2409 Y46.5000 Z17.0000 F999.6000
G1 X48.0000 Y46.5000 Z17.0000 F1999.8000
G2 X46.5000 Y48.0000 Z17.0000 I0.0000 J1.5000 K0.0000 F1999.8000
G1 X46.5000 Y202.0000 Z17.0000 F1999.8000
G2 X48.0000 Y203.5000 Z17.0000 I1.5000 J-0.0000 K0.0000 F1999.8000
G1 X332.0000 Y203.5000 Z17.0000 F1999.8000
G2 X333.5000 Y202.0000 Z17.0000 I-0.0000 J-1.5000 K0.0000 F1999.8000
G1 X333.5000 Y48.0000 Z17.0000 F1999.8000
G2 X332.0000 Y46.5000 Z17.0000 I-1.5000 J0.0000 K0.0000 F1999.8000
G1 X331.2409 Y46.5000 Z17.0000 F1999.8000
G0 X331.2409 Y46.5000 Z23.0000
G0 X337.5285 Y45.6936 Z23.0000
G1 X337.5285 Y45.6936 Z17.0000 F999.6000
G3 X338.0000 Y48.0000 Z17.0000 I-5.2468 J2.2740 K0.0000 F1999.8000
G1 X338.0000 Y202.0000 Z17.0000 F1999.8000
G3 X337.5313 Y204.3038 Z17.0000 I-5.7944 J0.0206 K0.0000 F1999.8000
G3 X344.4715 Y204.3064 Z17.0000 I3.4677 J6.6152 K0.0000 F1999.8000
G3 X344.0000 Y202.0000 Z17.0000 I5.2468 J-2.2740 K0.0000 F1999.8000
G1 X344.0000 Y48.0000 Z17.0000 F1999.8000
G3 X344.4687 Y45.6962 Z17.0000 I5.7944 J-0.0206 K0.0000 F1999.8000
G3 X337.5285 Y45.6936 Z17.0000 I-3.4677 J-6.6152 K0.0000 F1999.8000
G0 X337.5285 Y45.6936 Z23.0000
G0 X340.2500 Y48.7591 Z23.0000
G1 X340.2500 Y48.7591 Z17.0000 F999.6000
G1 X340.2500 Y201.2433 Z17.0000 F1999.8000
G3 X341.7500 Y201.2409 Z17.0000 I0.7608 J6.6552 K0.0000 F1999.8000
G1 X341.7500 Y48.7567 Z17.0000 F1999.8000
G3 X340.2500 Y48.7591 Z17.0000 I-0.7608 J-6.6552 K0.0000 F1999.8000
G0 X340.2500 Y48.7591 Z23.0000
G0 X193.0388 Y39.1974 Z23.0000
G1 X193.0388 Y39.1974 Z17.0000 F999.6000
G2 X189.4871 Y35.9983 Z17.0000 I-3.0388 J-0.1974 K0.0000 F1999.8000
G2 X186.9983 Y39.5129 Z17.0000 I0.5129 J3.0017 K0.0000 F1999.8000
G2 X190.5129 Y42.0017 Z17.0000 I3.0017 J-0.5129 K0.0000 F1999.8000
G2 X193.0388 Y39.1974 Z17.0000 I-0.5129 J-3.0017 K0.0000 F1999.8000
G0 X193.0388 Y39.1974 Z23.0000
G0 X189.3456 Y44.2500 Z23.0000
G1 X189.3456 Y44.2500 Z17.0000 F999.6000
G3 X189.3456 Y33.7500 Z17.0000 I0.6443 J-5.2500 K0.0000 F1999.8000
G1 X48.0000 Y33.7500 Z17.0000 F1999.8000
G3 X44.2500 Y30.0000 Z17.0000 I-0.0000 J-3.7500 K0.0000 F1999.8000
G1 X44.2500 Y3.7500 Z17.0000 F1999.8000
G1 X33.7500 Y3.7500 Z17.0000 F1999.8000
G1 X33.7500 Y30.0000 Z17.0000 F1999.8000
G3 X30.0000 Y33.7500 Z17.0000 I-3.7500 J0.0000 K0.0000 F1999.8000
G1 X3.7500 Y33.7500 Z17.0000 F1999.8000
G1 X3.7500 Y44.2500 Z17.0000 F1999.8000
G1 X30.0000 Y44.2500 Z17.0000 F1999.8000
G3 X33.7500 Y48.0000 Z17.0000 I0.0000 J3.7500 K0.0000 F1999.8000
G1 X33.7500 Y202.0000 Z17.0000 F1999.8000
G3 X30.0000 Y205.7500 Z17.0000 I-3.7500 J0.0000 K0.0000 F1999.8000
G1 X3.7500 Y205.7500 Z17.0000 F1999.8000
G1 X3.7500 Y216.2500 Z17.0000 F1999.8000
G1 X30.0000 Y216.2500 Z17.0000 F1999.8000
G3 X33.7500 Y220.0000 Z17.0000 I0.0000 J3.7500 K0.0000 F1999.8000
G1 X33.7500 Y246.2500 Z17.0000 F1999.8000
G1 X44.2500 Y246.2500 Z17.0000 F1999.8000
G1 X44.2500 Y220.0000 Z17.0000 F1999.8000
G3 X48.0000 Y216.2500 Z17.0000 I3.7500 J-0.0000 K0.0000 F1999.8000
G1 X189.3456 Y216.2500 Z17.0000 F1999.8000
G3 X189.3456 Y205.7500 Z17.0000 I0.6443 J-5.2500 K0.0000 F1999.8000
G1 X48.0000 Y205.7500 Z17.0000 F1999.8000
G3 X44.2500 Y202.0000 Z17.0000 I-0.0000 J-3.7500 K0.0000 F1999.8000
G1 X44.2500 Y48.0000 Z17.0000 F1999.8000
G3 X48.0000 Y44.2500 Z17.0000 I3.7500 J-0.0000 K0.0000 F1999.8000
G1 X189.3456 Y44.2500 Z17.0000 F1999.8000
G0 X189.3456 Y44.2500 Z23.0000
G0 X183.0838 Y42.0000 Z23.0000
G1 X183.0838 Y42.0000 Z17.0000 F999.6000
G3 X183.0830 Y36.0000 Z17.0000 I6.7870 J-3.0009 K0.0000 F1999.8000
G1 X48.0000 Y36.0000 Z17.0000 F1999.8000
G3 X45.6962 Y35.5313 Z17.0000 I-0.0206 J-5.7944 K0.0000 F1999.8000
G3 X45.6936 Y42.4715 Z17.0000 I-6.6152 J3.4677 K0.0000 F1999.8000
G3 X48.0000 Y42.0000 Z17.0000 I2.2740 J5.2468 K0.0000 F1999.8000
G1 X183.0838 Y42.0000 Z17.0000 F1999.8000
G0 X183.0838 Y42.0000 Z23.0000
G0 X180.2433 Y39.7500 Z23.0000
G1 X180.2433 Y39.7500 Z17.0000 F999.6000
G3 X180.2409 Y38.2500 Z17.0000 I6.6552 J-0.7608 K0.0000 F1999.8000
G1 X48.7567 Y38.2500 Z17.0000 F1999.8000
G3 X48.7591 Y39.7500 Z17.0000 I-6.6552 J0.7608 K0.0000 F1999.8000
G1 X180.2433 Y39.7500 Z17.0000 F1999.8000
G0 X180.2433 Y39.7500 Z23.0000
G0 X179.4593 Y39.0000 Z23.0000
G1 X179.4593 Y39.0000 Z17.0000 F999.6000
G1 X49.5407 Y39.0000 Z17.0000 F1999.8000
G1 X179.4593 Y39.0000 Z17.0000 F1999.8000
G0 X179.4593 Y39.0000 Z23.0000
G0 X44.2931 Y39.0000 Z23.0000
G1 X44.2931 Y39.0000 Z17.0000 F999.6000
G2 X38.2352 Y33.7624 Z17.0000 I-5.2931 J0.0000 K0.0000 F1999.8000
G2 X39.7648 Y44.2376 Z17.0000 I0.7648 J5.2376 K0.0000 F1999.8000
G2 X44.2931 Y39.0000 Z17.0000 I-0.7648 J-5.2376 K0.0000 F1999.8000
G0 X44.2931 Y39.0000 Z23.0000
G0 X42.0452 Y39.0000 Z23.0000
G1 X42.0452 Y39.0000 Z17.0000 F999.6000
G2 X38.4871 Y35.9983 Z17.0000 I-3.0452 J0.0000 K0.0000 F1999.8000
G2 X35.9983 Y39.5129 Z17.0000 I0.5129 J3.0017 K0.0000 F1999.8000
G2 X39.5129 Y42.0017 Z17.0000 I3.0017 J-0.5129 K0.0000 F1999.8000
G2 X42.0452 Y39.0000 Z17.0000 I-0.5129 J-3.0017 K0.0000 F1999.8000
G0 X42.0452 Y39.0000 Z23.0000
G0 X42.4715 Y32.3064 Z23.0000
G1 X42.4715 Y32.3064 Z17.0000 F999.6000
G3 X42.0000 Y30.0000 Z17.0000 I5.2468 J-2.2740 K0.0000 F1999.8000
G1 X42.0000 Y6.0000 Z17.0000 F1999.8000
G1 X36.0000 Y6.0000 Z17.0000 F1999.8000
G1 X36.0000 Y30.0000 Z17.0000 F1999.8000
G3 X35.5313 Y32.3038 Z17.0000 I-5.7944 J0.0206 K0.0000 F1999.8000
G3 X42.4715 Y32.3064 Z17.0000 I3.4677 J6.6152 K0.0000 F1999.8000
G0 X42.4715 Y32.3064 Z23.0000
G0 X39.7500 Y29.2409 Z23.0000
G1 X39.7500 Y29.2409 Z17.0000 F999.6000
G1 X39.7500 Y8.2500 Z17.0000 F1999.8000
G1 X38.2500 Y8.2500 Z17.0000 F1999.8000
G1 X38.2500 Y29.2433 Z17.0000 F1999.8000
G3 X39.7500 Y29.2409 Z17.0000 I0.7608 J6.6552 K0.0000 F1999.8000
G0 X39.7500 Y29.2409 Z23.0000
G0 X32.3064 Y35.5285 Z23.0000
G1 X32.3064 Y35.5285 Z17.0000 F999.6000
G3 X30.0000 Y36.0000 Z17.0000 I-2.2740 J-5.2468 K0.0000 F1999.8000
G1 X6.0000 Y36.0000 Z17.0000 F1999.8000
G1 X6.0000 Y42.0000 Z17.0000 F1999.8000
G1 X30.0000 Y42.0000 Z17.0000 F1999.8000
G3 X32.3038 Y42.4687 Z17.0000 I0.0206 J5.7944 K0.0000 F1999.8000
G3 X32.3064 Y35.5285 Z17.0000 I6.6152 J-3.4677 K0.0000 F1999.8000
G0 X32.3064 Y35.5285 Z23.0000
G0 X29.2409 Y38.2500 Z23.0000
G1 X29.2409 Y38.2500 Z17.0000 F999.6000
G1 X8.2500 Y38.2500 Z17.0000 F1999.8000
G1 X8.2500 Y39.7500 Z17.0000 F1999.8000
G1 X29.2433 Y39.7500 Z17.0000 F1999.8000
G3 X29.2409 Y38.2500 Z17.0000 I6.6552 J-0.7608 K0.0000 F1999.8000
G0 X29.2409 Y38.2500 Z23.0000
G0 X35.5285 Y45.6936 Z23.0000
G1 X35.5285 Y45.6936 Z17.0000 F999.6000
G3 X36.0000 Y48.0000 Z17.0000 I-5.2468 J2.2740 K0.0000 F1999.8000
G1 X36.0000 Y202.0000 Z17.0000 F1999.8000
G3 X35.5313 Y204.3038 Z17.0000 I-5.7944 J0.0206 K0.0000 F1999.8000
G3 X42.4715 Y204.3064 Z17.0000 I3.4677 J6.6152 K0.0000 F1999.8000
G3 X42.0000 Y202.0000 Z17.0000 I5.2468 J-2.2740 K0.0000 F1999.8000
G1 X42.0000 Y48.0000 Z17.0000 F1999.8000
G3 X42.4687 Y45.6962 Z17.0000 I5.7944 J-0.0206 K0.0000 F1999.8000
G3 X35.5285 Y45.6936 Z17.0000 I-3.4677 J-6.6152 K0.0000 F1999.8000
G0 X35.5285 Y45.6936 Z23.0000
G0 X38.2500 Y48.7591 Z23.0000
G1 X38.2500 Y48.7591 Z17.0000 F999.6000
G1 X38.2500 Y201.2433 Z17.0000 F1999.8000
G3 X39.7500 Y201.2409 Z17.0000 I0.7608 J6.6552 K0.0000 F1999.8000
G1 X39.7500 Y48.7567 Z17.0000 F1999.8000
G3 X38.2500 Y48.7591 Z17.0000 I-0.7608 J-6.6552 K0.0000 F1999.8000
G0 X38.2500 Y48.7591 Z23.0000
G0 X38.9755 Y205.7070 Z23.0000
G1 X38.9755 Y205.7070 Z17.0000 F999.6000
G2 X38.2352 Y205.7624 Z17.0000 I0.0245 J5.2930 K0.0000 F1999.8000
G2 X39.7648 Y216.2376 Z17.0000 I0.7648 J5.2376 K0.0000 F1999.8000
G2 X38.9755 Y205.7070 Z17.0000 I-0.7648 J-5.2376 K0.0000 F1999.8000
G0 X38.9755 Y205.7070 Z23.0000
G0 X38.9859 Y207.9548 Z23.0000
G1 X38.9859 Y207.9548 Z17.0000 F999.6000
G2 X38.4871 Y207.9983 Z17.0000 I0.0141 J3.0452 K0.0000 F1999.8000
G2 X39.5129 Y214.0017 Z17.0000 I0.5129 J3.0017 K0.0000 F1999.8000
G2 X38.9859 Y207.9548 Z17.0000 I-0.5129 J-3.0017 K0.0000 F1999.8000
G0 X38.9859 Y207.9548 Z23.0000
G0 X32.3064 Y207.5285 Z23.0000
G1 X32.3064 Y207.5285 Z17.0000 F999.6000
G3 X30.0000 Y208.0000 Z17.0000 I-2.2740 J-5.2468 K0.0000 F1999.8000
G1 X6.0000 Y208.0000 Z17.0000 F1999.8000
G1 X6.0000 Y214.0000 Z17.0000 F1999.8000
G1 X30.0000 Y214.0000 Z17.0000 F1999.8000
G3 X32.3038 Y214.4687 Z17.0000 I0.0206 J5.7944 K0.0000 F1999.8000
G3 X32.3064 Y207.5285 Z17.0000 I6.6152 J-3.4677 K0.0000 F1999.8000
G0 X32.3064 Y207.5285 Z23.0000
G0 X29.2409 Y210.2500 Z23.0000
G1 X29.2409 Y210.2500 Z17.0000 F999.6000
G1 X8.2500 Y210.2500 Z17.0000 F1999.8000
G1 X8.2500 Y211.7500 Z17.0000 F1999.8000
G1 X29.2433 Y211.7500 Z17.0000 F1999.8000
G3 X29.2409 Y210.2500 Z17.0000 I6.6552 J-0.7608 K0.0000 F1999.8000
G0 X29.2409 Y210.2500 Z23.0000
G0 X35.5285 Y217.6936 Z23.0000
G1 X35.5285 Y217.6936 Z17.0000 F999.6000
G3 X36.0000 Y220.0000 Z17.0000 I-5.2468 J2.2740 K0.0000 F1999.8000
G1 X36.0000 Y244.0000 Z17.0000 F1999.8000
G1 X42.0000 Y244.0000 Z17.0000 F1999.8000
G1 X42.0000 Y220.0000 Z17.0000 F1999.8000
G3 X42.4687 Y217.6962 Z17.0000 I5.7944 J-0.0206 K0.0000 F1999.8000
G3 X35.5285 Y217.6936 Z17.0000 I-3.4677 J-6.6152 K0.0000 F1999.8000
G0 X35.5285 Y217.6936 Z23.0000
G0 X38.2500 Y220.7591 Z23.0000
G1 X38.2500 Y220.7591 Z17.0000 F999.6000
G1 X38.2500 Y241.7500 Z17.0000 F1999.8000
G1 X39.7500 Y241.7500 Z17.0000 F1999.8000
G1 X39.7500 Y220.7567 Z17.0000 F1999.8000
G3 X38.2500 Y220.7591 Z17.0000 I-0.7608 J-6.6552 K0.0000 F1999.8000
G0 X38.2500 Y220.7591 Z23.0000
G0 X45.6936 Y214.4715 Z23.0000
G1 X45.6936 Y214.4715 Z17.0000 F999.6000
G3 X48.0000 Y214.0000 Z17.0000 I2.2740 J5.2468 K0.0000 F1999.8000
G1 X183.0838 Y214.0000 Z17.0000 F1999.8000
G3 X183.0830 Y208.0000 Z17.0000 I6.7870 J-3.0009 K0.0000 F1999.8000
G1 X48.0000 Y208.0000 Z17.0000 F1999.8000
G3 X45.6962 Y207.5313 Z17.0000 I-0.0206 J-5.7944 K0.0000 F1999.8000
G3 X45.6936 Y214.4715 Z17.0000 I-6.6152 J3.4677 K0.0000 F1999.8000
G0 X45.6936 Y214.4715 Z23.0000
G0 X48.7591 Y211.7500 Z23.0000
G1 X48.7591 Y211.7500 Z17.0000 F999.6000
G1 X180.2433 Y211.7500 Z17.0000 F1999.8000
G3 X180.2409 Y210.2500 Z17.0000 I6.6552 J-0.7608 K0.0000 F1999.8000
G1 X48.7567 Y210.2500 Z17.0000 F1999.8000
G3 X48.7591 Y211.7500 Z17.0000 I-6.6552 J0.7608 K0.0000 F1999.8000
G0 X48.7591 Y211.7500 Z23.0000
G0 X186.9548 Y211.0162 Z23.0000
G1 X186.9548 Y211.0162 Z17.0000 F999.6000
G2 X190.5129 Y214.0017 Z17.0000 I3.0452 J-0.0162 K0.0000 F1999.8000
G2 X193.0017 Y210.4871 Z17.0000 I-0.5129 J-3.0017 K0.0000 F1999.8000
G2 X189.4871 Y207.9983 Z17.0000 I-3.0017 J0.5129 K0.0000 F1999.8000
G2 X186.9548 Y211.0162 Z17.0000 I0.5129 J3.0017 K0.0000 F1999.8000
G0 X186.9548 Y211.0162 Z23.0000
G0 X196.9170 Y214.0000 Z23.0000
G1 X196.9170 Y214.0000 Z17.0000 F999.6000
G1 X332.0000 Y214.0000 Z17.0000 F1999.8000
G3 X334.3038 Y214.4687 Z17.0000 I0.0206 J5.7944 K0.0000 F1999.8000
G3 X334.3064 Y207.5285 Z17.0000 I6.6152 J-3.4677 K0.0000 F1999.8000
G3 X332.0000 Y208.0000 Z17.0000 I-2.2740 J-5.2468 K0.0000 F1999.8000
G1 X196.9162 Y208.0000 Z17.0000 F1999.8000
G3 X196.9170 Y214.0000 Z17.0000 I-6.7870 J3.0009 K0.0000 F1999.8000
G0 X196.9170 Y214.0000 Z23.0000
G0 X199.7591 Y211.7500 Z23.0000
G1 X199.7591 Y211.7500 Z17.0000 F999.6000
G1 X331.2433 Y211.7500 Z17.0000 F1999.8000
G3 X331.2409 Y210.2500 Z17.0000 I6.6552 J-0.7608 K0.0000 F1999.8000
G1 X199.7567 Y210.2500 Z17.0000 F1999.8000
G3 X199.7591 Y211.7500 Z17.0000 I-6.6552 J0.7608 K0.0000 F1999.8000
G0 X199.7591 Y211.7500 Z23.0000
G0 X335.7070 Y211.0281 Z23.0000
G1 X335.7070 Y211.0281 Z17.0000 F999.6000
G2 X341.7648 Y216.2376 Z17.0000 I5.2930 J-0.0281 K0.0000 F1999.8000
G2 X346.2376 Y210.2352 Z17.0000 I-0.7648 J-5.2376 K0.0000 F1999.8000
G2 X340.2352 Y205.7624 Z17.0000 I-5.2376 J0.7648 K0.0000 F1999.8000
G2 X335.7070 Y211.0281 Z17.0000 I0.7648 J5.2376 K0.0000 F1999.8000
G0 X335.7070 Y211.0281 Z23.0000
G0 X337.9548 Y211.0162 Z23.0000
G1 X337.9548 Y211.0162 Z17.0000 F999.6000
G2 X341.5129 Y214.0017 Z17.0000 I3.0452 J-0.0162 K0.0000 F1999.8000
G2 X344.0017 Y210.4871 Z17.0000 I-0.5129 J-3.0017 K0.0000 F1999.8000
G2 X340.4871 Y207.9983 Z17.0000 I-3.0017 J0.5129 K0.0000 F1999.8000
G2 X337.9548 Y211.0162 Z17.0000 I0.5129 J3.0017 K0.0000 F1999.8000
G0 X337.9548 Y211.0162 Z23.0000
G0 X337.5285 Y217.6936 Z23.0000
G1 X337.5285 Y217.6936 Z17.0000 F999.6000
G3 X338.0000 Y220.0000 Z17.0000 I-5.2468 J2.2740 K0.0000 F1999.8000
G1 X338.0000 Y244.0000 Z17.0000 F1999.8000
G1 X344.0000 Y244.0000 Z17.0000 F1999.8000
G1 X344.0000 Y220.0000 Z17.0000 F1999.8000
G3 X344.4687 Y217.6962 Z17.0000 I5.7944 J-0.0206 K0.0000 F1999.8000
G3 X337.5285 Y217.6936 Z17.0000 I-3.4677 J-6.6152 K0.0000 F1999.8000
G0 X337.5285 Y217.6936 Z23.0000
G0 X340.2500 Y220.7591 Z23.0000
G1 X340.2500 Y220.7591 Z17.0000 F999.6000
G1 X340.2500 Y241.7500 Z17.0000 F1999.8000
G1 X341.7500 Y241.7500 Z17.0000 F1999.8000
G1 X341.7500 Y220.7567 Z17.0000 F1999.8000
G3 X340.2500 Y220.7591 Z17.0000 I-0.7608 J-6.6552 K0.0000 F1999.8000
G0 X340.2500 Y220.7591 Z23.0000
G0 X347.6936 Y214.4715 Z23.0000
G1 X347.6936 Y214.4715 Z17.0000 F999.6000
G3 X350.0000 Y214.0000 Z17.0000 I2.2740 J5.2468 K0.0000 F1999.8000
G1 X374.0000 Y214.0000 Z17.0000 F1999.8000
G1 X374.0000 Y208.0000 Z17.0000 F1999.8000
G1 X350.0000 Y208.0000 Z17.0000 F1999.8000
G3 X347.6962 Y207.5313 Z17.0000 I-0.0206 J-5.7944 K0.0000 F1999.8000
G3 X347.6936 Y214.4715 Z17.0000 I-6.6152 J3.4677 K0.0000 F1999.8000
G0 X347.6936 Y214.4715 Z23.0000
G0 X350.7591 Y211.7500 Z23.0000
G1 X350.7591 Y211.7500 Z17.0000 F999.6000
G1 X371.7500 Y211.7500 Z17.0000 F1999.8000
G1 X371.7500 Y210.2500 Z17.0000 F1999.8000
G1 X350.7567 Y210.2500 Z17.0000 F1999.8000
G3 X350.7591 Y211.7500 Z17.0000 I-6.6552 J0.7608 K0.0000 F1999.8000
G1 X350.7591 Y211.7500 Z16.5000 F999.6000
G1 X371.7500 Y211.7500 Z16.5000 F1999.8000
G1 X371.7500 Y210.2500 Z16.5000 F1999.8000
G1 X350.7567 Y210.2500 Z16.5000 F1999.8000
G3 X350.7591 Y211.7500 Z16.5000 I-6.6552 J0.7608 K0.0000 F1999.8000
G0 X350.7591 Y211.7500 Z23.0000
G0 X348.5276 Y211.5768 Z23.0000
G1 X348.5276 Y211.5768 Z16.5000 F999.6000
G3 X347.6936 Y214.4715 Z16.5000 I-7.4466 J-0.5779 K0.0000 F1999.8000
G3 X350.0000 Y214.0000 Z16.5000 I2.2740 J5.2468 K0.0000 F1999.8000
G1 X374.0000 Y214.0000 Z16.5000 F1999.8000
G1 X374.0000 Y208.0000 Z16.5000 F1999.8000
G1 X350.0000 Y208.0000 Z16.5000 F1999.8000
G3 X347.6962 Y207.5313 Z16.5000 I-0.0206 J-5.7944 K0.0000 F1999.8000
G3 X348.5276 Y211.5768 Z16.5000 I-6.6152 J3.4677 K0.0000 F1999.8000
G0 X348.5276 Y211.5768 Z23.0000
G0 X346.2776 Y211.4044 Z23.0000
G1 X346.2776 Y211.4044 Z16.5000 F999.6000
G2 X340.2352 Y205.7624 Z16.5000 I-5.2776 J-0.4044 K0.0000 F1999.8000
G2 X341.7648 Y216.2376 Z16.5000 I0.7648 J5.2376 K0.0000 F1999.8000
G2 X346.2776 Y211.4044 Z16.5000 I-0.7648 J-5.2376 K0.0000 F1999.8000
G0 X346.2776 Y211.4044 Z23.0000
G0 X344.0363 Y211.2327 Z23.0000
G1 X344.0363 Y211.2327 Z16.5000 F999.6000
G2 X340.4871 Y207.9983 Z16.5000 I-3.0363 J-0.2327 K0.0000 F1999.8000
G2 X341.5129 Y214.0017 Z16.5000 I0.5129 J3.0017 K0.0000 F1999.8000
G2 X344.0363 Y211.2327 Z16.5000 I-0.5129 J-3.0017 K0.0000 F1999.8000
G0 X344.0363 Y211.2327 Z23.0000
G0 X344.4687 Y217.6962 Z23.0000
G1 X344.4687 Y217.6962 Z16.5000 F999.6000
G3 X337.5285 Y217.6936 Z16.5000 I-3.4677 J-6.6152 K0.0000 F1999.8000
G3 X338.0000 Y220.0000 Z16.5000 I-5.2468 J2.2740 K0.0000 F1999.8000
G1 X338.0000 Y244.0000 Z16.5000 F1999.8000
G1 X344.0000 Y244.0000 Z16.5000 F1999.8000
G1 X344.0000 Y220.0000 Z16.5000 F1999.8000
G3 X344.4687 Y217.6962 Z16.5000 I5.7944 J-0.0206 K0.0000 F1999.8000
G0 X344.4687 Y217.6962 Z23.0000
G0 X346.5383 Y218.5582 Z23.0000
G1 X346.5383 Y218.5582 Z16.5000 F999.6000
G3 X350.0000 Y216.2500 Z16.5000 I3.4617 J1.4418 K0.0000 F1999.8000
G1 X376.2500 Y216.2500 Z16.5000 F1999.8000
G1 X376.2500 Y205.7500 Z16.5000 F1999.8000
G1 X350.0000 Y205.7500 Z16.5000 F1999.8000
G3 X346.2500 Y202.0000 Z16.5000 I-0.0000 J-3.7500 K0.0000 F1999.8000
G1 X346.2500 Y48.0000 Z16.5000 F1999.8000
G3 X350.0000 Y44.2500 Z16.5000 I3.7500 J-0.0000 K0.0000 F1999.8000
G1 X376.2500 Y44.2500 Z16.5000 F1999.8000
G1 X376.2500 Y33.7500 Z16.5000 F1999.8000
G1 X350.0000 Y33.7500 Z16.5000 F1999.8000
G3 X346.2500 Y30.0000 Z16.5000 I-0.0000 J-3.7500 K0.0000 F1999.8000
G1 X346.2500 Y3.7500 Z16.5000 F1999.8000
G1 X335.7500 Y3.7500 Z16.5000 F1999.8000
G1 X335.7500 Y30.0000 Z16.5000 F1999.8000
G3 X332.0000 Y33.7500 Z16.5000 I-3.7500 J0.0000 K0.0000 F1999.8000
G1 X190.6544 Y33.7500 Z16.5000 F1999.8000
G3 X190.6544 Y44.2500 Z16.5000 I-0.6443 J5.2500 K0.0000 F1999.8000
G1 X332.0000 Y44.2500 Z16.5000 F1999.8000
G3 X335.7500 Y48.0000 Z16.5000 I0.0000 J3.7500 K0.0000 F1999.8000
G1 X335.7500 Y202.0000 Z16.5000 F1999.8000
G3 X332.0000 Y205.7500 Z16.5000 I-3.7500 J0.0000 K0.0000 F1999.8000
G1 X190.6544 Y205.7500 Z16.5000 F1999.8000
G3 X190.6544 Y216.2500 Z16.5000 I-0.6443 J5.2500 K0.0000 F1999.8000
G1 X332.0000 Y216.2500 Z16.5000 F1999.8000
G3 X335.7500 Y220.0000 Z16.5000 I0.0000 J3.7500 K0.0000 F1999.8000
G1 X335.7500 Y246.2500 Z16.5000 F1999.8000
G1 X346.2500 Y246.2500 Z16.5000 F1999.8000
G1 X346.2500 Y220.0000 Z16.5000 F1999.8000
G3 X346.5383 Y218.5582 Z16.5000 I3.7500 J-0.0000 K0.0000 F1999.8000
G0 X346.5383 Y218.5582 Z23.0000
G0 X348.6153 Y219.4233 Z23.0000
G1 X348.6153 Y219.4233 Z16.5000 F999.6000
G3 X350.0000 Y218.5000 Z16.5000 I1.3847 J0.5767 K0.0000 F1999.8000
G1 X378.5000 Y218.5000 Z16.5000 F1999.8000
G1 X378.5000 Y203.5000 Z16.5000 F1999.8000
G1 X350.0000 Y203.5000 Z16.5000 F1999.8000
G3 X348.5000 Y202.0000 Z16.5000 I0.0000 J-1.5000 K0.0000 F1999.8000
G1 X348.5000 Y48.0000 Z16.5000 F1999.8000
G3 X350.0000 Y46.5000 Z16.5000 I1.5000 J0.0000 K0.0000 F1999.8000
G1 X378.5000 Y46.5000 Z16.5000 F1999.8000
G1 X378.5000 Y31.5000 Z16.5000 F1999.8000
G1 X350.0000 Y31.5000 Z16.5000 F1999.8000
G3 X348.5000 Y30.0000 Z16.5000 I0.0000 J-1.5000 K0.0000 F1999.8000
G1 X348.5000 Y1.5000 Z16.5000 F1999.8000
G1 X333.5000 Y1.5000 Z16.5000 F1999.8000
G1 X333.5000 Y30.0000 Z16.5000 F1999.8000
G3 X332.0000 Y31.5000 Z16.5000 I-1.5000 J-0.0000 K0.0000 F1999.8000
G1 X48.0000 Y31.5000 Z16.5000 F1999.8000
G3 X46.5000 Y30.0000 Z16.5000 I0.0000 J-1.5000 K0.0000 F1999.8000
G1 X46.5000 Y1.5000 Z16.5000 F1999.8000
G1 X31.5000 Y1.5000 Z16.5000 F1999.8000
G1 X31.5000 Y30.0000 Z16.5000 F1999.8000
G3 X30.0000 Y31.5000 Z16.5000 I-1.5000 J-0.0000 K0.0000 F1999.8000
G1 X1.5000 Y31.5000 Z16.5000 F1999.8000
G1 X1.5000 Y46.5000 Z16.5000 F1999.8000
G1 X30.0000 Y46.5000 Z16.5000 F1999.8000
G3 X31.5000 Y48.0000 Z16.5000 I-0.0000 J1.5000 K0.0000 F1999.8000
G1 X31.5000 Y202.0000 Z16.5000 F1999.8000
G3 X30.0000 Y203.5000 Z16.5000 I-1.5000 J-0.0000 K0.0000 F1999.8000
G1 X1.5000 Y203.5000 Z16.5000 F1999.8000
G1 X1.5000 Y218.5000 Z16.5000 F1999.8000
G1 X30.0000 Y218.5000 Z16.5000 F1999.8000
G3 X31.5000 Y220.0000 Z16.5000 I-0.0000 J1.5000 K0.0000 F1999.8000
G1 X31.5000 Y248.5000 Z16.5000 F1999.8000
G1 X46.5000 Y248.5000 Z16.5000 F1999.8000
G1 X46.5000 Y220.0000 Z16.5000 F1999.8000
G3 X48.0000 Y218.5000 Z16.5000 I1.5000 J0.0000 K0.0000 F1999.8000
G1 X332.0000 Y218.5000 Z16.5000 F1999.8000
G3 X333.5000 Y220.0000 Z16.5000 I-0.0000 J1.5000 K0.0000 F1999.8000
G1 X333.5000 Y248.5000 Z16.5000 F1999.8000
G1 X348.5000 Y248.5000 Z16.5000 F1999.8000
G1 X348.5000 Y220.0000 Z16.5000 F1999.8000
G3 X348.6153 Y219.4233 Z16.5000 I1.5000 J0.0000 K0.0000 F1999.8000
G0 X348.6153 Y219.4233 Z23.0000
G0 X341.7500 Y220.7567 Z23.0000
G1 X341.7500 Y220.7567 Z16.5000 F999.6000
G3 X340.2500 Y220.7591 Z16.5000 I-0.7608 J-6.6552 K0.0000 F1999.8000
G1 X340.2500 Y241.7500 Z16.5000 F1999.8000
G1 X341.7500 Y241.7500 Z16.5000 F1999.8000
G1 X341.7500 Y220.7567 Z16.5000 F1999.8000
G0 X341.7500 Y220.7567 Z23.0000
G0 X334.3038 Y214.4687 Z23.0000
G1 X334.3038 Y214.4687 Z16.5000 F999.6000
G3 X334.3064 Y207.5285 Z16.5000 I6.6152 J-3.4677 K0.0000 F1999.8000
G3 X332.0000 Y208.0000 Z16.5000 I-2.2740 J-5.2468 K0.0000 F1999.8000
G1 X196.9162 Y208.0000 Z16.5000 F1999.8000
G3 X196.9170 Y214.0000 Z16.5000 I-6.7870 J3.0009 K0.0000 F1999.8000
G1 X332.0000 Y214.0000 Z16.5000 F1999.8000
G3 X334.3038 Y214.4687 Z16.5000 I0.0206 J5.7944 K0.0000 F1999.8000
G0 X334.3038 Y214.4687 Z23.0000
G0 X331.2433 Y211.7500 Z23.0000
G1 X331.2433 Y211.7500 Z16.5000 F999.6000
G3 X331.2409 Y210.2500 Z16.5000 I6.6552 J-0.7608 K0.0000 F1999.8000
G1 X199.7567 Y210.2500 Z16.5000 F1999.8000
G3 X199.7591 Y211.7500 Z16.5000 I-6.6552 J0.7608 K0.0000 F1999.8000
G1 X331.2433 Y211.7500 Z16.5000 F1999.8000
G0 X331.2433 Y211.7500 Z23.0000
G0 X331.2433 Y203.5000 Z23.0000
G1 X331.2433 Y203.5000 Z16.5000 F999.6000
G1 X332.0000 Y203.5000 Z16.5000 F1999.8000
G2 X333.5000 Y202.0000 Z16.5000 I-0.0000 J-1.5000 K0.0000 F1999.8000
G1 X333.5000 Y48.0000 Z16.5000 F1999.8000
G2 X332.0000 Y46.5000 Z16.5000 I-1.5000 J0.0000 K0.0000 F1999.8000
G1 X48.0000 Y46.5000 Z16.5000 F1999.8000
G2 X46.5000 Y48.0000 Z16.5000 I0.0000 J1.5000 K0.0000 F1999.8000
G1 X46.5000 Y202.0000 Z16.5000 F1999.8000
G2 X48.0000 Y203.5000 Z16.5000 I1.5000 J-0.0000 K0.0000 F1999.8000
G1 X331.2433 Y203.5000 Z16.5000 F1999.8000
G0 X331.2433 Y203.5000 Z23.0000
G0 X337.5313 Y204.3038 Z23.0000
G1 X337.5313 Y204.3038 Z16.5000 F999.6000
G3 X344.4715 Y204.3064 Z16.5000 I3.4677 J6.6152 K0.0000 F1999.8000
G3 X344.0000 Y202.0000 Z16.5000 I5.2468 J-2.2740 K0.0000 F1999.8000
G1 X344.0000 Y48.0000 Z16.5000 F1999.8000
G3 X344.4687 Y45.6962 Z16.5000 I5.7944 J-0.0206 K0.0000 F1999.8000
G3 X337.5285 Y45.6936 Z16.5000 I-3.4677 J-6.6152 K0.0000 F1999.8000
G3 X338.0000 Y48.0000 Z16.5000 I-5.2468 J2.2740 K0.0000 F1999.8000
G1 X338.0000 Y202.0000 Z16.5000 F1999.8000
G3 X337.5313 Y204.3038 Z16.5000 I-5.7944 J0.0206 K0.0000 F1999.8000
G0 X337.5313 Y204.3038 Z23.0000
G0 X340.2500 Y201.2433 Z23.0000
G1 X340.2500 Y201.2433 Z16.5000 F999.6000
G3 X341.7500 Y201.2409 Z16.5000 I0.7608 J6.6552 K0.0000 F1999.8000
G1 X341.7500 Y48.7567 Z16.5000 F1999.8000
G3 X340.2500 Y48.7591 Z16.5000 I-0.7608 J-6.6552 K0.0000 F1999.8000
G1 X340.2500 Y201.2433 Z16.5000 F1999.8000
G0 X340.2500 Y201.2433 Z23.0000
G0 X193.0388 Y210.8027 Z23.0000
G1 X193.0388 Y210.8027 Z16.5000 F999.6000
G2 X189.4871 Y207.9983 Z16.5000 I-3.0388 J0.1973 K0.0000 F1999.8000
G2 X190.5129 Y214.0017 Z16.5000 I0.5129 J3.0017 K0.0000 F1999.8000
G2 X193.0388 Y210.8027 Z16.5000 I-0.5129 J-3.0017 K0.0000 F1999.8000
G0 X193.0388 Y210.8027 Z23.0000
G0 X189.3456 Y205.7500 Z23.0000
G1 X189.3456 Y205.7500 Z16.5000 F999.6000
G1 X48.0000 Y205.7500 Z16.5000 F1999.8000
G3 X44.2500 Y202.0000 Z16.5000 I-0.0000 J-3.7500 K0.0000 F1999.8000
G1 X44.2500 Y48.0000 Z16.5000 F1999.8000
G3 X48.0000 Y44.2500 Z16.5000 I3.7500 J-0.0000 K0.0000 F1999.8000
G1 X189.3456 Y44.2500 Z16.5000 F1999.8000
G3 X189.3456 Y33.7500 Z16.5000 I0.6443 J-5.2500 K0.0000 F1999.8000
G1 X48.0000 Y33.7500 Z16.5000 F1999.8000
G3 X44.2500 Y30.0000 Z16.5000 I-0.0000 J-3.7500 K0.0000 F1999.8000
G1 X44.2500 Y3.7500 Z16.5000 F1999.8000
G1 X33.7500 Y3.7500 Z16.5000 F1999.8000
G1 X33.7500 Y30.0000 Z16.5000 F1999.8000
G3 X30.0000 Y33.7500 Z16.5000 I-3.7500 J0.0000 K0.0000 F1999.8000
G1 X3.7500 Y33.7500 Z16.5000 F1999.8000
G1 X3.7500 Y44.2500 Z16.5000 F1999.8000
G1 X30.0000 Y44.2500 Z16.5000 F1999.8000
G3 X33.7500 Y48.0000 Z16.5000 I0.0000 J3.7500 K0.0000 F1999.8000
G1 X33.7500 Y202.0000 Z16.5000 F1999.8000
G3 X30.0000 Y205.7500 Z16.5000 I-3.7500 J0.0000 K0.0000 F1999.8000
G1 X3.7500 Y205.7500 Z16.5000 F1999.8000
G1 X3.7500 Y216.2500 Z16.5000 F1999.8000
G1 X30.0000 Y216.2500 Z16.5000 F1999.8000
G3 X33.7500 Y220.0000 Z16.5000 I0.0000 J3.7500 K0.0000 F1999.8000
G1 X33.7500 Y246.2500 Z16.5000 F1999.8000
G1 X44.2500 Y246.2500 Z16.5000 F1999.8000
G1 X44.2500 Y220.0000 Z16.5000 F1999.8000
G3 X48.0000 Y216.2500 Z16.5000 I3.7500 J-0.0000 K0.0000 F1999.8000
G1 X189.3456 Y216.2500 Z16.5000 F1999.8000
G3 X189.3456 Y205.7500 Z16.5000 I0.6443 J-5.2500 K0.0000 F1999.8000
G0 X189.3456 Y205.7500 Z23.0000
G0 X183.0830 Y208.0000 Z23.0000
G1 X183.0830 Y208.0000 Z16.5000 F999.6000
G1 X48.0000 Y208.0000 Z16.5000 F1999.8000
G3 X45.6962 Y207.5313 Z16.5000 I-0.0206 J-5.7944 K0.0000 F1999.8000
G3 X45.6936 Y214.4715 Z16.5000 I-6.6152 J3.4677 K0.0000 F1999.8000
G3 X48.0000 Y214.0000 Z16.5000 I2.2740 J5.2468 K0.0000 F1999.8000
G1 X183.0838 Y214.0000 Z16.5000 F1999.8000
G3 X183.0830 Y208.0000 Z16.5000 I6.7870 J-3.0009 K0.0000 F1999.8000
G0 X183.0830 Y208.0000 Z23.0000
G0 X180.2409 Y210.2500 Z23.0000
G1 X180.2409 Y210.2500 Z16.5000 F999.6000
G1 X48.7567 Y210.2500 Z16.5000 F1999.8000
G3 X48.7591 Y211.7500 Z16.5000 I-6.6552 J0.7608 K0.0000 F1999.8000
G1 X180.2433 Y211.7500 Z16.5000 F1999.8000
G3 X180.2409 Y210.2500 Z16.5000 I6.6552 J-0.7608 K0.0000 F1999.8000
G0 X180.2409 Y210.2500 Z23.0000
G0 X44.2930 Y210.9719 Z23.0000
G1 X44.2930 Y210.9719 Z16.5000 F999.6000
G2 X38.2352 Y205.7624 Z16.5000 I-5.2930 J0.0281 K0.0000 F1999.8000
G2 X39.7648 Y216.2376 Z16.5000 I0.7648 J5.2376 K0.0000 F1999.8000
G2 X44.2930 Y210.9719 Z16.5000 I-0.7648 J-5.2376 K0.0000 F1999.8000
G0 X44.2930 Y210.9719 Z23.0000
G0 X42.0452 Y210.9838 Z23.0000
G1 X42.0452 Y210.9838 Z16.5000 F999.6000
G2 X38.4871 Y207.9983 Z16.5000 I-3.0452 J0.0162 K0.0000 F1999.8000
G2 X39.5129 Y214.0017 Z16.5000 I0.5129 J3.0017 K0.0000 F1999.8000
G2 X42.0452 Y210.9838 Z16.5000 I-0.5129 J-3.0017 K0.0000 F1999.8000
G0 X42.0452 Y210.9838 Z23.0000
G0 X42.4715 Y204.3064 Z23.0000
G1 X42.4715 Y204.3064 Z16.5000 F999.6000
G3 X42.0000 Y202.0000 Z16.5000 I5.2468 J-2.2740 K0.0000 F1999.8000
G1 X42.0000 Y48.0000 Z16.5000 F1999.8000
G3 X42.4687 Y45.6962 Z16.5000 I5.7944 J-0.0206 K0.0000 F1999.8000
G3 X35.5285 Y45.6936 Z16.5000 I-3.4677 J-6.6152 K0.0000 F1999.8000
G3 X36.0000 Y48.0000 Z16.5000 I-5.2468 J2.2740 K0.0000 F1999.8000
G1 X36.0000 Y202.0000 Z16.5000 F1999.8000
G3 X35.5313 Y204.3038 Z16.5000 I-5.7944 J0.0206 K0.0000 F1999.8000
G3 X42.4715 Y204.3064 Z16.5000 I3.4677 J6.6152 K0.0000 F1999.8000
G0 X42.4715 Y204.3064 Z23.0000
G0 X39.7500 Y201.2409 Z23.0000
G1 X39.7500 Y201.2409 Z16.5000 F999.6000
G1 X39.7500 Y48.7567 Z16.5000 F1999.8000
G3 X38.2500 Y48.7591 Z16.5000 I-0.7608 J-6.6552 K0.0000 F1999.8000
G1 X38.2500 Y201.2433 Z16.5000 F1999.8000
G3 X39.7500 Y201.2409 Z16.5000 I0.7608 J6.6552 K0.0000 F1999.8000
G0 X39.7500 Y201.2409 Z23.0000
G0 X32.3064 Y207.5285 Z23.0000
G1 X32.3064 Y207.5285 Z16.5000 F999.6000
G3 X30.0000 Y208.0000 Z16.5000 I-2.2740 J-5.2468 K0.0000 F1999.8000
G1 X6.0000 Y208.0000 Z16.5000 F1999.8000
G1 X6.0000 Y214.0000 Z16.5000 F1999.8000
G1 X30.0000 Y214.0000 Z16.5000 F1999.8000
G3 X32.3038 Y214.4687 Z16.5000 I0.0206 J5.7944 K0.0000 F1999.8000
G3 X32.3064 Y207.5285 Z16.5000 I6.6152 J-3.4677 K0.0000 F1999.8000
G0 X32.3064 Y207.5285 Z23.0000
G0 X29.2409 Y210.2500 Z23.0000
G1 X29.2409 Y210.2500 Z16.5000 F999.6000
G1 X8.2500 Y210.2500 Z16.5000 F1999.8000
G1 X8.2500 Y211.7500 Z16.5000 F1999.8000
G1 X29.2433 Y211.7500 Z16.5000 F1999.8000
G3 X29.2409 Y210.2500 Z16.5000 I6.6552 J-0.7608 K0.0000 F1999.8000
G0 X29.2409 Y210.2500 Z23.0000
G0 X35.5285 Y217.6936 Z23.0000
G1 X35.5285 Y217.6936 Z16.5000 F999.6000
G3 X36.0000 Y220.0000 Z16.5000 I-5.2468 J2.2740 K0.0000 F1999.8000
G1 X36.0000 Y244.0000 Z16.5000 F1999.8000
G1 X42.0000 Y244.0000 Z16.5000 F1999.8000
G1 X42.0000 Y220.0000 Z16.5000 F1999.8000
G3 X42.4687 Y217.6962 Z16.5000 I5.7944 J-0.0206 K0.0000 F1999.8000
G3 X35.5285 Y217.6936 Z16.5000 I-3.4677 J-6.6152 K0.0000 F1999.8000
G0 X35.5285 Y217.6936 Z23.0000
G0 X38.2500 Y220.7591 Z23.0000
G1 X38.2500 Y220.7591 Z16.5000 F999.6000
G1 X38.2500 Y241.7500 Z16.5000 F1999.8000
G1 X39.7500 Y241.7500 Z16.5000 F1999.8000
G1 X39.7500 Y220.7567 Z16.5000 F1999.8000
G3 X38.2500 Y220.7591 Z16.5000 I-0.7608 J-6.6552 K0.0000 F1999.8000
G0 X38.2500 Y220.7591 Z23.0000
G0 X38.9782 Y44.2931 Z23.0000
G1 X38.9782 Y44.2931 Z16.5000 F999.6000
G2 X39.7648 Y44.2376 Z16.5000 I0.0218 J-5.2931 K0.0000 F1999.8000
G2 X38.2352 Y33.7624 Z16.5000 I-0.7648 J-5.2376 K0.0000 F1999.8000
G2 X38.9782 Y44.2931 Z16.5000 I0.7648 J5.2376 K0.0000 F1999.8000
G0 X38.9782 Y44.2931 Z23.0000
G0 X38.9874 Y42.0452 Z23.0000
G1 X38.9874 Y42.0452 Z16.5000 F999.6000
G2 X39.5129 Y42.0017 Z16.5000 I0.0126 J-3.0452 K0.0000 F1999.8000
G2 X38.4871 Y35.9983 Z16.5000 I-0.5129 J-3.0017 K0.0000 F1999.8000
G2 X38.9874 Y42.0452 Z16.5000 I0.5129 J3.0017 K0.0000 F1999.8000
G0 X38.9874 Y42.0452 Z23.0000
G0 X32.3038 Y42.4687 Z23.0000
G1 X32.3038 Y42.4687 Z16.5000 F999.6000
G3 X32.3064 Y35.5285 Z16.5000 I6.6152 J-3.4677 K0.0000 F1999.8000
G3 X30.0000 Y36.0000 Z16.5000 I-2.2740 J-5.2468 K0.0000 F1999.8000
G1 X6.0000 Y36.0000 Z16.5000 F1999.8000
G1 X6.0000 Y42.0000 Z16.5000 F1999.8000
G1 X30.0000 Y42.0000 Z16.5000 F1999.8000
G3 X32.3038 Y42.4687 Z16.5000 I0.0206 J5.7944 K0.0000 F1999.8000
G0 X32.3038 Y42.4687 Z23.0000
G0 X29.2433 Y39.7500 Z23.0000
G1 X29.2433 Y39.7500 Z16.5000 F999.6000
G3 X29.2409 Y38.2500 Z16.5000 I6.6552 J-0.7608 K0.0000 F1999.8000
G1 X8.2500 Y38.2500 Z16.5000 F1999.8000
G1 X8.2500 Y39.7500 Z16.5000 F1999.8000
G1 X29.2433 Y39.7500 Z16.5000 F1999.8000
G0 X29.2433 Y39.7500 Z23.0000
G0 X35.5313 Y32.3038 Z23.0000
G1 X35.5313 Y32.3038 Z16.5000 F999.6000
G3 X42.4715 Y32.3064 Z16.5000 I3.4677 J6.6152 K0.0000 F1999.8000
G3 X42.0000 Y30.0000 Z16.5000 I5.2468 J-2.2740 K0.0000 F1999.8000
G1 X42.0000 Y6.0000 Z16.5000 F1999.8000
G1 X36.0000 Y6.0000 Z16.5000 F1999.8000
G1 X36.0000 Y30.0000 Z16.5000 F1999.8000
G3 X35.5313 Y32.3038 Z16.5000 I-5.7944 J0.0206 K0.0000 F1999.8000
G0 X35.5313 Y32.3038 Z23.0000
G0 X38.2500 Y29.2433 Z23.0000
G1 X38.2500 Y29.2433 Z16.5000 F999.6000
G3 X39.7500 Y29.2409 Z16.5000 I0.7608 J6.6552 K0.0000 F1999.8000
G1 X39.7500 Y8.2500 Z16.5000 F1999.8000
G1 X38.2500 Y8.2500 Z16.5000 F1999.8000
G1 X38.2500 Y29.2433 Z16.5000 F1999.8000
G0 X38.2500 Y29.2433 Z23.0000
G0 X45.6962 Y35.5313 Z23.0000
G1 X45.6962 Y35.5313 Z16.5000 F999.6000
G3 X45.6936 Y42.4715 Z16.5000 I-6.6152 J3.4677 K0.0000 F1999.8000
G3 X48.0000 Y42.0000 Z16.5000 I2.2740 J5.2468 K0.0000 F1999.8000
G1 X183.0838 Y42.0000 Z16.5000 F1999.8000
G3 X183.0830 Y36.0000 Z16.5000 I6.7870 J-3.0009 K0.0000 F1999.8000
G1 X48.0000 Y36.0000 Z16.5000 F1999.8000
G3 X45.6962 Y35.5313 Z16.5000 I-0.0206 J-5.7944 K0.0000 F1999.8000
G0 X45.6962 Y35.5313 Z23.0000
G0 X48.7567 Y38.2500 Z23.0000
G1 X48.7567 Y38.2500 Z16.5000 F999.6000
G3 X48.7591 Y39.7500 Z16.5000 I-6.6552 J0.7608 K0.0000 F1999.8000
G1 X180.2433 Y39.7500 Z16.5000 F1999.8000
G3 X180.2409 Y38.2500 Z16.5000 I6.6552 J-0.7608 K0.0000 F1999.8000
G1 X48.7567 Y38.2500 Z16.5000 F1999.8000
G0 X48.7567 Y38.2500 Z23.0000
G0 X49.5407 Y39.0000 Z23.0000
G1 X49.5407 Y39.0000 Z16.5000 F999.6000
G1 X179.4593 Y39.0000 Z16.5000 F1999.8000
G1 X49.5407 Y39.0000 Z16.5000 F1999.8000
G0 X49.5407 Y39.0000 Z23.0000
G0 X186.9548 Y39.0000 Z23.0000
G1 X186.9548 Y39.0000 Z16.5000 F999.6000
G2 X190.5129 Y42.0017 Z16.5000 I3.0452 J0.0000 K0.0000 F1999.8000
G2 X189.4871 Y35.9983 Z16.5000 I-0.5129 J-3.0017 K0.0000 F1999.8000
G2 X186.9548 Y39.0000 Z16.5000 I0.5129 J3.0017 K0.0000 F1999.8000
G0 X186.9548 Y39.0000 Z23.0000
G0 X196.9162 Y36.0000 Z23.0000
G1 X196.9162 Y36.0000 Z16.5000 F999.6000
G3 X196.9170 Y42.0000 Z16.5000 I-6.7870 J3.0009 K0.0000 F1999.8000
G1 X332.0000 Y42.0000 Z16.5000 F1999.8000
G3 X334.3038 Y42.4687 Z16.5000 I0.0206 J5.7944 K0.0000 F1999.8000
G3 X334.3064 Y35.5285 Z16.5000 I6.6152 J-3.4677 K0.0000 F1999.8000
G3 X332.0000 Y36.0000 Z16.5000 I-2.2740 J-5.2468 K0.0000 F1999.8000
G1 X196.9162 Y36.0000 Z16.5000 F1999.8000
G0 X196.9162 Y36.0000 Z23.0000
G0 X199.7567 Y38.2500 Z23.0000
G1 X199.7567 Y38.2500 Z16.5000 F999.6000
G3 X199.7591 Y39.7500 Z16.5000 I-6.6552 J0.7608 K0.0000 F1999.8000
G1 X331.2433 Y39.7500 Z16.5000 F1999.8000
G3 X331.2409 Y38.2500 Z16.5000 I6.6552 J-0.7608 K0.0000 F1999.8000
G1 X199.7567 Y38.2500 Z16.5000 F1999.8000
G0 X199.7567 Y38.2500 Z23.0000
G0 X335.7070 Y38.9719 Z23.0000
G1 X335.7070 Y38.9719 Z16.5000 F999.6000
G2 X341.7648 Y44.2376 Z16.5000 I5.2930 J0.0281 K0.0000 F1999.8000
G2 X340.2352 Y33.7624 Z16.5000 I-0.7648 J-5.2376 K0.0000 F1999.8000
G2 X335.7070 Y38.9719 Z16.5000 I0.7648 J5.2376 K0.0000 F1999.8000
G0 X335.7070 Y38.9719 Z23.0000
G0 X337.9548 Y38.9838 Z23.0000
G1 X337.9548 Y38.9838 Z16.5000 F999.6000
G2 X341.5129 Y42.0017 Z16.5000 I3.0452 J0.0162 K0.0000 F1999.8000
G2 X340.4871 Y35.9983 Z16.5000 I-0.5129 J-3.0017 K0.0000 F1999.8000
G2 X337.9548 Y38.9838 Z16.5000 I0.5129 J3.0017 K0.0000 F1999.8000
G0 X337.9548 Y38.9838 Z23.0000
G0 X337.5313 Y32.3038 Z23.0000
G1 X337.5313 Y32.3038 Z16.5000 F999.6000
G3 X344.4715 Y32.3064 Z16.5000 I3.4677 J6.6152 K0.0000 F1999.8000
G3 X344.0000 Y30.0000 Z16.5000 I5.2468 J-2.2740 K0.0000 F1999.8000
G1 X344.0000 Y6.0000 Z16.5000 F1999.8000
G1 X338.0000 Y6.0000 Z16.5000 F1999.8000
G1 X338.0000 Y30.0000 Z16.5000 F1999.8000
G3 X337.5313 Y32.3038 Z16.5000 I-5.7944 J0.0206 K0.0000 F1999.8000
G0 X337.5313 Y32.3038 Z23.0000
G0 X340.2500 Y29.2433 Z23.0000
G1 X340.2500 Y29.2433 Z16.5000 F999.6000
G3 X341.7500 Y29.2409 Z16.5000 I0.7608 J6.6552 K0.0000 F1999.8000
G1 X341.7500 Y8.2500 Z16.5000 F1999.8000
G1 X340.2500 Y8.2500 Z16.5000 F1999.8000
G1 X340.2500 Y29.2433 Z16.5000 F1999.8000
G0 X340.2500 Y29.2433 Z23.0000
G0 X347.6962 Y35.5313 Z23.0000
G1 X347.6962 Y35.5313 Z16.5000 F999.6000
G3 X347.6936 Y42.4715 Z16.5000 I-6.6152 J3.4677 K0.0000 F1999.8000
G3 X350.0000 Y42.0000 Z16.5000 I2.2740 J5.2468 K0.0000 F1999.8000
G1 X374.0000 Y42.0000 Z16.5000 F1999.8000
G1 X374.0000 Y36.0000 Z16.5000 F1999.8000
G1 X350.0000 Y36.0000 Z16.5000 F1999.8000
G3 X347.6962 Y35.5313 Z16.5000 I-0.0206 J-5.7944 K0.0000 F1999.8000
G0 X347.6962 Y35.5313 Z23.0000
G0 X350.7567 Y38.2500 Z23.0000
G1 X350.7567 Y38.2500 Z16.5000 F999.6000
G3 X350.7591 Y39.7500 Z16.5000 I-6.6552 J0.7608 K0.0000 F1999.8000
G1 X371.7500 Y39.7500 Z16.5000 F1999.8000
G1 X371.7500 Y38.2500 Z16.5000 F1999.8000
G1 X350.7567 Y38.2500 Z16.5000 F1999.8000
G0 X350.7567 Y38.2500 Z23.0000
G0 X351.5407 Y39.0000 Z23.0000
G1 X351.5407 Y39.0000 Z16.5000 F999.6000
G1 X371.0000 Y39.0000 Z16.5000 F1999.8000
G1 X351.5407 Y39.0000 Z16.5000 F1999.8000
G1 X351.5407 Y39.0000 Z16.0000 F999.6000
G1 X371.0000 Y39.0000 Z16.0000 F1999.8000
G1 X351.5407 Y39.0000 Z16.0000 F1999.8000
G0 X351.5407 Y39.0000 Z23.0000
G0 X350.8000 Y39.0011 Z23.0000
G1 X350.8000 Y39.0011 Z16.0000 F999.6000
G3 X350.7591 Y39.7500 Z16.0000 I-6.6986 J0.0098 K0.0000 F1999.8000
G1 X371.7500 Y39.7500 Z16.0000 F1999.8000
G1 X371.7500 Y38.2500 Z16.0000 F1999.8000
G1 X350.7567 Y38.2500 Z16.0000 F1999.8000
G3 X350.8000 Y39.0011 Z16.0000 I-6.6552 J0.7608 K0.0000 F1999.8000
G0 X350.8000 Y39.0011 Z23.0000
G0 X348.5500 Y39.0006 Z23.0000
G1 X348.5500 Y39.0006 Z16.0000 F999.6000
G3 X347.6936 Y42.4715 Z16.0000 I-7.4690 J-0.0017 K0.0000 F1999.8000
G3 X350.0000 Y42.0000 Z16.0000 I2.2740 J5.2468 K0.0000 F1999.8000
G1 X374.0000 Y42.0000 Z16.0000 F1999.8000
G1 X374.0000 Y36.0000 Z16.0000 F1999.8000
G1 X350.0000 Y36.0000 Z16.0000 F1999.8000
G3 X347.6962 Y35.5313 Z16.0000 I-0.0206 J-5.7944 K0.0000 F1999.8000
G3 X348.5500 Y39.0006 Z16.0000 I-6.6152 J3.4677 K0.0000 F1999.8000
G0 X348.5500 Y39.0006 Z23.0000
G0 X346.2931 Y39.0004 Z23.0000
G1 X346.2931 Y39.0004 Z16.0000 F999.6000
G2 X340.2352 Y33.7624 Z16.0000 I-5.2931 J-0.0004 K0.0000 F1999.8000
G2 X335.7624 Y39.7648 Z16.0000 I0.7648 J5.2376 K0.0000 F1999.8000
G2 X341.7648 Y44.2376 Z16.0000 I5.2376 J-0.7648 K0.0000 F1999.8000
G2 X346.2931 Y39.0004 Z16.0000 I-0.7648 J-5.2376 K0.0000 F1999.8000
G0 X346.2931 Y39.0004 Z23.0000
G0 X344.0452 Y39.0002 Z23.0000
G1 X344.0452 Y39.0002 Z16.0000 F999.6000
G2 X340.4871 Y35.9983 Z16.0000 I-3.0452 J-0.0002 K0.0000 F1999.8000
G2 X337.9983 Y39.5129 Z16.0000 I0.5129 J3.0017 K0.0000 F1999.8000
G2 X341.5129 Y42.0017 Z16.0000 I3.0017 J-0.5129 K0.0000 F1999.8000
G2 X344.0452 Y39.0002 Z16.0000 I-0.5129 J-3.0017 K0.0000 F1999.8000
G0 X344.0452 Y39.0002 Z23.0000
G0 X344.4715 Y32.3064 Z23.0000
G1 X344.4715 Y32.3064 Z16.0000 F999.6000
G3 X344.0000 Y30.0000 Z16.0000 I5.2468 J-2.2740 K0.0000 F1999.8000
G1 X344.0000 Y6.0000 Z16.0000 F1999.8000
G1 X338.0000 Y6.0000 Z16.0000 F1999.8000
G1 X338.0000 Y30.0000 Z16.0000 F1999.8000
G3 X337.5313 Y32.3038 Z16.0000 I-5.7944 J0.0206 K0.0000 F1999.8000
G3 X344.4715 Y32.3064 Z16.0000 I3.4677 J6.6152 K0.0000 F1999.8000
G0 X344.4715 Y32.3064 Z23.0000
G0 X346.5391 Y31.4438 Z23.0000
G1 X346.5391 Y31.4438 Z16.0000 F999.6000
G3 X346.2500 Y30.0000 Z16.0000 I3.4609 J-1.4438 K0.0000 F1999.8000
G1 X346.2500 Y3.7500 Z16.0000 F1999.8000
G1 X335.7500 Y3.7500 Z16.0000 F1999.8000
G1 X335.7500 Y30.0000 Z16.0000 F1999.8000
G3 X332.0000 Y33.7500 Z16.0000 I-3.7500 J0.0000 K0.0000 F1999.8000
G1 X190.6544 Y33.7500 Z16.0000 F1999.8000
G3 X190.6544 Y44.2500 Z16.0000 I-0.6443 J5.2500 K0.0000 F1999.8000
G1 X332.0000 Y44.2500 Z16.0000 F1999.8000
G3 X335.7500 Y48.0000 Z16.0000 I0.0000 J3.7500 K0.0000 F1999.8000
G1 X335.7500 Y202.0000 Z16.0000 F1999.8000
G3 X332.0000 Y205.7500 Z16.0000 I-3.7500 J0.0000 K0.0000 F1999.8000
G1 X190.6544 Y205.7500 Z16.0000 F1999.8000
G3 X190.6544 Y216.2500 Z16.0000 I-0.6443 J5.2500 K0.0000 F1999.8000
G1 X332.0000 Y216.2500 Z16.0000 F1999.8000
G3 X335.7500 Y220.0000 Z16.0000 I0.0000 J3.7500 K0.0000 F1999.8000
G1 X335.7500 Y246.2500 Z16.0000 F1999.8000
G1 X346.2500 Y246.2500 Z16.0000 F1999.8000
G1 X346.2500 Y220.0000 Z16.0000 F1999.8000
G3 X350.0000 Y216.2500 Z16.0000 I3.7500 J-0.0000 K0.0000 F1999.8000
G1 X376.2500 Y216.2500 Z16.0000 F1999.8000
G1 X376.2500 Y205.7500 Z16.0000 F1999.8000
G1 X350.0000 Y205.7500 Z16.0000 F1999.8000
G3 X346.2500 Y202.0000 Z16.0000 I-0.0000 J-3.7500 K0.0000 F1999.8000
G1 X346.2500 Y48.0000 Z16.0000 F1999.8000
G3 X350.0000 Y44.2500 Z16.0000 I3.7500 J-0.0000 K0.0000 F1999.8000
G1 X376.2500 Y44.2500 Z16.0000 F1999.8000
G1 X376.2500 Y33.7500 Z16.0000 F1999.8000
G1 X350.0000 Y33.7500 Z16.0000 F1999.8000
G3 X346.5391 Y31.4438 Z16.0000 I-0.0000 J-3.7500 K0.0000 F1999.8000
G0 X346.5391 Y31.4438 Z23.0000
G0 X348.6156 Y30.5775 Z23.0000
G1 X348.6156 Y30.5775 Z16.0000 F999.6000
G3 X348.5000 Y30.0000 Z16.0000 I1.3844 J-0.5775 K0.0000 F1999.8000
G1 X348.5000 Y1.5000 Z16.0000 F1999.8000
G1 X333.5000 Y1.5000 Z16.0000 F1999.8000
G1 X333.5000 Y30.0000 Z16.0000 F1999.8000
G3 X332.0000 Y31.5000 Z16.0000 I-1.5000 J-0.0000 K0.0000 F1999.8000
G1 X48.0000 Y31.5000 Z16.0000 F1999.8000
G3 X46.5000 Y30.0000 Z16.0000 I0.0000 J-1.5000 K0.0000 F1999.8000
G1 X46.5000 Y1.5000 Z16.0000 F1999.8000
G1 X31.5000 Y1.5000 Z16.0000 F1999.8000
G1 X31.5000 Y30.0000 Z16.0000 F1999.8000
G3 X30.0000 Y31.5000 Z16.0000 I-1.5000 J-0.0000 K0.0000 F1999.8000
G1 X1.5000 Y31.5000 Z16.0000 F1999.8000
G1 X1.5000 Y46.5000 Z16.0000 F1999.8000
G1 X30.0000 Y46.5000 Z16.0000 F1999.8000
G3 X31.5000 Y48.0000 Z16.0000 I-0.0000 J1.5000 K0.0000 F1999.8000
G1 X31.5000 Y202.0000 Z16.0000 F1999.8000
G3 X30.0000 Y203.5000 Z16.0000 I-1.5000 J-0.0000 K0.0000 F1999.8000
G1 X1.5000 Y203.5000 Z16.0000 F1999.8000
G1 X1.5000 Y218.5000 Z16.0000 F1999.8000
G1 X30.0000 Y218.5000 Z16.0000 F1999.8000
G3 X31.5000 Y220.0000 Z16.0000 I-0.0000 J1.5000 K0.0000 F1999.8000
G1 X31.5000 Y248.5000 Z16.0000 F1999.8000
G1 X46.5000 Y248.5000 Z16.0000 F1999.8000
G1 X46.5000 Y220.0000 Z16.0000 F1999.8000
G3 X48.0000 Y218.5000 Z16.0000 I1.5000 J0.0000 K0.0000 F1999.8000
G1 X332.0000 Y218.5000 Z16.0000 F1999.8000
G3 X333.5000 Y220.0000 Z16.0000 I-0.0000 J1.5000 K0.0000 F1999.8000
G1 X333.5000 Y248.5000 Z16.0000 F1999.8000
G1 X348.5000 Y248.5000 Z16.0000 F1999.8000
G1 X348.5000 Y220.0000 Z16.0000 F1999.8000
G3 X350.0000 Y218.5000 Z16.0000 I1.5000 J0.0000 K0.0000 F1999.8000
G1 X378.5000 Y218.5000 Z16.0000 F1999.8000
G1 X378.5000 Y203.5000 Z16.0000 F1999.8000
G1 X350.0000 Y203.5000 Z16.0000 F1999.8000
G3 X348.5000 Y202.0000 Z16.0000 I0.0000 J-1.5000 K0.0000 F1999.8000
G1 X348.5000 Y48.0000 Z16.0000 F1999.8000
G3 X350.0000 Y46.5000 Z16.0000 I1.5000 J0.0000 K0.0000 F1999.8000
G1 X378.5000 Y46.5000 Z16.0000 F1999.8000
G1 X378.5000 Y31.5000 Z16.0000 F1999.8000
G1 X350.0000 Y31.5000 Z16.0000 F1999.8000
G3 X348.6156 Y30.5775 Z16.0000 I0.0000 J-1.5000 K0.0000 F1999.8000
G0 X348.6156 Y30.5775 Z23.0000
G0 X341.7500 Y29.2409 Z23.0000
G1 X341.7500 Y29.2409 Z16.0000 F999.6000
G1 X341.7500 Y8.2500 Z16.0000 F1999.8000
G1 X340.2500 Y8.2500 Z16.0000 F1999.8000
G1 X340.2500 Y29.2433 Z16.0000 F1999.8000
G3 X341.7500 Y29.2409 Z16.0000 I0.7608 J6.6552 K0.0000 F1999.8000
G0 X341.7500 Y29.2409 Z23.0000
G0 X334.3064 Y35.5285 Z23.0000
G1 X334.3064 Y35.5285 Z16.0000 F999.6000
G3 X332.0000 Y36.0000 Z16.0000 I-2.2740 J-5.2468 K0.0000 F1999.8000
G1 X196.9162 Y36.0000 Z16.0000 F1999.8000
G3 X196.9170 Y42.0000 Z16.0000 I-6.7870 J3.0009 K0.0000 F1999.8000
G1 X332.0000 Y42.0000 Z16.0000 F1999.8000
G3 X334.3038 Y42.4687 Z16.0000 I0.0206 J5.7944 K0.0000 F1999.8000
G3 X334.3064 Y35.5285 Z16.0000 I6.6152 J-3.4677 K0.0000 F1999.8000
G0 X334.3064 Y35.5285 Z23.0000
G0 X331.2409 Y38.2500 Z23.0000
G1 X331.2409 Y38.2500 Z16.0000 F999.6000
G1 X199.7567 Y38.2500 Z16.0000 F1999.8000
G3 X199.7591 Y39.7500 Z16.0000 I-6.6552 J0.7608 K0.0000 F1999.8000
G1 X331.2433 Y39.7500 Z16.0000 F1999.8000
G3 X331.2409 Y38.2500 Z16.0000 I6.6552 J-0.7608 K0.0000 F1999.8000
G0 X331.2409 Y38.2500 Z23.0000
G0 X331.2409 Y46.5000 Z23.0000
G1 X331.2409 Y46.5000 Z16.0000 F999.6000
G1 X48.0000 Y46.5000 Z16.0000 F1999.8000
G2 X46.5000 Y48.0000 Z16.0000 I0.0000 J1.5000 K0.0000 F1999.8000
G1 X46.5000 Y202.0000 Z16.0000 F1999.8000
G2 X48.0000 Y203.5000 Z16.0000 I1.5000 J-0.0000 K0.0000 F1999.8000
G1 X332.0000 Y203.5000 Z16.0000 F1999.8000
G2 X333.5000 Y202.0000 Z16.0000 I-0.0000 J-1.5000 K0.0000 F1999.8000
G1 X333.5000 Y48.0000 Z16.0000 F1999.8000
G2 X332.0000 Y46.5000 Z16.0000 I-1.5000 J0.0000 K0.0000 F1999.8000
G1 X331.2409 Y46.5000 Z16.0000 F1999.8000
G0 X331.2409 Y46.5000 Z23.0000
G0 X337.5285 Y45.6936 Z23.0000
G1 X337.5285 Y45.6936 Z16.0000 F999.6000
G3 X338.0000 Y48.0000 Z16.0000 I-5.2468 J2.2740 K0.0000 F1999.8000
G1 X338.0000 Y202.0000 Z16.0000 F1999.8000
G3 X337.5313 Y204.3038 Z16.0000 I-5.7944 J0.0206 K0.0000 F1999.8000
G3 X344.4715 Y204.3064 Z16.0000 I3.4677 J6.6152 K0.0000 F1999.8000
G3 X344.0000 Y202.0000 Z16.0000 I5.2468 J-2.2740 K0.0000 F1999.8000
G1 X344.0000 Y48.0000 Z16.0000 F1999.8000
G3 X344.4687 Y45.6962 Z16.0000 I5.7944 J-0.0206 K0.0000 F1999.8000
G3 X337.5285 Y45.6936 Z16.0000 I-3.4677 J-6.6152 K0.0000 F1999.8000
G0 X337.5285 Y45.6936 Z23.0000
G0 X340.2500 Y48.7591 Z23.0000
G1 X340.2500 Y48.7591 Z16.0000 F999.6000
G1 X340.2500 Y201.2433 Z16.0000 F1999.8000
G3 X341.7500 Y201.2409 Z16.0000 I0.7608 J6.6552 K0.0000 F1999.8000
G1 X341.7500 Y48.7567 Z16.0000 F1999.8000
G3 X340.2500 Y48.7591 Z16.0000 I-0.7608 J-6.6552 K0.0000 F1999.8000
G0 X340.2500 Y48.7591 Z23.0000
G0 X193.0388 Y39.1974 Z23.0000
G1 X193.0388 Y39.1974 Z16.0000 F999.6000
G2 X189.4871 Y35.9983 Z16.0000 I-3.0388 J-0.1974 K0.0000 F1999.8000
G2 X186.9983 Y39.5129 Z16.0000 I0.5129 J3.0017 K0.0000 F1999.8000
G2 X190.5129 Y42.0017 Z16.0000 I3.0017 J-0.5129 K0.0000 F1999.8000
G2 X193.0388 Y39.1974 Z16.0000 I-0.5129 J-3.0017 K0.0000 F1999.8000
G0 X193.0388 Y39.1974 Z23.0000
G0 X189.3456 Y44.2500 Z23.0000
G1 X189.3456 Y44.2500 Z16.0000 F999.6000
G3 X189.3456 Y33.7500 Z16.0000 I0.6443 J-5.2500 K0.0000 F1999.8000
G1 X48.0000 Y33.7500 Z16.0000 F1999.8000
G3 X44.2500 Y30.0000 Z16.0000 I-0.0000 J-3.7500 K0.0000 F1999.8000
G1 X44.2500 Y3.7500 Z16.0000 F1999.8000
G1 X33.7500 Y3.7500 Z16.0000 F1999.8000
G1 X33.7500 Y30.0000 Z16.0000 F1999.8000
G3 X30.0000 Y33.7500 Z16.0000 I-3.7500 J0.0000 K0.0000 F1999.8000
G1 X3.7500 Y33.7500 Z16.0000 F1999.8000
G1 X3.7500 Y44.2500 Z16.0000 F1999.8000
G1 X30.0000 Y44.2500 Z16.0000 F1999.8000
G3 X33.7500 Y48.0000 Z16.0000 I0.0000 J3.7500 K0.0000 F1999.8000
G1 X33.7500 Y202.0000 Z16.0000 F1999.8000
G3 X30.0000 Y205.7500 Z16.0000 I-3.7500 J0.0000 K0.0000 F1999.8000
G1 X3.7500 Y205.7500 Z16.0000 F1999.8000
G1 X3.7500 Y216.2500 Z16.0000 F1999.8000
G1 X30.0000 Y216.2500 Z16.0000 F1999.8000
G3 X33.7500 Y220.0000 Z16.0000 I0.0000 J3.7500 K0.0000 F1999.8000
G1 X33.7500 Y246.2500 Z16.0000 F1999.8000
G1 X44.2500 Y246.2500 Z16.0000 F1999.8000
G1 X44.2500 Y220.0000 Z16.0000 F1999.8000
G3 X48.0000 Y216.2500 Z16.0000 I3.7500 J-0.0000 K0.0000 F1999.8000
G1 X189.3456 Y216.2500 Z16.0000 F1999.8000
G3 X189.3456 Y205.7500 Z16.0000 I0.6443 J-5.2500 K0.0000 F1999.8000
G1 X48.0000 Y205.7500 Z16.0000 F1999.8000
G3 X44.2500 Y202.0000 Z16.0000 I-0.0000 J-3.7500 K0.0000 F1999.8000
G1 X44.2500 Y48.0000 Z16.0000 F1999.8000
G3 X48.0000 Y44.2500 Z16.0000 I3.7500 J-0.0000 K0.0000 F1999.8000
G1 X189.3456 Y44.2500 Z16.0000 F1999.8000
G0 X189.3456 Y44.2500 Z23.0000
G0 X183.0838 Y42.0000 Z23.0000
G1 X183.0838 Y42.0000 Z16.0000 F999.6000
G3 X183.0830 Y36.0000 Z16.0000 I6.7870 J-3.0009 K0.0000 F1999.8000
G1 X48.0000 Y36.0000 Z16.0000 F1999.8000
G3 X45.6962 Y35.5313 Z16.0000 I-0.0206 J-5.7944 K0.0000 F1999.8000
G3 X45.6936 Y42.4715 Z16.0000 I-6.6152 J3.4677 K0.0000 F1999.8000
G3 X48.0000 Y42.0000 Z16.0000 I2.2740 J5.2468 K0.0000 F1999.8000
G1 X183.0838 Y42.0000 Z16.0000 F1999.8000
G0 X183.0838 Y42.0000 Z23.0000
G0 X180.2433 Y39.7500 Z23.0000
G1 X180.2433 Y39.7500 Z16.0000 F999.6000
G3 X180.2409 Y38.2500 Z16.0000 I6.6552 J-0.7608 K0.0000 F1999.8000
G1 X48.7567 Y38.2500 Z16.0000 F1999.8000
G3 X48.7591 Y39.7500 Z16.0000 I-6.6552 J0.7608 K0.0000 F1999.8000
G1 X180.2433 Y39.7500 Z16.0000 F1999.8000
G0 X180.2433 Y39.7500 Z23.0000
G0 X179.4593 Y39.0000 Z23.0000
G1 X179.4593 Y39.0000 Z16.0000 F999.6000
G1 X49.5407 Y39.0000 Z16.0000 F1999.8000
G1 X179.4593 Y39.0000 Z16.0000 F1999.8000
G0 X179.4593 Y39.0000 Z23.0000
G0 X44.2931 Y39.0000 Z23.0000
G1 X44.2931 Y39.0000 Z16.0000 F999.6000
G2 X38.2352 Y33.7624 Z16.0000 I-5.2931 J0.0000 K0.0000 F1999.8000
G2 X39.7648 Y44.2376 Z16.0000 I0.7648 J5.2376 K0.0000 F1999.8000
G2 X44.2931 Y39.0000 Z16.0000 I-0.7648 J-5.2376 K0.0000 F1999.8000
G0 X44.2931 Y39.0000 Z23.0000
G0 X42.0452 Y39.0000 Z23.0000
G1 X42.0452 Y39.0000 Z16.0000 F999.6000
G2 X38.4871 Y35.9983 Z16.0000 I-3.0452 J0.0000 K0.0000 F1999.8000
