(Exported by FreeCAD)
(Post Processor: grbl_post)
(Output Time:2020-04-14 19:08:09.022399)
(Begin preamble)
G17 G90
G21
(Begin operation: Fixture)
(Path: Fixture)
G54
(Finish operation: Fixture)
(Begin operation: T6: 2FluteWoodMill003)
(Path: T6: 2FluteWoodMill003)
(T6: 2FluteWoodMill003)
(Begin toolchange)
(M6 T6.0)
M3 S12000.0
(Finish operation: T6: 2FluteWoodMill003)
(Begin operation: DressupTag001)
(Path: DressupTag001)
G0 Z23.0000
G0 X251.0607 Y258.0607 Z23.0000
G0 X251.0607 Y258.0607 Z21.0000
G1 X251.0607 Y258.0607 Z17.5000 F999.6000
G3 X250.0000 Y258.5000 Z17.5000 I-1.0607 J-1.0607 K0.0000 F1999.8000
G1 X220.0000 Y258.5000 Z17.5000 F1999.8000
G3 X218.5000 Y257.0000 Z17.5000 I0.0000 J-1.5000 K0.0000 F1999.8000
G1 X218.5000 Y130.0000 Z17.5000 F1999.8000
G1 X218.9393 Y129.5607 Z17.5000 F1999.8000
G1 X218.5000 Y130.0000 Z17.5000 F1999.8000
G1 X203.5000 Y130.0000 Z17.5000 F1999.8000
G1 X203.0607 Y129.5607 Z17.5000 F1999.8000
G1 X203.5000 Y130.0000 Z17.5000 F1999.8000
G1 X203.5000 Y257.0000 Z17.5000 F1999.8000
G3 X202.0000 Y258.5000 Z17.5000 I-1.5000 J-0.0000 K0.0000 F1999.8000
G1 X48.0000 Y258.5000 Z17.5000 F1999.8000
G3 X46.5000 Y257.0000 Z17.5000 I0.0000 J-1.5000 K0.0000 F1999.8000
G1 X46.5000 Y130.0000 Z17.5000 F1999.8000
G1 X46.9393 Y129.5607 Z17.5000 F1999.8000
G1 X46.5000 Y130.0000 Z17.5000 F1999.8000
G1 X31.5000 Y130.0000 Z17.5000 F1999.8000
G1 X31.0607 Y129.5607 Z17.5000 F1999.8000
G1 X31.5000 Y130.0000 Z17.5000 F1999.8000
G1 X31.5000 Y257.0000 Z17.5000 F1999.8000
G3 X30.0000 Y258.5000 Z17.5000 I-1.5000 J-0.0000 K0.0000 F1999.8000
G1 X0.0000 Y258.5000 Z17.5000 F1999.8000
G3 X-1.5000 Y257.0000 Z17.5000 I0.0000 J-1.5000 K0.0000 F1999.8000
G1 X-1.5000 Y0.0000 Z17.5000 F1999.8000
G3 X0.0000 Y-1.5000 Z17.5000 I1.5000 J0.0000 K0.0000 F1999.8000
G1 X78.0000 Y-1.5000 Z17.5000 F1999.8000
G3 X79.4966 Y-0.1003 Z17.5000 I-0.0000 J1.5000 K0.0000 F1999.8000
G1 X89.6187 Y150.8876 Z17.5000 F1999.8000
G2 X118.0750 Y177.5000 Z17.5000 I28.4386 J-1.8889 K0.0000 F1999.8000
G1 X131.9250 Y177.5000 Z17.5000 F1999.8000
G2 X160.3813 Y150.8876 Z17.5000 I0.0176 J-28.5013 K0.0000 F1999.8000
G1 X170.5034 Y-0.1003 Z17.5000 F1999.8000
G3 X172.0000 Y-1.5000 Z17.5000 I1.4966 J0.1003 K0.0000 F1999.8000
G1 X250.0000 Y-1.5000 Z17.5000 F1999.8000
G3 X251.5000 Y0.0000 Z17.5000 I-0.0000 J1.5000 K0.0000 F1999.8000
G1 X251.5000 Y257.0000 Z17.5000 F1999.8000
G3 X251.0607 Y258.0607 Z17.5000 I-1.5000 J-0.0000 K0.0000 F1999.8000
G1 X251.0607 Y258.0607 Z17.0000 F999.6000
G3 X250.0000 Y258.5000 Z17.0000 I-1.0607 J-1.0607 K0.0000 F1999.8000
G1 X220.0000 Y258.5000 Z17.0000 F1999.8000
G3 X218.5000 Y257.0000 Z17.0000 I0.0000 J-1.5000 K0.0000 F1999.8000
G1 X218.5000 Y130.0000 Z17.0000 F1999.8000
G1 X218.9393 Y129.5607 Z17.0000 F1999.8000
G1 X218.5000 Y130.0000 Z17.0000 F1999.8000
G1 X203.5000 Y130.0000 Z17.0000 F1999.8000
G1 X203.0607 Y129.5607 Z17.0000 F1999.8000
G1 X203.5000 Y130.0000 Z17.0000 F1999.8000
G1 X203.5000 Y257.0000 Z17.0000 F1999.8000
G3 X202.0000 Y258.5000 Z17.0000 I-1.5000 J-0.0000 K0.0000 F1999.8000
G1 X48.0000 Y258.5000 Z17.0000 F1999.8000
G3 X46.5000 Y257.0000 Z17.0000 I0.0000 J-1.5000 K0.0000 F1999.8000
G1 X46.5000 Y130.0000 Z17.0000 F1999.8000
G1 X46.9393 Y129.5607 Z17.0000 F1999.8000
G1 X46.5000 Y130.0000 Z17.0000 F1999.8000
G1 X31.5000 Y130.0000 Z17.0000 F1999.8000
G1 X31.0607 Y129.5607 Z17.0000 F1999.8000
G1 X31.5000 Y130.0000 Z17.0000 F1999.8000
G1 X31.5000 Y257.0000 Z17.0000 F1999.8000
G3 X30.0000 Y258.5000 Z17.0000 I-1.5000 J-0.0000 K0.0000 F1999.8000
G1 X0.0000 Y258.5000 Z17.0000 F1999.8000
G3 X-1.5000 Y257.0000 Z17.0000 I0.0000 J-1.5000 K0.0000 F1999.8000
G1 X-1.5000 Y0.0000 Z17.0000 F1999.8000
G3 X0.0000 Y-1.5000 Z17.0000 I1.5000 J0.0000 K0.0000 F1999.8000
G1 X78.0000 Y-1.5000 Z17.0000 F1999.8000
G3 X79.4966 Y-0.1003 Z17.0000 I-0.0000 J1.5000 K0.0000 F1999.8000
G1 X89.6187 Y150.8876 Z17.0000 F1999.8000
G2 X118.0750 Y177.5000 Z17.0000 I28.4386 J-1.8889 K0.0000 F1999.8000
G1 X131.9250 Y177.5000 Z17.0000 F1999.8000
G2 X160.3813 Y150.8876 Z17.0000 I0.0176 J-28.5013 K0.0000 F1999.8000
G1 X170.5034 Y-0.1003 Z17.0000 F1999.8000
G3 X172.0000 Y-1.5000 Z17.0000 I1.4966 J0.1003 K0.0000 F1999.8000
G1 X250.0000 Y-1.5000 Z17.0000 F1999.8000
G3 X251.5000 Y0.0000 Z17.0000 I-0.0000 J1.5000 K0.0000 F1999.8000
G1 X251.5000 Y257.0000 Z17.0000 F1999.8000
G3 X251.0607 Y258.0607 Z17.0000 I-1.5000 J-0.0000 K0.0000 F1999.8000
G1 X251.0607 Y258.0607 Z16.5000 F999.6000
G3 X250.0000 Y258.5000 Z16.5000 I-1.0607 J-1.0607 K0.0000 F1999.8000
G1 X220.0000 Y258.5000 Z16.5000 F1999.8000
G3 X218.5000 Y257.0000 Z16.5000 I0.0000 J-1.5000 K0.0000 F1999.8000
G1 X218.5000 Y130.0000 Z16.5000 F1999.8000
G1 X218.9393 Y129.5607 Z16.5000 F1999.8000
G1 X218.5000 Y130.0000 Z16.5000 F1999.8000
G1 X203.5000 Y130.0000 Z16.5000 F1999.8000
G1 X203.0607 Y129.5607 Z16.5000 F1999.8000
G1 X203.5000 Y130.0000 Z16.5000 F1999.8000
G1 X203.5000 Y257.0000 Z16.5000 F1999.8000
G3 X202.0000 Y258.5000 Z16.5000 I-1.5000 J-0.0000 K0.0000 F1999.8000
G1 X48.0000 Y258.5000 Z16.5000 F1999.8000
G3 X46.5000 Y257.0000 Z16.5000 I0.0000 J-1.5000 K0.0000 F1999.8000
G1 X46.5000 Y130.0000 Z16.5000 F1999.8000
G1 X46.9393 Y129.5607 Z16.5000 F1999.8000
G1 X46.5000 Y130.0000 Z16.5000 F1999.8000
G1 X31.5000 Y130.0000 Z16.5000 F1999.8000
G1 X31.0607 Y129.5607 Z16.5000 F1999.8000
G1 X31.5000 Y130.0000 Z16.5000 F1999.8000
G1 X31.5000 Y257.0000 Z16.5000 F1999.8000
G3 X30.0000 Y258.5000 Z16.5000 I-1.5000 J-0.0000 K0.0000 F1999.8000
G1 X0.0000 Y258.5000 Z16.5000 F1999.8000
G3 X-1.5000 Y257.0000 Z16.5000 I0.0000 J-1.5000 K0.0000 F1999.8000
G1 X-1.5000 Y0.0000 Z16.5000 F1999.8000
G3 X0.0000 Y-1.5000 Z16.5000 I1.5000 J0.0000 K0.0000 F1999.8000
G1 X78.0000 Y-1.5000 Z16.5000 F1999.8000
G3 X79.4966 Y-0.1003 Z16.5000 I-0.0000 J1.5000 K0.0000 F1999.8000
G1 X89.6187 Y150.8876 Z16.5000 F1999.8000
G2 X118.0750 Y177.5000 Z16.5000 I28.4386 J-1.8889 K0.0000 F1999.8000
G1 X131.9250 Y177.5000 Z16.5000 F1999.8000
G2 X160.3813 Y150.8876 Z16.5000 I0.0176 J-28.5013 K0.0000 F1999.8000
G1 X170.5034 Y-0.1003 Z16.5000 F1999.8000
G3 X172.0000 Y-1.5000 Z16.5000 I1.4966 J0.1003 K0.0000 F1999.8000
G1 X250.0000 Y-1.5000 Z16.5000 F1999.8000
G3 X251.5000 Y0.0000 Z16.5000 I-0.0000 J1.5000 K0.0000 F1999.8000
G1 X251.5000 Y257.0000 Z16.5000 F1999.8000
G3 X251.0607 Y258.0607 Z16.5000 I-1.5000 J-0.0000 K0.0000 F1999.8000
G1 X251.0607 Y258.0607 Z16.0000 F999.6000
G3 X250.0000 Y258.5000 Z16.0000 I-1.0607 J-1.0607 K0.0000 F1999.8000
G1 X220.0000 Y258.5000 Z16.0000 F1999.8000
G3 X218.5000 Y257.0000 Z16.0000 I0.0000 J-1.5000 K0.0000 F1999.8000
G1 X218.5000 Y130.0000 Z16.0000 F1999.8000
G1 X218.9393 Y129.5607 Z16.0000 F1999.8000
G1 X218.5000 Y130.0000 Z16.0000 F1999.8000
G1 X203.5000 Y130.0000 Z16.0000 F1999.8000
G1 X203.0607 Y129.5607 Z16.0000 F1999.8000
G1 X203.5000 Y130.0000 Z16.0000 F1999.8000
G1 X203.5000 Y257.0000 Z16.0000 F1999.8000
G3 X202.0000 Y258.5000 Z16.0000 I-1.5000 J-0.0000 K0.0000 F1999.8000
G1 X48.0000 Y258.5000 Z16.0000 F1999.8000
G3 X46.5000 Y257.0000 Z16.0000 I0.0000 J-1.5000 K0.0000 F1999.8000
G1 X46.5000 Y130.0000 Z16.0000 F1999.8000
G1 X46.9393 Y129.5607 Z16.0000 F1999.8000
G1 X46.5000 Y130.0000 Z16.0000 F1999.8000
G1 X31.5000 Y130.0000 Z16.0000 F1999.8000
G1 X31.0607 Y129.5607 Z16.0000 F1999.8000
G1 X31.5000 Y130.0000 Z16.0000 F1999.8000
G1 X31.5000 Y257.0000 Z16.0000 F1999.8000
G3 X30.0000 Y258.5000 Z16.0000 I-1.5000 J-0.0000 K0.0000 F1999.8000
G1 X0.0000 Y258.5000 Z16.0000 F1999.8000
G3 X-1.5000 Y257.0000 Z16.0000 I0.0000 J-1.5000 K0.0000 F1999.8000
G1 X-1.5000 Y0.0000 Z16.0000 F1999.8000
G3 X0.0000 Y-1.5000 Z16.0000 I1.5000 J0.0000 K0.0000 F1999.8000
G1 X78.0000 Y-1.5000 Z16.0000 F1999.8000
G3 X79.4966 Y-0.1003 Z16.0000 I-0.0000 J1.5000 K0.0000 F1999.8000
G1 X89.6187 Y150.8876 Z16.0000 F1999.8000
G2 X118.0750 Y177.5000 Z16.0000 I28.4386 J-1.8889 K0.0000 F1999.8000
G1 X131.9250 Y177.5000 Z16.0000 F1999.8000
G2 X160.3813 Y150.8876 Z16.0000 I0.0176 J-28.5013 K0.0000 F1999.8000
G1 X170.5034 Y-0.1003 Z16.0000 F1999.8000
G3 X172.0000 Y-1.5000 Z16.0000 I1.4966 J0.1003 K0.0000 F1999.8000
G1 X250.0000 Y-1.5000 Z16.0000 F1999.8000
G3 X251.5000 Y0.0000 Z16.0000 I-0.0000 J1.5000 K0.0000 F1999.8000
G1 X251.5000 Y257.0000 Z16.0000 F1999.8000
G3 X251.0607 Y258.0607 Z16.0000 I-1.5000 J-0.0000 K0.0000 F1999.8000
G1 X251.0607 Y258.0607 Z15.5000 F999.6000
G3 X250.0000 Y258.5000 Z15.5000 I-1.0607 J-1.0607 K0.0000 F1999.8000
G1 X220.0000 Y258.5000 Z15.5000 F1999.8000
G3 X218.5000 Y257.0000 Z15.5000 I0.0000 J-1.5000 K0.0000 F1999.8000
G1 X218.5000 Y130.0000 Z15.5000 F1999.8000
G1 X218.9393 Y129.5607 Z15.5000 F1999.8000
G1 X218.5000 Y130.0000 Z15.5000 F1999.8000
G1 X203.5000 Y130.0000 Z15.5000 F1999.8000
G1 X203.0607 Y129.5607 Z15.5000 F1999.8000
G1 X203.5000 Y130.0000 Z15.5000 F1999.8000
G1 X203.5000 Y257.0000 Z15.5000 F1999.8000
G3 X202.0000 Y258.5000 Z15.5000 I-1.5000 J-0.0000 K0.0000 F1999.8000
G1 X48.0000 Y258.5000 Z15.5000 F1999.8000
G3 X46.5000 Y257.0000 Z15.5000 I0.0000 J-1.5000 K0.0000 F1999.8000
G1 X46.5000 Y130.0000 Z15.5000 F1999.8000
G1 X46.9393 Y129.5607 Z15.5000 F1999.8000
G1 X46.5000 Y130.0000 Z15.5000 F1999.8000
G1 X31.5000 Y130.0000 Z15.5000 F1999.8000
G1 X31.0607 Y129.5607 Z15.5000 F1999.8000
G1 X31.5000 Y130.0000 Z15.5000 F1999.8000
G1 X31.5000 Y257.0000 Z15.5000 F1999.8000
G3 X30.0000 Y258.5000 Z15.5000 I-1.5000 J-0.0000 K0.0000 F1999.8000
G1 X0.0000 Y258.5000 Z15.5000 F1999.8000
G3 X-1.5000 Y257.0000 Z15.5000 I0.0000 J-1.5000 K0.0000 F1999.8000
G1 X-1.5000 Y0.0000 Z15.5000 F1999.8000
G3 X0.0000 Y-1.5000 Z15.5000 I1.5000 J0.0000 K0.0000 F1999.8000
G1 X78.0000 Y-1.5000 Z15.5000 F1999.8000
G3 X79.4966 Y-0.1003 Z15.5000 I-0.0000 J1.5000 K0.0000 F1999.8000
G1 X89.6187 Y150.8876 Z15.5000 F1999.8000
G2 X118.0750 Y177.5000 Z15.5000 I28.4386 J-1.8889 K0.0000 F1999.8000
G1 X131.9250 Y177.5000 Z15.5000 F1999.8000
G2 X160.3813 Y150.8876 Z15.5000 I0.0176 J-28.5013 K0.0000 F1999.8000
G1 X170.5034 Y-0.1003 Z15.5000 F1999.8000
G3 X172.0000 Y-1.5000 Z15.5000 I1.4966 J0.1003 K0.0000 F1999.8000
G1 X250.0000 Y-1.5000 Z15.5000 F1999.8000
G3 X251.5000 Y0.0000 Z15.5000 I-0.0000 J1.5000 K0.0000 F1999.8000
G1 X251.5000 Y257.0000 Z15.5000 F1999.8000
G3 X251.0607 Y258.0607 Z15.5000 I-1.5000 J-0.0000 K0.0000 F1999.8000
G1 X251.0607 Y258.0607 Z15.0000 F999.6000
G3 X250.0000 Y258.5000 Z15.0000 I-1.0607 J-1.0607 K0.0000 F1999.8000
G1 X220.0000 Y258.5000 Z15.0000 F1999.8000
G3 X218.5000 Y257.0000 Z15.0000 I0.0000 J-1.5000 K0.0000 F1999.8000
G1 X218.5000 Y130.0000 Z15.0000 F1999.8000
G1 X218.9393 Y129.5607 Z15.0000 F1999.8000
G1 X218.5000 Y130.0000 Z15.0000 F1999.8000
G1 X203.5000 Y130.0000 Z15.0000 F1999.8000
G1 X203.0607 Y129.5607 Z15.0000 F1999.8000
G1 X203.5000 Y130.0000 Z15.0000 F1999.8000
G1 X203.5000 Y257.0000 Z15.0000 F1999.8000
G3 X202.0000 Y258.5000 Z15.0000 I-1.5000 J-0.0000 K0.0000 F1999.8000
G1 X48.0000 Y258.5000 Z15.0000 F1999.8000
G3 X46.5000 Y257.0000 Z15.0000 I0.0000 J-1.5000 K0.0000 F1999.8000
G1 X46.5000 Y130.0000 Z15.0000 F1999.8000
G1 X46.9393 Y129.5607 Z15.0000 F1999.8000
G1 X46.5000 Y130.0000 Z15.0000 F1999.8000
G1 X31.5000 Y130.0000 Z15.0000 F1999.8000
G1 X31.0607 Y129.5607 Z15.0000 F1999.8000
G1 X31.5000 Y130.0000 Z15.0000 F1999.8000
G1 X31.5000 Y257.0000 Z15.0000 F1999.8000
G3 X30.0000 Y258.5000 Z15.0000 I-1.5000 J-0.0000 K0.0000 F1999.8000
G1 X0.0000 Y258.5000 Z15.0000 F1999.8000
G3 X-1.5000 Y257.0000 Z15.0000 I0.0000 J-1.5000 K0.0000 F1999.8000
G1 X-1.5000 Y0.0000 Z15.0000 F1999.8000
G3 X0.0000 Y-1.5000 Z15.0000 I1.5000 J0.0000 K0.0000 F1999.8000
G1 X78.0000 Y-1.5000 Z15.0000 F1999.8000
G3 X79.4966 Y-0.1003 Z15.0000 I-0.0000 J1.5000 K0.0000 F1999.8000
G1 X89.6187 Y150.8876 Z15.0000 F1999.8000
G2 X118.0750 Y177.5000 Z15.0000 I28.4386 J-1.8889 K0.0000 F1999.8000
G1 X131.9250 Y177.5000 Z15.0000 F1999.8000
G2 X160.3813 Y150.8876 Z15.0000 I0.0176 J-28.5013 K0.0000 F1999.8000
G1 X170.5034 Y-0.1003 Z15.0000 F1999.8000
G3 X172.0000 Y-1.5000 Z15.0000 I1.4966 J0.1003 K0.0000 F1999.8000
G1 X250.0000 Y-1.5000 Z15.0000 F1999.8000
G3 X251.5000 Y0.0000 Z15.0000 I-0.0000 J1.5000 K0.0000 F1999.8000
G1 X251.5000 Y257.0000 Z15.0000 F1999.8000
G3 X251.0607 Y258.0607 Z15.0000 I-1.5000 J-0.0000 K0.0000 F1999.8000
G1 X251.0607 Y258.0607 Z14.5000 F999.6000
G3 X250.0000 Y258.5000 Z14.5000 I-1.0607 J-1.0607 K0.0000 F1999.8000
G1 X220.0000 Y258.5000 Z14.5000 F1999.8000
G3 X218.5000 Y257.0000 Z14.5000 I0.0000 J-1.5000 K0.0000 F1999.8000
G1 X218.5000 Y130.0000 Z14.5000 F1999.8000
G1 X218.9393 Y129.5607 Z14.5000 F1999.8000
G1 X218.5000 Y130.0000 Z14.5000 F1999.8000
G1 X203.5000 Y130.0000 Z14.5000 F1999.8000
G1 X203.0607 Y129.5607 Z14.5000 F1999.8000
G1 X203.5000 Y130.0000 Z14.5000 F1999.8000
G1 X203.5000 Y257.0000 Z14.5000 F1999.8000
G3 X202.0000 Y258.5000 Z14.5000 I-1.5000 J-0.0000 K0.0000 F1999.8000
G1 X48.0000 Y258.5000 Z14.5000 F1999.8000
G3 X46.5000 Y257.0000 Z14.5000 I0.0000 J-1.5000 K0.0000 F1999.8000
G1 X46.5000 Y130.0000 Z14.5000 F1999.8000
G1 X46.9393 Y129.5607 Z14.5000 F1999.8000
G1 X46.5000 Y130.0000 Z14.5000 F1999.8000
G1 X31.5000 Y130.0000 Z14.5000 F1999.8000
G1 X31.0607 Y129.5607 Z14.5000 F1999.8000
G1 X31.5000 Y130.0000 Z14.5000 F1999.8000
G1 X31.5000 Y257.0000 Z14.5000 F1999.8000
G3 X30.0000 Y258.5000 Z14.5000 I-1.5000 J-0.0000 K0.0000 F1999.8000
G1 X0.0000 Y258.5000 Z14.5000 F1999.8000
G3 X-1.5000 Y257.0000 Z14.5000 I0.0000 J-1.5000 K0.0000 F1999.8000
G1 X-1.5000 Y0.0000 Z14.5000 F1999.8000
G3 X0.0000 Y-1.5000 Z14.5000 I1.5000 J0.0000 K0.0000 F1999.8000
G1 X78.0000 Y-1.5000 Z14.5000 F1999.8000
G3 X79.4966 Y-0.1003 Z14.5000 I-0.0000 J1.5000 K0.0000 F1999.8000
G1 X89.6187 Y150.8876 Z14.5000 F1999.8000
G2 X118.0750 Y177.5000 Z14.5000 I28.4386 J-1.8889 K0.0000 F1999.8000
G1 X131.9250 Y177.5000 Z14.5000 F1999.8000
G2 X160.3813 Y150.8876 Z14.5000 I0.0176 J-28.5013 K0.0000 F1999.8000
G1 X170.5034 Y-0.1003 Z14.5000 F1999.8000
G3 X172.0000 Y-1.5000 Z14.5000 I1.4966 J0.1003 K0.0000 F1999.8000
G1 X250.0000 Y-1.5000 Z14.5000 F1999.8000
G3 X251.5000 Y0.0000 Z14.5000 I-0.0000 J1.5000 K0.0000 F1999.8000
G1 X251.5000 Y257.0000 Z14.5000 F1999.8000
G3 X251.0607 Y258.0607 Z14.5000 I-1.5000 J-0.0000 K0.0000 F1999.8000
G1 X251.0607 Y258.0607 Z14.0000 F999.6000
G3 X250.0000 Y258.5000 Z14.0000 I-1.0607 J-1.0607 K0.0000 F1999.8000
G1 X220.0000 Y258.5000 Z14.0000 F1999.8000
G3 X218.5000 Y257.0000 Z14.0000 I0.0000 J-1.5000 K0.0000 F1999.8000
G1 X218.5000 Y130.0000 Z14.0000 F1999.8000
G1 X218.9393 Y129.5607 Z14.0000 F1999.8000
G1 X218.5000 Y130.0000 Z14.0000 F1999.8000
G1 X203.5000 Y130.0000 Z14.0000 F1999.8000
G1 X203.0607 Y129.5607 Z14.0000 F1999.8000
G1 X203.5000 Y130.0000 Z14.0000 F1999.8000
G1 X203.5000 Y257.0000 Z14.0000 F1999.8000
G3 X202.0000 Y258.5000 Z14.0000 I-1.5000 J-0.0000 K0.0000 F1999.8000
G1 X48.0000 Y258.5000 Z14.0000 F1999.8000
G3 X46.5000 Y257.0000 Z14.0000 I0.0000 J-1.5000 K0.0000 F1999.8000
G1 X46.5000 Y130.0000 Z14.0000 F1999.8000
G1 X46.9393 Y129.5607 Z14.0000 F1999.8000
G1 X46.5000 Y130.0000 Z14.0000 F1999.8000
G1 X31.5000 Y130.0000 Z14.0000 F1999.8000
G1 X31.0607 Y129.5607 Z14.0000 F1999.8000
G1 X31.5000 Y130.0000 Z14.0000 F1999.8000
G1 X31.5000 Y257.0000 Z14.0000 F1999.8000
G3 X30.0000 Y258.5000 Z14.0000 I-1.5000 J-0.0000 K0.0000 F1999.8000
G1 X0.0000 Y258.5000 Z14.0000 F1999.8000
G3 X-1.5000 Y257.0000 Z14.0000 I0.0000 J-1.5000 K0.0000 F1999.8000
G1 X-1.5000 Y0.0000 Z14.0000 F1999.8000
G3 X0.0000 Y-1.5000 Z14.0000 I1.5000 J0.0000 K0.0000 F1999.8000
G1 X78.0000 Y-1.5000 Z14.0000 F1999.8000
G3 X79.4966 Y-0.1003 Z14.0000 I-0.0000 J1.5000 K0.0000 F1999.8000
G1 X89.6187 Y150.8876 Z14.0000 F1999.8000
G2 X118.0750 Y177.5000 Z14.0000 I28.4386 J-1.8889 K0.0000 F1999.8000
G1 X131.9250 Y177.5000 Z14.0000 F1999.8000
G2 X160.3813 Y150.8876 Z14.0000 I0.0176 J-28.5013 K0.0000 F1999.8000
G1 X170.5034 Y-0.1003 Z14.0000 F1999.8000
G3 X172.0000 Y-1.5000 Z14.0000 I1.4966 J0.1003 K0.0000 F1999.8000
G1 X250.0000 Y-1.5000 Z14.0000 F1999.8000
G3 X251.5000 Y0.0000 Z14.0000 I-0.0000 J1.5000 K0.0000 F1999.8000
G1 X251.5000 Y257.0000 Z14.0000 F1999.8000
G3 X251.0607 Y258.0607 Z14.0000 I-1.5000 J-0.0000 K0.0000 F1999.8000
G1 X251.0607 Y258.0607 Z13.5000 F999.6000
G3 X250.0000 Y258.5000 Z13.5000 I-1.0607 J-1.0607 K0.0000 F1999.8000
G1 X220.0000 Y258.5000 Z13.5000 F1999.8000
G3 X218.5000 Y257.0000 Z13.5000 I0.0000 J-1.5000 K0.0000 F1999.8000
G1 X218.5000 Y130.0000 Z13.5000 F1999.8000
G1 X218.9393 Y129.5607 Z13.5000 F1999.8000
G1 X218.5000 Y130.0000 Z13.5000 F1999.8000
G1 X203.5000 Y130.0000 Z13.5000 F1999.8000
G1 X203.0607 Y129.5607 Z13.5000 F1999.8000
G1 X203.5000 Y130.0000 Z13.5000 F1999.8000
G1 X203.5000 Y257.0000 Z13.5000 F1999.8000
G3 X202.0000 Y258.5000 Z13.5000 I-1.5000 J-0.0000 K0.0000 F1999.8000
G1 X48.0000 Y258.5000 Z13.5000 F1999.8000
G3 X46.5000 Y257.0000 Z13.5000 I0.0000 J-1.5000 K0.0000 F1999.8000
G1 X46.5000 Y130.0000 Z13.5000 F1999.8000
G1 X46.9393 Y129.5607 Z13.5000 F1999.8000
G1 X46.5000 Y130.0000 Z13.5000 F1999.8000
G1 X31.5000 Y130.0000 Z13.5000 F1999.8000
G1 X31.0607 Y129.5607 Z13.5000 F1999.8000
G1 X31.5000 Y130.0000 Z13.5000 F1999.8000
G1 X31.5000 Y257.0000 Z13.5000 F1999.8000
G3 X30.0000 Y258.5000 Z13.5000 I-1.5000 J-0.0000 K0.0000 F1999.8000
G1 X0.0000 Y258.5000 Z13.5000 F1999.8000
G3 X-1.5000 Y257.0000 Z13.5000 I0.0000 J-1.5000 K0.0000 F1999.8000
G1 X-1.5000 Y0.0000 Z13.5000 F1999.8000
G3 X0.0000 Y-1.5000 Z13.5000 I1.5000 J0.0000 K0.0000 F1999.8000
G1 X78.0000 Y-1.5000 Z13.5000 F1999.8000
G3 X79.4966 Y-0.1003 Z13.5000 I-0.0000 J1.5000 K0.0000 F1999.8000
G1 X89.6187 Y150.8876 Z13.5000 F1999.8000
G2 X118.0750 Y177.5000 Z13.5000 I28.4386 J-1.8889 K0.0000 F1999.8000
G1 X131.9250 Y177.5000 Z13.5000 F1999.8000
G2 X160.3813 Y150.8876 Z13.5000 I0.0176 J-28.5013 K0.0000 F1999.8000
G1 X170.5034 Y-0.1003 Z13.5000 F1999.8000
G3 X172.0000 Y-1.5000 Z13.5000 I1.4966 J0.1003 K0.0000 F1999.8000
G1 X250.0000 Y-1.5000 Z13.5000 F1999.8000
G3 X251.5000 Y0.0000 Z13.5000 I-0.0000 J1.5000 K0.0000 F1999.8000
G1 X251.5000 Y257.0000 Z13.5000 F1999.8000
G3 X251.0607 Y258.0607 Z13.5000 I-1.5000 J-0.0000 K0.0000 F1999.8000
G1 X251.0607 Y258.0607 Z13.0000 F999.6000
G3 X250.0000 Y258.5000 Z13.0000 I-1.0607 J-1.0607 K0.0000 F1999.8000
G1 X220.0000 Y258.5000 Z13.0000 F1999.8000
G3 X218.5000 Y257.0000 Z13.0000 I0.0000 J-1.5000 K0.0000 F1999.8000
G1 X218.5000 Y130.0000 Z13.0000 F1999.8000
G1 X218.9393 Y129.5607 Z13.0000 F1999.8000
G1 X218.5000 Y130.0000 Z13.0000 F1999.8000
G1 X203.5000 Y130.0000 Z13.0000 F1999.8000
G1 X203.0607 Y129.5607 Z13.0000 F1999.8000
G1 X203.5000 Y130.0000 Z13.0000 F1999.8000
G1 X203.5000 Y257.0000 Z13.0000 F1999.8000
G3 X202.0000 Y258.5000 Z13.0000 I-1.5000 J-0.0000 K0.0000 F1999.8000
G1 X48.0000 Y258.5000 Z13.0000 F1999.8000
G3 X46.5000 Y257.0000 Z13.0000 I0.0000 J-1.5000 K0.0000 F1999.8000
G1 X46.5000 Y130.0000 Z13.0000 F1999.8000
G1 X46.9393 Y129.5607 Z13.0000 F1999.8000
G1 X46.5000 Y130.0000 Z13.0000 F1999.8000
G1 X31.5000 Y130.0000 Z13.0000 F1999.8000
G1 X31.0607 Y129.5607 Z13.0000 F1999.8000
G1 X31.5000 Y130.0000 Z13.0000 F1999.8000
G1 X31.5000 Y257.0000 Z13.0000 F1999.8000
G3 X30.0000 Y258.5000 Z13.0000 I-1.5000 J-0.0000 K0.0000 F1999.8000
G1 X0.0000 Y258.5000 Z13.0000 F1999.8000
G3 X-1.5000 Y257.0000 Z13.0000 I0.0000 J-1.5000 K0.0000 F1999.8000
G1 X-1.5000 Y0.0000 Z13.0000 F1999.8000
G3 X0.0000 Y-1.5000 Z13.0000 I1.5000 J0.0000 K0.0000 F1999.8000
G1 X78.0000 Y-1.5000 Z13.0000 F1999.8000
G3 X79.4966 Y-0.1003 Z13.0000 I-0.0000 J1.5000 K0.0000 F1999.8000
G1 X89.6187 Y150.8876 Z13.0000 F1999.8000
G2 X118.0750 Y177.5000 Z13.0000 I28.4386 J-1.8889 K0.0000 F1999.8000
G1 X131.9250 Y177.5000 Z13.0000 F1999.8000
G2 X160.3813 Y150.8876 Z13.0000 I0.0176 J-28.5013 K0.0000 F1999.8000
G1 X170.5034 Y-0.1003 Z13.0000 F1999.8000
G3 X172.0000 Y-1.5000 Z13.0000 I1.4966 J0.1003 K0.0000 F1999.8000
G1 X250.0000 Y-1.5000 Z13.0000 F1999.8000
G3 X251.5000 Y0.0000 Z13.0000 I-0.0000 J1.5000 K0.0000 F1999.8000
G1 X251.5000 Y257.0000 Z13.0000 F1999.8000
G3 X251.0607 Y258.0607 Z13.0000 I-1.5000 J-0.0000 K0.0000 F1999.8000
G1 X251.0607 Y258.0607 Z12.5000 F999.6000
G3 X250.0000 Y258.5000 Z12.5000 I-1.0607 J-1.0607 K0.0000 F1999.8000
G1 X220.0000 Y258.5000 Z12.5000 F1999.8000
G3 X218.5000 Y257.0000 Z12.5000 I0.0000 J-1.5000 K0.0000 F1999.8000
G1 X218.5000 Y130.0000 Z12.5000 F1999.8000
G1 X218.9393 Y129.5607 Z12.5000 F1999.8000
G1 X218.5000 Y130.0000 Z12.5000 F1999.8000
G1 X203.5000 Y130.0000 Z12.5000 F1999.8000
G1 X203.0607 Y129.5607 Z12.5000 F1999.8000
G1 X203.5000 Y130.0000 Z12.5000 F1999.8000
G1 X203.5000 Y257.0000 Z12.5000 F1999.8000
G3 X202.0000 Y258.5000 Z12.5000 I-1.5000 J-0.0000 K0.0000 F1999.8000
G1 X48.0000 Y258.5000 Z12.5000 F1999.8000
G3 X46.5000 Y257.0000 Z12.5000 I0.0000 J-1.5000 K0.0000 F1999.8000
G1 X46.5000 Y130.0000 Z12.5000 F1999.8000
G1 X46.9393 Y129.5607 Z12.5000 F1999.8000
G1 X46.5000 Y130.0000 Z12.5000 F1999.8000
G1 X31.5000 Y130.0000 Z12.5000 F1999.8000
G1 X31.0607 Y129.5607 Z12.5000 F1999.8000
G1 X31.5000 Y130.0000 Z12.5000 F1999.8000
G1 X31.5000 Y257.0000 Z12.5000 F1999.8000
G3 X30.0000 Y258.5000 Z12.5000 I-1.5000 J-0.0000 K0.0000 F1999.8000
G1 X0.0000 Y258.5000 Z12.5000 F1999.8000
G3 X-1.5000 Y257.0000 Z12.5000 I0.0000 J-1.5000 K0.0000 F1999.8000
G1 X-1.5000 Y0.0000 Z12.5000 F1999.8000
G3 X0.0000 Y-1.5000 Z12.5000 I1.5000 J0.0000 K0.0000 F1999.8000
G1 X78.0000 Y-1.5000 Z12.5000 F1999.8000
G3 X79.4966 Y-0.1003 Z12.5000 I-0.0000 J1.5000 K0.0000 F1999.8000
G1 X89.6187 Y150.8876 Z12.5000 F1999.8000
G2 X118.0750 Y177.5000 Z12.5000 I28.4386 J-1.8889 K0.0000 F1999.8000
G1 X131.9250 Y177.5000 Z12.5000 F1999.8000
G2 X160.3813 Y150.8876 Z12.5000 I0.0176 J-28.5013 K0.0000 F1999.8000
G1 X170.5034 Y-0.1003 Z12.5000 F1999.8000
G3 X172.0000 Y-1.5000 Z12.5000 I1.4966 J0.1003 K0.0000 F1999.8000
G1 X250.0000 Y-1.5000 Z12.5000 F1999.8000
G3 X251.5000 Y0.0000 Z12.5000 I-0.0000 J1.5000 K0.0000 F1999.8000
G1 X251.5000 Y257.0000 Z12.5000 F1999.8000
G3 X251.0607 Y258.0607 Z12.5000 I-1.5000 J-0.0000 K0.0000 F1999.8000
G1 X251.0607 Y258.0607 Z12.0000 F999.6000
G3 X250.0000 Y258.5000 Z12.0000 I-1.0607 J-1.0607 K0.0000 F1999.8000
G1 X220.0000 Y258.5000 Z12.0000 F1999.8000
G3 X218.5000 Y257.0000 Z12.0000 I0.0000 J-1.5000 K0.0000 F1999.8000
G1 X218.5000 Y130.0000 Z12.0000 F1999.8000
G1 X218.9393 Y129.5607 Z12.0000 F1999.8000
G1 X218.5000 Y130.0000 Z12.0000 F1999.8000
G1 X203.5000 Y130.0000 Z12.0000 F1999.8000
G1 X203.0607 Y129.5607 Z12.0000 F1999.8000
G1 X203.5000 Y130.0000 Z12.0000 F1999.8000
G1 X203.5000 Y257.0000 Z12.0000 F1999.8000
G3 X202.0000 Y258.5000 Z12.0000 I-1.5000 J-0.0000 K0.0000 F1999.8000
G1 X48.0000 Y258.5000 Z12.0000 F1999.8000
G3 X46.5000 Y257.0000 Z12.0000 I0.0000 J-1.5000 K0.0000 F1999.8000
G1 X46.5000 Y130.0000 Z12.0000 F1999.8000
G1 X46.9393 Y129.5607 Z12.0000 F1999.8000
G1 X46.5000 Y130.0000 Z12.0000 F1999.8000
G1 X31.5000 Y130.0000 Z12.0000 F1999.8000
G1 X31.0607 Y129.5607 Z12.0000 F1999.8000
G1 X31.5000 Y130.0000 Z12.0000 F1999.8000
G1 X31.5000 Y257.0000 Z12.0000 F1999.8000
G3 X30.0000 Y258.5000 Z12.0000 I-1.5000 J-0.0000 K0.0000 F1999.8000
G1 X0.0000 Y258.5000 Z12.0000 F1999.8000
G3 X-1.5000 Y257.0000 Z12.0000 I0.0000 J-1.5000 K0.0000 F1999.8000
G1 X-1.5000 Y0.0000 Z12.0000 F1999.8000
G3 X0.0000 Y-1.5000 Z12.0000 I1.5000 J0.0000 K0.0000 F1999.8000
G1 X78.0000 Y-1.5000 Z12.0000 F1999.8000
G3 X79.4966 Y-0.1003 Z12.0000 I-0.0000 J1.5000 K0.0000 F1999.8000
G1 X89.6187 Y150.8876 Z12.0000 F1999.8000
G2 X118.0750 Y177.5000 Z12.0000 I28.4386 J-1.8889 K0.0000 F1999.8000
G1 X131.9250 Y177.5000 Z12.0000 F1999.8000
G2 X160.3813 Y150.8876 Z12.0000 I0.0176 J-28.5013 K0.0000 F1999.8000
G1 X170.5034 Y-0.1003 Z12.0000 F1999.8000
G3 X172.0000 Y-1.5000 Z12.0000 I1.4966 J0.1003 K0.0000 F1999.8000
G1 X250.0000 Y-1.5000 Z12.0000 F1999.8000
G3 X251.5000 Y0.0000 Z12.0000 I-0.0000 J1.5000 K0.0000 F1999.8000
G1 X251.5000 Y257.0000 Z12.0000 F1999.8000
G3 X251.0607 Y258.0607 Z12.0000 I-1.5000 J-0.0000 K0.0000 F1999.8000
G1 X251.0607 Y258.0607 Z11.5000 F999.6000
G3 X250.0000 Y258.5000 Z11.5000 I-1.0607 J-1.0607 K0.0000 F1999.8000
G1 X220.0000 Y258.5000 Z11.5000 F1999.8000
G3 X218.5000 Y257.0000 Z11.5000 I0.0000 J-1.5000 K0.0000 F1999.8000
G1 X218.5000 Y130.0000 Z11.5000 F1999.8000
G1 X218.9393 Y129.5607 Z11.5000 F1999.8000
G1 X218.5000 Y130.0000 Z11.5000 F1999.8000
G1 X203.5000 Y130.0000 Z11.5000 F1999.8000
G1 X203.0607 Y129.5607 Z11.5000 F1999.8000
G1 X203.5000 Y130.0000 Z11.5000 F1999.8000
G1 X203.5000 Y257.0000 Z11.5000 F1999.8000
G3 X202.0000 Y258.5000 Z11.5000 I-1.5000 J-0.0000 K0.0000 F1999.8000
G1 X48.0000 Y258.5000 Z11.5000 F1999.8000
G3 X46.5000 Y257.0000 Z11.5000 I0.0000 J-1.5000 K0.0000 F1999.8000
G1 X46.5000 Y130.0000 Z11.5000 F1999.8000
G1 X46.9393 Y129.5607 Z11.5000 F1999.8000
G1 X46.5000 Y130.0000 Z11.5000 F1999.8000
G1 X31.5000 Y130.0000 Z11.5000 F1999.8000
G1 X31.0607 Y129.5607 Z11.5000 F1999.8000
G1 X31.5000 Y130.0000 Z11.5000 F1999.8000
G1 X31.5000 Y257.0000 Z11.5000 F1999.8000
G3 X30.0000 Y258.5000 Z11.5000 I-1.5000 J-0.0000 K0.0000 F1999.8000
G1 X0.0000 Y258.5000 Z11.5000 F1999.8000
G3 X-1.5000 Y257.0000 Z11.5000 I0.0000 J-1.5000 K0.0000 F1999.8000
G1 X-1.5000 Y0.0000 Z11.5000 F1999.8000
G3 X0.0000 Y-1.5000 Z11.5000 I1.5000 J0.0000 K0.0000 F1999.8000
G1 X78.0000 Y-1.5000 Z11.5000 F1999.8000
G3 X79.4966 Y-0.1003 Z11.5000 I-0.0000 J1.5000 K0.0000 F1999.8000
G1 X89.6187 Y150.8876 Z11.5000 F1999.8000
G2 X118.0750 Y177.5000 Z11.5000 I28.4386 J-1.8889 K0.0000 F1999.8000
G1 X131.9250 Y177.5000 Z11.5000 F1999.8000
G2 X160.3813 Y150.8876 Z11.5000 I0.0176 J-28.5013 K0.0000 F1999.8000
G1 X170.5034 Y-0.1003 Z11.5000 F1999.8000
G3 X172.0000 Y-1.5000 Z11.5000 I1.4966 J0.1003 K0.0000 F1999.8000
G1 X250.0000 Y-1.5000 Z11.5000 F1999.8000
G3 X251.5000 Y0.0000 Z11.5000 I-0.0000 J1.5000 K0.0000 F1999.8000
G1 X251.5000 Y257.0000 Z11.5000 F1999.8000
G3 X251.0607 Y258.0607 Z11.5000 I-1.5000 J-0.0000 K0.0000 F1999.8000
G1 X251.0607 Y258.0607 Z11.0000 F999.6000
G3 X250.0000 Y258.5000 Z11.0000 I-1.0607 J-1.0607 K0.0000 F1999.8000
G1 X220.0000 Y258.5000 Z11.0000 F1999.8000
G3 X218.5000 Y257.0000 Z11.0000 I0.0000 J-1.5000 K0.0000 F1999.8000
G1 X218.5000 Y130.0000 Z11.0000 F1999.8000
G1 X218.9393 Y129.5607 Z11.0000 F1999.8000
G1 X218.5000 Y130.0000 Z11.0000 F1999.8000
G1 X203.5000 Y130.0000 Z11.0000 F1999.8000
G1 X203.0607 Y129.5607 Z11.0000 F1999.8000
G1 X203.5000 Y130.0000 Z11.0000 F1999.8000
G1 X203.5000 Y257.0000 Z11.0000 F1999.8000
G3 X202.0000 Y258.5000 Z11.0000 I-1.5000 J-0.0000 K0.0000 F1999.8000
G1 X48.0000 Y258.5000 Z11.0000 F1999.8000
G3 X46.5000 Y257.0000 Z11.0000 I0.0000 J-1.5000 K0.0000 F1999.8000
G1 X46.5000 Y130.0000 Z11.0000 F1999.8000
G1 X46.9393 Y129.5607 Z11.0000 F1999.8000
G1 X46.5000 Y130.0000 Z11.0000 F1999.8000
G1 X31.5000 Y130.0000 Z11.0000 F1999.8000
G1 X31.0607 Y129.5607 Z11.0000 F1999.8000
G1 X31.5000 Y130.0000 Z11.0000 F1999.8000
G1 X31.5000 Y257.0000 Z11.0000 F1999.8000
G3 X30.0000 Y258.5000 Z11.0000 I-1.5000 J-0.0000 K0.0000 F1999.8000
G1 X0.0000 Y258.5000 Z11.0000 F1999.8000
G3 X-1.5000 Y257.0000 Z11.0000 I0.0000 J-1.5000 K0.0000 F1999.8000
G1 X-1.5000 Y0.0000 Z11.0000 F1999.8000
G3 X0.0000 Y-1.5000 Z11.0000 I1.5000 J0.0000 K0.0000 F1999.8000
G1 X78.0000 Y-1.5000 Z11.0000 F1999.8000
G3 X79.4966 Y-0.1003 Z11.0000 I-0.0000 J1.5000 K0.0000 F1999.8000
G1 X89.6187 Y150.8876 Z11.0000 F1999.8000
G2 X118.0750 Y177.5000 Z11.0000 I28.4386 J-1.8889 K0.0000 F1999.8000
G1 X131.9250 Y177.5000 Z11.0000 F1999.8000
G2 X160.3813 Y150.8876 Z11.0000 I0.0176 J-28.5013 K0.0000 F1999.8000
G1 X170.5034 Y-0.1003 Z11.0000 F1999.8000
G3 X172.0000 Y-1.5000 Z11.0000 I1.4966 J0.1003 K0.0000 F1999.8000
G1 X250.0000 Y-1.5000 Z11.0000 F1999.8000
G3 X251.5000 Y0.0000 Z11.0000 I-0.0000 J1.5000 K0.0000 F1999.8000
G1 X251.5000 Y257.0000 Z11.0000 F1999.8000
G3 X251.0607 Y258.0607 Z11.0000 I-1.5000 J-0.0000 K0.0000 F1999.8000
G1 X251.0607 Y258.0607 Z10.5000 F999.6000
G3 X250.0000 Y258.5000 Z10.5000 I-1.0607 J-1.0607 K0.0000 F1999.8000
G1 X220.0000 Y258.5000 Z10.5000 F1999.8000
G3 X218.5000 Y257.0000 Z10.5000 I0.0000 J-1.5000 K0.0000 F1999.8000
G1 X218.5000 Y130.0000 Z10.5000 F1999.8000
G1 X218.9393 Y129.5607 Z10.5000 F1999.8000
G1 X218.5000 Y130.0000 Z10.5000 F1999.8000
G1 X203.5000 Y130.0000 Z10.5000 F1999.8000
G1 X203.0607 Y129.5607 Z10.5000 F1999.8000
G1 X203.5000 Y130.0000 Z10.5000 F1999.8000
G1 X203.5000 Y257.0000 Z10.5000 F1999.8000
G3 X202.0000 Y258.5000 Z10.5000 I-1.5000 J-0.0000 K0.0000 F1999.8000
G1 X48.0000 Y258.5000 Z10.5000 F1999.8000
G3 X46.5000 Y257.0000 Z10.5000 I0.0000 J-1.5000 K0.0000 F1999.8000
G1 X46.5000 Y130.0000 Z10.5000 F1999.8000
G1 X46.9393 Y129.5607 Z10.5000 F1999.8000
G1 X46.5000 Y130.0000 Z10.5000 F1999.8000
G1 X31.5000 Y130.0000 Z10.5000 F1999.8000
G1 X31.0607 Y129.5607 Z10.5000 F1999.8000
G1 X31.5000 Y130.0000 Z10.5000 F1999.8000
G1 X31.5000 Y257.0000 Z10.5000 F1999.8000
G3 X30.0000 Y258.5000 Z10.5000 I-1.5000 J-0.0000 K0.0000 F1999.8000
G1 X0.0000 Y258.5000 Z10.5000 F1999.8000
G3 X-1.5000 Y257.0000 Z10.5000 I0.0000 J-1.5000 K0.0000 F1999.8000
G1 X-1.5000 Y0.0000 Z10.5000 F1999.8000
G3 X0.0000 Y-1.5000 Z10.5000 I1.5000 J0.0000 K0.0000 F1999.8000
G1 X78.0000 Y-1.5000 Z10.5000 F1999.8000
G3 X79.4966 Y-0.1003 Z10.5000 I-0.0000 J1.5000 K0.0000 F1999.8000
G1 X89.6187 Y150.8876 Z10.5000 F1999.8000
G2 X118.0750 Y177.5000 Z10.5000 I28.4386 J-1.8889 K0.0000 F1999.8000
G1 X131.9250 Y177.5000 Z10.5000 F1999.8000
G2 X160.3813 Y150.8876 Z10.5000 I0.0176 J-28.5013 K0.0000 F1999.8000
G1 X170.5034 Y-0.1003 Z10.5000 F1999.8000
G3 X172.0000 Y-1.5000 Z10.5000 I1.4966 J0.1003 K0.0000 F1999.8000
G1 X250.0000 Y-1.5000 Z10.5000 F1999.8000
G3 X251.5000 Y0.0000 Z10.5000 I-0.0000 J1.5000 K0.0000 F1999.8000
G1 X251.5000 Y257.0000 Z10.5000 F1999.8000
G3 X251.0607 Y258.0607 Z10.5000 I-1.5000 J-0.0000 K0.0000 F1999.8000
G1 X251.0607 Y258.0607 Z10.0000 F999.6000
G3 X250.0000 Y258.5000 Z10.0000 I-1.0607 J-1.0607 K0.0000 F1999.8000
G1 X220.0000 Y258.5000 Z10.0000 F1999.8000
G3 X218.5000 Y257.0000 Z10.0000 I0.0000 J-1.5000 K0.0000 F1999.8000
G1 X218.5000 Y130.0000 Z10.0000 F1999.8000
G1 X218.9393 Y129.5607 Z10.0000 F1999.8000
G1 X218.5000 Y130.0000 Z10.0000 F1999.8000
G1 X203.5000 Y130.0000 Z10.0000 F1999.8000
G1 X203.0607 Y129.5607 Z10.0000 F1999.8000
G1 X203.5000 Y130.0000 Z10.0000 F1999.8000
G1 X203.5000 Y257.0000 Z10.0000 F1999.8000
G3 X202.0000 Y258.5000 Z10.0000 I-1.5000 J-0.0000 K0.0000 F1999.8000
G1 X48.0000 Y258.5000 Z10.0000 F1999.8000
G3 X46.5000 Y257.0000 Z10.0000 I0.0000 J-1.5000 K0.0000 F1999.8000
G1 X46.5000 Y130.0000 Z10.0000 F1999.8000
G1 X46.9393 Y129.5607 Z10.0000 F1999.8000
G1 X46.5000 Y130.0000 Z10.0000 F1999.8000
G1 X31.5000 Y130.0000 Z10.0000 F1999.8000
G1 X31.0607 Y129.5607 Z10.0000 F1999.8000
G1 X31.5000 Y130.0000 Z10.0000 F1999.8000
G1 X31.5000 Y257.0000 Z10.0000 F1999.8000
G3 X30.0000 Y258.5000 Z10.0000 I-1.5000 J-0.0000 K0.0000 F1999.8000
G1 X0.0000 Y258.5000 Z10.0000 F1999.8000
G3 X-1.5000 Y257.0000 Z10.0000 I0.0000 J-1.5000 K0.0000 F1999.8000
G1 X-1.5000 Y0.0000 Z10.0000 F1999.8000
G3 X0.0000 Y-1.5000 Z10.0000 I1.5000 J0.0000 K0.0000 F1999.8000
G1 X78.0000 Y-1.5000 Z10.0000 F1999.8000
G3 X79.4966 Y-0.1003 Z10.0000 I-0.0000 J1.5000 K0.0000 F1999.8000
G1 X89.6187 Y150.8876 Z10.0000 F1999.8000
G2 X118.0750 Y177.5000 Z10.0000 I28.4386 J-1.8889 K0.0000 F1999.8000
G1 X131.9250 Y177.5000 Z10.0000 F1999.8000
G2 X160.3813 Y150.8876 Z10.0000 I0.0176 J-28.5013 K0.0000 F1999.8000
G1 X170.5034 Y-0.1003 Z10.0000 F1999.8000
G3 X172.0000 Y-1.5000 Z10.0000 I1.4966 J0.1003 K0.0000 F1999.8000
G1 X250.0000 Y-1.5000 Z10.0000 F1999.8000
G3 X251.5000 Y0.0000 Z10.0000 I-0.0000 J1.5000 K0.0000 F1999.8000
G1 X251.5000 Y257.0000 Z10.0000 F1999.8000
G3 X251.0607 Y258.0607 Z10.0000 I-1.5000 J-0.0000 K0.0000 F1999.8000
G1 X251.0607 Y258.0607 Z9.5000 F999.6000
G3 X250.0000 Y258.5000 Z9.5000 I-1.0607 J-1.0607 K0.0000 F1999.8000
G1 X220.0000 Y258.5000 Z9.5000 F1999.8000
G3 X218.5000 Y257.0000 Z9.5000 I0.0000 J-1.5000 K0.0000 F1999.8000
G1 X218.5000 Y130.0000 Z9.5000 F1999.8000
G1 X218.9393 Y129.5607 Z9.5000 F1999.8000
G1 X218.5000 Y130.0000 Z9.5000 F1999.8000
G1 X203.5000 Y130.0000 Z9.5000 F1999.8000
G1 X203.0607 Y129.5607 Z9.5000 F1999.8000
G1 X203.5000 Y130.0000 Z9.5000 F1999.8000
G1 X203.5000 Y257.0000 Z9.5000 F1999.8000
G3 X202.0000 Y258.5000 Z9.5000 I-1.5000 J-0.0000 K0.0000 F1999.8000
G1 X48.0000 Y258.5000 Z9.5000 F1999.8000
G3 X46.5000 Y257.0000 Z9.5000 I0.0000 J-1.5000 K0.0000 F1999.8000
G1 X46.5000 Y130.0000 Z9.5000 F1999.8000
G1 X46.9393 Y129.5607 Z9.5000 F1999.8000
G1 X46.5000 Y130.0000 Z9.5000 F1999.8000
G1 X31.5000 Y130.0000 Z9.5000 F1999.8000
G1 X31.0607 Y129.5607 Z9.5000 F1999.8000
G1 X31.5000 Y130.0000 Z9.5000 F1999.8000
G1 X31.5000 Y257.0000 Z9.5000 F1999.8000
G3 X30.0000 Y258.5000 Z9.5000 I-1.5000 J-0.0000 K0.0000 F1999.8000
G1 X0.0000 Y258.5000 Z9.5000 F1999.8000
G3 X-1.5000 Y257.0000 Z9.5000 I0.0000 J-1.5000 K0.0000 F1999.8000
G1 X-1.5000 Y0.0000 Z9.5000 F1999.8000
G3 X0.0000 Y-1.5000 Z9.5000 I1.5000 J0.0000 K0.0000 F1999.8000
G1 X78.0000 Y-1.5000 Z9.5000 F1999.8000
G3 X79.4966 Y-0.1003 Z9.5000 I-0.0000 J1.5000 K0.0000 F1999.8000
G1 X89.6187 Y150.8876 Z9.5000 F1999.8000
G2 X118.0750 Y177.5000 Z9.5000 I28.4386 J-1.8889 K0.0000 F1999.8000
G1 X131.9250 Y177.5000 Z9.5000 F1999.8000
G2 X160.3813 Y150.8876 Z9.5000 I0.0176 J-28.5013 K0.0000 F1999.8000
G1 X170.5034 Y-0.1003 Z9.5000 F1999.8000
G3 X172.0000 Y-1.5000 Z9.5000 I1.4966 J0.1003 K0.0000 F1999.8000
G1 X250.0000 Y-1.5000 Z9.5000 F1999.8000
G3 X251.5000 Y0.0000 Z9.5000 I-0.0000 J1.5000 K0.0000 F1999.8000
G1 X251.5000 Y257.0000 Z9.5000 F1999.8000
G3 X251.0607 Y258.0607 Z9.5000 I-1.5000 J-0.0000 K0.0000 F1999.8000
G1 X251.0607 Y258.0607 Z9.0000 F999.6000
G3 X250.0000 Y258.5000 Z9.0000 I-1.0607 J-1.0607 K0.0000 F1999.8000
G1 X220.0000 Y258.5000 Z9.0000 F1999.8000
G3 X218.5000 Y257.0000 Z9.0000 I0.0000 J-1.5000 K0.0000 F1999.8000
G1 X218.5000 Y130.0000 Z9.0000 F1999.8000
G1 X218.9393 Y129.5607 Z9.0000 F1999.8000
G1 X218.5000 Y130.0000 Z9.0000 F1999.8000
G1 X203.5000 Y130.0000 Z9.0000 F1999.8000
G1 X203.0607 Y129.5607 Z9.0000 F1999.8000
G1 X203.5000 Y130.0000 Z9.0000 F1999.8000
G1 X203.5000 Y257.0000 Z9.0000 F1999.8000
G3 X202.0000 Y258.5000 Z9.0000 I-1.5000 J-0.0000 K0.0000 F1999.8000
G1 X48.0000 Y258.5000 Z9.0000 F1999.8000
G3 X46.5000 Y257.0000 Z9.0000 I0.0000 J-1.5000 K0.0000 F1999.8000
G1 X46.5000 Y130.0000 Z9.0000 F1999.8000
G1 X46.9393 Y129.5607 Z9.0000 F1999.8000
G1 X46.5000 Y130.0000 Z9.0000 F1999.8000
G1 X31.5000 Y130.0000 Z9.0000 F1999.8000
G1 X31.0607 Y129.5607 Z9.0000 F1999.8000
G1 X31.5000 Y130.0000 Z9.0000 F1999.8000
G1 X31.5000 Y257.0000 Z9.0000 F1999.8000
G3 X30.0000 Y258.5000 Z9.0000 I-1.5000 J-0.0000 K0.0000 F1999.8000
G1 X0.0000 Y258.5000 Z9.0000 F1999.8000
G3 X-1.5000 Y257.0000 Z9.0000 I0.0000 J-1.5000 K0.0000 F1999.8000
G1 X-1.5000 Y0.0000 Z9.0000 F1999.8000
G3 X0.0000 Y-1.5000 Z9.0000 I1.5000 J0.0000 K0.0000 F1999.8000
G1 X78.0000 Y-1.5000 Z9.0000 F1999.8000
G3 X79.4966 Y-0.1003 Z9.0000 I-0.0000 J1.5000 K0.0000 F1999.8000
G1 X89.6187 Y150.8876 Z9.0000 F1999.8000
G2 X118.0750 Y177.5000 Z9.0000 I28.4386 J-1.8889 K0.0000 F1999.8000
G1 X131.9250 Y177.5000 Z9.0000 F1999.8000
G2 X160.3813 Y150.8876 Z9.0000 I0.0176 J-28.5013 K0.0000 F1999.8000
G1 X170.5034 Y-0.1003 Z9.0000 F1999.8000
G3 X172.0000 Y-1.5000 Z9.0000 I1.4966 J0.1003 K0.0000 F1999.8000
G1 X250.0000 Y-1.5000 Z9.0000 F1999.8000
G3 X251.5000 Y0.0000 Z9.0000 I-0.0000 J1.5000 K0.0000 F1999.8000
G1 X251.5000 Y257.0000 Z9.0000 F1999.8000
G3 X251.0607 Y258.0607 Z9.0000 I-1.5000 J-0.0000 K0.0000 F1999.8000
G1 X251.0607 Y258.0607 Z8.5000 F999.6000
G3 X250.0000 Y258.5000 Z8.5000 I-1.0607 J-1.0607 K0.0000 F1999.8000
G1 X220.0000 Y258.5000 Z8.5000 F1999.8000
G3 X218.5000 Y257.0000 Z8.5000 I0.0000 J-1.5000 K0.0000 F1999.8000
G1 X218.5000 Y130.0000 Z8.5000 F1999.8000
G1 X218.9393 Y129.5607 Z8.5000 F1999.8000
G1 X218.5000 Y130.0000 Z8.5000 F1999.8000
G1 X203.5000 Y130.0000 Z8.5000 F1999.8000
G1 X203.0607 Y129.5607 Z8.5000 F1999.8000
G1 X203.5000 Y130.0000 Z8.5000 F1999.8000
G1 X203.5000 Y257.0000 Z8.5000 F1999.8000
G3 X202.0000 Y258.5000 Z8.5000 I-1.5000 J-0.0000 K0.0000 F1999.8000
G1 X48.0000 Y258.5000 Z8.5000 F1999.8000
G3 X46.5000 Y257.0000 Z8.5000 I0.0000 J-1.5000 K0.0000 F1999.8000
G1 X46.5000 Y130.0000 Z8.5000 F1999.8000
G1 X46.9393 Y129.5607 Z8.5000 F1999.8000
G1 X46.5000 Y130.0000 Z8.5000 F1999.8000
G1 X31.5000 Y130.0000 Z8.5000 F1999.8000
G1 X31.0607 Y129.5607 Z8.5000 F1999.8000
G1 X31.5000 Y130.0000 Z8.5000 F1999.8000
G1 X31.5000 Y257.0000 Z8.5000 F1999.8000
G3 X30.0000 Y258.5000 Z8.5000 I-1.5000 J-0.0000 K0.0000 F1999.8000
G1 X0.0000 Y258.5000 Z8.5000 F1999.8000
G3 X-1.5000 Y257.0000 Z8.5000 I0.0000 J-1.5000 K0.0000 F1999.8000
G1 X-1.5000 Y0.0000 Z8.5000 F1999.8000
G3 X0.0000 Y-1.5000 Z8.5000 I1.5000 J0.0000 K0.0000 F1999.8000
G1 X78.0000 Y-1.5000 Z8.5000 F1999.8000
G3 X79.4966 Y-0.1003 Z8.5000 I-0.0000 J1.5000 K0.0000 F1999.8000
G1 X89.6187 Y150.8876 Z8.5000 F1999.8000
G2 X118.0750 Y177.5000 Z8.5000 I28.4386 J-1.8889 K0.0000 F1999.8000
G1 X131.9250 Y177.5000 Z8.5000 F1999.8000
G2 X160.3813 Y150.8876 Z8.5000 I0.0176 J-28.5013 K0.0000 F1999.8000
G1 X170.5034 Y-0.1003 Z8.5000 F1999.8000
G3 X172.0000 Y-1.5000 Z8.5000 I1.4966 J0.1003 K0.0000 F1999.8000
G1 X250.0000 Y-1.5000 Z8.5000 F1999.8000
G3 X251.5000 Y0.0000 Z8.5000 I-0.0000 J1.5000 K0.0000 F1999.8000
G1 X251.5000 Y257.0000 Z8.5000 F1999.8000
G3 X251.0607 Y258.0607 Z8.5000 I-1.5000 J-0.0000 K0.0000 F1999.8000
G1 X251.0607 Y258.0607 Z8.0000 F999.6000
G3 X250.0000 Y258.5000 Z8.0000 I-1.0607 J-1.0607 K0.0000 F1999.8000
G1 X220.0000 Y258.5000 Z8.0000 F1999.8000
G3 X218.5000 Y257.0000 Z8.0000 I0.0000 J-1.5000 K0.0000 F1999.8000
G1 X218.5000 Y130.0000 Z8.0000 F1999.8000
G1 X218.9393 Y129.5607 Z8.0000 F1999.8000
G1 X218.5000 Y130.0000 Z8.0000 F1999.8000
G1 X203.5000 Y130.0000 Z8.0000 F1999.8000
G1 X203.0607 Y129.5607 Z8.0000 F1999.8000
G1 X203.5000 Y130.0000 Z8.0000 F1999.8000
G1 X203.5000 Y257.0000 Z8.0000 F1999.8000
G3 X202.0000 Y258.5000 Z8.0000 I-1.5000 J-0.0000 K0.0000 F1999.8000
G1 X48.0000 Y258.5000 Z8.0000 F1999.8000
G3 X46.5000 Y257.0000 Z8.0000 I0.0000 J-1.5000 K0.0000 F1999.8000
G1 X46.5000 Y130.0000 Z8.0000 F1999.8000
G1 X46.9393 Y129.5607 Z8.0000 F1999.8000
G1 X46.5000 Y130.0000 Z8.0000 F1999.8000
G1 X31.5000 Y130.0000 Z8.0000 F1999.8000
G1 X31.0607 Y129.5607 Z8.0000 F1999.8000
G1 X31.5000 Y130.0000 Z8.0000 F1999.8000
G1 X31.5000 Y257.0000 Z8.0000 F1999.8000
G3 X30.0000 Y258.5000 Z8.0000 I-1.5000 J-0.0000 K0.0000 F1999.8000
G1 X0.0000 Y258.5000 Z8.0000 F1999.8000
G3 X-1.5000 Y257.0000 Z8.0000 I0.0000 J-1.5000 K0.0000 F1999.8000
G1 X-1.5000 Y0.0000 Z8.0000 F1999.8000
G3 X0.0000 Y-1.5000 Z8.0000 I1.5000 J0.0000 K0.0000 F1999.8000
G1 X78.0000 Y-1.5000 Z8.0000 F1999.8000
G3 X79.4966 Y-0.1003 Z8.0000 I-0.0000 J1.5000 K0.0000 F1999.8000
G1 X89.6187 Y150.8876 Z8.0000 F1999.8000
G2 X118.0750 Y177.5000 Z8.0000 I28.4386 J-1.8889 K0.0000 F1999.8000
G1 X131.9250 Y177.5000 Z8.0000 F1999.8000
G2 X160.3813 Y150.8876 Z8.0000 I0.0176 J-28.5013 K0.0000 F1999.8000
G1 X170.5034 Y-0.1003 Z8.0000 F1999.8000
G3 X172.0000 Y-1.5000 Z8.0000 I1.4966 J0.1003 K0.0000 F1999.8000
G1 X250.0000 Y-1.5000 Z8.0000 F1999.8000
G3 X251.5000 Y0.0000 Z8.0000 I-0.0000 J1.5000 K0.0000 F1999.8000
G1 X251.5000 Y257.0000 Z8.0000 F1999.8000
G3 X251.0607 Y258.0607 Z8.0000 I-1.5000 J-0.0000 K0.0000 F1999.8000
G1 X251.0607 Y258.0607 Z7.5000 F999.6000
G3 X250.0000 Y258.5000 Z7.5000 I-1.0607 J-1.0607 K0.0000 F1999.8000
G1 X220.0000 Y258.5000 Z7.5000 F1999.8000
G3 X218.5000 Y257.0000 Z7.5000 I0.0000 J-1.5000 K0.0000 F1999.8000
G1 X218.5000 Y130.0000 Z7.5000 F1999.8000
G1 X218.9393 Y129.5607 Z7.5000 F1999.8000
G1 X218.5000 Y130.0000 Z7.5000 F1999.8000
G1 X203.5000 Y130.0000 Z7.5000 F1999.8000
G1 X203.0607 Y129.5607 Z7.5000 F1999.8000
G1 X203.5000 Y130.0000 Z7.5000 F1999.8000
G1 X203.5000 Y257.0000 Z7.5000 F1999.8000
G3 X202.0000 Y258.5000 Z7.5000 I-1.5000 J-0.0000 K0.0000 F1999.8000
G1 X48.0000 Y258.5000 Z7.5000 F1999.8000
G3 X46.5000 Y257.0000 Z7.5000 I0.0000 J-1.5000 K0.0000 F1999.8000
G1 X46.5000 Y130.0000 Z7.5000 F1999.8000
G1 X46.9393 Y129.5607 Z7.5000 F1999.8000
G1 X46.5000 Y130.0000 Z7.5000 F1999.8000
G1 X31.5000 Y130.0000 Z7.5000 F1999.8000
G1 X31.0607 Y129.5607 Z7.5000 F1999.8000
G1 X31.5000 Y130.0000 Z7.5000 F1999.8000
G1 X31.5000 Y257.0000 Z7.5000 F1999.8000
G3 X30.0000 Y258.5000 Z7.5000 I-1.5000 J-0.0000 K0.0000 F1999.8000
G1 X0.0000 Y258.5000 Z7.5000 F1999.8000
G3 X-1.5000 Y257.0000 Z7.5000 I0.0000 J-1.5000 K0.0000 F1999.8000
G1 X-1.5000 Y0.0000 Z7.5000 F1999.8000
G3 X0.0000 Y-1.5000 Z7.5000 I1.5000 J0.0000 K0.0000 F1999.8000
G1 X78.0000 Y-1.5000 Z7.5000 F1999.8000
G3 X79.4966 Y-0.1003 Z7.5000 I-0.0000 J1.5000 K0.0000 F1999.8000
G1 X89.6187 Y150.8876 Z7.5000 F1999.8000
G2 X118.0750 Y177.5000 Z7.5000 I28.4386 J-1.8889 K0.0000 F1999.8000
G1 X131.9250 Y177.5000 Z7.5000 F1999.8000
G2 X160.3813 Y150.8876 Z7.5000 I0.0176 J-28.5013 K0.0000 F1999.8000
G1 X170.5034 Y-0.1003 Z7.5000 F1999.8000
G3 X172.0000 Y-1.5000 Z7.5000 I1.4966 J0.1003 K0.0000 F1999.8000
G1 X250.0000 Y-1.5000 Z7.5000 F1999.8000
G3 X251.5000 Y0.0000 Z7.5000 I-0.0000 J1.5000 K0.0000 F1999.8000
G1 X251.5000 Y257.0000 Z7.5000 F1999.8000
G3 X251.0607 Y258.0607 Z7.5000 I-1.5000 J-0.0000 K0.0000 F1999.8000
G1 X251.0607 Y258.0607 Z7.0000 F999.6000
G3 X250.0000 Y258.5000 Z7.0000 I-1.0607 J-1.0607 K0.0000 F1999.8000
G1 X220.0000 Y258.5000 Z7.0000 F1999.8000
G3 X218.5000 Y257.0000 Z7.0000 I0.0000 J-1.5000 K0.0000 F1999.8000
G1 X218.5000 Y130.0000 Z7.0000 F1999.8000
G1 X218.9393 Y129.5607 Z7.0000 F1999.8000
G1 X218.5000 Y130.0000 Z7.0000 F1999.8000
G1 X203.5000 Y130.0000 Z7.0000 F1999.8000
G1 X203.0607 Y129.5607 Z7.0000 F1999.8000
G1 X203.5000 Y130.0000 Z7.0000 F1999.8000
G1 X203.5000 Y257.0000 Z7.0000 F1999.8000
G3 X202.0000 Y258.5000 Z7.0000 I-1.5000 J-0.0000 K0.0000 F1999.8000
G1 X48.0000 Y258.5000 Z7.0000 F1999.8000
G3 X46.5000 Y257.0000 Z7.0000 I0.0000 J-1.5000 K0.0000 F1999.8000
G1 X46.5000 Y130.0000 Z7.0000 F1999.8000
G1 X46.9393 Y129.5607 Z7.0000 F1999.8000
G1 X46.5000 Y130.0000 Z7.0000 F1999.8000
G1 X31.5000 Y130.0000 Z7.0000 F1999.8000
G1 X31.0607 Y129.5607 Z7.0000 F1999.8000
G1 X31.5000 Y130.0000 Z7.0000 F1999.8000
G1 X31.5000 Y257.0000 Z7.0000 F1999.8000
G3 X30.0000 Y258.5000 Z7.0000 I-1.5000 J-0.0000 K0.0000 F1999.8000
G1 X0.0000 Y258.5000 Z7.0000 F1999.8000
G3 X-1.5000 Y257.0000 Z7.0000 I0.0000 J-1.5000 K0.0000 F1999.8000
G1 X-1.5000 Y0.0000 Z7.0000 F1999.8000
G3 X0.0000 Y-1.5000 Z7.0000 I1.5000 J0.0000 K0.0000 F1999.8000
G1 X78.0000 Y-1.5000 Z7.0000 F1999.8000
G3 X79.4966 Y-0.1003 Z7.0000 I-0.0000 J1.5000 K0.0000 F1999.8000
G1 X89.6187 Y150.8876 Z7.0000 F1999.8000
G2 X118.0750 Y177.5000 Z7.0000 I28.4386 J-1.8889 K0.0000 F1999.8000
G1 X131.9250 Y177.5000 Z7.0000 F1999.8000
G2 X160.3813 Y150.8876 Z7.0000 I0.0176 J-28.5013 K0.0000 F1999.8000
G1 X170.5034 Y-0.1003 Z7.0000 F1999.8000
G3 X172.0000 Y-1.5000 Z7.0000 I1.4966 J0.1003 K0.0000 F1999.8000
G1 X250.0000 Y-1.5000 Z7.0000 F1999.8000
G3 X251.5000 Y0.0000 Z7.0000 I-0.0000 J1.5000 K0.0000 F1999.8000
G1 X251.5000 Y257.0000 Z7.0000 F1999.8000
G3 X251.0607 Y258.0607 Z7.0000 I-1.5000 J-0.0000 K0.0000 F1999.8000
G1 X251.0607 Y258.0607 Z6.5000 F999.6000
G3 X250.0000 Y258.5000 Z6.5000 I-1.0607 J-1.0607 K0.0000 F1999.8000
G1 X220.0000 Y258.5000 Z6.5000 F1999.8000
G3 X218.5000 Y257.0000 Z6.5000 I0.0000 J-1.5000 K0.0000 F1999.8000
G1 X218.5000 Y130.0000 Z6.5000 F1999.8000
G1 X218.9393 Y129.5607 Z6.5000 F1999.8000
G1 X218.5000 Y130.0000 Z6.5000 F1999.8000
G1 X203.5000 Y130.0000 Z6.5000 F1999.8000
G1 X203.0607 Y129.5607 Z6.5000 F1999.8000
G1 X203.5000 Y130.0000 Z6.5000 F1999.8000
G1 X203.5000 Y257.0000 Z6.5000 F1999.8000
G3 X202.0000 Y258.5000 Z6.5000 I-1.5000 J-0.0000 K0.0000 F1999.8000
G1 X48.0000 Y258.5000 Z6.5000 F1999.8000
G3 X46.5000 Y257.0000 Z6.5000 I0.0000 J-1.5000 K0.0000 F1999.8000
G1 X46.5000 Y130.0000 Z6.5000 F1999.8000
G1 X46.9393 Y129.5607 Z6.5000 F1999.8000
G1 X46.5000 Y130.0000 Z6.5000 F1999.8000
G1 X31.5000 Y130.0000 Z6.5000 F1999.8000
G1 X31.0607 Y129.5607 Z6.5000 F1999.8000
G1 X31.5000 Y130.0000 Z6.5000 F1999.8000
G1 X31.5000 Y257.0000 Z6.5000 F1999.8000
G3 X30.0000 Y258.5000 Z6.5000 I-1.5000 J-0.0000 K0.0000 F1999.8000
G1 X0.0000 Y258.5000 Z6.5000 F1999.8000
G3 X-1.5000 Y257.0000 Z6.5000 I0.0000 J-1.5000 K0.0000 F1999.8000
G1 X-1.5000 Y0.0000 Z6.5000 F1999.8000
G3 X0.0000 Y-1.5000 Z6.5000 I1.5000 J0.0000 K0.0000 F1999.8000
G1 X78.0000 Y-1.5000 Z6.5000 F1999.8000
G3 X79.4966 Y-0.1003 Z6.5000 I-0.0000 J1.5000 K0.0000 F1999.8000
G1 X89.6187 Y150.8876 Z6.5000 F1999.8000
G2 X118.0750 Y177.5000 Z6.5000 I28.4386 J-1.8889 K0.0000 F1999.8000
G1 X131.9250 Y177.5000 Z6.5000 F1999.8000
G2 X160.3813 Y150.8876 Z6.5000 I0.0176 J-28.5013 K0.0000 F1999.8000
G1 X170.5034 Y-0.1003 Z6.5000 F1999.8000
G3 X172.0000 Y-1.5000 Z6.5000 I1.4966 J0.1003 K0.0000 F1999.8000
G1 X250.0000 Y-1.5000 Z6.5000 F1999.8000
G3 X251.5000 Y0.0000 Z6.5000 I-0.0000 J1.5000 K0.0000 F1999.8000
G1 X251.5000 Y257.0000 Z6.5000 F1999.8000
G3 X251.0607 Y258.0607 Z6.5000 I-1.5000 J-0.0000 K0.0000 F1999.8000
G1 X251.0607 Y258.0607 Z6.0000 F999.6000
G3 X250.0000 Y258.5000 Z6.0000 I-1.0607 J-1.0607 K0.0000 F1999.8000
G1 X220.0000 Y258.5000 Z6.0000 F1999.8000
G3 X218.5000 Y257.0000 Z6.0000 I0.0000 J-1.5000 K0.0000 F1999.8000
G1 X218.5000 Y130.0000 Z6.0000 F1999.8000
G1 X218.9393 Y129.5607 Z6.0000 F1999.8000
G1 X218.5000 Y130.0000 Z6.0000 F1999.8000
G1 X203.5000 Y130.0000 Z6.0000 F1999.8000
G1 X203.0607 Y129.5607 Z6.0000 F1999.8000
G1 X203.5000 Y130.0000 Z6.0000 F1999.8000
G1 X203.5000 Y257.0000 Z6.0000 F1999.8000
G3 X202.0000 Y258.5000 Z6.0000 I-1.5000 J-0.0000 K0.0000 F1999.8000
G1 X48.0000 Y258.5000 Z6.0000 F1999.8000
G3 X46.5000 Y257.0000 Z6.0000 I0.0000 J-1.5000 K0.0000 F1999.8000
G1 X46.5000 Y130.0000 Z6.0000 F1999.8000
G1 X46.9393 Y129.5607 Z6.0000 F1999.8000
G1 X46.5000 Y130.0000 Z6.0000 F1999.8000
G1 X31.5000 Y130.0000 Z6.0000 F1999.8000
G1 X31.0607 Y129.5607 Z6.0000 F1999.8000
G1 X31.5000 Y130.0000 Z6.0000 F1999.8000
G1 X31.5000 Y257.0000 Z6.0000 F1999.8000
G3 X30.0000 Y258.5000 Z6.0000 I-1.5000 J-0.0000 K0.0000 F1999.8000
G1 X0.0000 Y258.5000 Z6.0000 F1999.8000
G3 X-1.5000 Y257.0000 Z6.0000 I0.0000 J-1.5000 K0.0000 F1999.8000
G1 X-1.5000 Y0.0000 Z6.0000 F1999.8000
G3 X0.0000 Y-1.5000 Z6.0000 I1.5000 J0.0000 K0.0000 F1999.8000
G1 X78.0000 Y-1.5000 Z6.0000 F1999.8000
G3 X79.4966 Y-0.1003 Z6.0000 I-0.0000 J1.5000 K0.0000 F1999.8000
G1 X89.6187 Y150.8876 Z6.0000 F1999.8000
G2 X118.0750 Y177.5000 Z6.0000 I28.4386 J-1.8889 K0.0000 F1999.8000
G1 X131.9250 Y177.5000 Z6.0000 F1999.8000
G2 X160.3813 Y150.8876 Z6.0000 I0.0176 J-28.5013 K0.0000 F1999.8000
G1 X170.5034 Y-0.1003 Z6.0000 F1999.8000
G3 X172.0000 Y-1.5000 Z6.0000 I1.4966 J0.1003 K0.0000 F1999.8000
G1 X250.0000 Y-1.5000 Z6.0000 F1999.8000
G3 X251.5000 Y0.0000 Z6.0000 I-0.0000 J1.5000 K0.0000 F1999.8000
G1 X251.5000 Y257.0000 Z6.0000 F1999.8000
G3 X251.0607 Y258.0607 Z6.0000 I-1.5000 J-0.0000 K0.0000 F1999.8000
G1 X251.0607 Y258.0607 Z5.5000 F999.6000
G3 X250.0000 Y258.5000 Z5.5000 I-1.0607 J-1.0607 K0.0000 F1999.8000
G1 X220.0000 Y258.5000 Z5.5000 F1999.8000
G3 X218.5000 Y257.0000 Z5.5000 I0.0000 J-1.5000 K0.0000 F1999.8000
G1 X218.5000 Y130.0000 Z5.5000 F1999.8000
G1 X218.9393 Y129.5607 Z5.5000 F1999.8000
G1 X218.5000 Y130.0000 Z5.5000 F1999.8000
G1 X203.5000 Y130.0000 Z5.5000 F1999.8000
G1 X203.0607 Y129.5607 Z5.5000 F1999.8000
G1 X203.5000 Y130.0000 Z5.5000 F1999.8000
G1 X203.5000 Y257.0000 Z5.5000 F1999.8000
G3 X202.0000 Y258.5000 Z5.5000 I-1.5000 J-0.0000 K0.0000 F1999.8000
G1 X48.0000 Y258.5000 Z5.5000 F1999.8000
G3 X46.5000 Y257.0000 Z5.5000 I0.0000 J-1.5000 K0.0000 F1999.8000
G1 X46.5000 Y130.0000 Z5.5000 F1999.8000
G1 X46.9393 Y129.5607 Z5.5000 F1999.8000
G1 X46.5000 Y130.0000 Z5.5000 F1999.8000
G1 X31.5000 Y130.0000 Z5.5000 F1999.8000
G1 X31.0607 Y129.5607 Z5.5000 F1999.8000
G1 X31.5000 Y130.0000 Z5.5000 F1999.8000
G1 X31.5000 Y257.0000 Z5.5000 F1999.8000
G3 X30.0000 Y258.5000 Z5.5000 I-1.5000 J-0.0000 K0.0000 F1999.8000
G1 X0.0000 Y258.5000 Z5.5000 F1999.8000
G3 X-1.5000 Y257.0000 Z5.5000 I0.0000 J-1.5000 K0.0000 F1999.8000
G1 X-1.5000 Y0.0000 Z5.5000 F1999.8000
G3 X0.0000 Y-1.5000 Z5.5000 I1.5000 J0.0000 K0.0000 F1999.8000
G1 X78.0000 Y-1.5000 Z5.5000 F1999.8000
G3 X79.4966 Y-0.1003 Z5.5000 I-0.0000 J1.5000 K0.0000 F1999.8000
G1 X89.6187 Y150.8876 Z5.5000 F1999.8000
G2 X118.0750 Y177.5000 Z5.5000 I28.4386 J-1.8889 K0.0000 F1999.8000
G1 X131.9250 Y177.5000 Z5.5000 F1999.8000
G2 X160.3813 Y150.8876 Z5.5000 I0.0176 J-28.5013 K0.0000 F1999.8000
G1 X170.5034 Y-0.1003 Z5.5000 F1999.8000
G3 X172.0000 Y-1.5000 Z5.5000 I1.4966 J0.1003 K0.0000 F1999.8000
G1 X250.0000 Y-1.5000 Z5.5000 F1999.8000
G3 X251.5000 Y0.0000 Z5.5000 I-0.0000 J1.5000 K0.0000 F1999.8000
G1 X251.5000 Y257.0000 Z5.5000 F1999.8000
G3 X251.0607 Y258.0607 Z5.5000 I-1.5000 J-0.0000 K0.0000 F1999.8000
G1 X251.0607 Y258.0607 Z5.0000 F999.6000
G3 X250.0000 Y258.5000 Z5.0000 I-1.0607 J-1.0607 K0.0000 F1999.8000
G1 X220.0000 Y258.5000 Z5.0000 F1999.8000
G3 X218.5000 Y257.0000 Z5.0000 I0.0000 J-1.5000 K0.0000 F1999.8000
G1 X218.5000 Y130.0000 Z5.0000 F1999.8000
G1 X218.9393 Y129.5607 Z5.0000 F1999.8000
G1 X218.5000 Y130.0000 Z5.0000 F1999.8000
G1 X203.5000 Y130.0000 Z5.0000 F1999.8000
G1 X203.0607 Y129.5607 Z5.0000 F1999.8000
G1 X203.5000 Y130.0000 Z5.0000 F1999.8000
G1 X203.5000 Y257.0000 Z5.0000 F1999.8000
G3 X202.0000 Y258.5000 Z5.0000 I-1.5000 J-0.0000 K0.0000 F1999.8000
G1 X48.0000 Y258.5000 Z5.0000 F1999.8000
G3 X46.5000 Y257.0000 Z5.0000 I0.0000 J-1.5000 K0.0000 F1999.8000
G1 X46.5000 Y130.0000 Z5.0000 F1999.8000
G1 X46.9393 Y129.5607 Z5.0000 F1999.8000
G1 X46.5000 Y130.0000 Z5.0000 F1999.8000
G1 X31.5000 Y130.0000 Z5.0000 F1999.8000
G1 X31.0607 Y129.5607 Z5.0000 F1999.8000
G1 X31.5000 Y130.0000 Z5.0000 F1999.8000
G1 X31.5000 Y257.0000 Z5.0000 F1999.8000
G3 X30.0000 Y258.5000 Z5.0000 I-1.5000 J-0.0000 K0.0000 F1999.8000
G1 X0.0000 Y258.5000 Z5.0000 F1999.8000
G3 X-1.5000 Y257.0000 Z5.0000 I0.0000 J-1.5000 K0.0000 F1999.8000
G1 X-1.5000 Y0.0000 Z5.0000 F1999.8000
G3 X0.0000 Y-1.5000 Z5.0000 I1.5000 J0.0000 K0.0000 F1999.8000
G1 X78.0000 Y-1.5000 Z5.0000 F1999.8000
G3 X79.4966 Y-0.1003 Z5.0000 I-0.0000 J1.5000 K0.0000 F1999.8000
G1 X89.6187 Y150.8876 Z5.0000 F1999.8000
G2 X118.0750 Y177.5000 Z5.0000 I28.4386 J-1.8889 K0.0000 F1999.8000
G1 X131.9250 Y177.5000 Z5.0000 F1999.8000
G2 X160.3813 Y150.8876 Z5.0000 I0.0176 J-28.5013 K0.0000 F1999.8000
G1 X170.5034 Y-0.1003 Z5.0000 F1999.8000
G3 X172.0000 Y-1.5000 Z5.0000 I1.4966 J0.1003 K0.0000 F1999.8000
G1 X250.0000 Y-1.5000 Z5.0000 F1999.8000
G3 X251.5000 Y0.0000 Z5.0000 I-0.0000 J1.5000 K0.0000 F1999.8000
G1 X251.5000 Y257.0000 Z5.0000 F1999.8000
G3 X251.0607 Y258.0607 Z5.0000 I-1.5000 J-0.0000 K0.0000 F1999.8000
G1 X251.0607 Y258.0607 Z4.5000 F999.6000
G3 X250.0000 Y258.5000 Z4.5000 I-1.0607 J-1.0607 K0.0000 F1999.8000
G1 X220.0000 Y258.5000 Z4.5000 F1999.8000
G3 X218.5000 Y257.0000 Z4.5000 I0.0000 J-1.5000 K0.0000 F1999.8000
G1 X218.5000 Y130.0000 Z4.5000 F1999.8000
G1 X218.9393 Y129.5607 Z4.5000 F1999.8000
G1 X218.5000 Y130.0000 Z4.5000 F1999.8000
G1 X203.5000 Y130.0000 Z4.5000 F1999.8000
G1 X203.0607 Y129.5607 Z4.5000 F1999.8000
G1 X203.5000 Y130.0000 Z4.5000 F1999.8000
G1 X203.5000 Y257.0000 Z4.5000 F1999.8000
G3 X202.0000 Y258.5000 Z4.5000 I-1.5000 J-0.0000 K0.0000 F1999.8000
G1 X48.0000 Y258.5000 Z4.5000 F1999.8000
G3 X46.5000 Y257.0000 Z4.5000 I0.0000 J-1.5000 K0.0000 F1999.8000
G1 X46.5000 Y130.0000 Z4.5000 F1999.8000
G1 X46.9393 Y129.5607 Z4.5000 F1999.8000
G1 X46.5000 Y130.0000 Z4.5000 F1999.8000
G1 X31.5000 Y130.0000 Z4.5000 F1999.8000
G1 X31.0607 Y129.5607 Z4.5000 F1999.8000
G1 X31.5000 Y130.0000 Z4.5000 F1999.8000
G1 X31.5000 Y257.0000 Z4.5000 F1999.8000
G3 X30.0000 Y258.5000 Z4.5000 I-1.5000 J-0.0000 K0.0000 F1999.8000
G1 X0.0000 Y258.5000 Z4.5000 F1999.8000
G3 X-1.5000 Y257.0000 Z4.5000 I0.0000 J-1.5000 K0.0000 F1999.8000
G1 X-1.5000 Y0.0000 Z4.5000 F1999.8000
G3 X0.0000 Y-1.5000 Z4.5000 I1.5000 J0.0000 K0.0000 F1999.8000
G1 X78.0000 Y-1.5000 Z4.5000 F1999.8000
G3 X79.4966 Y-0.1003 Z4.5000 I-0.0000 J1.5000 K0.0000 F1999.8000
G1 X89.6187 Y150.8876 Z4.5000 F1999.8000
G2 X118.0750 Y177.5000 Z4.5000 I28.4386 J-1.8889 K0.0000 F1999.8000
G1 X131.9250 Y177.5000 Z4.5000 F1999.8000
G2 X160.3813 Y150.8876 Z4.5000 I0.0176 J-28.5013 K0.0000 F1999.8000
G1 X170.5034 Y-0.1003 Z4.5000 F1999.8000
G3 X172.0000 Y-1.5000 Z4.5000 I1.4966 J0.1003 K0.0000 F1999.8000
G1 X250.0000 Y-1.5000 Z4.5000 F1999.8000
G3 X251.5000 Y0.0000 Z4.5000 I-0.0000 J1.5000 K0.0000 F1999.8000
G1 X251.5000 Y257.0000 Z4.5000 F1999.8000
G3 X251.0607 Y258.0607 Z4.5000 I-1.5000 J-0.0000 K0.0000 F1999.8000
G1 X251.0607 Y258.0607 Z4.0000 F999.6000
G3 X250.0000 Y258.5000 Z4.0000 I-1.0607 J-1.0607 K0.0000 F1999.8000
G1 X220.0000 Y258.5000 Z4.0000 F1999.8000
G3 X218.5000 Y257.0000 Z4.0000 I0.0000 J-1.5000 K0.0000 F1999.8000
G1 X218.5000 Y130.0000 Z4.0000 F1999.8000
G1 X218.9393 Y129.5607 Z4.0000 F1999.8000
G1 X218.5000 Y130.0000 Z4.0000 F1999.8000
G1 X203.5000 Y130.0000 Z4.0000 F1999.8000
G1 X203.0607 Y129.5607 Z4.0000 F1999.8000
G1 X203.5000 Y130.0000 Z4.0000 F1999.8000
G1 X203.5000 Y257.0000 Z4.0000 F1999.8000
G3 X202.0000 Y258.5000 Z4.0000 I-1.5000 J-0.0000 K0.0000 F1999.8000
G1 X48.0000 Y258.5000 Z4.0000 F1999.8000
G3 X46.5000 Y257.0000 Z4.0000 I0.0000 J-1.5000 K0.0000 F1999.8000
G1 X46.5000 Y130.0000 Z4.0000 F1999.8000
G1 X46.9393 Y129.5607 Z4.0000 F1999.8000
G1 X46.5000 Y130.0000 Z4.0000 F1999.8000
G1 X31.5000 Y130.0000 Z4.0000 F1999.8000
G1 X31.0607 Y129.5607 Z4.0000 F1999.8000
G1 X31.5000 Y130.0000 Z4.0000 F1999.8000
G1 X31.5000 Y257.0000 Z4.0000 F1999.8000
G3 X30.0000 Y258.5000 Z4.0000 I-1.5000 J-0.0000 K0.0000 F1999.8000
G1 X0.0000 Y258.5000 Z4.0000 F1999.8000
G3 X-1.5000 Y257.0000 Z4.0000 I0.0000 J-1.5000 K0.0000 F1999.8000
G1 X-1.5000 Y0.0000 Z4.0000 F1999.8000
G3 X0.0000 Y-1.5000 Z4.0000 I1.5000 J0.0000 K0.0000 F1999.8000
G1 X78.0000 Y-1.5000 Z4.0000 F1999.8000
G3 X79.4966 Y-0.1003 Z4.0000 I-0.0000 J1.5000 K0.0000 F1999.8000
G1 X89.6187 Y150.8876 Z4.0000 F1999.8000
G2 X118.0750 Y177.5000 Z4.0000 I28.4386 J-1.8889 K0.0000 F1999.8000
G1 X131.9250 Y177.5000 Z4.0000 F1999.8000
G2 X160.3813 Y150.8876 Z4.0000 I0.0176 J-28.5013 K0.0000 F1999.8000
G1 X170.5034 Y-0.1003 Z4.0000 F1999.8000
G3 X172.0000 Y-1.5000 Z4.0000 I1.4966 J0.1003 K0.0000 F1999.8000
G1 X250.0000 Y-1.5000 Z4.0000 F1999.8000
G3 X251.5000 Y0.0000 Z4.0000 I-0.0000 J1.5000 K0.0000 F1999.8000
G1 X251.5000 Y257.0000 Z4.0000 F1999.8000
G3 X251.0607 Y258.0607 Z4.0000 I-1.5000 J-0.0000 K0.0000 F1999.8000
G1 X251.0607 Y258.0607 Z3.5000 F999.6000
G3 X250.0000 Y258.5000 Z3.5000 I-1.0607 J-1.0607 K0.0000 F1999.8000
G1 X239.1100 Y258.5000 Z3.5000 F1999.8000
G1 X238.8100 Y258.5000 Z3.8000 F1499.7000
G1 X233.8900 Y258.5000 Z3.8000 F1999.8000
G1 X233.5900 Y258.5000 Z3.5000 F1499.7000
G1 X220.0000 Y258.5000 Z3.5000 F1999.8000
G3 X218.5000 Y257.0000 Z3.5000 I0.0000 J-1.5000 K0.0000 F1999.8000
G1 X218.5000 Y130.0000 Z3.5000 F1999.8000
G1 X218.9393 Y129.5607 Z3.5000 F1999.8000
G1 X218.5000 Y130.0000 Z3.5000 F1999.8000
G1 X203.5000 Y130.0000 Z3.5000 F1999.8000
G1 X203.0607 Y129.5607 Z3.5000 F1999.8000
G1 X203.5000 Y130.0000 Z3.5000 F1999.8000
G1 X203.5000 Y257.0000 Z3.5000 F1999.8000
G3 X202.0000 Y258.5000 Z3.5000 I-1.5000 J-0.0000 K0.0000 F1999.8000
G1 X127.7600 Y258.5000 Z3.5000 F1999.8000
G1 X127.4600 Y258.5000 Z3.8000 F1499.7000
G1 X122.5400 Y258.5000 Z3.8000 F1999.8000
G1 X122.2400 Y258.5000 Z3.5000 F1499.7000
G1 X48.0000 Y258.5000 Z3.5000 F1999.8000
G3 X46.5000 Y257.0000 Z3.5000 I0.0000 J-1.5000 K0.0000 F1999.8000
G1 X46.5000 Y130.0000 Z3.5000 F1999.8000
G1 X46.9393 Y129.5607 Z3.5000 F1999.8000
G1 X46.5000 Y130.0000 Z3.5000 F1999.8000
G1 X42.5300 Y130.0000 Z3.5000 F1999.8000
G1 X42.2300 Y130.0000 Z3.8000 F1499.7000
G1 X37.3100 Y130.0000 Z3.8000 F1999.8000
G1 X37.0100 Y130.0000 Z3.5000 F1499.7000
G1 X31.5000 Y130.0000 Z3.5000 F1999.8000
G1 X31.0607 Y129.5607 Z3.5000 F1999.8000
G1 X31.5000 Y130.0000 Z3.5000 F1999.8000
G1 X31.5000 Y257.0000 Z3.5000 F1999.8000
G3 X30.0000 Y258.5000 Z3.5000 I-1.5000 J-0.0000 K0.0000 F1999.8000
G1 X12.7500 Y258.5000 Z3.5000 F1999.8000
G1 X12.4500 Y258.5000 Z3.8000 F1499.7000
G1 X7.5300 Y258.5000 Z3.8000 F1999.8000
G1 X7.2300 Y258.5000 Z3.5000 F1499.7000
G1 X0.0000 Y258.5000 Z3.5000 F1999.8000
G3 X-1.5000 Y257.0000 Z3.5000 I0.0000 J-1.5000 K0.0000 F1999.8000
G1 X-1.5000 Y131.2600 Z3.5000 F1999.8000
G1 X-1.5000 Y130.9600 Z3.8000 F1499.7000
G1 X-1.5000 Y126.0400 Z3.8000 F1999.8000
G1 X-1.5000 Y125.7400 Z3.5000 F1499.7000
G1 X-1.5000 Y0.0000 Z3.5000 F1999.8000
G3 X0.0000 Y-1.5000 Z3.5000 I1.5000 J0.0000 K0.0000 F1999.8000
G1 X34.6100 Y-1.5000 Z3.5000 F1999.8000
G1 X34.9100 Y-1.5000 Z3.8000 F1499.7000
G1 X39.8300 Y-1.5000 Z3.8000 F1999.8000
G1 X40.1300 Y-1.5000 Z3.5000 F1499.7000
G1 X78.0000 Y-1.5000 Z3.5000 F1999.8000
G3 X79.4966 Y-0.1003 Z3.5000 I-0.0000 J1.5000 K0.0000 F1999.8000
G1 X84.8415 Y79.6264 Z3.5000 F1999.8000
G1 X84.8615 Y79.9258 Z3.8000 F1499.7004
G1 X85.1906 Y84.8348 Z3.8000 F1999.8000
G1 X85.2107 Y85.1341 Z3.5000 F1499.7004
G1 X89.6187 Y150.8876 Z3.5000 F1999.8000
G2 X118.0750 Y177.5000 Z3.5000 I28.4386 J-1.8889 K0.0000 F1999.8000
G1 X122.2300 Y177.5000 Z3.5000 F1999.8000
G1 X122.5300 Y177.5000 Z3.8000 F1499.7000
G1 X127.4500 Y177.5000 Z3.8000 F1999.8000
G1 X127.7500 Y177.5000 Z3.5000 F1499.7000
G1 X131.9250 Y177.5000 Z3.5000 F1999.8000
G2 X160.3813 Y150.8876 Z3.5000 I0.0176 J-28.5013 K0.0000 F1999.8000
G1 X170.5034 Y-0.1003 Z3.5000 F1999.8000
G3 X172.0000 Y-1.5000 Z3.5000 I1.4966 J0.1003 K0.0000 F1999.8000
G1 X207.7000 Y-1.5000 Z3.5000 F1999.8000
G1 X208.0000 Y-1.5000 Z3.8000 F1499.7000
G1 X212.9200 Y-1.5000 Z3.8000 F1999.8000
G1 X213.2200 Y-1.5000 Z3.5000 F1499.7000
G1 X250.0000 Y-1.5000 Z3.5000 F1999.8000
G3 X251.5000 Y0.0000 Z3.5000 I-0.0000 J1.5000 K0.0000 F1999.8000
G1 X251.5000 Y125.7400 Z3.5000 F1999.8000
G1 X251.5000 Y126.0400 Z3.8000 F1499.7000
G1 X251.5000 Y130.9600 Z3.8000 F1999.8000
G1 X251.5000 Y131.2600 Z3.5000 F1499.7000
G1 X251.5000 Y257.0000 Z3.5000 F1999.8000
G3 X251.0607 Y258.0607 Z3.5000 I-1.5000 J-0.0000 K0.0000 F1999.8000
G1 X251.0607 Y258.0607 Z3.0000 F999.6000
G3 X250.0000 Y258.5000 Z3.0000 I-1.0607 J-1.0607 K0.0000 F1999.8000
G1 X239.6100 Y258.5000 Z3.0000 F1999.8000
G1 X238.8100 Y258.5000 Z3.8000 F1499.7000
G1 X233.8900 Y258.5000 Z3.8000 F1999.8000
G1 X233.0900 Y258.5000 Z3.0000 F1499.7000
G1 X220.0000 Y258.5000 Z3.0000 F1999.8000
G3 X218.5000 Y257.0000 Z3.0000 I0.0000 J-1.5000 K0.0000 F1999.8000
G1 X218.5000 Y130.0000 Z3.0000 F1999.8000
G1 X218.9393 Y129.5607 Z3.0000 F1999.8000
G1 X218.5000 Y130.0000 Z3.0000 F1999.8000
G1 X203.5000 Y130.0000 Z3.0000 F1999.8000
G1 X203.0607 Y129.5607 Z3.0000 F1999.8000
G1 X203.5000 Y130.0000 Z3.0000 F1999.8000
G1 X203.5000 Y257.0000 Z3.0000 F1999.8000
G3 X202.0000 Y258.5000 Z3.0000 I-1.5000 J-0.0000 K0.0000 F1999.8000
G1 X128.2600 Y258.5000 Z3.0000 F1999.8000
G1 X127.4600 Y258.5000 Z3.8000 F1499.7000
G1 X122.5400 Y258.5000 Z3.8000 F1999.8000
G1 X121.7400 Y258.5000 Z3.0000 F1499.7000
G1 X48.0000 Y258.5000 Z3.0000 F1999.8000
G3 X46.5000 Y257.0000 Z3.0000 I0.0000 J-1.5000 K0.0000 F1999.8000
G1 X46.5000 Y130.0000 Z3.0000 F1999.8000
G1 X46.9393 Y129.5607 Z3.0000 F1999.8000
G1 X46.5000 Y130.0000 Z3.0000 F1999.8000
G1 X43.0300 Y130.0000 Z3.0000 F1999.8000
G1 X42.2300 Y130.0000 Z3.8000 F1499.7000
G1 X37.3100 Y130.0000 Z3.8000 F1999.8000
G1 X36.5100 Y130.0000 Z3.0000 F1499.7000
G1 X31.5000 Y130.0000 Z3.0000 F1999.8000
G1 X31.0607 Y129.5607 Z3.0000 F1999.8000
G1 X31.5000 Y130.0000 Z3.0000 F1999.8000
G1 X31.5000 Y257.0000 Z3.0000 F1999.8000
G3 X30.0000 Y258.5000 Z3.0000 I-1.5000 J-0.0000 K0.0000 F1999.8000
G1 X13.2500 Y258.5000 Z3.0000 F1999.8000
G1 X12.4500 Y258.5000 Z3.8000 F1499.7000
G1 X7.5300 Y258.5000 Z3.8000 F1999.8000
G1 X6.7300 Y258.5000 Z3.0000 F1499.7000
G1 X0.0000 Y258.5000 Z3.0000 F1999.8000
G3 X-1.5000 Y257.0000 Z3.0000 I0.0000 J-1.5000 K0.0000 F1999.8000
G1 X-1.5000 Y131.7600 Z3.0000 F1999.8000
G1 X-1.5000 Y130.9600 Z3.8000 F1499.7000
G1 X-1.5000 Y126.0400 Z3.8000 F1999.8000
G1 X-1.5000 Y125.2400 Z3.0000 F1499.7000
G1 X-1.5000 Y0.0000 Z3.0000 F1999.8000
G3 X0.0000 Y-1.5000 Z3.0000 I1.5000 J0.0000 K0.0000 F1999.8000
G1 X34.1100 Y-1.5000 Z3.0000 F1999.8000
G1 X34.9100 Y-1.5000 Z3.8000 F1499.7000
G1 X39.8300 Y-1.5000 Z3.8000 F1999.8000
G1 X40.6300 Y-1.5000 Z3.0000 F1499.7000
G1 X78.0000 Y-1.5000 Z3.0000 F1999.8000
G3 X79.4966 Y-0.1003 Z3.0000 I-0.0000 J1.5000 K0.0000 F1999.8000
G1 X84.8080 Y79.1276 Z3.0000 F1999.8000
G1 X84.8615 Y79.9258 Z3.8000 F1499.7003
G1 X85.1906 Y84.8348 Z3.8000 F1999.8000
G1 X85.2441 Y85.6330 Z3.0000 F1499.7003
G1 X89.6187 Y150.8876 Z3.0000 F1999.8000
G2 X118.0750 Y177.5000 Z3.0000 I28.4386 J-1.8889 K0.0000 F1999.8000
G1 X121.7300 Y177.5000 Z3.0000 F1999.8000
G1 X122.5300 Y177.5000 Z3.8000 F1499.7000
G1 X127.4500 Y177.5000 Z3.8000 F1999.8000
G1 X128.2500 Y177.5000 Z3.0000 F1499.7000
G1 X131.9250 Y177.5000 Z3.0000 F1999.8000
G2 X160.3813 Y150.8876 Z3.0000 I0.0176 J-28.5013 K0.0000 F1999.8000
G1 X170.5034 Y-0.1003 Z3.0000 F1999.8000
G3 X172.0000 Y-1.5000 Z3.0000 I1.4966 J0.1003 K0.0000 F1999.8000
G1 X207.2000 Y-1.5000 Z3.0000 F1999.8000
G1 X208.0000 Y-1.5000 Z3.8000 F1499.7000
G1 X212.9200 Y-1.5000 Z3.8000 F1999.8000
G1 X213.7200 Y-1.5000 Z3.0000 F1499.7000
G1 X250.0000 Y-1.5000 Z3.0000 F1999.8000
G3 X251.5000 Y0.0000 Z3.0000 I-0.0000 J1.5000 K0.0000 F1999.8000
G1 X251.5000 Y125.2400 Z3.0000 F1999.8000
G1 X251.5000 Y126.0400 Z3.8000 F1499.7000
G1 X251.5000 Y130.9600 Z3.8000 F1999.8000
G1 X251.5000 Y131.7600 Z3.0000 F1499.7000
G1 X251.5000 Y257.0000 Z3.0000 F1999.8000
G3 X251.0607 Y258.0607 Z3.0000 I-1.5000 J-0.0000 K0.0000 F1999.8000
G1 X251.0607 Y258.0607 Z2.5000 F999.6000
G3 X250.0000 Y258.5000 Z2.5000 I-1.0607 J-1.0607 K0.0000 F1999.8000
G1 X240.1100 Y258.5000 Z2.5000 F1999.8000
G1 X238.8100 Y258.5000 Z3.8000 F1499.7000
G1 X233.8900 Y258.5000 Z3.8000 F1999.8000
G1 X232.5900 Y258.5000 Z2.5000 F1499.7000
G1 X220.0000 Y258.5000 Z2.5000 F1999.8000
G3 X218.5000 Y257.0000 Z2.5000 I0.0000 J-1.5000 K0.0000 F1999.8000
G1 X218.5000 Y130.0000 Z2.5000 F1999.8000
G1 X218.9393 Y129.5607 Z2.5000 F1999.8000
G1 X218.5000 Y130.0000 Z2.5000 F1999.8000
G1 X203.5000 Y130.0000 Z2.5000 F1999.8000
G1 X203.0607 Y129.5607 Z2.5000 F1999.8000
G1 X203.5000 Y130.0000 Z2.5000 F1999.8000
G1 X203.5000 Y257.0000 Z2.5000 F1999.8000
G3 X202.0000 Y258.5000 Z2.5000 I-1.5000 J-0.0000 K0.0000 F1999.8000
G1 X128.7600 Y258.5000 Z2.5000 F1999.8000
G1 X127.4600 Y258.5000 Z3.8000 F1499.7000
G1 X122.5400 Y258.5000 Z3.8000 F1999.8000
G1 X121.2400 Y258.5000 Z2.5000 F1499.7000
G1 X48.0000 Y258.5000 Z2.5000 F1999.8000
G3 X46.5000 Y257.0000 Z2.5000 I0.0000 J-1.5000 K0.0000 F1999.8000
G1 X46.5000 Y130.0000 Z2.5000 F1999.8000
G1 X46.9393 Y129.5607 Z2.5000 F1999.8000
G1 X46.5000 Y130.0000 Z2.5000 F1999.8000
G1 X43.5300 Y130.0000 Z2.5000 F1999.8000
G1 X42.2300 Y130.0000 Z3.8000 F1499.7000
G1 X37.3100 Y130.0000 Z3.8000 F1999.8000
G1 X36.0100 Y130.0000 Z2.5000 F1499.7000
G1 X31.5000 Y130.0000 Z2.5000 F1999.8000
G1 X31.0607 Y129.5607 Z2.5000 F1999.8000
G1 X31.5000 Y130.0000 Z2.5000 F1999.8000
G1 X31.5000 Y257.0000 Z2.5000 F1999.8000
G3 X30.0000 Y258.5000 Z2.5000 I-1.5000 J-0.0000 K0.0000 F1999.8000
G1 X13.7500 Y258.5000 Z2.5000 F1999.8000
G1 X12.4500 Y258.5000 Z3.8000 F1499.7000
G1 X7.5300 Y258.5000 Z3.8000 F1999.8000
G1 X6.2300 Y258.5000 Z2.5000 F1499.7000
G1 X0.0000 Y258.5000 Z2.5000 F1999.8000
G3 X-1.5000 Y257.0000 Z2.5000 I0.0000 J-1.5000 K0.0000 F1999.8000
G1 X-1.5000 Y132.2600 Z2.5000 F1999.8000
G1 X-1.5000 Y130.9600 Z3.8000 F1499.7000
G1 X-1.5000 Y126.0400 Z3.8000 F1999.8000
G1 X-1.5000 Y124.7400 Z2.5000 F1499.7000
G1 X-1.5000 Y0.0000 Z2.5000 F1999.8000
G3 X0.0000 Y-1.5000 Z2.5000 I1.5000 J0.0000 K0.0000 F1999.8000
G1 X33.6100 Y-1.5000 Z2.5000 F1999.8000
G1 X34.9100 Y-1.5000 Z3.8000 F1499.7000
G1 X39.8300 Y-1.5000 Z3.8000 F1999.8000
G1 X41.1300 Y-1.5000 Z2.5000 F1499.7000
G1 X78.0000 Y-1.5000 Z2.5000 F1999.8000
G3 X79.4966 Y-0.1003 Z2.5000 I-0.0000 J1.5000 K0.0000 F1999.8000
G1 X84.7746 Y78.6287 Z2.5000 F1999.8000
G1 X84.8615 Y79.9258 Z3.8000 F1499.7003
G1 X85.1906 Y84.8348 Z3.8000 F1999.8000
G1 X85.2776 Y86.1318 Z2.5000 F1499.7003
G1 X89.6187 Y150.8876 Z2.5000 F1999.8000
G2 X118.0750 Y177.5000 Z2.5000 I28.4386 J-1.8889 K0.0000 F1999.8000
G1 X121.2300 Y177.5000 Z2.5000 F1999.8000
G1 X122.5300 Y177.5000 Z3.8000 F1499.7000
G1 X127.4500 Y177.5000 Z3.8000 F1999.8000
G1 X128.7500 Y177.5000 Z2.5000 F1499.7000
G1 X131.9250 Y177.5000 Z2.5000 F1999.8000
G2 X160.3813 Y150.8876 Z2.5000 I0.0176 J-28.5013 K0.0000 F1999.8000
G1 X170.5034 Y-0.1003 Z2.5000 F1999.8000
G3 X172.0000 Y-1.5000 Z2.5000 I1.4966 J0.1003 K0.0000 F1999.8000
G1 X206.7000 Y-1.5000 Z2.5000 F1999.8000
G1 X208.0000 Y-1.5000 Z3.8000 F1499.7000
G1 X212.9200 Y-1.5000 Z3.8000 F1999.8000
G1 X214.2200 Y-1.5000 Z2.5000 F1499.7000
G1 X250.0000 Y-1.5000 Z2.5000 F1999.8000
G3 X251.5000 Y0.0000 Z2.5000 I-0.0000 J1.5000 K0.0000 F1999.8000
G1 X251.5000 Y124.7400 Z2.5000 F1999.8000
G1 X251.5000 Y126.0400 Z3.8000 F1499.7000
G1 X251.5000 Y130.9600 Z3.8000 F1999.8000
G1 X251.5000 Y132.2600 Z2.5000 F1499.7000
G1 X251.5000 Y257.0000 Z2.5000 F1999.8000
G3 X251.0607 Y258.0607 Z2.5000 I-1.5000 J-0.0000 K0.0000 F1999.8000
G1 X251.0607 Y258.0607 Z2.0000 F999.6000
G3 X250.0000 Y258.5000 Z2.0000 I-1.0607 J-1.0607 K0.0000 F1999.8000
G1 X240.6100 Y258.5000 Z2.0000 F1999.8000
G1 X238.8100 Y258.5000 Z3.8000 F1499.7000
G1 X233.8900 Y258.5000 Z3.8000 F1999.8000
G1 X232.0900 Y258.5000 Z2.0000 F1499.7000
G1 X220.0000 Y258.5000 Z2.0000 F1999.8000
G3 X218.5000 Y257.0000 Z2.0000 I0.0000 J-1.5000 K0.0000 F1999.8000
G1 X218.5000 Y130.0000 Z2.0000 F1999.8000
G1 X218.9393 Y129.5607 Z2.0000 F1999.8000
G1 X218.5000 Y130.0000 Z2.0000 F1999.8000
G1 X203.5000 Y130.0000 Z2.0000 F1999.8000
G1 X203.0607 Y129.5607 Z2.0000 F1999.8000
G1 X203.5000 Y130.0000 Z2.0000 F1999.8000
G1 X203.5000 Y257.0000 Z2.0000 F1999.8000
G3 X202.0000 Y258.5000 Z2.0000 I-1.5000 J-0.0000 K0.0000 F1999.8000
G1 X129.2600 Y258.5000 Z2.0000 F1999.8000
G1 X127.4600 Y258.5000 Z3.8000 F1499.7000
G1 X122.5400 Y258.5000 Z3.8000 F1999.8000
G1 X120.7400 Y258.5000 Z2.0000 F1499.7000
G1 X48.0000 Y258.5000 Z2.0000 F1999.8000
G3 X46.5000 Y257.0000 Z2.0000 I0.0000 J-1.5000 K0.0000 F1999.8000
G1 X46.5000 Y130.0000 Z2.0000 F1999.8000
G1 X46.9393 Y129.5607 Z2.0000 F1999.8000
G1 X46.5000 Y130.0000 Z2.0000 F1999.8000
G1 X44.0300 Y130.0000 Z2.0000 F1999.8000
G1 X42.2300 Y130.0000 Z3.8000 F1499.7000
G1 X37.3100 Y130.0000 Z3.8000 F1999.8000
G1 X35.5100 Y130.0000 Z2.0000 F1499.7000
G1 X31.5000 Y130.0000 Z2.0000 F1999.8000
G1 X31.0607 Y129.5607 Z2.0000 F1999.8000
G1 X31.5000 Y130.0000 Z2.0000 F1999.8000
G1 X31.5000 Y257.0000 Z2.0000 F1999.8000
G3 X30.0000 Y258.5000 Z2.0000 I-1.5000 J-0.0000 K0.0000 F1999.8000
G1 X14.2500 Y258.5000 Z2.0000 F1999.8000
G1 X12.4500 Y258.5000 Z3.8000 F1499.7000
G1 X7.5300 Y258.5000 Z3.8000 F1999.8000
G1 X5.7300 Y258.5000 Z2.0000 F1499.7000
G1 X0.0000 Y258.5000 Z2.0000 F1999.8000
G3 X-1.5000 Y257.0000 Z2.0000 I0.0000 J-1.5000 K0.0000 F1999.8000
G1 X-1.5000 Y132.7600 Z2.0000 F1999.8000
G1 X-1.5000 Y130.9600 Z3.8000 F1499.7000
G1 X-1.5000 Y126.0400 Z3.8000 F1999.8000
G1 X-1.5000 Y124.2400 Z2.0000 F1499.7000
G1 X-1.5000 Y0.0000 Z2.0000 F1999.8000
G3 X0.0000 Y-1.5000 Z2.0000 I1.5000 J0.0000 K0.0000 F1999.8000
G1 X33.1100 Y-1.5000 Z2.0000 F1999.8000
G1 X34.9100 Y-1.5000 Z3.8000 F1499.7000
G1 X39.8300 Y-1.5000 Z3.8000 F1999.8000
G1 X41.6300 Y-1.5000 Z2.0000 F1499.7000
G1 X78.0000 Y-1.5000 Z2.0000 F1999.8000
G3 X79.4966 Y-0.1003 Z2.0000 I-0.0000 J1.5000 K0.0000 F1999.8000
G1 X84.7411 Y78.1298 Z2.0000 F1999.8000
G1 X84.8615 Y79.9258 Z3.8000 F1499.7002
G1 X85.1906 Y84.8348 Z3.8000 F1999.8000
G1 X85.3110 Y86.6307 Z2.0000 F1499.7002
G1 X89.6187 Y150.8876 Z2.0000 F1999.8000
G2 X118.0750 Y177.5000 Z2.0000 I28.4386 J-1.8889 K0.0000 F1999.8000
G1 X120.7300 Y177.5000 Z2.0000 F1999.8000
G1 X122.5300 Y177.5000 Z3.8000 F1499.7000
G1 X127.4500 Y177.5000 Z3.8000 F1999.8000
G1 X129.2500 Y177.5000 Z2.0000 F1499.7000
G1 X131.9250 Y177.5000 Z2.0000 F1999.8000
G2 X160.3813 Y150.8876 Z2.0000 I0.0176 J-28.5013 K0.0000 F1999.8000
G1 X170.5034 Y-0.1003 Z2.0000 F1999.8000
G3 X172.0000 Y-1.5000 Z2.0000 I1.4966 J0.1003 K0.0000 F1999.8000
G1 X206.2000 Y-1.5000 Z2.0000 F1999.8000
G1 X208.0000 Y-1.5000 Z3.8000 F1499.7000
G1 X212.9200 Y-1.5000 Z3.8000 F1999.8000
G1 X214.7200 Y-1.5000 Z2.0000 F1499.7000
G1 X250.0000 Y-1.5000 Z2.0000 F1999.8000
G3 X251.5000 Y0.0000 Z2.0000 I-0.0000 J1.5000 K0.0000 F1999.8000
G1 X251.5000 Y124.2400 Z2.0000 F1999.8000
G1 X251.5000 Y126.0400 Z3.8000 F1499.7000
G1 X251.5000 Y130.9600 Z3.8000 F1999.8000
G1 X251.5000 Y132.7600 Z2.0000 F1499.7000
G1 X251.5000 Y257.0000 Z2.0000 F1999.8000
G3 X251.0607 Y258.0607 Z2.0000 I-1.5000 J-0.0000 K0.0000 F1999.8000
G1 X251.0607 Y258.0607 Z1.5000 F999.6000
G3 X250.0000 Y258.5000 Z1.5000 I-1.0607 J-1.0607 K0.0000 F1999.8000
G1 X241.1100 Y258.5000 Z1.5000 F1999.8000
G1 X238.8100 Y258.5000 Z3.8000 F1499.7000
G1 X233.8900 Y258.5000 Z3.8000 F1999.8000
G1 X231.5900 Y258.5000 Z1.5000 F1499.7000
G1 X220.0000 Y258.5000 Z1.5000 F1999.8000
G3 X218.5000 Y257.0000 Z1.5000 I0.0000 J-1.5000 K0.0000 F1999.8000
G1 X218.5000 Y130.0000 Z1.5000 F1999.8000
G1 X218.9393 Y129.5607 Z1.5000 F1999.8000
G1 X218.5000 Y130.0000 Z1.5000 F1999.8000
G1 X203.5000 Y130.0000 Z1.5000 F1999.8000
G1 X203.0607 Y129.5607 Z1.5000 F1999.8000
G1 X203.5000 Y130.0000 Z1.5000 F1999.8000
G1 X203.5000 Y257.0000 Z1.5000 F1999.8000
G3 X202.0000 Y258.5000 Z1.5000 I-1.5000 J-0.0000 K0.0000 F1999.8000
G1 X129.7600 Y258.5000 Z1.5000 F1999.8000
G1 X127.4600 Y258.5000 Z3.8000 F1499.7000
G1 X122.5400 Y258.5000 Z3.8000 F1999.8000
G1 X120.2400 Y258.5000 Z1.5000 F1499.7000
G1 X48.0000 Y258.5000 Z1.5000 F1999.8000
G3 X46.5000 Y257.0000 Z1.5000 I0.0000 J-1.5000 K0.0000 F1999.8000
G1 X46.5000 Y130.0000 Z1.5000 F1999.8000
G1 X46.9393 Y129.5607 Z1.5000 F1999.8000
G1 X46.5000 Y130.0000 Z1.5000 F1999.8000
G1 X44.5300 Y130.0000 Z1.5000 F1999.8000
G1 X42.2300 Y130.0000 Z3.8000 F1499.7000
G1 X37.3100 Y130.0000 Z3.8000 F1999.8000
G1 X35.0100 Y130.0000 Z1.5000 F1499.7000
G1 X31.5000 Y130.0000 Z1.5000 F1999.8000
G1 X31.0607 Y129.5607 Z1.5000 F1999.8000
G1 X31.5000 Y130.0000 Z1.5000 F1999.8000
G1 X31.5000 Y257.0000 Z1.5000 F1999.8000
G3 X30.0000 Y258.5000 Z1.5000 I-1.5000 J-0.0000 K0.0000 F1999.8000
G1 X14.7500 Y258.5000 Z1.5000 F1999.8000
G1 X12.4500 Y258.5000 Z3.8000 F1499.7000
G1 X7.5300 Y258.5000 Z3.8000 F1999.8000
G1 X5.2300 Y258.5000 Z1.5000 F1499.7000
G1 X0.0000 Y258.5000 Z1.5000 F1999.8000
G3 X-1.5000 Y257.0000 Z1.5000 I0.0000 J-1.5000 K0.0000 F1999.8000
G1 X-1.5000 Y133.2600 Z1.5000 F1999.8000
G1 X-1.5000 Y130.9600 Z3.8000 F1499.7000
G1 X-1.5000 Y126.0400 Z3.8000 F1999.8000
G1 X-1.5000 Y123.7400 Z1.5000 F1499.7000
G1 X-1.5000 Y0.0000 Z1.5000 F1999.8000
G3 X0.0000 Y-1.5000 Z1.5000 I1.5000 J0.0000 K0.0000 F1999.8000
G1 X32.6100 Y-1.5000 Z1.5000 F1999.8000
G1 X34.9100 Y-1.5000 Z3.8000 F1499.7000
G1 X39.8300 Y-1.5000 Z3.8000 F1999.8000
G1 X42.1300 Y-1.5000 Z1.5000 F1499.7000
G1 X78.0000 Y-1.5000 Z1.5000 F1999.8000
G3 X79.4966 Y-0.1003 Z1.5000 I-0.0000 J1.5000 K0.0000 F1999.8000
G1 X84.7077 Y77.6309 Z1.5000 F1999.8000
G1 X84.8615 Y79.9258 Z3.8000 F1499.7002
G1 X85.1906 Y84.8348 Z3.8000 F1999.8000
G1 X85.3445 Y87.1296 Z1.5000 F1499.7002
G1 X89.6187 Y150.8876 Z1.5000 F1999.8000
G2 X118.0750 Y177.5000 Z1.5000 I28.4386 J-1.8889 K0.0000 F1999.8000
G1 X120.2300 Y177.5000 Z1.5000 F1999.8000
G1 X122.5300 Y177.5000 Z3.8000 F1499.7000
G1 X127.4500 Y177.5000 Z3.8000 F1999.8000
G1 X129.7500 Y177.5000 Z1.5000 F1499.7000
G1 X131.9250 Y177.5000 Z1.5000 F1999.8000
G2 X160.3813 Y150.8876 Z1.5000 I0.0176 J-28.5013 K0.0000 F1999.8000
G1 X170.5034 Y-0.1003 Z1.5000 F1999.8000
G3 X172.0000 Y-1.5000 Z1.5000 I1.4966 J0.1003 K0.0000 F1999.8000
G1 X205.7000 Y-1.5000 Z1.5000 F1999.8000
G1 X208.0000 Y-1.5000 Z3.8000 F1499.7000
G1 X212.9200 Y-1.5000 Z3.8000 F1999.8000
G1 X215.2200 Y-1.5000 Z1.5000 F1499.7000
G1 X250.0000 Y-1.5000 Z1.5000 F1999.8000
G3 X251.5000 Y0.0000 Z1.5000 I-0.0000 J1.5000 K0.0000 F1999.8000
G1 X251.5000 Y123.7400 Z1.5000 F1999.8000
G1 X251.5000 Y126.0400 Z3.8000 F1499.7000
G1 X251.5000 Y130.9600 Z3.8000 F1999.8000
G1 X251.5000 Y133.2600 Z1.5000 F1499.7000
G1 X251.5000 Y257.0000 Z1.5000 F1999.8000
G3 X251.0607 Y258.0607 Z1.5000 I-1.5000 J-0.0000 K0.0000 F1999.8000
G1 X251.0607 Y258.0607 Z1.0000 F999.6000
G3 X250.0000 Y258.5000 Z1.0000 I-1.0607 J-1.0607 K0.0000 F1999.8000
G1 X241.6100 Y258.5000 Z1.0000 F1999.8000
G1 X238.8100 Y258.5000 Z3.8000 F1499.7000
G1 X233.8900 Y258.5000 Z3.8000 F1999.8000
G1 X231.0900 Y258.5000 Z1.0000 F1499.7000
G1 X220.0000 Y258.5000 Z1.0000 F1999.8000
G3 X218.5000 Y257.0000 Z1.0000 I0.0000 J-1.5000 K0.0000 F1999.8000
G1 X218.5000 Y130.0000 Z1.0000 F1999.8000
G1 X218.9393 Y129.5607 Z1.0000 F1999.8000
G1 X218.5000 Y130.0000 Z1.0000 F1999.8000
G1 X203.5000 Y130.0000 Z1.0000 F1999.8000
G1 X203.0607 Y129.5607 Z1.0000 F1999.8000
G1 X203.5000 Y130.0000 Z1.0000 F1999.8000
G1 X203.5000 Y257.0000 Z1.0000 F1999.8000
G3 X202.0000 Y258.5000 Z1.0000 I-1.5000 J-0.0000 K0.0000 F1999.8000
G1 X130.2600 Y258.5000 Z1.0000 F1999.8000
G1 X127.4600 Y258.5000 Z3.8000 F1499.7000
G1 X122.5400 Y258.5000 Z3.8000 F1999.8000
G1 X119.7400 Y258.5000 Z1.0000 F1499.7000
G1 X48.0000 Y258.5000 Z1.0000 F1999.8000
G3 X46.5000 Y257.0000 Z1.0000 I0.0000 J-1.5000 K0.0000 F1999.8000
G1 X46.5000 Y130.0000 Z1.0000 F1999.8000
G1 X46.9393 Y129.5607 Z1.0000 F1999.8000
G1 X46.5000 Y130.0000 Z1.0000 F1999.8000
G1 X45.0300 Y130.0000 Z1.0000 F1999.8000
G1 X42.2300 Y130.0000 Z3.8000 F1499.7000
G1 X37.3100 Y130.0000 Z3.8000 F1999.8000
G1 X34.5100 Y130.0000 Z1.0000 F1499.7000
G1 X31.5000 Y130.0000 Z1.0000 F1999.8000
G1 X31.0607 Y129.5607 Z1.0000 F1999.8000
G1 X31.5000 Y130.0000 Z1.0000 F1999.8000
G1 X31.5000 Y257.0000 Z1.0000 F1999.8000
G3 X30.0000 Y258.5000 Z1.0000 I-1.5000 J-0.0000 K0.0000 F1999.8000
G1 X15.2500 Y258.5000 Z1.0000 F1999.8000
G1 X12.4500 Y258.5000 Z3.8000 F1499.7000
G1 X7.5300 Y258.5000 Z3.8000 F1999.8000
G1 X4.7300 Y258.5000 Z1.0000 F1499.7000
G1 X0.0000 Y258.5000 Z1.0000 F1999.8000
G3 X-1.5000 Y257.0000 Z1.0000 I0.0000 J-1.5000 K0.0000 F1999.8000
G1 X-1.5000 Y133.7600 Z1.0000 F1999.8000
G1 X-1.5000 Y130.9600 Z3.8000 F1499.7000
G1 X-1.5000 Y126.0400 Z3.8000 F1999.8000
G1 X-1.5000 Y123.2400 Z1.0000 F1499.7000
G1 X-1.5000 Y0.0000 Z1.0000 F1999.8000
G3 X0.0000 Y-1.5000 Z1.0000 I1.5000 J0.0000 K0.0000 F1999.8000
G1 X32.1100 Y-1.5000 Z1.0000 F1999.8000
G1 X34.9100 Y-1.5000 Z3.8000 F1499.7000
G1 X39.8300 Y-1.5000 Z3.8000 F1999.8000
G1 X42.6300 Y-1.5000 Z1.0000 F1499.7000
G1 X78.0000 Y-1.5000 Z1.0000 F1999.8000
G3 X79.4966 Y-0.1003 Z1.0000 I-0.0000 J1.5000 K0.0000 F1999.8000
G1 X84.6742 Y77.1320 Z1.0000 F1999.8000
G1 X84.8615 Y79.9258 Z3.8000 F1499.7002
G1 X85.1906 Y84.8348 Z3.8000 F1999.8000
G1 X85.3779 Y87.6285 Z1.0000 F1499.7002
G1 X89.6187 Y150.8876 Z1.0000 F1999.8000
G2 X118.0750 Y177.5000 Z1.0000 I28.4386 J-1.8889 K0.0000 F1999.8000
G1 X119.7300 Y177.5000 Z1.0000 F1999.8000
G1 X122.5300 Y177.5000 Z3.8000 F1499.7000
G1 X127.4500 Y177.5000 Z3.8000 F1999.8000
G1 X130.2500 Y177.5000 Z1.0000 F1499.7000
G1 X131.9250 Y177.5000 Z1.0000 F1999.8000
G2 X160.3813 Y150.8876 Z1.0000 I0.0176 J-28.5013 K0.0000 F1999.8000
G1 X170.5034 Y-0.1003 Z1.0000 F1999.8000
G3 X172.0000 Y-1.5000 Z1.0000 I1.4966 J0.1003 K0.0000 F1999.8000
G1 X205.2000 Y-1.5000 Z1.0000 F1999.8000
G1 X208.0000 Y-1.5000 Z3.8000 F1499.7000
G1 X212.9200 Y-1.5000 Z3.8000 F1999.8000
G1 X215.7200 Y-1.5000 Z1.0000 F1499.7000
G1 X250.0000 Y-1.5000 Z1.0000 F1999.8000
G3 X251.5000 Y0.0000 Z1.0000 I-0.0000 J1.5000 K0.0000 F1999.8000
G1 X251.5000 Y123.2400 Z1.0000 F1999.8000
G1 X251.5000 Y126.0400 Z3.8000 F1499.7000
G1 X251.5000 Y130.9600 Z3.8000 F1999.8000
G1 X251.5000 Y133.7600 Z1.0000 F1499.7000
G1 X251.5000 Y257.0000 Z1.0000 F1999.8000
G3 X251.0607 Y258.0607 Z1.0000 I-1.5000 J-0.0000 K0.0000 F1999.8000
G1 X251.0607 Y258.0607 Z0.5000 F999.6000
G3 X250.0000 Y258.5000 Z0.5000 I-1.0607 J-1.0607 K0.0000 F1999.8000
G1 X242.1100 Y258.5000 Z0.5000 F1999.8000
G1 X238.8100 Y258.5000 Z3.8000 F1499.7000
G1 X233.8900 Y258.5000 Z3.8000 F1999.8000
G1 X230.5900 Y258.5000 Z0.5000 F1499.7000
G1 X220.0000 Y258.5000 Z0.5000 F1999.8000
G3 X218.5000 Y257.0000 Z0.5000 I0.0000 J-1.5000 K0.0000 F1999.8000
G1 X218.5000 Y130.0000 Z0.5000 F1999.8000
G1 X218.9393 Y129.5607 Z0.5000 F1999.8000
G1 X218.5000 Y130.0000 Z0.5000 F1999.8000
G1 X203.5000 Y130.0000 Z0.5000 F1999.8000
G1 X203.0607 Y129.5607 Z0.5000 F1999.8000
G1 X203.5000 Y130.0000 Z0.5000 F1999.8000
G1 X203.5000 Y257.0000 Z0.5000 F1999.8000
G3 X202.0000 Y258.5000 Z0.5000 I-1.5000 J-0.0000 K0.0000 F1999.8000
G1 X130.7600 Y258.5000 Z0.5000 F1999.8000
G1 X127.4600 Y258.5000 Z3.8000 F1499.7000
G1 X122.5400 Y258.5000 Z3.8000 F1999.8000
G1 X119.2400 Y258.5000 Z0.5000 F1499.7000
G1 X48.0000 Y258.5000 Z0.5000 F1999.8000
G3 X46.5000 Y257.0000 Z0.5000 I0.0000 J-1.5000 K0.0000 F1999.8000
G1 X46.5000 Y130.0000 Z0.5000 F1999.8000
G1 X46.9393 Y129.5607 Z0.5000 F1999.8000
G1 X46.5000 Y130.0000 Z0.5000 F1999.8000
G1 X45.5300 Y130.0000 Z0.5000 F1999.8000
G1 X42.2300 Y130.0000 Z3.8000 F1499.7000
G1 X37.3100 Y130.0000 Z3.8000 F1999.8000
G1 X34.0100 Y130.0000 Z0.5000 F1499.7000
G1 X31.5000 Y130.0000 Z0.5000 F1999.8000
G1 X31.0607 Y129.5607 Z0.5000 F1999.8000
G1 X31.5000 Y130.0000 Z0.5000 F1999.8000
G1 X31.5000 Y257.0000 Z0.5000 F1999.8000
G3 X30.0000 Y258.5000 Z0.5000 I-1.5000 J-0.0000 K0.0000 F1999.8000
G1 X15.7500 Y258.5000 Z0.5000 F1999.8000
G1 X12.4500 Y258.5000 Z3.8000 F1499.7000
G1 X7.5300 Y258.5000 Z3.8000 F1999.8000
G1 X4.2300 Y258.5000 Z0.5000 F1499.7000
G1 X0.0000 Y258.5000 Z0.5000 F1999.8000
G3 X-1.5000 Y257.0000 Z0.5000 I0.0000 J-1.5000 K0.0000 F1999.8000
G1 X-1.5000 Y134.2600 Z0.5000 F1999.8000
G1 X-1.5000 Y130.9600 Z3.8000 F1499.7000
G1 X-1.5000 Y126.0400 Z3.8000 F1999.8000
G1 X-1.5000 Y122.7400 Z0.5000 F1499.7000
G1 X-1.5000 Y0.0000 Z0.5000 F1999.8000
G3 X0.0000 Y-1.5000 Z0.5000 I1.5000 J0.0000 K0.0000 F1999.8000
G1 X31.6100 Y-1.5000 Z0.5000 F1999.8000
G1 X34.9100 Y-1.5000 Z3.8000 F1499.7000
G1 X39.8300 Y-1.5000 Z3.8000 F1999.8000
G1 X43.1300 Y-1.5000 Z0.5000 F1499.7000
G1 X78.0000 Y-1.5000 Z0.5000 F1999.8000
G3 X79.4966 Y-0.1003 Z0.5000 I-0.0000 J1.5000 K0.0000 F1999.8000
G1 X84.6408 Y76.6332 Z0.5000 F1999.8000
G1 X84.8615 Y79.9258 Z3.8000 F1499.7002
G1 X85.1906 Y84.8348 Z3.8000 F1999.8000
G1 X85.4113 Y88.1274 Z0.5000 F1499.7002
G1 X89.6187 Y150.8876 Z0.5000 F1999.8000
G2 X118.0750 Y177.5000 Z0.5000 I28.4386 J-1.8889 K0.0000 F1999.8000
G1 X119.2300 Y177.5000 Z0.5000 F1999.8000
G1 X122.5300 Y177.5000 Z3.8000 F1499.7000
G1 X127.4500 Y177.5000 Z3.8000 F1999.8000
G1 X130.7500 Y177.5000 Z0.5000 F1499.7000
G1 X131.9250 Y177.5000 Z0.5000 F1999.8000
G2 X160.3813 Y150.8876 Z0.5000 I0.0176 J-28.5013 K0.0000 F1999.8000
G1 X170.5034 Y-0.1003 Z0.5000 F1999.8000
G3 X172.0000 Y-1.5000 Z0.5000 I1.4966 J0.1003 K0.0000 F1999.8000
G1 X204.7000 Y-1.5000 Z0.5000 F1999.8000
G1 X208.0000 Y-1.5000 Z3.8000 F1499.7000
G1 X212.9200 Y-1.5000 Z3.8000 F1999.8000
G1 X216.2200 Y-1.5000 Z0.5000 F1499.7000
G1 X250.0000 Y-1.5000 Z0.5000 F1999.8000
G3 X251.5000 Y0.0000 Z0.5000 I-0.0000 J1.5000 K0.0000 F1999.8000
G1 X251.5000 Y122.7400 Z0.5000 F1999.8000
G1 X251.5000 Y126.0400 Z3.8000 F1499.7000
G1 X251.5000 Y130.9600 Z3.8000 F1999.8000
G1 X251.5000 Y134.2600 Z0.5000 F1499.7000
G1 X251.5000 Y257.0000 Z0.5000 F1999.8000
G3 X251.0607 Y258.0607 Z0.5000 I-1.5000 J-0.0000 K0.0000 F1999.8000
G1 X251.0607 Y258.0607 Z-0.0000 F999.6000
G3 X250.0000 Y258.5000 Z-0.0000 I-1.0607 J-1.0607 K0.0000 F1999.8000
G1 X242.6100 Y258.5000 Z-0.0000 F1999.8000
G1 X238.8100 Y258.5000 Z3.8000 F1499.7000
G1 X233.8900 Y258.5000 Z3.8000 F1999.8000
G1 X230.0900 Y258.5000 Z-0.0000 F1499.7000
G1 X220.0000 Y258.5000 Z-0.0000 F1999.8000
G3 X218.5000 Y257.0000 Z-0.0000 I0.0000 J-1.5000 K0.0000 F1999.8000
G1 X218.5000 Y130.0000 Z-0.0000 F1999.8000
G1 X218.9393 Y129.5607 Z-0.0000 F1999.8000
G1 X218.5000 Y130.0000 Z-0.0000 F1999.8000
G1 X203.5000 Y130.0000 Z-0.0000 F1999.8000
G1 X203.0607 Y129.5607 Z-0.0000 F1999.8000
G1 X203.5000 Y130.0000 Z-0.0000 F1999.8000
G1 X203.5000 Y257.0000 Z-0.0000 F1999.8000
G3 X202.0000 Y258.5000 Z-0.0000 I-1.5000 J-0.0000 K0.0000 F1999.8000
G1 X131.2600 Y258.5000 Z-0.0000 F1999.8000
G1 X127.4600 Y258.5000 Z3.8000 F1499.7000
G1 X122.5400 Y258.5000 Z3.8000 F1999.8000
G1 X118.7400 Y258.5000 Z-0.0000 F1499.7000
G1 X48.0000 Y258.5000 Z-0.0000 F1999.8000
G3 X46.5000 Y257.0000 Z-0.0000 I0.0000 J-1.5000 K0.0000 F1999.8000
G1 X46.5000 Y130.0000 Z-0.0000 F1999.8000
G1 X46.9393 Y129.5607 Z-0.0000 F1999.8000
G1 X46.5000 Y130.0000 Z-0.0000 F1999.8000
G1 X46.0300 Y130.0000 Z-0.0000 F1999.8000
G1 X42.2300 Y130.0000 Z3.8000 F1499.7000
G1 X37.3100 Y130.0000 Z3.8000 F1999.8000
G1 X33.5100 Y130.0000 Z-0.0000 F1499.7000
G1 X31.5000 Y130.0000 Z-0.0000 F1999.8000
G1 X31.0607 Y129.5607 Z-0.0000 F1999.8000
G1 X31.5000 Y130.0000 Z-0.0000 F1999.8000
G1 X31.5000 Y257.0000 Z-0.0000 F1999.8000
G3 X30.0000 Y258.5000 Z-0.0000 I-1.5000 J-0.0000 K0.0000 F1999.8000
G1 X16.2500 Y258.5000 Z-0.0000 F1999.8000
G1 X12.4500 Y258.5000 Z3.8000 F1499.7000
G1 X7.5300 Y258.5000 Z3.8000 F1999.8000
G1 X3.7300 Y258.5000 Z-0.0000 F1499.7000
G1 X0.0000 Y258.5000 Z-0.0000 F1999.8000
G3 X-1.5000 Y257.0000 Z-0.0000 I0.0000 J-1.5000 K0.0000 F1999.8000
G1 X-1.5000 Y134.7600 Z-0.0000 F1999.8000
G1 X-1.5000 Y130.9600 Z3.8000 F1499.7000
G1 X-1.5000 Y126.0400 Z3.8000 F1999.8000
G1 X-1.5000 Y122.2400 Z-0.0000 F1499.7000
G1 X-1.5000 Y0.0000 Z-0.0000 F1999.8000
G3 X0.0000 Y-1.5000 Z-0.0000 I1.5000 J0.0000 K0.0000 F1999.8000
G1 X31.1100 Y-1.5000 Z-0.0000 F1999.8000
G1 X34.9100 Y-1.5000 Z3.8000 F1499.7000
G1 X39.8300 Y-1.5000 Z3.8000 F1999.8000
G1 X43.6300 Y-1.5000 Z-0.0000 F1499.7000
G1 X78.0000 Y-1.5000 Z-0.0000 F1999.8000
G3 X79.4966 Y-0.1003 Z-0.0000 I-0.0000 J1.5000 K0.0000 F1999.8000
G1 X84.6073 Y76.1343 Z-0.0000 F1999.8000
G1 X84.8615 Y79.9258 Z3.8000 F1499.7002
G1 X85.1906 Y84.8348 Z3.8000 F1999.8000
G1 X85.4448 Y88.6262 Z-0.0000 F1499.7002
G1 X89.6187 Y150.8876 Z-0.0000 F1999.8000
G2 X118.0750 Y177.5000 Z-0.0000 I28.4386 J-1.8889 K0.0000 F1999.8000
G1 X118.7300 Y177.5000 Z-0.0000 F1999.8000
G1 X122.5300 Y177.5000 Z3.8000 F1499.7000
G1 X127.4500 Y177.5000 Z3.8000 F1999.8000
G1 X131.2500 Y177.5000 Z-0.0000 F1499.7000
G1 X131.9250 Y177.5000 Z-0.0000 F1999.8000
G2 X160.3813 Y150.8876 Z-0.0000 I0.0176 J-28.5013 K0.0000 F1999.8000
G1 X170.5034 Y-0.1003 Z-0.0000 F1999.8000
G3 X172.0000 Y-1.5000 Z-0.0000 I1.4966 J0.1003 K0.0000 F1999.8000
G1 X204.2000 Y-1.5000 Z-0.0000 F1999.8000
G1 X208.0000 Y-1.5000 Z3.8000 F1499.7000
G1 X212.9200 Y-1.5000 Z3.8000 F1999.8000
G1 X216.7200 Y-1.5000 Z-0.0000 F1499.7000
G1 X250.0000 Y-1.5000 Z-0.0000 F1999.8000
G3 X251.5000 Y0.0000 Z-0.0000 I-0.0000 J1.5000 K0.0000 F1999.8000
G1 X251.5000 Y122.2400 Z-0.0000 F1999.8000
G1 X251.5000 Y126.0400 Z3.8000 F1499.7000
G1 X251.5000 Y130.9600 Z3.8000 F1999.8000
G1 X251.5000 Y134.7600 Z-0.0000 F1499.7000
G1 X251.5000 Y257.0000 Z-0.0000 F1999.8000
G3 X251.0607 Y258.0607 Z-0.0000 I-1.5000 J-0.0000 K0.0000 F1999.8000
G1 X251.0607 Y258.0607 Z-0.2000 F999.6000
G3 X250.0000 Y258.5000 Z-0.2000 I-1.0607 J-1.0607 K0.0000 F1999.8000
G1 X242.8100 Y258.5000 Z-0.2000 F1999.8000
G1 X238.8100 Y258.5000 Z3.8000 F1499.7000
G1 X233.8900 Y258.5000 Z3.8000 F1999.8000
G1 X229.8900 Y258.5000 Z-0.2000 F1499.7000
G1 X220.0000 Y258.5000 Z-0.2000 F1999.8000
G3 X218.5000 Y257.0000 Z-0.2000 I0.0000 J-1.5000 K0.0000 F1999.8000
G1 X218.5000 Y130.0000 Z-0.2000 F1999.8000
G1 X218.9393 Y129.5607 Z-0.2000 F1999.8000
G1 X218.5000 Y130.0000 Z-0.2000 F1999.8000
G1 X203.5000 Y130.0000 Z-0.2000 F1999.8000
G1 X203.0607 Y129.5607 Z-0.2000 F1999.8000
G1 X203.5000 Y130.0000 Z-0.2000 F1999.8000
G1 X203.5000 Y257.0000 Z-0.2000 F1999.8000
G3 X202.0000 Y258.5000 Z-0.2000 I-1.5000 J-0.0000 K0.0000 F1999.8000
G1 X131.4600 Y258.5000 Z-0.2000 F1999.8000
G1 X127.4600 Y258.5000 Z3.8000 F1499.7000
G1 X122.5400 Y258.5000 Z3.8000 F1999.8000
G1 X118.5400 Y258.5000 Z-0.2000 F1499.7000
G1 X48.0000 Y258.5000 Z-0.2000 F1999.8000
G3 X46.5000 Y257.0000 Z-0.2000 I0.0000 J-1.5000 K0.0000 F1999.8000
G1 X46.5000 Y130.0000 Z-0.2000 F1999.8000
G1 X46.9393 Y129.5607 Z-0.2000 F1999.8000
G1 X46.5000 Y130.0000 Z-0.2000 F1999.8000
G1 X46.2300 Y130.0000 Z-0.2000 F1999.8000
G1 X42.2300 Y130.0000 Z3.8000 F1499.7000
G1 X37.3100 Y130.0000 Z3.8000 F1999.8000
G1 X33.3100 Y130.0000 Z-0.2000 F1499.7000
G1 X31.5000 Y130.0000 Z-0.2000 F1999.8000
G1 X31.0607 Y129.5607 Z-0.2000 F1999.8000
G1 X31.5000 Y130.0000 Z-0.2000 F1999.8000
G1 X31.5000 Y257.0000 Z-0.2000 F1999.8000
G3 X30.0000 Y258.5000 Z-0.2000 I-1.5000 J-0.0000 K0.0000 F1999.8000
G1 X16.4500 Y258.5000 Z-0.2000 F1999.8000
G1 X12.4500 Y258.5000 Z3.8000 F1499.7000
G1 X7.5300 Y258.5000 Z3.8000 F1999.8000
G1 X3.5300 Y258.5000 Z-0.2000 F1499.7000
G1 X0.0000 Y258.5000 Z-0.2000 F1999.8000
G3 X-1.5000 Y257.0000 Z-0.2000 I0.0000 J-1.5000 K0.0000 F1999.8000
G1 X-1.5000 Y134.9600 Z-0.2000 F1999.8000
G1 X-1.5000 Y130.9600 Z3.8000 F1499.7000
G1 X-1.5000 Y126.0400 Z3.8000 F1999.8000
G1 X-1.5000 Y122.0400 Z-0.2000 F1499.7000
G1 X-1.5000 Y0.0000 Z-0.2000 F1999.8000
G3 X0.0000 Y-1.5000 Z-0.2000 I1.5000 J0.0000 K0.0000 F1999.8000
G1 X30.9100 Y-1.5000 Z-0.2000 F1999.8000
G1 X34.9100 Y-1.5000 Z3.8000 F1499.7000
G1 X39.8300 Y-1.5000 Z3.8000 F1999.8000
G1 X43.8300 Y-1.5000 Z-0.2000 F1499.7000
G1 X78.0000 Y-1.5000 Z-0.2000 F1999.8000
G3 X79.4966 Y-0.1003 Z-0.2000 I-0.0000 J1.5000 K0.0000 F1999.8000
G1 X84.5940 Y75.9347 Z-0.2000 F1999.8000
G1 X84.8615 Y79.9258 Z3.8000 F1499.7002
G1 X85.1906 Y84.8348 Z3.8000 F1999.8000
G1 X85.4582 Y88.8258 Z-0.2000 F1499.7002
G1 X89.6187 Y150.8876 Z-0.2000 F1999.8000
G2 X118.0750 Y177.5000 Z-0.2000 I28.4386 J-1.8889 K0.0000 F1999.8000
G1 X118.5300 Y177.5000 Z-0.2000 F1999.8000
G1 X122.5300 Y177.5000 Z3.8000 F1499.7000
G1 X127.4500 Y177.5000 Z3.8000 F1999.8000
G1 X131.4500 Y177.5000 Z-0.2000 F1499.7000
G1 X131.9250 Y177.5000 Z-0.2000 F1999.8000
G2 X160.3813 Y150.8876 Z-0.2000 I0.0176 J-28.5013 K0.0000 F1999.8000
G1 X170.5034 Y-0.1003 Z-0.2000 F1999.8000
G3 X172.0000 Y-1.5000 Z-0.2000 I1.4966 J0.1003 K0.0000 F1999.8000
G1 X204.0000 Y-1.5000 Z-0.2000 F1999.8000
G1 X208.0000 Y-1.5000 Z3.8000 F1499.7000
G1 X212.9200 Y-1.5000 Z3.8000 F1999.8000
G1 X216.9200 Y-1.5000 Z-0.2000 F1499.7000
G1 X250.0000 Y-1.5000 Z-0.2000 F1999.8000
G3 X251.5000 Y0.0000 Z-0.2000 I-0.0000 J1.5000 K0.0000 F1999.8000
G1 X251.5000 Y122.0400 Z-0.2000 F1999.8000
G1 X251.5000 Y126.0400 Z3.8000 F1499.7000
G1 X251.5000 Y130.9600 Z3.8000 F1999.8000
G1 X251.5000 Y134.9600 Z-0.2000 F1499.7000
G1 X251.5000 Y257.0000 Z-0.2000 F1999.8000
G3 X251.0607 Y258.0607 Z-0.2000 I-1.5000 J-0.0000 K0.0000 F1999.8000
G0 X251.0607 Y258.0607 Z23.0000
(Finish operation: DressupTag001)
(Begin postamble)
M5
G17 G90
M2
