(Exported by FreeCAD)
(Post Processor: grbl_post)
(Output Time:2020-01-26 17:55:44.596446)
(begin preamble)
G17 G90
G21
(begin operation: T4: 2FluteWoodMill)
(Path: T4: 2FluteWoodMill)
(T4: 2FluteWoodMill)
(begin toolchange)
; M6 T4
M3 S10000.0000
(finish operation: T4: 2FluteWoodMill)
(begin operation: DrillHoles_Op)
(Path: DrillHoles_Op)
(DrillHoles_Op)
(Compensated Tool Path. Diameter: 3.0)
G0 Z23.0000
G0 X86.1011 Y78.5910
G0 Z21.0000
G1 X86.1011 Y78.5910 Z17.5000 F1800.00
G3 X85.0055 Y78.8338 Z17.5000 I-0.7384 J-0.7384 F1800.00
G3 X85.7199 Y76.8712 Z17.5000 I0.3572 J-0.9813 F1800.00
G3 X86.1011 Y78.5910 Z17.5000 I-0.3572 J0.9813 F1800.00
G1 X86.1011 Y78.5910 Z17.0000 F1800.00
G3 X85.0055 Y78.8338 Z17.0000 I-0.7384 J-0.7384 F1800.00
G3 X85.7199 Y76.8712 Z17.0000 I0.3572 J-0.9813 F1800.00
G3 X86.1011 Y78.5910 Z17.0000 I-0.3572 J0.9813 F1800.00
G1 X86.1011 Y78.5910 Z16.5000 F1800.00
G3 X85.0055 Y78.8338 Z16.5000 I-0.7384 J-0.7384 F1800.00
G3 X85.7199 Y76.8712 Z16.5000 I0.3572 J-0.9813 F1800.00
G3 X86.1011 Y78.5910 Z16.5000 I-0.3572 J0.9813 F1800.00
G1 X86.1011 Y78.5910 Z16.0000 F1800.00
G3 X85.0055 Y78.8338 Z16.0000 I-0.7384 J-0.7384 F1800.00
G3 X85.7199 Y76.8712 Z16.0000 I0.3572 J-0.9813 F1800.00
G3 X86.1011 Y78.5910 Z16.0000 I-0.3572 J0.9813 F1800.00
G1 X86.1011 Y78.5910 Z15.5000 F1800.00
G3 X85.0055 Y78.8338 Z15.5000 I-0.7384 J-0.7384 F1800.00
G3 X85.7199 Y76.8712 Z15.5000 I0.3572 J-0.9813 F1800.00
G3 X86.1011 Y78.5910 Z15.5000 I-0.3572 J0.9813 F1800.00
G1 X86.1011 Y78.5910 Z15.0000 F1800.00
G3 X85.0055 Y78.8338 Z15.0000 I-0.7384 J-0.7384 F1800.00
G3 X85.7199 Y76.8712 Z15.0000 I0.3572 J-0.9813 F1800.00
G3 X86.1011 Y78.5910 Z15.0000 I-0.3572 J0.9813 F1800.00
G1 X86.1011 Y78.5910 Z14.5000 F1800.00
G3 X85.0055 Y78.8338 Z14.5000 I-0.7384 J-0.7384 F1800.00
G3 X85.7199 Y76.8712 Z14.5000 I0.3572 J-0.9813 F1800.00
G3 X86.1011 Y78.5910 Z14.5000 I-0.3572 J0.9813 F1800.00
G1 X86.1011 Y78.5910 Z14.0000 F1800.00
G3 X85.0055 Y78.8338 Z14.0000 I-0.7384 J-0.7384 F1800.00
G3 X85.7199 Y76.8712 Z14.0000 I0.3572 J-0.9813 F1800.00
G3 X86.1011 Y78.5910 Z14.0000 I-0.3572 J0.9813 F1800.00
G1 X86.1011 Y78.5910 Z13.5000 F1800.00
G3 X85.0055 Y78.8338 Z13.5000 I-0.7384 J-0.7384 F1800.00
G3 X85.7199 Y76.8712 Z13.5000 I0.3572 J-0.9813 F1800.00
G3 X86.1011 Y78.5910 Z13.5000 I-0.3572 J0.9813 F1800.00
G1 X86.1011 Y78.5910 Z13.0000 F1800.00
G3 X85.0055 Y78.8338 Z13.0000 I-0.7384 J-0.7384 F1800.00
G3 X85.7199 Y76.8712 Z13.0000 I0.3572 J-0.9813 F1800.00
G3 X86.1011 Y78.5910 Z13.0000 I-0.3572 J0.9813 F1800.00
G1 X86.1011 Y78.5910 Z12.5000 F1800.00
G3 X85.0055 Y78.8338 Z12.5000 I-0.7384 J-0.7384 F1800.00
G3 X85.7199 Y76.8712 Z12.5000 I0.3572 J-0.9813 F1800.00
G3 X86.1011 Y78.5910 Z12.5000 I-0.3572 J0.9813 F1800.00
G1 X86.1011 Y78.5910 Z12.0000 F1800.00
G3 X85.0055 Y78.8338 Z12.0000 I-0.7384 J-0.7384 F1800.00
G3 X85.7199 Y76.8712 Z12.0000 I0.3572 J-0.9813 F1800.00
G3 X86.1011 Y78.5910 Z12.0000 I-0.3572 J0.9813 F1800.00
G1 X86.1011 Y78.5910 Z11.5000 F1800.00
G3 X85.0055 Y78.8338 Z11.5000 I-0.7384 J-0.7384 F1800.00
G3 X85.7199 Y76.8712 Z11.5000 I0.3572 J-0.9813 F1800.00
G3 X86.1011 Y78.5910 Z11.5000 I-0.3572 J0.9813 F1800.00
G1 X86.1011 Y78.5910 Z11.0000 F1800.00
G3 X85.0055 Y78.8338 Z11.0000 I-0.7384 J-0.7384 F1800.00
G3 X85.7199 Y76.8712 Z11.0000 I0.3572 J-0.9813 F1800.00
G3 X86.1011 Y78.5910 Z11.0000 I-0.3572 J0.9813 F1800.00
G1 X86.1011 Y78.5910 Z10.5000 F1800.00
G3 X85.0055 Y78.8338 Z10.5000 I-0.7384 J-0.7384 F1800.00
G3 X85.7199 Y76.8712 Z10.5000 I0.3572 J-0.9813 F1800.00
G3 X86.1011 Y78.5910 Z10.5000 I-0.3572 J0.9813 F1800.00
G1 X86.1011 Y78.5910 Z10.0000 F1800.00
G3 X85.0055 Y78.8338 Z10.0000 I-0.7384 J-0.7384 F1800.00
G3 X85.7199 Y76.8712 Z10.0000 I0.3572 J-0.9813 F1800.00
G3 X86.1011 Y78.5910 Z10.0000 I-0.3572 J0.9813 F1800.00
G1 X86.1011 Y78.5910 Z9.5000 F1800.00
G3 X85.0055 Y78.8338 Z9.5000 I-0.7384 J-0.7384 F1800.00
G3 X85.7199 Y76.8712 Z9.5000 I0.3572 J-0.9813 F1800.00
G3 X86.1011 Y78.5910 Z9.5000 I-0.3572 J0.9813 F1800.00
G1 X86.1011 Y78.5910 Z9.0000 F1800.00
G3 X85.0055 Y78.8338 Z9.0000 I-0.7384 J-0.7384 F1800.00
G3 X85.7199 Y76.8712 Z9.0000 I0.3572 J-0.9813 F1800.00
G3 X86.1011 Y78.5910 Z9.0000 I-0.3572 J0.9813 F1800.00
G1 X86.1011 Y78.5910 Z8.5000 F1800.00
G3 X85.0055 Y78.8338 Z8.5000 I-0.7384 J-0.7384 F1800.00
G3 X85.7199 Y76.8712 Z8.5000 I0.3572 J-0.9813 F1800.00
G3 X86.1011 Y78.5910 Z8.5000 I-0.3572 J0.9813 F1800.00
G1 X86.1011 Y78.5910 Z8.0000 F1800.00
G3 X85.0055 Y78.8338 Z8.0000 I-0.7384 J-0.7384 F1800.00
G3 X85.7199 Y76.8712 Z8.0000 I0.3572 J-0.9813 F1800.00
G3 X86.1011 Y78.5910 Z8.0000 I-0.3572 J0.9813 F1800.00
G1 X86.1011 Y78.5910 Z7.5000 F1800.00
G3 X85.0055 Y78.8338 Z7.5000 I-0.7384 J-0.7384 F1800.00
G3 X85.7199 Y76.8712 Z7.5000 I0.3572 J-0.9813 F1800.00
G3 X86.1011 Y78.5910 Z7.5000 I-0.3572 J0.9813 F1800.00
G1 X86.1011 Y78.5910 Z7.0000 F1800.00
G3 X85.0055 Y78.8338 Z7.0000 I-0.7384 J-0.7384 F1800.00
G3 X85.7199 Y76.8712 Z7.0000 I0.3572 J-0.9813 F1800.00
G3 X86.1011 Y78.5910 Z7.0000 I-0.3572 J0.9813 F1800.00
G1 X86.1011 Y78.5910 Z6.5000 F1800.00
G3 X85.0055 Y78.8338 Z6.5000 I-0.7384 J-0.7384 F1800.00
G3 X85.7199 Y76.8712 Z6.5000 I0.3572 J-0.9813 F1800.00
G3 X86.1011 Y78.5910 Z6.5000 I-0.3572 J0.9813 F1800.00
G1 X86.1011 Y78.5910 Z6.0000 F1800.00
G3 X85.0055 Y78.8338 Z6.0000 I-0.7384 J-0.7384 F1800.00
G3 X85.7199 Y76.8712 Z6.0000 I0.3572 J-0.9813 F1800.00
G3 X86.1011 Y78.5910 Z6.0000 I-0.3572 J0.9813 F1800.00
G1 X86.1011 Y78.5910 Z5.5000 F1800.00
G3 X85.0055 Y78.8338 Z5.5000 I-0.7384 J-0.7384 F1800.00
G3 X85.7199 Y76.8712 Z5.5000 I0.3572 J-0.9813 F1800.00
G3 X86.1011 Y78.5910 Z5.5000 I-0.3572 J0.9813 F1800.00
G1 X86.1011 Y78.5910 Z5.0000 F1800.00
G3 X85.0055 Y78.8338 Z5.0000 I-0.7384 J-0.7384 F1800.00
G3 X85.7199 Y76.8712 Z5.0000 I0.3572 J-0.9813 F1800.00
G3 X86.1011 Y78.5910 Z5.0000 I-0.3572 J0.9813 F1800.00
G1 X86.1011 Y78.5910 Z4.5000 F1800.00
G3 X85.0055 Y78.8338 Z4.5000 I-0.7384 J-0.7384 F1800.00
G3 X85.7199 Y76.8712 Z4.5000 I0.3572 J-0.9813 F1800.00
G3 X86.1011 Y78.5910 Z4.5000 I-0.3572 J0.9813 F1800.00
G1 X86.1011 Y78.5910 Z4.0000 F1800.00
G3 X85.0055 Y78.8338 Z4.0000 I-0.7384 J-0.7384 F1800.00
G3 X85.7199 Y76.8712 Z4.0000 I0.3572 J-0.9813 F1800.00
G3 X86.1011 Y78.5910 Z4.0000 I-0.3572 J0.9813 F1800.00
G1 X86.1011 Y78.5910 Z3.5000 F1800.00
G3 X85.0055 Y78.8338 Z3.5000 I-0.7384 J-0.7384 F1800.00
G3 X85.7199 Y76.8712 Z3.5000 I0.3572 J-0.9813 F1800.00
G3 X86.1011 Y78.5910 Z3.5000 I-0.3572 J0.9813 F1800.00
G1 X86.1011 Y78.5910 Z3.0000 F1800.00
G3 X85.0055 Y78.8338 Z3.0000 I-0.7384 J-0.7384 F1800.00
G3 X85.7199 Y76.8712 Z3.0000 I0.3572 J-0.9813 F1800.00
G3 X86.1011 Y78.5910 Z3.0000 I-0.3572 J0.9813 F1800.00
G1 X86.1011 Y78.5910 Z2.5000 F1800.00
G3 X85.0055 Y78.8338 Z2.5000 I-0.7384 J-0.7384 F1800.00
G3 X85.7199 Y76.8712 Z2.5000 I0.3572 J-0.9813 F1800.00
G3 X86.1011 Y78.5910 Z2.5000 I-0.3572 J0.9813 F1800.00
G1 X86.1011 Y78.5910 Z2.0000 F1800.00
G3 X85.0055 Y78.8338 Z2.0000 I-0.7384 J-0.7384 F1800.00
G3 X85.7199 Y76.8712 Z2.0000 I0.3572 J-0.9813 F1800.00
G3 X86.1011 Y78.5910 Z2.0000 I-0.3572 J0.9813 F1800.00
G1 X86.1011 Y78.5910 Z1.5000 F1800.00
G3 X85.0055 Y78.8338 Z1.5000 I-0.7384 J-0.7384 F1800.00
G3 X85.7199 Y76.8712 Z1.5000 I0.3572 J-0.9813 F1800.00
G3 X86.1011 Y78.5910 Z1.5000 I-0.3572 J0.9813 F1800.00
G1 X86.1011 Y78.5910 Z1.0000 F1800.00
G3 X85.0055 Y78.8338 Z1.0000 I-0.7384 J-0.7384 F1800.00
G3 X85.7199 Y76.8712 Z1.0000 I0.3572 J-0.9813 F1800.00
G3 X86.1011 Y78.5910 Z1.0000 I-0.3572 J0.9813 F1800.00
G1 X86.1011 Y78.5910 Z0.5000 F1800.00
G3 X85.0055 Y78.8338 Z0.5000 I-0.7384 J-0.7384 F1800.00
G3 X85.7199 Y76.8712 Z0.5000 I0.3572 J-0.9813 F1800.00
G3 X86.1011 Y78.5910 Z0.5000 I-0.3572 J0.9813 F1800.00
G0 Z23.0000
G0 X52.6999 Y20.7384
G0 Z21.0000
G1 X52.6999 Y20.7384 Z17.5000 F1800.00
G3 X51.6044 Y20.9813 Z17.5000 I-0.7384 J-0.7384 F1800.00
G3 X52.3187 Y19.0187 Z17.5000 I0.3572 J-0.9813 F1800.00
G3 X52.6999 Y20.7384 Z17.5000 I-0.3572 J0.9813 F1800.00
G1 X52.6999 Y20.7384 Z17.0000 F1800.00
G3 X51.6044 Y20.9813 Z17.0000 I-0.7384 J-0.7384 F1800.00
G3 X52.3187 Y19.0187 Z17.0000 I0.3572 J-0.9813 F1800.00
G3 X52.6999 Y20.7384 Z17.0000 I-0.3572 J0.9813 F1800.00
G1 X52.6999 Y20.7384 Z16.5000 F1800.00
G3 X51.6044 Y20.9813 Z16.5000 I-0.7384 J-0.7384 F1800.00
G3 X52.3187 Y19.0187 Z16.5000 I0.3572 J-0.9813 F1800.00
G3 X52.6999 Y20.7384 Z16.5000 I-0.3572 J0.9813 F1800.00
G1 X52.6999 Y20.7384 Z16.0000 F1800.00
G3 X51.6044 Y20.9813 Z16.0000 I-0.7384 J-0.7384 F1800.00
G3 X52.3187 Y19.0187 Z16.0000 I0.3572 J-0.9813 F1800.00
G3 X52.6999 Y20.7384 Z16.0000 I-0.3572 J0.9813 F1800.00
G1 X52.6999 Y20.7384 Z15.5000 F1800.00
G3 X51.6044 Y20.9813 Z15.5000 I-0.7384 J-0.7384 F1800.00
G3 X52.3187 Y19.0187 Z15.5000 I0.3572 J-0.9813 F1800.00
G3 X52.6999 Y20.7384 Z15.5000 I-0.3572 J0.9813 F1800.00
G1 X52.6999 Y20.7384 Z15.0000 F1800.00
G3 X51.6044 Y20.9813 Z15.0000 I-0.7384 J-0.7384 F1800.00
G3 X52.3187 Y19.0187 Z15.0000 I0.3572 J-0.9813 F1800.00
G3 X52.6999 Y20.7384 Z15.0000 I-0.3572 J0.9813 F1800.00
G1 X52.6999 Y20.7384 Z14.5000 F1800.00
G3 X51.6044 Y20.9813 Z14.5000 I-0.7384 J-0.7384 F1800.00
G3 X52.3187 Y19.0187 Z14.5000 I0.3572 J-0.9813 F1800.00
G3 X52.6999 Y20.7384 Z14.5000 I-0.3572 J0.9813 F1800.00
G1 X52.6999 Y20.7384 Z14.0000 F1800.00
G3 X51.6044 Y20.9813 Z14.0000 I-0.7384 J-0.7384 F1800.00
G3 X52.3187 Y19.0187 Z14.0000 I0.3572 J-0.9813 F1800.00
G3 X52.6999 Y20.7384 Z14.0000 I-0.3572 J0.9813 F1800.00
G1 X52.6999 Y20.7384 Z13.5000 F1800.00
G3 X51.6044 Y20.9813 Z13.5000 I-0.7384 J-0.7384 F1800.00
G3 X52.3187 Y19.0187 Z13.5000 I0.3572 J-0.9813 F1800.00
G3 X52.6999 Y20.7384 Z13.5000 I-0.3572 J0.9813 F1800.00
G1 X52.6999 Y20.7384 Z13.0000 F1800.00
G3 X51.6044 Y20.9813 Z13.0000 I-0.7384 J-0.7384 F1800.00
G3 X52.3187 Y19.0187 Z13.0000 I0.3572 J-0.9813 F1800.00
G3 X52.6999 Y20.7384 Z13.0000 I-0.3572 J0.9813 F1800.00
G1 X52.6999 Y20.7384 Z12.5000 F1800.00
G3 X51.6044 Y20.9813 Z12.5000 I-0.7384 J-0.7384 F1800.00
G3 X52.3187 Y19.0187 Z12.5000 I0.3572 J-0.9813 F1800.00
G3 X52.6999 Y20.7384 Z12.5000 I-0.3572 J0.9813 F1800.00
G1 X52.6999 Y20.7384 Z12.0000 F1800.00
G3 X51.6044 Y20.9813 Z12.0000 I-0.7384 J-0.7384 F1800.00
G3 X52.3187 Y19.0187 Z12.0000 I0.3572 J-0.9813 F1800.00
G3 X52.6999 Y20.7384 Z12.0000 I-0.3572 J0.9813 F1800.00
G1 X52.6999 Y20.7384 Z11.5000 F1800.00
G3 X51.6044 Y20.9813 Z11.5000 I-0.7384 J-0.7384 F1800.00
G3 X52.3187 Y19.0187 Z11.5000 I0.3572 J-0.9813 F1800.00
G3 X52.6999 Y20.7384 Z11.5000 I-0.3572 J0.9813 F1800.00
G1 X52.6999 Y20.7384 Z11.0000 F1800.00
G3 X51.6044 Y20.9813 Z11.0000 I-0.7384 J-0.7384 F1800.00
G3 X52.3187 Y19.0187 Z11.0000 I0.3572 J-0.9813 F1800.00
G3 X52.6999 Y20.7384 Z11.0000 I-0.3572 J0.9813 F1800.00
G1 X52.6999 Y20.7384 Z10.5000 F1800.00
G3 X51.6044 Y20.9813 Z10.5000 I-0.7384 J-0.7384 F1800.00
G3 X52.3187 Y19.0187 Z10.5000 I0.3572 J-0.9813 F1800.00
G3 X52.6999 Y20.7384 Z10.5000 I-0.3572 J0.9813 F1800.00
G1 X52.6999 Y20.7384 Z10.0000 F1800.00
G3 X51.6044 Y20.9813 Z10.0000 I-0.7384 J-0.7384 F1800.00
G3 X52.3187 Y19.0187 Z10.0000 I0.3572 J-0.9813 F1800.00
G3 X52.6999 Y20.7384 Z10.0000 I-0.3572 J0.9813 F1800.00
G1 X52.6999 Y20.7384 Z9.5000 F1800.00
G3 X51.6044 Y20.9813 Z9.5000 I-0.7384 J-0.7384 F1800.00
G3 X52.3187 Y19.0187 Z9.5000 I0.3572 J-0.9813 F1800.00
G3 X52.6999 Y20.7384 Z9.5000 I-0.3572 J0.9813 F1800.00
G1 X52.6999 Y20.7384 Z9.0000 F1800.00
G3 X51.6044 Y20.9813 Z9.0000 I-0.7384 J-0.7384 F1800.00
G3 X52.3187 Y19.0187 Z9.0000 I0.3572 J-0.9813 F1800.00
G3 X52.6999 Y20.7384 Z9.0000 I-0.3572 J0.9813 F1800.00
G1 X52.6999 Y20.7384 Z8.5000 F1800.00
G3 X51.6044 Y20.9813 Z8.5000 I-0.7384 J-0.7384 F1800.00
G3 X52.3187 Y19.0187 Z8.5000 I0.3572 J-0.9813 F1800.00
G3 X52.6999 Y20.7384 Z8.5000 I-0.3572 J0.9813 F1800.00
G1 X52.6999 Y20.7384 Z8.0000 F1800.00
G3 X51.6044 Y20.9813 Z8.0000 I-0.7384 J-0.7384 F1800.00
G3 X52.3187 Y19.0187 Z8.0000 I0.3572 J-0.9813 F1800.00
G3 X52.6999 Y20.7384 Z8.0000 I-0.3572 J0.9813 F1800.00
G1 X52.6999 Y20.7384 Z7.5000 F1800.00
G3 X51.6044 Y20.9813 Z7.5000 I-0.7384 J-0.7384 F1800.00
G3 X52.3187 Y19.0187 Z7.5000 I0.3572 J-0.9813 F1800.00
G3 X52.6999 Y20.7384 Z7.5000 I-0.3572 J0.9813 F1800.00
G1 X52.6999 Y20.7384 Z7.0000 F1800.00
G3 X51.6044 Y20.9813 Z7.0000 I-0.7384 J-0.7384 F1800.00
G3 X52.3187 Y19.0187 Z7.0000 I0.3572 J-0.9813 F1800.00
G3 X52.6999 Y20.7384 Z7.0000 I-0.3572 J0.9813 F1800.00
G1 X52.6999 Y20.7384 Z6.5000 F1800.00
G3 X51.6044 Y20.9813 Z6.5000 I-0.7384 J-0.7384 F1800.00
G3 X52.3187 Y19.0187 Z6.5000 I0.3572 J-0.9813 F1800.00
G3 X52.6999 Y20.7384 Z6.5000 I-0.3572 J0.9813 F1800.00
G1 X52.6999 Y20.7384 Z6.0000 F1800.00
G3 X51.6044 Y20.9813 Z6.0000 I-0.7384 J-0.7384 F1800.00
G3 X52.3187 Y19.0187 Z6.0000 I0.3572 J-0.9813 F1800.00
G3 X52.6999 Y20.7384 Z6.0000 I-0.3572 J0.9813 F1800.00
G1 X52.6999 Y20.7384 Z5.5000 F1800.00
G3 X51.6044 Y20.9813 Z5.5000 I-0.7384 J-0.7384 F1800.00
G3 X52.3187 Y19.0187 Z5.5000 I0.3572 J-0.9813 F1800.00
G3 X52.6999 Y20.7384 Z5.5000 I-0.3572 J0.9813 F1800.00
G1 X52.6999 Y20.7384 Z5.0000 F1800.00
G3 X51.6044 Y20.9813 Z5.0000 I-0.7384 J-0.7384 F1800.00
G3 X52.3187 Y19.0187 Z5.0000 I0.3572 J-0.9813 F1800.00
G3 X52.6999 Y20.7384 Z5.0000 I-0.3572 J0.9813 F1800.00
G1 X52.6999 Y20.7384 Z4.5000 F1800.00
G3 X51.6044 Y20.9813 Z4.5000 I-0.7384 J-0.7384 F1800.00
G3 X52.3187 Y19.0187 Z4.5000 I0.3572 J-0.9813 F1800.00
G3 X52.6999 Y20.7384 Z4.5000 I-0.3572 J0.9813 F1800.00
G1 X52.6999 Y20.7384 Z4.0000 F1800.00
G3 X51.6044 Y20.9813 Z4.0000 I-0.7384 J-0.7384 F1800.00
G3 X52.3187 Y19.0187 Z4.0000 I0.3572 J-0.9813 F1800.00
G3 X52.6999 Y20.7384 Z4.0000 I-0.3572 J0.9813 F1800.00
G1 X52.6999 Y20.7384 Z3.5000 F1800.00
G3 X51.6044 Y20.9813 Z3.5000 I-0.7384 J-0.7384 F1800.00
G3 X52.3187 Y19.0187 Z3.5000 I0.3572 J-0.9813 F1800.00
G3 X52.6999 Y20.7384 Z3.5000 I-0.3572 J0.9813 F1800.00
G1 X52.6999 Y20.7384 Z3.0000 F1800.00
G3 X51.6044 Y20.9813 Z3.0000 I-0.7384 J-0.7384 F1800.00
G3 X52.3187 Y19.0187 Z3.0000 I0.3572 J-0.9813 F1800.00
G3 X52.6999 Y20.7384 Z3.0000 I-0.3572 J0.9813 F1800.00
G1 X52.6999 Y20.7384 Z2.5000 F1800.00
G3 X51.6044 Y20.9813 Z2.5000 I-0.7384 J-0.7384 F1800.00
G3 X52.3187 Y19.0187 Z2.5000 I0.3572 J-0.9813 F1800.00
G3 X52.6999 Y20.7384 Z2.5000 I-0.3572 J0.9813 F1800.00
G1 X52.6999 Y20.7384 Z2.0000 F1800.00
G3 X51.6044 Y20.9813 Z2.0000 I-0.7384 J-0.7384 F1800.00
G3 X52.3187 Y19.0187 Z2.0000 I0.3572 J-0.9813 F1800.00
G3 X52.6999 Y20.7384 Z2.0000 I-0.3572 J0.9813 F1800.00
G1 X52.6999 Y20.7384 Z1.5000 F1800.00
G3 X51.6044 Y20.9813 Z1.5000 I-0.7384 J-0.7384 F1800.00
G3 X52.3187 Y19.0187 Z1.5000 I0.3572 J-0.9813 F1800.00
G3 X52.6999 Y20.7384 Z1.5000 I-0.3572 J0.9813 F1800.00
G1 X52.6999 Y20.7384 Z1.0000 F1800.00
G3 X51.6044 Y20.9813 Z1.0000 I-0.7384 J-0.7384 F1800.00
G3 X52.3187 Y19.0187 Z1.0000 I0.3572 J-0.9813 F1800.00
G3 X52.6999 Y20.7384 Z1.0000 I-0.3572 J0.9813 F1800.00
G1 X52.6999 Y20.7384 Z0.5000 F1800.00
G3 X51.6044 Y20.9813 Z0.5000 I-0.7384 J-0.7384 F1800.00
G3 X52.3187 Y19.0187 Z0.5000 I0.3572 J-0.9813 F1800.00
G3 X52.6999 Y20.7384 Z0.5000 I-0.3572 J0.9813 F1800.00
G0 Z23.0000
G0 X119.5023 Y136.4435
G0 Z21.0000
G1 X119.5023 Y136.4435 Z17.5000 F1800.00
G3 X118.4067 Y136.6864 Z17.5000 I-0.7384 J-0.7384 F1800.00
G3 X119.1210 Y134.7238 Z17.5000 I0.3572 J-0.9813 F1800.00
G3 X119.5023 Y136.4435 Z17.5000 I-0.3572 J0.9813 F1800.00
G1 X119.5023 Y136.4435 Z17.0000 F1800.00
G3 X118.4067 Y136.6864 Z17.0000 I-0.7384 J-0.7384 F1800.00
G3 X119.1210 Y134.7238 Z17.0000 I0.3572 J-0.9813 F1800.00
G3 X119.5023 Y136.4435 Z17.0000 I-0.3572 J0.9813 F1800.00
G1 X119.5023 Y136.4435 Z16.5000 F1800.00
G3 X118.4067 Y136.6864 Z16.5000 I-0.7384 J-0.7384 F1800.00
G3 X119.1210 Y134.7238 Z16.5000 I0.3572 J-0.9813 F1800.00
G3 X119.5023 Y136.4435 Z16.5000 I-0.3572 J0.9813 F1800.00
G1 X119.5023 Y136.4435 Z16.0000 F1800.00
G3 X118.4067 Y136.6864 Z16.0000 I-0.7384 J-0.7384 F1800.00
G3 X119.1210 Y134.7238 Z16.0000 I0.3572 J-0.9813 F1800.00
G3 X119.5023 Y136.4435 Z16.0000 I-0.3572 J0.9813 F1800.00
G1 X119.5023 Y136.4435 Z15.5000 F1800.00
G3 X118.4067 Y136.6864 Z15.5000 I-0.7384 J-0.7384 F1800.00
G3 X119.1210 Y134.7238 Z15.5000 I0.3572 J-0.9813 F1800.00
G3 X119.5023 Y136.4435 Z15.5000 I-0.3572 J0.9813 F1800.00
G1 X119.5023 Y136.4435 Z15.0000 F1800.00
G3 X118.4067 Y136.6864 Z15.0000 I-0.7384 J-0.7384 F1800.00
G3 X119.1210 Y134.7238 Z15.0000 I0.3572 J-0.9813 F1800.00
G3 X119.5023 Y136.4435 Z15.0000 I-0.3572 J0.9813 F1800.00
G1 X119.5023 Y136.4435 Z14.5000 F1800.00
G3 X118.4067 Y136.6864 Z14.5000 I-0.7384 J-0.7384 F1800.00
G3 X119.1210 Y134.7238 Z14.5000 I0.3572 J-0.9813 F1800.00
G3 X119.5023 Y136.4435 Z14.5000 I-0.3572 J0.9813 F1800.00
G1 X119.5023 Y136.4435 Z14.0000 F1800.00
G3 X118.4067 Y136.6864 Z14.0000 I-0.7384 J-0.7384 F1800.00
G3 X119.1210 Y134.7238 Z14.0000 I0.3572 J-0.9813 F1800.00
G3 X119.5023 Y136.4435 Z14.0000 I-0.3572 J0.9813 F1800.00
G1 X119.5023 Y136.4435 Z13.5000 F1800.00
G3 X118.4067 Y136.6864 Z13.5000 I-0.7384 J-0.7384 F1800.00
G3 X119.1210 Y134.7238 Z13.5000 I0.3572 J-0.9813 F1800.00
G3 X119.5023 Y136.4435 Z13.5000 I-0.3572 J0.9813 F1800.00
G1 X119.5023 Y136.4435 Z13.0000 F1800.00
G3 X118.4067 Y136.6864 Z13.0000 I-0.7384 J-0.7384 F1800.00
G3 X119.1210 Y134.7238 Z13.0000 I0.3572 J-0.9813 F1800.00
G3 X119.5023 Y136.4435 Z13.0000 I-0.3572 J0.9813 F1800.00
G1 X119.5023 Y136.4435 Z12.5000 F1800.00
G3 X118.4067 Y136.6864 Z12.5000 I-0.7384 J-0.7384 F1800.00
G3 X119.1210 Y134.7238 Z12.5000 I0.3572 J-0.9813 F1800.00
G3 X119.5023 Y136.4435 Z12.5000 I-0.3572 J0.9813 F1800.00
G1 X119.5023 Y136.4435 Z12.0000 F1800.00
G3 X118.4067 Y136.6864 Z12.0000 I-0.7384 J-0.7384 F1800.00
G3 X119.1210 Y134.7238 Z12.0000 I0.3572 J-0.9813 F1800.00
G3 X119.5023 Y136.4435 Z12.0000 I-0.3572 J0.9813 F1800.00
G1 X119.5023 Y136.4435 Z11.5000 F1800.00
G3 X118.4067 Y136.6864 Z11.5000 I-0.7384 J-0.7384 F1800.00
G3 X119.1210 Y134.7238 Z11.5000 I0.3572 J-0.9813 F1800.00
G3 X119.5023 Y136.4435 Z11.5000 I-0.3572 J0.9813 F1800.00
G1 X119.5023 Y136.4435 Z11.0000 F1800.00
G3 X118.4067 Y136.6864 Z11.0000 I-0.7384 J-0.7384 F1800.00
G3 X119.1210 Y134.7238 Z11.0000 I0.3572 J-0.9813 F1800.00
G3 X119.5023 Y136.4435 Z11.0000 I-0.3572 J0.9813 F1800.00
G1 X119.5023 Y136.4435 Z10.5000 F1800.00
G3 X118.4067 Y136.6864 Z10.5000 I-0.7384 J-0.7384 F1800.00
G3 X119.1210 Y134.7238 Z10.5000 I0.3572 J-0.9813 F1800.00
G3 X119.5023 Y136.4435 Z10.5000 I-0.3572 J0.9813 F1800.00
G1 X119.5023 Y136.4435 Z10.0000 F1800.00
G3 X118.4067 Y136.6864 Z10.0000 I-0.7384 J-0.7384 F1800.00
G3 X119.1210 Y134.7238 Z10.0000 I0.3572 J-0.9813 F1800.00
G3 X119.5023 Y136.4435 Z10.0000 I-0.3572 J0.9813 F1800.00
G1 X119.5023 Y136.4435 Z9.5000 F1800.00
G3 X118.4067 Y136.6864 Z9.5000 I-0.7384 J-0.7384 F1800.00
G3 X119.1210 Y134.7238 Z9.5000 I0.3572 J-0.9813 F1800.00
G3 X119.5023 Y136.4435 Z9.5000 I-0.3572 J0.9813 F1800.00
G1 X119.5023 Y136.4435 Z9.0000 F1800.00
G3 X118.4067 Y136.6864 Z9.0000 I-0.7384 J-0.7384 F1800.00
G3 X119.1210 Y134.7238 Z9.0000 I0.3572 J-0.9813 F1800.00
G3 X119.5023 Y136.4435 Z9.0000 I-0.3572 J0.9813 F1800.00
G1 X119.5023 Y136.4435 Z8.5000 F1800.00
G3 X118.4067 Y136.6864 Z8.5000 I-0.7384 J-0.7384 F1800.00
G3 X119.1210 Y134.7238 Z8.5000 I0.3572 J-0.9813 F1800.00
G3 X119.5023 Y136.4435 Z8.5000 I-0.3572 J0.9813 F1800.00
G1 X119.5023 Y136.4435 Z8.0000 F1800.00
G3 X118.4067 Y136.6864 Z8.0000 I-0.7384 J-0.7384 F1800.00
G3 X119.1210 Y134.7238 Z8.0000 I0.3572 J-0.9813 F1800.00
G3 X119.5023 Y136.4435 Z8.0000 I-0.3572 J0.9813 F1800.00
G1 X119.5023 Y136.4435 Z7.5000 F1800.00
G3 X118.4067 Y136.6864 Z7.5000 I-0.7384 J-0.7384 F1800.00
G3 X119.1210 Y134.7238 Z7.5000 I0.3572 J-0.9813 F1800.00
G3 X119.5023 Y136.4435 Z7.5000 I-0.3572 J0.9813 F1800.00
G1 X119.5023 Y136.4435 Z7.0000 F1800.00
G3 X118.4067 Y136.6864 Z7.0000 I-0.7384 J-0.7384 F1800.00
G3 X119.1210 Y134.7238 Z7.0000 I0.3572 J-0.9813 F1800.00
G3 X119.5023 Y136.4435 Z7.0000 I-0.3572 J0.9813 F1800.00
G1 X119.5023 Y136.4435 Z6.5000 F1800.00
G3 X118.4067 Y136.6864 Z6.5000 I-0.7384 J-0.7384 F1800.00
G3 X119.1210 Y134.7238 Z6.5000 I0.3572 J-0.9813 F1800.00
G3 X119.5023 Y136.4435 Z6.5000 I-0.3572 J0.9813 F1800.00
G1 X119.5023 Y136.4435 Z6.0000 F1800.00
G3 X118.4067 Y136.6864 Z6.0000 I-0.7384 J-0.7384 F1800.00
G3 X119.1210 Y134.7238 Z6.0000 I0.3572 J-0.9813 F1800.00
G3 X119.5023 Y136.4435 Z6.0000 I-0.3572 J0.9813 F1800.00
G1 X119.5023 Y136.4435 Z5.5000 F1800.00
G3 X118.4067 Y136.6864 Z5.5000 I-0.7384 J-0.7384 F1800.00
G3 X119.1210 Y134.7238 Z5.5000 I0.3572 J-0.9813 F1800.00
G3 X119.5023 Y136.4435 Z5.5000 I-0.3572 J0.9813 F1800.00
G1 X119.5023 Y136.4435 Z5.0000 F1800.00
G3 X118.4067 Y136.6864 Z5.0000 I-0.7384 J-0.7384 F1800.00
G3 X119.1210 Y134.7238 Z5.0000 I0.3572 J-0.9813 F1800.00
G3 X119.5023 Y136.4435 Z5.0000 I-0.3572 J0.9813 F1800.00
G1 X119.5023 Y136.4435 Z4.5000 F1800.00
G3 X118.4067 Y136.6864 Z4.5000 I-0.7384 J-0.7384 F1800.00
G3 X119.1210 Y134.7238 Z4.5000 I0.3572 J-0.9813 F1800.00
G3 X119.5023 Y136.4435 Z4.5000 I-0.3572 J0.9813 F1800.00
G1 X119.5023 Y136.4435 Z4.0000 F1800.00
G3 X118.4067 Y136.6864 Z4.0000 I-0.7384 J-0.7384 F1800.00
G3 X119.1210 Y134.7238 Z4.0000 I0.3572 J-0.9813 F1800.00
G3 X119.5023 Y136.4435 Z4.0000 I-0.3572 J0.9813 F1800.00
G1 X119.5023 Y136.4435 Z3.5000 F1800.00
G3 X118.4067 Y136.6864 Z3.5000 I-0.7384 J-0.7384 F1800.00
G3 X119.1210 Y134.7238 Z3.5000 I0.3572 J-0.9813 F1800.00
G3 X119.5023 Y136.4435 Z3.5000 I-0.3572 J0.9813 F1800.00
G1 X119.5023 Y136.4435 Z3.0000 F1800.00
G3 X118.4067 Y136.6864 Z3.0000 I-0.7384 J-0.7384 F1800.00
G3 X119.1210 Y134.7238 Z3.0000 I0.3572 J-0.9813 F1800.00
G3 X119.5023 Y136.4435 Z3.0000 I-0.3572 J0.9813 F1800.00
G1 X119.5023 Y136.4435 Z2.5000 F1800.00
G3 X118.4067 Y136.6864 Z2.5000 I-0.7384 J-0.7384 F1800.00
G3 X119.1210 Y134.7238 Z2.5000 I0.3572 J-0.9813 F1800.00
G3 X119.5023 Y136.4435 Z2.5000 I-0.3572 J0.9813 F1800.00
G1 X119.5023 Y136.4435 Z2.0000 F1800.00
G3 X118.4067 Y136.6864 Z2.0000 I-0.7384 J-0.7384 F1800.00
G3 X119.1210 Y134.7238 Z2.0000 I0.3572 J-0.9813 F1800.00
G3 X119.5023 Y136.4435 Z2.0000 I-0.3572 J0.9813 F1800.00
G1 X119.5023 Y136.4435 Z1.5000 F1800.00
G3 X118.4067 Y136.6864 Z1.5000 I-0.7384 J-0.7384 F1800.00
G3 X119.1210 Y134.7238 Z1.5000 I0.3572 J-0.9813 F1800.00
G3 X119.5023 Y136.4435 Z1.5000 I-0.3572 J0.9813 F1800.00
G1 X119.5023 Y136.4435 Z1.0000 F1800.00
G3 X118.4067 Y136.6864 Z1.0000 I-0.7384 J-0.7384 F1800.00
G3 X119.1210 Y134.7238 Z1.0000 I0.3572 J-0.9813 F1800.00
G3 X119.5023 Y136.4435 Z1.0000 I-0.3572 J0.9813 F1800.00
G1 X119.5023 Y136.4435 Z0.5000 F1800.00
G3 X118.4067 Y136.6864 Z0.5000 I-0.7384 J-0.7384 F1800.00
G3 X119.1210 Y134.7238 Z0.5000 I0.3572 J-0.9813 F1800.00
G3 X119.5023 Y136.4435 Z0.5000 I-0.3572 J0.9813 F1800.00
G0 Z23.0000
G0 X109.3987 Y20.7384
G0 Z21.0000
G1 X109.3987 Y20.7384 Z17.5000 F1800.00
G3 X108.3031 Y20.9813 Z17.5000 I-0.7384 J-0.7384 F1800.00
G3 X107.6790 Y19.6428 Z17.5000 I0.3572 J-0.9813 F1800.00
G3 X109.0174 Y19.0187 Z17.5000 I0.9813 J0.3572 F1800.00
G3 X109.3987 Y20.7384 Z17.5000 I-0.3572 J0.9813 F1800.00
G1 X109.3987 Y20.7384 Z17.0000 F1800.00
G3 X108.3031 Y20.9813 Z17.0000 I-0.7384 J-0.7384 F1800.00
G3 X107.6790 Y19.6428 Z17.0000 I0.3572 J-0.9813 F1800.00
G3 X109.0174 Y19.0187 Z17.0000 I0.9813 J0.3572 F1800.00
G3 X109.3987 Y20.7384 Z17.0000 I-0.3572 J0.9813 F1800.00
G1 X109.3987 Y20.7384 Z16.5000 F1800.00
G3 X108.3031 Y20.9813 Z16.5000 I-0.7384 J-0.7384 F1800.00
G3 X107.6790 Y19.6428 Z16.5000 I0.3572 J-0.9813 F1800.00
G3 X109.0174 Y19.0187 Z16.5000 I0.9813 J0.3572 F1800.00
G3 X109.3987 Y20.7384 Z16.5000 I-0.3572 J0.9813 F1800.00
G1 X109.3987 Y20.7384 Z16.0000 F1800.00
G3 X108.3031 Y20.9813 Z16.0000 I-0.7384 J-0.7384 F1800.00
G3 X107.6790 Y19.6428 Z16.0000 I0.3572 J-0.9813 F1800.00
G3 X109.0174 Y19.0187 Z16.0000 I0.9813 J0.3572 F1800.00
G3 X109.3987 Y20.7384 Z16.0000 I-0.3572 J0.9813 F1800.00
G1 X109.3987 Y20.7384 Z15.5000 F1800.00
G3 X108.3031 Y20.9813 Z15.5000 I-0.7384 J-0.7384 F1800.00
G3 X107.6790 Y19.6428 Z15.5000 I0.3572 J-0.9813 F1800.00
G3 X109.0174 Y19.0187 Z15.5000 I0.9813 J0.3572 F1800.00
G3 X109.3987 Y20.7384 Z15.5000 I-0.3572 J0.9813 F1800.00
G1 X109.3987 Y20.7384 Z15.0000 F1800.00
G3 X108.3031 Y20.9813 Z15.0000 I-0.7384 J-0.7384 F1800.00
G3 X107.6790 Y19.6428 Z15.0000 I0.3572 J-0.9813 F1800.00
G3 X109.0174 Y19.0187 Z15.0000 I0.9813 J0.3572 F1800.00
G3 X109.3987 Y20.7384 Z15.0000 I-0.3572 J0.9813 F1800.00
G1 X109.3987 Y20.7384 Z14.5000 F1800.00
G3 X108.3031 Y20.9813 Z14.5000 I-0.7384 J-0.7384 F1800.00
G3 X107.6790 Y19.6428 Z14.5000 I0.3572 J-0.9813 F1800.00
G3 X109.0174 Y19.0187 Z14.5000 I0.9813 J0.3572 F1800.00
G3 X109.3987 Y20.7384 Z14.5000 I-0.3572 J0.9813 F1800.00
G1 X109.3987 Y20.7384 Z14.0000 F1800.00
G3 X108.3031 Y20.9813 Z14.0000 I-0.7384 J-0.7384 F1800.00
G3 X107.6790 Y19.6428 Z14.0000 I0.3572 J-0.9813 F1800.00
G3 X109.0174 Y19.0187 Z14.0000 I0.9813 J0.3572 F1800.00
G3 X109.3987 Y20.7384 Z14.0000 I-0.3572 J0.9813 F1800.00
G1 X109.3987 Y20.7384 Z13.5000 F1800.00
G3 X108.3031 Y20.9813 Z13.5000 I-0.7384 J-0.7384 F1800.00
G3 X107.6790 Y19.6428 Z13.5000 I0.3572 J-0.9813 F1800.00
G3 X109.0174 Y19.0187 Z13.5000 I0.9813 J0.3572 F1800.00
G3 X109.3987 Y20.7384 Z13.5000 I-0.3572 J0.9813 F1800.00
G1 X109.3987 Y20.7384 Z13.0000 F1800.00
G3 X108.3031 Y20.9813 Z13.0000 I-0.7384 J-0.7384 F1800.00
G3 X107.6790 Y19.6428 Z13.0000 I0.3572 J-0.9813 F1800.00
G3 X109.0174 Y19.0187 Z13.0000 I0.9813 J0.3572 F1800.00
G3 X109.3987 Y20.7384 Z13.0000 I-0.3572 J0.9813 F1800.00
G1 X109.3987 Y20.7384 Z12.5000 F1800.00
G3 X108.3031 Y20.9813 Z12.5000 I-0.7384 J-0.7384 F1800.00
G3 X107.6790 Y19.6428 Z12.5000 I0.3572 J-0.9813 F1800.00
G3 X109.0174 Y19.0187 Z12.5000 I0.9813 J0.3572 F1800.00
G3 X109.3987 Y20.7384 Z12.5000 I-0.3572 J0.9813 F1800.00
G1 X109.3987 Y20.7384 Z12.0000 F1800.00
G3 X108.3031 Y20.9813 Z12.0000 I-0.7384 J-0.7384 F1800.00
G3 X107.6790 Y19.6428 Z12.0000 I0.3572 J-0.9813 F1800.00
G3 X109.0174 Y19.0187 Z12.0000 I0.9813 J0.3572 F1800.00
G3 X109.3987 Y20.7384 Z12.0000 I-0.3572 J0.9813 F1800.00
G1 X109.3987 Y20.7384 Z11.5000 F1800.00
G3 X108.3031 Y20.9813 Z11.5000 I-0.7384 J-0.7384 F1800.00
G3 X107.6790 Y19.6428 Z11.5000 I0.3572 J-0.9813 F1800.00
G3 X109.0174 Y19.0187 Z11.5000 I0.9813 J0.3572 F1800.00
G3 X109.3987 Y20.7384 Z11.5000 I-0.3572 J0.9813 F1800.00
G1 X109.3987 Y20.7384 Z11.0000 F1800.00
G3 X108.3031 Y20.9813 Z11.0000 I-0.7384 J-0.7384 F1800.00
G3 X107.6790 Y19.6428 Z11.0000 I0.3572 J-0.9813 F1800.00
G3 X109.0174 Y19.0187 Z11.0000 I0.9813 J0.3572 F1800.00
G3 X109.3987 Y20.7384 Z11.0000 I-0.3572 J0.9813 F1800.00
G1 X109.3987 Y20.7384 Z10.5000 F1800.00
G3 X108.3031 Y20.9813 Z10.5000 I-0.7384 J-0.7384 F1800.00
G3 X107.6790 Y19.6428 Z10.5000 I0.3572 J-0.9813 F1800.00
G3 X109.0174 Y19.0187 Z10.5000 I0.9813 J0.3572 F1800.00
G3 X109.3987 Y20.7384 Z10.5000 I-0.3572 J0.9813 F1800.00
G1 X109.3987 Y20.7384 Z10.0000 F1800.00
G3 X108.3031 Y20.9813 Z10.0000 I-0.7384 J-0.7384 F1800.00
G3 X107.6790 Y19.6428 Z10.0000 I0.3572 J-0.9813 F1800.00
G3 X109.0174 Y19.0187 Z10.0000 I0.9813 J0.3572 F1800.00
G3 X109.3987 Y20.7384 Z10.0000 I-0.3572 J0.9813 F1800.00
G1 X109.3987 Y20.7384 Z9.5000 F1800.00
G3 X108.3031 Y20.9813 Z9.5000 I-0.7384 J-0.7384 F1800.00
G3 X107.6790 Y19.6428 Z9.5000 I0.3572 J-0.9813 F1800.00
G3 X109.0174 Y19.0187 Z9.5000 I0.9813 J0.3572 F1800.00
G3 X109.3987 Y20.7384 Z9.5000 I-0.3572 J0.9813 F1800.00
G1 X109.3987 Y20.7384 Z9.0000 F1800.00
G3 X108.3031 Y20.9813 Z9.0000 I-0.7384 J-0.7384 F1800.00
G3 X107.6790 Y19.6428 Z9.0000 I0.3572 J-0.9813 F1800.00
G3 X109.0174 Y19.0187 Z9.0000 I0.9813 J0.3572 F1800.00
G3 X109.3987 Y20.7384 Z9.0000 I-0.3572 J0.9813 F1800.00
G1 X109.3987 Y20.7384 Z8.5000 F1800.00
G3 X108.3031 Y20.9813 Z8.5000 I-0.7384 J-0.7384 F1800.00
G3 X107.6790 Y19.6428 Z8.5000 I0.3572 J-0.9813 F1800.00
G3 X109.0174 Y19.0187 Z8.5000 I0.9813 J0.3572 F1800.00
G3 X109.3987 Y20.7384 Z8.5000 I-0.3572 J0.9813 F1800.00
G1 X109.3987 Y20.7384 Z8.0000 F1800.00
G3 X108.3031 Y20.9813 Z8.0000 I-0.7384 J-0.7384 F1800.00
G3 X107.6790 Y19.6428 Z8.0000 I0.3572 J-0.9813 F1800.00
G3 X109.0174 Y19.0187 Z8.0000 I0.9813 J0.3572 F1800.00
G3 X109.3987 Y20.7384 Z8.0000 I-0.3572 J0.9813 F1800.00
G1 X109.3987 Y20.7384 Z7.5000 F1800.00
G3 X108.3031 Y20.9813 Z7.5000 I-0.7384 J-0.7384 F1800.00
G3 X107.6790 Y19.6428 Z7.5000 I0.3572 J-0.9813 F1800.00
G3 X109.0174 Y19.0187 Z7.5000 I0.9813 J0.3572 F1800.00
G3 X109.3987 Y20.7384 Z7.5000 I-0.3572 J0.9813 F1800.00
G1 X109.3987 Y20.7384 Z7.0000 F1800.00
G3 X108.3031 Y20.9813 Z7.0000 I-0.7384 J-0.7384 F1800.00
G3 X107.6790 Y19.6428 Z7.0000 I0.3572 J-0.9813 F1800.00
G3 X109.0174 Y19.0187 Z7.0000 I0.9813 J0.3572 F1800.00
G3 X109.3987 Y20.7384 Z7.0000 I-0.3572 J0.9813 F1800.00
G1 X109.3987 Y20.7384 Z6.5000 F1800.00
G3 X108.3031 Y20.9813 Z6.5000 I-0.7384 J-0.7384 F1800.00
G3 X107.6790 Y19.6428 Z6.5000 I0.3572 J-0.9813 F1800.00
G3 X109.0174 Y19.0187 Z6.5000 I0.9813 J0.3572 F1800.00
G3 X109.3987 Y20.7384 Z6.5000 I-0.3572 J0.9813 F1800.00
G1 X109.3987 Y20.7384 Z6.0000 F1800.00
G3 X108.3031 Y20.9813 Z6.0000 I-0.7384 J-0.7384 F1800.00
G3 X107.6790 Y19.6428 Z6.0000 I0.3572 J-0.9813 F1800.00
G3 X109.0174 Y19.0187 Z6.0000 I0.9813 J0.3572 F1800.00
G3 X109.3987 Y20.7384 Z6.0000 I-0.3572 J0.9813 F1800.00
G1 X109.3987 Y20.7384 Z5.5000 F1800.00
G3 X108.3031 Y20.9813 Z5.5000 I-0.7384 J-0.7384 F1800.00
G3 X107.6790 Y19.6428 Z5.5000 I0.3572 J-0.9813 F1800.00
G3 X109.0174 Y19.0187 Z5.5000 I0.9813 J0.3572 F1800.00
G3 X109.3987 Y20.7384 Z5.5000 I-0.3572 J0.9813 F1800.00
G1 X109.3987 Y20.7384 Z5.0000 F1800.00
G3 X108.3031 Y20.9813 Z5.0000 I-0.7384 J-0.7384 F1800.00
G3 X107.6790 Y19.6428 Z5.0000 I0.3572 J-0.9813 F1800.00
G3 X109.0174 Y19.0187 Z5.0000 I0.9813 J0.3572 F1800.00
G3 X109.3987 Y20.7384 Z5.0000 I-0.3572 J0.9813 F1800.00
G1 X109.3987 Y20.7384 Z4.5000 F1800.00
G3 X108.3031 Y20.9813 Z4.5000 I-0.7384 J-0.7384 F1800.00
G3 X107.6790 Y19.6428 Z4.5000 I0.3572 J-0.9813 F1800.00
G3 X109.0174 Y19.0187 Z4.5000 I0.9813 J0.3572 F1800.00
G3 X109.3987 Y20.7384 Z4.5000 I-0.3572 J0.9813 F1800.00
G1 X109.3987 Y20.7384 Z4.0000 F1800.00
G3 X108.3031 Y20.9813 Z4.0000 I-0.7384 J-0.7384 F1800.00
G3 X107.6790 Y19.6428 Z4.0000 I0.3572 J-0.9813 F1800.00
G3 X109.0174 Y19.0187 Z4.0000 I0.9813 J0.3572 F1800.00
G3 X109.3987 Y20.7384 Z4.0000 I-0.3572 J0.9813 F1800.00
G1 X109.3987 Y20.7384 Z3.5000 F1800.00
G3 X108.3031 Y20.9813 Z3.5000 I-0.7384 J-0.7384 F1800.00
G3 X107.6790 Y19.6428 Z3.5000 I0.3572 J-0.9813 F1800.00
G3 X109.0174 Y19.0187 Z3.5000 I0.9813 J0.3572 F1800.00
G3 X109.3987 Y20.7384 Z3.5000 I-0.3572 J0.9813 F1800.00
G1 X109.3987 Y20.7384 Z3.0000 F1800.00
G3 X108.3031 Y20.9813 Z3.0000 I-0.7384 J-0.7384 F1800.00
G3 X107.6790 Y19.6428 Z3.0000 I0.3572 J-0.9813 F1800.00
G3 X109.0174 Y19.0187 Z3.0000 I0.9813 J0.3572 F1800.00
G3 X109.3987 Y20.7384 Z3.0000 I-0.3572 J0.9813 F1800.00
G1 X109.3987 Y20.7384 Z2.5000 F1800.00
G3 X108.3031 Y20.9813 Z2.5000 I-0.7384 J-0.7384 F1800.00
G3 X107.6790 Y19.6428 Z2.5000 I0.3572 J-0.9813 F1800.00
G3 X109.0174 Y19.0187 Z2.5000 I0.9813 J0.3572 F1800.00
G3 X109.3987 Y20.7384 Z2.5000 I-0.3572 J0.9813 F1800.00
G1 X109.3987 Y20.7384 Z2.0000 F1800.00
G3 X108.3031 Y20.9813 Z2.0000 I-0.7384 J-0.7384 F1800.00
G3 X107.6790 Y19.6428 Z2.0000 I0.3572 J-0.9813 F1800.00
G3 X109.0174 Y19.0187 Z2.0000 I0.9813 J0.3572 F1800.00
G3 X109.3987 Y20.7384 Z2.0000 I-0.3572 J0.9813 F1800.00
G1 X109.3987 Y20.7384 Z1.5000 F1800.00
G3 X108.3031 Y20.9813 Z1.5000 I-0.7384 J-0.7384 F1800.00
G3 X107.6790 Y19.6428 Z1.5000 I0.3572 J-0.9813 F1800.00
G3 X109.0174 Y19.0187 Z1.5000 I0.9813 J0.3572 F1800.00
G3 X109.3987 Y20.7384 Z1.5000 I-0.3572 J0.9813 F1800.00
G1 X109.3987 Y20.7384 Z1.0000 F1800.00
G3 X108.3031 Y20.9813 Z1.0000 I-0.7384 J-0.7384 F1800.00
G3 X107.6790 Y19.6428 Z1.0000 I0.3572 J-0.9813 F1800.00
G3 X109.0174 Y19.0187 Z1.0000 I0.9813 J0.3572 F1800.00
G3 X109.3987 Y20.7384 Z1.0000 I-0.3572 J0.9813 F1800.00
G1 X109.3987 Y20.7384 Z0.5000 F1800.00
G3 X108.3031 Y20.9813 Z0.5000 I-0.7384 J-0.7384 F1800.00
G3 X107.6790 Y19.6428 Z0.5000 I0.3572 J-0.9813 F1800.00
G3 X109.0174 Y19.0187 Z0.5000 I0.9813 J0.3572 F1800.00
G3 X109.3987 Y20.7384 Z0.5000 I-0.3572 J0.9813 F1800.00
G0 Z23.0000
G0 X166.0974 Y20.7384
G0 Z21.0000
G1 X166.0974 Y20.7384 Z17.5000 F1800.00
G3 X164.3777 Y19.6428 Z17.5000 I-0.7384 J-0.7384 F1800.00
G3 X166.3403 Y20.3572 Z17.5000 I0.9813 J0.3572 F1800.00
G3 X166.0974 Y20.7384 Z17.5000 I-0.9813 J-0.3572 F1800.00
G1 X166.0974 Y20.7384 Z17.0000 F1800.00
G3 X164.3777 Y19.6428 Z17.0000 I-0.7384 J-0.7384 F1800.00
G3 X166.3403 Y20.3572 Z17.0000 I0.9813 J0.3572 F1800.00
G3 X166.0974 Y20.7384 Z17.0000 I-0.9813 J-0.3572 F1800.00
G1 X166.0974 Y20.7384 Z16.5000 F1800.00
G3 X164.3777 Y19.6428 Z16.5000 I-0.7384 J-0.7384 F1800.00
G3 X166.3403 Y20.3572 Z16.5000 I0.9813 J0.3572 F1800.00
G3 X166.0974 Y20.7384 Z16.5000 I-0.9813 J-0.3572 F1800.00
G1 X166.0974 Y20.7384 Z16.0000 F1800.00
G3 X164.3777 Y19.6428 Z16.0000 I-0.7384 J-0.7384 F1800.00
G3 X166.3403 Y20.3572 Z16.0000 I0.9813 J0.3572 F1800.00
G3 X166.0974 Y20.7384 Z16.0000 I-0.9813 J-0.3572 F1800.00
G1 X166.0974 Y20.7384 Z15.5000 F1800.00
G3 X164.3777 Y19.6428 Z15.5000 I-0.7384 J-0.7384 F1800.00
G3 X166.3403 Y20.3572 Z15.5000 I0.9813 J0.3572 F1800.00
G3 X166.0974 Y20.7384 Z15.5000 I-0.9813 J-0.3572 F1800.00
G1 X166.0974 Y20.7384 Z15.0000 F1800.00
G3 X164.3777 Y19.6428 Z15.0000 I-0.7384 J-0.7384 F1800.00
G3 X166.3403 Y20.3572 Z15.0000 I0.9813 J0.3572 F1800.00
G3 X166.0974 Y20.7384 Z15.0000 I-0.9813 J-0.3572 F1800.00
G1 X166.0974 Y20.7384 Z14.5000 F1800.00
G3 X164.3777 Y19.6428 Z14.5000 I-0.7384 J-0.7384 F1800.00
G3 X166.3403 Y20.3572 Z14.5000 I0.9813 J0.3572 F1800.00
G3 X166.0974 Y20.7384 Z14.5000 I-0.9813 J-0.3572 F1800.00
G1 X166.0974 Y20.7384 Z14.0000 F1800.00
G3 X164.3777 Y19.6428 Z14.0000 I-0.7384 J-0.7384 F1800.00
G3 X166.3403 Y20.3572 Z14.0000 I0.9813 J0.3572 F1800.00
G3 X166.0974 Y20.7384 Z14.0000 I-0.9813 J-0.3572 F1800.00
G1 X166.0974 Y20.7384 Z13.5000 F1800.00
G3 X164.3777 Y19.6428 Z13.5000 I-0.7384 J-0.7384 F1800.00
G3 X166.3403 Y20.3572 Z13.5000 I0.9813 J0.3572 F1800.00
G3 X166.0974 Y20.7384 Z13.5000 I-0.9813 J-0.3572 F1800.00
G1 X166.0974 Y20.7384 Z13.0000 F1800.00
G3 X164.3777 Y19.6428 Z13.0000 I-0.7384 J-0.7384 F1800.00
G3 X166.3403 Y20.3572 Z13.0000 I0.9813 J0.3572 F1800.00
G3 X166.0974 Y20.7384 Z13.0000 I-0.9813 J-0.3572 F1800.00
G1 X166.0974 Y20.7384 Z12.5000 F1800.00
G3 X164.3777 Y19.6428 Z12.5000 I-0.7384 J-0.7384 F1800.00
G3 X166.3403 Y20.3572 Z12.5000 I0.9813 J0.3572 F1800.00
G3 X166.0974 Y20.7384 Z12.5000 I-0.9813 J-0.3572 F1800.00
G1 X166.0974 Y20.7384 Z12.0000 F1800.00
G3 X164.3777 Y19.6428 Z12.0000 I-0.7384 J-0.7384 F1800.00
G3 X166.3403 Y20.3572 Z12.0000 I0.9813 J0.3572 F1800.00
G3 X166.0974 Y20.7384 Z12.0000 I-0.9813 J-0.3572 F1800.00
G1 X166.0974 Y20.7384 Z11.5000 F1800.00
G3 X164.3777 Y19.6428 Z11.5000 I-0.7384 J-0.7384 F1800.00
G3 X166.3403 Y20.3572 Z11.5000 I0.9813 J0.3572 F1800.00
G3 X166.0974 Y20.7384 Z11.5000 I-0.9813 J-0.3572 F1800.00
G1 X166.0974 Y20.7384 Z11.0000 F1800.00
G3 X164.3777 Y19.6428 Z11.0000 I-0.7384 J-0.7384 F1800.00
G3 X166.3403 Y20.3572 Z11.0000 I0.9813 J0.3572 F1800.00
G3 X166.0974 Y20.7384 Z11.0000 I-0.9813 J-0.3572 F1800.00
G1 X166.0974 Y20.7384 Z10.5000 F1800.00
G3 X164.3777 Y19.6428 Z10.5000 I-0.7384 J-0.7384 F1800.00
G3 X166.3403 Y20.3572 Z10.5000 I0.9813 J0.3572 F1800.00
G3 X166.0974 Y20.7384 Z10.5000 I-0.9813 J-0.3572 F1800.00
G1 X166.0974 Y20.7384 Z10.0000 F1800.00
G3 X164.3777 Y19.6428 Z10.0000 I-0.7384 J-0.7384 F1800.00
G3 X166.3403 Y20.3572 Z10.0000 I0.9813 J0.3572 F1800.00
G3 X166.0974 Y20.7384 Z10.0000 I-0.9813 J-0.3572 F1800.00
G1 X166.0974 Y20.7384 Z9.5000 F1800.00
G3 X164.3777 Y19.6428 Z9.5000 I-0.7384 J-0.7384 F1800.00
G3 X166.3403 Y20.3572 Z9.5000 I0.9813 J0.3572 F1800.00
G3 X166.0974 Y20.7384 Z9.5000 I-0.9813 J-0.3572 F1800.00
G1 X166.0974 Y20.7384 Z9.0000 F1800.00
G3 X164.3777 Y19.6428 Z9.0000 I-0.7384 J-0.7384 F1800.00
G3 X166.3403 Y20.3572 Z9.0000 I0.9813 J0.3572 F1800.00
G3 X166.0974 Y20.7384 Z9.0000 I-0.9813 J-0.3572 F1800.00
G1 X166.0974 Y20.7384 Z8.5000 F1800.00
G3 X164.3777 Y19.6428 Z8.5000 I-0.7384 J-0.7384 F1800.00
G3 X166.3403 Y20.3572 Z8.5000 I0.9813 J0.3572 F1800.00
G3 X166.0974 Y20.7384 Z8.5000 I-0.9813 J-0.3572 F1800.00
G1 X166.0974 Y20.7384 Z8.0000 F1800.00
G3 X164.3777 Y19.6428 Z8.0000 I-0.7384 J-0.7384 F1800.00
G3 X166.3403 Y20.3572 Z8.0000 I0.9813 J0.3572 F1800.00
G3 X166.0974 Y20.7384 Z8.0000 I-0.9813 J-0.3572 F1800.00
G1 X166.0974 Y20.7384 Z7.5000 F1800.00
G3 X164.3777 Y19.6428 Z7.5000 I-0.7384 J-0.7384 F1800.00
G3 X166.3403 Y20.3572 Z7.5000 I0.9813 J0.3572 F1800.00
G3 X166.0974 Y20.7384 Z7.5000 I-0.9813 J-0.3572 F1800.00
G1 X166.0974 Y20.7384 Z7.0000 F1800.00
G3 X164.3777 Y19.6428 Z7.0000 I-0.7384 J-0.7384 F1800.00
G3 X166.3403 Y20.3572 Z7.0000 I0.9813 J0.3572 F1800.00
G3 X166.0974 Y20.7384 Z7.0000 I-0.9813 J-0.3572 F1800.00
G1 X166.0974 Y20.7384 Z6.5000 F1800.00
G3 X164.3777 Y19.6428 Z6.5000 I-0.7384 J-0.7384 F1800.00
G3 X166.3403 Y20.3572 Z6.5000 I0.9813 J0.3572 F1800.00
G3 X166.0974 Y20.7384 Z6.5000 I-0.9813 J-0.3572 F1800.00
G1 X166.0974 Y20.7384 Z6.0000 F1800.00
G3 X164.3777 Y19.6428 Z6.0000 I-0.7384 J-0.7384 F1800.00
G3 X166.3403 Y20.3572 Z6.0000 I0.9813 J0.3572 F1800.00
G3 X166.0974 Y20.7384 Z6.0000 I-0.9813 J-0.3572 F1800.00
G1 X166.0974 Y20.7384 Z5.5000 F1800.00
G3 X164.3777 Y19.6428 Z5.5000 I-0.7384 J-0.7384 F1800.00
G3 X166.3403 Y20.3572 Z5.5000 I0.9813 J0.3572 F1800.00
G3 X166.0974 Y20.7384 Z5.5000 I-0.9813 J-0.3572 F1800.00
G1 X166.0974 Y20.7384 Z5.0000 F1800.00
G3 X164.3777 Y19.6428 Z5.0000 I-0.7384 J-0.7384 F1800.00
G3 X166.3403 Y20.3572 Z5.0000 I0.9813 J0.3572 F1800.00
G3 X166.0974 Y20.7384 Z5.0000 I-0.9813 J-0.3572 F1800.00
G1 X166.0974 Y20.7384 Z4.5000 F1800.00
G3 X164.3777 Y19.6428 Z4.5000 I-0.7384 J-0.7384 F1800.00
G3 X166.3403 Y20.3572 Z4.5000 I0.9813 J0.3572 F1800.00
G3 X166.0974 Y20.7384 Z4.5000 I-0.9813 J-0.3572 F1800.00
G1 X166.0974 Y20.7384 Z4.0000 F1800.00
G3 X164.3777 Y19.6428 Z4.0000 I-0.7384 J-0.7384 F1800.00
G3 X166.3403 Y20.3572 Z4.0000 I0.9813 J0.3572 F1800.00
G3 X166.0974 Y20.7384 Z4.0000 I-0.9813 J-0.3572 F1800.00
G1 X166.0974 Y20.7384 Z3.5000 F1800.00
G3 X164.3777 Y19.6428 Z3.5000 I-0.7384 J-0.7384 F1800.00
G3 X166.3403 Y20.3572 Z3.5000 I0.9813 J0.3572 F1800.00
G3 X166.0974 Y20.7384 Z3.5000 I-0.9813 J-0.3572 F1800.00
G1 X166.0974 Y20.7384 Z3.0000 F1800.00
G3 X164.3777 Y19.6428 Z3.0000 I-0.7384 J-0.7384 F1800.00
G3 X166.3403 Y20.3572 Z3.0000 I0.9813 J0.3572 F1800.00
G3 X166.0974 Y20.7384 Z3.0000 I-0.9813 J-0.3572 F1800.00
G1 X166.0974 Y20.7384 Z2.5000 F1800.00
G3 X164.3777 Y19.6428 Z2.5000 I-0.7384 J-0.7384 F1800.00
G3 X166.3403 Y20.3572 Z2.5000 I0.9813 J0.3572 F1800.00
G3 X166.0974 Y20.7384 Z2.5000 I-0.9813 J-0.3572 F1800.00
G1 X166.0974 Y20.7384 Z2.0000 F1800.00
G3 X164.3777 Y19.6428 Z2.0000 I-0.7384 J-0.7384 F1800.00
G3 X166.3403 Y20.3572 Z2.0000 I0.9813 J0.3572 F1800.00
G3 X166.0974 Y20.7384 Z2.0000 I-0.9813 J-0.3572 F1800.00
G1 X166.0974 Y20.7384 Z1.5000 F1800.00
G3 X164.3777 Y19.6428 Z1.5000 I-0.7384 J-0.7384 F1800.00
G3 X166.3403 Y20.3572 Z1.5000 I0.9813 J0.3572 F1800.00
G3 X166.0974 Y20.7384 Z1.5000 I-0.9813 J-0.3572 F1800.00
G1 X166.0974 Y20.7384 Z1.0000 F1800.00
G3 X164.3777 Y19.6428 Z1.0000 I-0.7384 J-0.7384 F1800.00
G3 X166.3403 Y20.3572 Z1.0000 I0.9813 J0.3572 F1800.00
G3 X166.0974 Y20.7384 Z1.0000 I-0.9813 J-0.3572 F1800.00
G1 X166.0974 Y20.7384 Z0.5000 F1800.00
G3 X164.3777 Y19.6428 Z0.5000 I-0.7384 J-0.7384 F1800.00
G3 X166.3403 Y20.3572 Z0.5000 I0.9813 J0.3572 F1800.00
G3 X166.0974 Y20.7384 Z0.5000 I-0.9813 J-0.3572 F1800.00
G0 Z23.0000
(finish operation: DrillHoles_Op)
(begin operation: CutGrooves_Op)
(Path: CutGrooves_Op)
(Pocket_3D)
G0 Z23.0000
G0 X147.7474 Y143.9060
G0 Z21.0000
G1 X147.7474 Y143.9060 Z17.5000 F1800.00
G1 X133.4580 Y152.1560 Z17.5000 F1800.00
G1 X46.4767 Y1.5000 Z17.5000 F1800.00
G1 X71.8801 Y1.5000 Z17.5000 F1800.00
G1 X152.5106 Y141.1560 Z17.5000 F1800.00
G1 X147.7474 Y143.9060 Z17.5000 F1800.00
G0 X147.7474 Y143.9060 Z23.0000
G0 X146.6224 Y141.9575 Z23.0000
G1 X146.6224 Y141.9575 Z17.5000 F1800.00
G1 X134.2816 Y149.0825 Z17.5000 F1800.00
G1 X50.3738 Y3.7500 Z17.5000 F1800.00
G1 X70.5811 Y3.7500 Z17.5000 F1800.00
G1 X149.4370 Y140.3325 Z17.5000 F1800.00
G1 X146.6224 Y141.9575 Z17.5000 F1800.00
G0 X146.6224 Y141.9575 Z23.0000
G0 X145.4974 Y140.0089 Z23.0000
G1 X145.4974 Y140.0089 Z17.5000 F1800.00
G1 X135.1051 Y146.0089 Z17.5000 F1800.00
G1 X54.2709 Y6.0000 Z17.5000 F1800.00
G1 X69.2820 Y6.0000 Z17.5000 F1800.00
G1 X146.3634 Y139.5089 Z17.5000 F1800.00
G1 X145.4974 Y140.0089 Z17.5000 F1800.00
G0 X145.4974 Y140.0089 Z23.0000
G0 X143.2899 Y138.6854 Z23.0000
G1 X143.2899 Y138.6854 Z17.5000 F1800.00
G1 X135.9287 Y142.9354 Z17.5000 F1800.00
G1 X58.1680 Y8.2500 Z17.5000 F1800.00
G1 X67.9830 Y8.2500 Z17.5000 F1800.00
G1 X143.2899 Y138.6854 Z17.5000 F1800.00
G0 X143.2899 Y138.6854 Z23.0000
G0 X140.2163 Y137.8618 Z23.0000
G1 X140.2163 Y137.8618 Z17.5000 F1800.00
G1 X136.7522 Y139.8618 Z17.5000 F1800.00
G1 X62.0652 Y10.5000 Z17.5000 F1800.00
G1 X66.6840 Y10.5000 Z17.5000 F1800.00
G1 X140.2163 Y137.8618 Z17.5000 F1800.00
G0 X140.2163 Y137.8618 Z23.0000
G0 X139.1918 Y137.5873 Z23.0000
G1 X139.1918 Y137.5873 Z17.5000 F1800.00
G1 X137.0268 Y138.8373 Z17.5000 F1800.00
G1 X63.3642 Y11.2500 Z17.5000 F1800.00
G1 X66.2509 Y11.2500 Z17.5000 F1800.00
G1 X139.1918 Y137.5873 Z17.5000 F1800.00
G0 X139.1918 Y137.5873 Z23.0000
G0 X138.1673 Y137.3128 Z23.0000
G1 X138.1673 Y137.3128 Z17.5000 F1800.00
G1 X137.3013 Y137.8128 Z17.5000 F1800.00
G1 X64.6632 Y12.0000 Z17.5000 F1800.00
G1 X65.8179 Y12.0000 Z17.5000 F1800.00
G1 X138.1673 Y137.3128 Z17.5000 F1800.00
G1 X138.1673 Y137.3128 Z17.0000 F1800.00
G1 X137.3013 Y137.8128 Z17.0000 F1800.00
G1 X64.6632 Y12.0000 Z17.0000 F1800.00
G1 X65.8179 Y12.0000 Z17.0000 F1800.00
G1 X138.1673 Y137.3128 Z17.0000 F1800.00
G0 X138.1673 Y137.3128 Z23.0000
G0 X138.8168 Y136.9378 Z23.0000
G1 X138.8168 Y136.9378 Z17.0000 F1800.00
G1 X139.1918 Y137.5873 Z17.0000 F1800.00
G1 X137.0268 Y138.8373 Z17.0000 F1800.00
G1 X63.3642 Y11.2500 Z17.0000 F1800.00
G1 X66.2509 Y11.2500 Z17.0000 F1800.00
G1 X138.8168 Y136.9378 Z17.0000 F1800.00
G0 X138.8168 Y136.9378 Z23.0000
G0 X139.4663 Y136.5628 Z23.0000
G1 X139.4663 Y136.5628 Z17.0000 F1800.00
G1 X140.2163 Y137.8618 Z17.0000 F1800.00
G1 X136.7522 Y139.8618 Z17.0000 F1800.00
G1 X62.0652 Y10.5000 Z17.0000 F1800.00
G1 X66.6840 Y10.5000 Z17.0000 F1800.00
G1 X139.4663 Y136.5628 Z17.0000 F1800.00
G0 X139.4663 Y136.5628 Z23.0000
G0 X141.4149 Y135.4378 Z23.0000
G1 X141.4149 Y135.4378 Z17.0000 F1800.00
G1 X143.2899 Y138.6854 Z17.0000 F1800.00
G1 X135.9287 Y142.9354 Z17.0000 F1800.00
G1 X58.1680 Y8.2500 Z17.0000 F1800.00
G1 X67.9830 Y8.2500 Z17.0000 F1800.00
G1 X141.4149 Y135.4378 Z17.0000 F1800.00
G0 X141.4149 Y135.4378 Z23.0000
G0 X143.3634 Y134.3128 Z23.0000
G1 X143.3634 Y134.3128 Z17.0000 F1800.00
G1 X146.3634 Y139.5089 Z17.0000 F1800.00
G1 X135.1051 Y146.0089 Z17.0000 F1800.00
G1 X54.2709 Y6.0000 Z17.0000 F1800.00
G1 X69.2820 Y6.0000 Z17.0000 F1800.00
G1 X143.3634 Y134.3128 Z17.0000 F1800.00
G0 X143.3634 Y134.3128 Z23.0000
G0 X145.3120 Y133.1878 Z23.0000
G1 X145.3120 Y133.1878 Z17.0000 F1800.00
G1 X149.4370 Y140.3325 Z17.0000 F1800.00
G1 X134.2816 Y149.0825 Z17.0000 F1800.00
G1 X50.3738 Y3.7500 Z17.0000 F1800.00
G1 X70.5811 Y3.7500 Z17.0000 F1800.00
G1 X145.3120 Y133.1878 Z17.0000 F1800.00
G0 X145.3120 Y133.1878 Z23.0000
G0 X147.2606 Y132.0628 Z23.0000
G1 X147.2606 Y132.0628 Z17.0000 F1800.00
G1 X152.5106 Y141.1560 Z17.0000 F1800.00
G1 X133.4580 Y152.1560 Z17.0000 F1800.00
G1 X46.4767 Y1.5000 Z17.0000 F1800.00
G1 X71.8801 Y1.5000 Z17.0000 F1800.00
G1 X147.2606 Y132.0628 Z17.0000 F1800.00
G1 X147.2606 Y132.0628 Z16.5000 F1800.00
G1 X152.5106 Y141.1560 Z16.5000 F1800.00
G1 X133.4580 Y152.1560 Z16.5000 F1800.00
G1 X46.4767 Y1.5000 Z16.5000 F1800.00
G1 X71.8801 Y1.5000 Z16.5000 F1800.00
G1 X147.2606 Y132.0628 Z16.5000 F1800.00
G0 X147.2606 Y132.0628 Z23.0000
G0 X145.3120 Y133.1878 Z23.0000
G1 X145.3120 Y133.1878 Z16.5000 F1800.00
G1 X149.4370 Y140.3325 Z16.5000 F1800.00
G1 X134.2816 Y149.0825 Z16.5000 F1800.00
G1 X50.3738 Y3.7500 Z16.5000 F1800.00
G1 X70.5811 Y3.7500 Z16.5000 F1800.00
G1 X145.3120 Y133.1878 Z16.5000 F1800.00
G0 X145.3120 Y133.1878 Z23.0000
G0 X143.3634 Y134.3128 Z23.0000
G1 X143.3634 Y134.3128 Z16.5000 F1800.00
G1 X146.3634 Y139.5089 Z16.5000 F1800.00
G1 X135.1051 Y146.0089 Z16.5000 F1800.00
G1 X54.2709 Y6.0000 Z16.5000 F1800.00
G1 X69.2820 Y6.0000 Z16.5000 F1800.00
G1 X143.3634 Y134.3128 Z16.5000 F1800.00
G0 X143.3634 Y134.3128 Z23.0000
G0 X141.4149 Y135.4378 Z23.0000
G1 X141.4149 Y135.4378 Z16.5000 F1800.00
G1 X143.2899 Y138.6854 Z16.5000 F1800.00
G1 X135.9287 Y142.9354 Z16.5000 F1800.00
G1 X58.1680 Y8.2500 Z16.5000 F1800.00
G1 X67.9830 Y8.2500 Z16.5000 F1800.00
G1 X141.4149 Y135.4378 Z16.5000 F1800.00
G0 X141.4149 Y135.4378 Z23.0000
G0 X139.4663 Y136.5628 Z23.0000
G1 X139.4663 Y136.5628 Z16.5000 F1800.00
G1 X140.2163 Y137.8618 Z16.5000 F1800.00
G1 X136.7522 Y139.8618 Z16.5000 F1800.00
G1 X62.0652 Y10.5000 Z16.5000 F1800.00
G1 X66.6840 Y10.5000 Z16.5000 F1800.00
G1 X139.4663 Y136.5628 Z16.5000 F1800.00
G0 X139.4663 Y136.5628 Z23.0000
G0 X138.8168 Y136.9378 Z23.0000
G1 X138.8168 Y136.9378 Z16.5000 F1800.00
G1 X139.1918 Y137.5873 Z16.5000 F1800.00
G1 X137.0268 Y138.8373 Z16.5000 F1800.00
G1 X63.3642 Y11.2500 Z16.5000 F1800.00
G1 X66.2509 Y11.2500 Z16.5000 F1800.00
G1 X138.8168 Y136.9378 Z16.5000 F1800.00
G0 X138.8168 Y136.9378 Z23.0000
G0 X138.1673 Y137.3128 Z23.0000
G1 X138.1673 Y137.3128 Z16.5000 F1800.00
G1 X137.3013 Y137.8128 Z16.5000 F1800.00
G1 X64.6632 Y12.0000 Z16.5000 F1800.00
G1 X65.8179 Y12.0000 Z16.5000 F1800.00
G1 X138.1673 Y137.3128 Z16.5000 F1800.00
G1 X138.1673 Y137.3128 Z16.0000 F1800.00
G1 X137.3013 Y137.8128 Z16.0000 F1800.00
G1 X64.6632 Y12.0000 Z16.0000 F1800.00
G1 X65.8179 Y12.0000 Z16.0000 F1800.00
G1 X138.1673 Y137.3128 Z16.0000 F1800.00
G0 X138.1673 Y137.3128 Z23.0000
G0 X138.8168 Y136.9378 Z23.0000
G1 X138.8168 Y136.9378 Z16.0000 F1800.00
G1 X139.1918 Y137.5873 Z16.0000 F1800.00
G1 X137.0268 Y138.8373 Z16.0000 F1800.00
G1 X63.3642 Y11.2500 Z16.0000 F1800.00
G1 X66.2509 Y11.2500 Z16.0000 F1800.00
G1 X138.8168 Y136.9378 Z16.0000 F1800.00
G0 X138.8168 Y136.9378 Z23.0000
G0 X139.4663 Y136.5628 Z23.0000
G1 X139.4663 Y136.5628 Z16.0000 F1800.00
G1 X140.2163 Y137.8618 Z16.0000 F1800.00
G1 X136.7522 Y139.8618 Z16.0000 F1800.00
G1 X62.0652 Y10.5000 Z16.0000 F1800.00
G1 X66.6840 Y10.5000 Z16.0000 F1800.00
G1 X139.4663 Y136.5628 Z16.0000 F1800.00
G0 X139.4663 Y136.5628 Z23.0000
G0 X141.4149 Y135.4378 Z23.0000
G1 X141.4149 Y135.4378 Z16.0000 F1800.00
G1 X143.2899 Y138.6854 Z16.0000 F1800.00
G1 X135.9287 Y142.9354 Z16.0000 F1800.00
G1 X58.1680 Y8.2500 Z16.0000 F1800.00
G1 X67.9830 Y8.2500 Z16.0000 F1800.00
G1 X141.4149 Y135.4378 Z16.0000 F1800.00
G0 X141.4149 Y135.4378 Z23.0000
G0 X143.3634 Y134.3128 Z23.0000
G1 X143.3634 Y134.3128 Z16.0000 F1800.00
G1 X146.3634 Y139.5089 Z16.0000 F1800.00
G1 X135.1051 Y146.0089 Z16.0000 F1800.00
G1 X54.2709 Y6.0000 Z16.0000 F1800.00
G1 X69.2820 Y6.0000 Z16.0000 F1800.00
G1 X143.3634 Y134.3128 Z16.0000 F1800.00
G0 X143.3634 Y134.3128 Z23.0000
G0 X145.3120 Y133.1878 Z23.0000
G1 X145.3120 Y133.1878 Z16.0000 F1800.00
G1 X149.4370 Y140.3325 Z16.0000 F1800.00
G1 X134.2816 Y149.0825 Z16.0000 F1800.00
G1 X50.3738 Y3.7500 Z16.0000 F1800.00
G1 X70.5811 Y3.7500 Z16.0000 F1800.00
G1 X145.3120 Y133.1878 Z16.0000 F1800.00
G0 X145.3120 Y133.1878 Z23.0000
G0 X147.2606 Y132.0628 Z23.0000
G1 X147.2606 Y132.0628 Z16.0000 F1800.00
G1 X152.5106 Y141.1560 Z16.0000 F1800.00
G1 X133.4580 Y152.1560 Z16.0000 F1800.00
G1 X46.4767 Y1.5000 Z16.0000 F1800.00
G1 X71.8801 Y1.5000 Z16.0000 F1800.00
G1 X147.2606 Y132.0628 Z16.0000 F1800.00
G1 X147.2606 Y132.0628 Z15.5000 F1800.00
G1 X152.5106 Y141.1560 Z15.5000 F1800.00
G1 X133.4580 Y152.1560 Z15.5000 F1800.00
G1 X46.4767 Y1.5000 Z15.5000 F1800.00
G1 X71.8801 Y1.5000 Z15.5000 F1800.00
G1 X147.2606 Y132.0628 Z15.5000 F1800.00
G0 X147.2606 Y132.0628 Z23.0000
G0 X145.3120 Y133.1878 Z23.0000
G1 X145.3120 Y133.1878 Z15.5000 F1800.00
G1 X149.4370 Y140.3325 Z15.5000 F1800.00
G1 X134.2816 Y149.0825 Z15.5000 F1800.00
G1 X50.3738 Y3.7500 Z15.5000 F1800.00
G1 X70.5811 Y3.7500 Z15.5000 F1800.00
G1 X145.3120 Y133.1878 Z15.5000 F1800.00
G0 X145.3120 Y133.1878 Z23.0000
G0 X143.3634 Y134.3128 Z23.0000
G1 X143.3634 Y134.3128 Z15.5000 F1800.00
G1 X146.3634 Y139.5089 Z15.5000 F1800.00
G1 X135.1051 Y146.0089 Z15.5000 F1800.00
G1 X54.2709 Y6.0000 Z15.5000 F1800.00
G1 X69.2820 Y6.0000 Z15.5000 F1800.00
G1 X143.3634 Y134.3128 Z15.5000 F1800.00
G0 X143.3634 Y134.3128 Z23.0000
G0 X141.4149 Y135.4378 Z23.0000
G1 X141.4149 Y135.4378 Z15.5000 F1800.00
G1 X143.2899 Y138.6854 Z15.5000 F1800.00
G1 X135.9287 Y142.9354 Z15.5000 F1800.00
G1 X58.1680 Y8.2500 Z15.5000 F1800.00
G1 X67.9830 Y8.2500 Z15.5000 F1800.00
G1 X141.4149 Y135.4378 Z15.5000 F1800.00
G0 X141.4149 Y135.4378 Z23.0000
G0 X139.4663 Y136.5628 Z23.0000
G1 X139.4663 Y136.5628 Z15.5000 F1800.00
G1 X140.2163 Y137.8618 Z15.5000 F1800.00
G1 X136.7522 Y139.8618 Z15.5000 F1800.00
G1 X62.0652 Y10.5000 Z15.5000 F1800.00
G1 X66.6840 Y10.5000 Z15.5000 F1800.00
G1 X139.4663 Y136.5628 Z15.5000 F1800.00
G0 X139.4663 Y136.5628 Z23.0000
G0 X138.8168 Y136.9378 Z23.0000
G1 X138.8168 Y136.9378 Z15.5000 F1800.00
G1 X139.1918 Y137.5873 Z15.5000 F1800.00
G1 X137.0268 Y138.8373 Z15.5000 F1800.00
G1 X63.3642 Y11.2500 Z15.5000 F1800.00
G1 X66.2509 Y11.2500 Z15.5000 F1800.00
G1 X138.8168 Y136.9378 Z15.5000 F1800.00
G0 X138.8168 Y136.9378 Z23.0000
G0 X138.1673 Y137.3128 Z23.0000
G1 X138.1673 Y137.3128 Z15.5000 F1800.00
G1 X137.3013 Y137.8128 Z15.5000 F1800.00
G1 X64.6632 Y12.0000 Z15.5000 F1800.00
G1 X65.8179 Y12.0000 Z15.5000 F1800.00
G1 X138.1673 Y137.3128 Z15.5000 F1800.00
G1 X138.1673 Y137.3128 Z15.0000 F1800.00
G1 X137.3013 Y137.8128 Z15.0000 F1800.00
G1 X64.6632 Y12.0000 Z15.0000 F1800.00
G1 X65.8179 Y12.0000 Z15.0000 F1800.00
G1 X138.1673 Y137.3128 Z15.0000 F1800.00
G0 X138.1673 Y137.3128 Z23.0000
G0 X138.8168 Y136.9378 Z23.0000
G1 X138.8168 Y136.9378 Z15.0000 F1800.00
G1 X139.1918 Y137.5873 Z15.0000 F1800.00
G1 X137.0268 Y138.8373 Z15.0000 F1800.00
G1 X63.3642 Y11.2500 Z15.0000 F1800.00
G1 X66.2509 Y11.2500 Z15.0000 F1800.00
G1 X138.8168 Y136.9378 Z15.0000 F1800.00
G0 X138.8168 Y136.9378 Z23.0000
G0 X139.4663 Y136.5628 Z23.0000
G1 X139.4663 Y136.5628 Z15.0000 F1800.00
G1 X140.2163 Y137.8618 Z15.0000 F1800.00
G1 X136.7522 Y139.8618 Z15.0000 F1800.00
G1 X62.0652 Y10.5000 Z15.0000 F1800.00
G1 X66.6840 Y10.5000 Z15.0000 F1800.00
G1 X139.4663 Y136.5628 Z15.0000 F1800.00
G0 X139.4663 Y136.5628 Z23.0000
G0 X141.4149 Y135.4378 Z23.0000
G1 X141.4149 Y135.4378 Z15.0000 F1800.00
G1 X143.2899 Y138.6854 Z15.0000 F1800.00
G1 X135.9287 Y142.9354 Z15.0000 F1800.00
G1 X58.1680 Y8.2500 Z15.0000 F1800.00
G1 X67.9830 Y8.2500 Z15.0000 F1800.00
G1 X141.4149 Y135.4378 Z15.0000 F1800.00
G0 X141.4149 Y135.4378 Z23.0000
G0 X143.3634 Y134.3128 Z23.0000
G1 X143.3634 Y134.3128 Z15.0000 F1800.00
G1 X146.3634 Y139.5089 Z15.0000 F1800.00
G1 X135.1051 Y146.0089 Z15.0000 F1800.00
G1 X54.2709 Y6.0000 Z15.0000 F1800.00
G1 X69.2820 Y6.0000 Z15.0000 F1800.00
G1 X143.3634 Y134.3128 Z15.0000 F1800.00
G0 X143.3634 Y134.3128 Z23.0000
G0 X145.3120 Y133.1878 Z23.0000
G1 X145.3120 Y133.1878 Z15.0000 F1800.00
G1 X149.4370 Y140.3325 Z15.0000 F1800.00
G1 X134.2816 Y149.0825 Z15.0000 F1800.00
G1 X50.3738 Y3.7500 Z15.0000 F1800.00
G1 X70.5811 Y3.7500 Z15.0000 F1800.00
G1 X145.3120 Y133.1878 Z15.0000 F1800.00
G0 X145.3120 Y133.1878 Z23.0000
G0 X147.2606 Y132.0628 Z23.0000
G1 X147.2606 Y132.0628 Z15.0000 F1800.00
G1 X152.5106 Y141.1560 Z15.0000 F1800.00
G1 X133.4580 Y152.1560 Z15.0000 F1800.00
G1 X46.4767 Y1.5000 Z15.0000 F1800.00
G1 X71.8801 Y1.5000 Z15.0000 F1800.00
G1 X147.2606 Y132.0628 Z15.0000 F1800.00
G0 Z23.0000
G0 X120.9006 Y159.4060
G0 Z21.0000
G1 X120.9006 Y159.4060 Z17.5000 F1800.00
G1 X106.6112 Y167.6560 Z17.5000 F1800.00
G1 X10.6810 Y1.5000 Z17.5000 F1800.00
G1 X36.0844 Y1.5000 Z17.5000 F1800.00
G1 X125.6638 Y156.6560 Z17.5000 F1800.00
G1 X120.9006 Y159.4060 Z17.5000 F1800.00
G0 X120.9006 Y159.4060 Z23.0000
G0 X119.7756 Y157.4575 Z23.0000
G1 X119.7756 Y157.4575 Z17.5000 F1800.00
G1 X107.4348 Y164.5825 Z17.5000 F1800.00
G1 X14.5781 Y3.7500 Z17.5000 F1800.00
G1 X34.7854 Y3.7500 Z17.5000 F1800.00
G1 X122.5902 Y155.8325 Z17.5000 F1800.00
G1 X119.7756 Y157.4575 Z17.5000 F1800.00
G0 X119.7756 Y157.4575 Z23.0000
G0 X118.6506 Y155.5089 Z23.0000
G1 X118.6506 Y155.5089 Z17.5000 F1800.00
G1 X108.2583 Y161.5089 Z17.5000 F1800.00
G1 X18.4752 Y6.0000 Z17.5000 F1800.00
G1 X33.4863 Y6.0000 Z17.5000 F1800.00
G1 X119.5167 Y155.0089 Z17.5000 F1800.00
G1 X118.6506 Y155.5089 Z17.5000 F1800.00
G0 X118.6506 Y155.5089 Z23.0000
G0 X116.4431 Y154.1854 Z23.0000
G1 X116.4431 Y154.1854 Z17.5000 F1800.00
G1 X109.0819 Y158.4354 Z17.5000 F1800.00
G1 X22.3723 Y8.2500 Z17.5000 F1800.00
G1 X32.1873 Y8.2500 Z17.5000 F1800.00
G1 X116.4431 Y154.1854 Z17.5000 F1800.00
G0 X116.4431 Y154.1854 Z23.0000
G0 X113.3695 Y153.3618 Z23.0000
G1 X113.3695 Y153.3618 Z17.5000 F1800.00
G1 X109.9054 Y155.3618 Z17.5000 F1800.00
G1 X26.2694 Y10.5000 Z17.5000 F1800.00
G1 X30.8882 Y10.5000 Z17.5000 F1800.00
G1 X113.3695 Y153.3618 Z17.5000 F1800.00
G0 X113.3695 Y153.3618 Z23.0000
G0 X112.3450 Y153.0873 Z23.0000
G1 X112.3450 Y153.0873 Z17.5000 F1800.00
G1 X110.1800 Y154.3373 Z17.5000 F1800.00
G1 X27.5685 Y11.2500 Z17.5000 F1800.00
G1 X30.4552 Y11.2500 Z17.5000 F1800.00
G1 X112.3450 Y153.0873 Z17.5000 F1800.00
G0 X112.3450 Y153.0873 Z23.0000
G0 X111.3205 Y152.8128 Z23.0000
G1 X111.3205 Y152.8128 Z17.5000 F1800.00
G1 X110.4545 Y153.3128 Z17.5000 F1800.00
G1 X28.8675 Y12.0000 Z17.5000 F1800.00
G1 X30.0222 Y12.0000 Z17.5000 F1800.00
G1 X111.3205 Y152.8128 Z17.5000 F1800.00
G1 X111.3205 Y152.8128 Z17.0000 F1800.00
G1 X110.4545 Y153.3128 Z17.0000 F1800.00
G1 X28.8675 Y12.0000 Z17.0000 F1800.00
G1 X30.0222 Y12.0000 Z17.0000 F1800.00
G1 X111.3205 Y152.8128 Z17.0000 F1800.00
G0 X111.3205 Y152.8128 Z23.0000
G0 X111.9700 Y152.4378 Z23.0000
G1 X111.9700 Y152.4378 Z17.0000 F1800.00
G1 X112.3450 Y153.0873 Z17.0000 F1800.00
G1 X110.1800 Y154.3373 Z17.0000 F1800.00
G1 X27.5685 Y11.2500 Z17.0000 F1800.00
G1 X30.4552 Y11.2500 Z17.0000 F1800.00
G1 X111.9700 Y152.4378 Z17.0000 F1800.00
G0 X111.9700 Y152.4378 Z23.0000
G0 X112.6195 Y152.0628 Z23.0000
G1 X112.6195 Y152.0628 Z17.0000 F1800.00
G1 X113.3695 Y153.3618 Z17.0000 F1800.00
G1 X109.9054 Y155.3618 Z17.0000 F1800.00
G1 X26.2694 Y10.5000 Z17.0000 F1800.00
G1 X30.8882 Y10.5000 Z17.0000 F1800.00
G1 X112.6195 Y152.0628 Z17.0000 F1800.00
G0 X112.6195 Y152.0628 Z23.0000
G0 X114.5681 Y150.9378 Z23.0000
G1 X114.5681 Y150.9378 Z17.0000 F1800.00
G1 X116.4431 Y154.1854 Z17.0000 F1800.00
G1 X109.0819 Y158.4354 Z17.0000 F1800.00
G1 X22.3723 Y8.2500 Z17.0000 F1800.00
G1 X32.1873 Y8.2500 Z17.0000 F1800.00
G1 X114.5681 Y150.9378 Z17.0000 F1800.00
G0 X114.5681 Y150.9378 Z23.0000
G0 X116.5167 Y149.8128 Z23.0000
G1 X116.5167 Y149.8128 Z17.0000 F1800.00
G1 X119.5167 Y155.0089 Z17.0000 F1800.00
G1 X108.2583 Y161.5089 Z17.0000 F1800.00
G1 X18.4752 Y6.0000 Z17.0000 F1800.00
G1 X33.4863 Y6.0000 Z17.0000 F1800.00
G1 X116.5167 Y149.8128 Z17.0000 F1800.00
G0 X116.5167 Y149.8128 Z23.0000
G0 X118.4652 Y148.6878 Z23.0000
G1 X118.4652 Y148.6878 Z17.0000 F1800.00
G1 X122.5902 Y155.8325 Z17.0000 F1800.00
G1 X107.4348 Y164.5825 Z17.0000 F1800.00
G1 X14.5781 Y3.7500 Z17.0000 F1800.00
G1 X34.7854 Y3.7500 Z17.0000 F1800.00
G1 X118.4652 Y148.6878 Z17.0000 F1800.00
G0 X118.4652 Y148.6878 Z23.0000
G0 X120.4138 Y147.5628 Z23.0000
G1 X120.4138 Y147.5628 Z17.0000 F1800.00
G1 X125.6638 Y156.6560 Z17.0000 F1800.00
G1 X106.6112 Y167.6560 Z17.0000 F1800.00
G1 X10.6810 Y1.5000 Z17.0000 F1800.00
G1 X36.0844 Y1.5000 Z17.0000 F1800.00
G1 X120.4138 Y147.5628 Z17.0000 F1800.00
G1 X120.4138 Y147.5628 Z16.5000 F1800.00
G1 X125.6638 Y156.6560 Z16.5000 F1800.00
G1 X106.6112 Y167.6560 Z16.5000 F1800.00
G1 X10.6810 Y1.5000 Z16.5000 F1800.00
G1 X36.0844 Y1.5000 Z16.5000 F1800.00
G1 X120.4138 Y147.5628 Z16.5000 F1800.00
G0 X120.4138 Y147.5628 Z23.0000
G0 X118.4652 Y148.6878 Z23.0000
G1 X118.4652 Y148.6878 Z16.5000 F1800.00
G1 X122.5902 Y155.8325 Z16.5000 F1800.00
G1 X107.4348 Y164.5825 Z16.5000 F1800.00
G1 X14.5781 Y3.7500 Z16.5000 F1800.00
G1 X34.7854 Y3.7500 Z16.5000 F1800.00
G1 X118.4652 Y148.6878 Z16.5000 F1800.00
G0 X118.4652 Y148.6878 Z23.0000
G0 X116.5167 Y149.8128 Z23.0000
G1 X116.5167 Y149.8128 Z16.5000 F1800.00
G1 X119.5167 Y155.0089 Z16.5000 F1800.00
G1 X108.2583 Y161.5089 Z16.5000 F1800.00
G1 X18.4752 Y6.0000 Z16.5000 F1800.00
G1 X33.4863 Y6.0000 Z16.5000 F1800.00
G1 X116.5167 Y149.8128 Z16.5000 F1800.00
G0 X116.5167 Y149.8128 Z23.0000
G0 X114.5681 Y150.9378 Z23.0000
G1 X114.5681 Y150.9378 Z16.5000 F1800.00
G1 X116.4431 Y154.1854 Z16.5000 F1800.00
G1 X109.0819 Y158.4354 Z16.5000 F1800.00
G1 X22.3723 Y8.2500 Z16.5000 F1800.00
G1 X32.1873 Y8.2500 Z16.5000 F1800.00
G1 X114.5681 Y150.9378 Z16.5000 F1800.00
G0 X114.5681 Y150.9378 Z23.0000
G0 X112.6195 Y152.0628 Z23.0000
G1 X112.6195 Y152.0628 Z16.5000 F1800.00
G1 X113.3695 Y153.3618 Z16.5000 F1800.00
G1 X109.9054 Y155.3618 Z16.5000 F1800.00
G1 X26.2694 Y10.5000 Z16.5000 F1800.00
G1 X30.8882 Y10.5000 Z16.5000 F1800.00
G1 X112.6195 Y152.0628 Z16.5000 F1800.00
G0 X112.6195 Y152.0628 Z23.0000
G0 X111.9700 Y152.4378 Z23.0000
G1 X111.9700 Y152.4378 Z16.5000 F1800.00
G1 X112.3450 Y153.0873 Z16.5000 F1800.00
G1 X110.1800 Y154.3373 Z16.5000 F1800.00
G1 X27.5685 Y11.2500 Z16.5000 F1800.00
G1 X30.4552 Y11.2500 Z16.5000 F1800.00
G1 X111.9700 Y152.4378 Z16.5000 F1800.00
G0 X111.9700 Y152.4378 Z23.0000
G0 X111.3205 Y152.8128 Z23.0000
G1 X111.3205 Y152.8128 Z16.5000 F1800.00
G1 X110.4545 Y153.3128 Z16.5000 F1800.00
G1 X28.8675 Y12.0000 Z16.5000 F1800.00
G1 X30.0222 Y12.0000 Z16.5000 F1800.00
G1 X111.3205 Y152.8128 Z16.5000 F1800.00
G1 X111.3205 Y152.8128 Z16.0000 F1800.00
G1 X110.4545 Y153.3128 Z16.0000 F1800.00
G1 X28.8675 Y12.0000 Z16.0000 F1800.00
G1 X30.0222 Y12.0000 Z16.0000 F1800.00
G1 X111.3205 Y152.8128 Z16.0000 F1800.00
G0 X111.3205 Y152.8128 Z23.0000
G0 X111.9700 Y152.4378 Z23.0000
G1 X111.9700 Y152.4378 Z16.0000 F1800.00
G1 X112.3450 Y153.0873 Z16.0000 F1800.00
G1 X110.1800 Y154.3373 Z16.0000 F1800.00
G1 X27.5685 Y11.2500 Z16.0000 F1800.00
G1 X30.4552 Y11.2500 Z16.0000 F1800.00
G1 X111.9700 Y152.4378 Z16.0000 F1800.00
G0 X111.9700 Y152.4378 Z23.0000
G0 X112.6195 Y152.0628 Z23.0000
G1 X112.6195 Y152.0628 Z16.0000 F1800.00
G1 X113.3695 Y153.3618 Z16.0000 F1800.00
G1 X109.9054 Y155.3618 Z16.0000 F1800.00
G1 X26.2694 Y10.5000 Z16.0000 F1800.00
G1 X30.8882 Y10.5000 Z16.0000 F1800.00
G1 X112.6195 Y152.0628 Z16.0000 F1800.00
G0 X112.6195 Y152.0628 Z23.0000
G0 X114.5681 Y150.9378 Z23.0000
G1 X114.5681 Y150.9378 Z16.0000 F1800.00
G1 X116.4431 Y154.1854 Z16.0000 F1800.00
G1 X109.0819 Y158.4354 Z16.0000 F1800.00
G1 X22.3723 Y8.2500 Z16.0000 F1800.00
G1 X32.1873 Y8.2500 Z16.0000 F1800.00
G1 X114.5681 Y150.9378 Z16.0000 F1800.00
G0 X114.5681 Y150.9378 Z23.0000
G0 X116.5167 Y149.8128 Z23.0000
G1 X116.5167 Y149.8128 Z16.0000 F1800.00
G1 X119.5167 Y155.0089 Z16.0000 F1800.00
G1 X108.2583 Y161.5089 Z16.0000 F1800.00
G1 X18.4752 Y6.0000 Z16.0000 F1800.00
G1 X33.4863 Y6.0000 Z16.0000 F1800.00
G1 X116.5167 Y149.8128 Z16.0000 F1800.00
G0 X116.5167 Y149.8128 Z23.0000
G0 X118.4652 Y148.6878 Z23.0000
G1 X118.4652 Y148.6878 Z16.0000 F1800.00
G1 X122.5902 Y155.8325 Z16.0000 F1800.00
G1 X107.4348 Y164.5825 Z16.0000 F1800.00
G1 X14.5781 Y3.7500 Z16.0000 F1800.00
G1 X34.7854 Y3.7500 Z16.0000 F1800.00
G1 X118.4652 Y148.6878 Z16.0000 F1800.00
G0 X118.4652 Y148.6878 Z23.0000
G0 X120.4138 Y147.5628 Z23.0000
G1 X120.4138 Y147.5628 Z16.0000 F1800.00
G1 X125.6638 Y156.6560 Z16.0000 F1800.00
G1 X106.6112 Y167.6560 Z16.0000 F1800.00
G1 X10.6810 Y1.5000 Z16.0000 F1800.00
G1 X36.0844 Y1.5000 Z16.0000 F1800.00
G1 X120.4138 Y147.5628 Z16.0000 F1800.00
G1 X120.4138 Y147.5628 Z15.5000 F1800.00
G1 X125.6638 Y156.6560 Z15.5000 F1800.00
G1 X106.6112 Y167.6560 Z15.5000 F1800.00
G1 X10.6810 Y1.5000 Z15.5000 F1800.00
G1 X36.0844 Y1.5000 Z15.5000 F1800.00
G1 X120.4138 Y147.5628 Z15.5000 F1800.00
G0 X120.4138 Y147.5628 Z23.0000
G0 X118.4652 Y148.6878 Z23.0000
G1 X118.4652 Y148.6878 Z15.5000 F1800.00
G1 X122.5902 Y155.8325 Z15.5000 F1800.00
G1 X107.4348 Y164.5825 Z15.5000 F1800.00
G1 X14.5781 Y3.7500 Z15.5000 F1800.00
G1 X34.7854 Y3.7500 Z15.5000 F1800.00
G1 X118.4652 Y148.6878 Z15.5000 F1800.00
G0 X118.4652 Y148.6878 Z23.0000
G0 X116.5167 Y149.8128 Z23.0000
G1 X116.5167 Y149.8128 Z15.5000 F1800.00
G1 X119.5167 Y155.0089 Z15.5000 F1800.00
G1 X108.2583 Y161.5089 Z15.5000 F1800.00
G1 X18.4752 Y6.0000 Z15.5000 F1800.00
G1 X33.4863 Y6.0000 Z15.5000 F1800.00
G1 X116.5167 Y149.8128 Z15.5000 F1800.00
G0 X116.5167 Y149.8128 Z23.0000
G0 X114.5681 Y150.9378 Z23.0000
G1 X114.5681 Y150.9378 Z15.5000 F1800.00
G1 X116.4431 Y154.1854 Z15.5000 F1800.00
G1 X109.0819 Y158.4354 Z15.5000 F1800.00
G1 X22.3723 Y8.2500 Z15.5000 F1800.00
G1 X32.1873 Y8.2500 Z15.5000 F1800.00
G1 X114.5681 Y150.9378 Z15.5000 F1800.00
G0 X114.5681 Y150.9378 Z23.0000
G0 X112.6195 Y152.0628 Z23.0000
G1 X112.6195 Y152.0628 Z15.5000 F1800.00
G1 X113.3695 Y153.3618 Z15.5000 F1800.00
G1 X109.9054 Y155.3618 Z15.5000 F1800.00
G1 X26.2694 Y10.5000 Z15.5000 F1800.00
G1 X30.8882 Y10.5000 Z15.5000 F1800.00
G1 X112.6195 Y152.0628 Z15.5000 F1800.00
G0 X112.6195 Y152.0628 Z23.0000
G0 X111.9700 Y152.4378 Z23.0000
G1 X111.9700 Y152.4378 Z15.5000 F1800.00
G1 X112.3450 Y153.0873 Z15.5000 F1800.00
G1 X110.1800 Y154.3373 Z15.5000 F1800.00
G1 X27.5685 Y11.2500 Z15.5000 F1800.00
G1 X30.4552 Y11.2500 Z15.5000 F1800.00
G1 X111.9700 Y152.4378 Z15.5000 F1800.00
G0 X111.9700 Y152.4378 Z23.0000
G0 X111.3205 Y152.8128 Z23.0000
G1 X111.3205 Y152.8128 Z15.5000 F1800.00
G1 X110.4545 Y153.3128 Z15.5000 F1800.00
G1 X28.8675 Y12.0000 Z15.5000 F1800.00
G1 X30.0222 Y12.0000 Z15.5000 F1800.00
G1 X111.3205 Y152.8128 Z15.5000 F1800.00
G1 X111.3205 Y152.8128 Z15.0000 F1800.00
G1 X110.4545 Y153.3128 Z15.0000 F1800.00
G1 X28.8675 Y12.0000 Z15.0000 F1800.00
G1 X30.0222 Y12.0000 Z15.0000 F1800.00
G1 X111.3205 Y152.8128 Z15.0000 F1800.00
G0 X111.3205 Y152.8128 Z23.0000
G0 X111.9700 Y152.4378 Z23.0000
G1 X111.9700 Y152.4378 Z15.0000 F1800.00
G1 X112.3450 Y153.0873 Z15.0000 F1800.00
G1 X110.1800 Y154.3373 Z15.0000 F1800.00
G1 X27.5685 Y11.2500 Z15.0000 F1800.00
G1 X30.4552 Y11.2500 Z15.0000 F1800.00
G1 X111.9700 Y152.4378 Z15.0000 F1800.00
G0 X111.9700 Y152.4378 Z23.0000
G0 X112.6195 Y152.0628 Z23.0000
G1 X112.6195 Y152.0628 Z15.0000 F1800.00
G1 X113.3695 Y153.3618 Z15.0000 F1800.00
G1 X109.9054 Y155.3618 Z15.0000 F1800.00
G1 X26.2694 Y10.5000 Z15.0000 F1800.00
G1 X30.8882 Y10.5000 Z15.0000 F1800.00
G1 X112.6195 Y152.0628 Z15.0000 F1800.00
G0 X112.6195 Y152.0628 Z23.0000
G0 X114.5681 Y150.9378 Z23.0000
G1 X114.5681 Y150.9378 Z15.0000 F1800.00
G1 X116.4431 Y154.1854 Z15.0000 F1800.00
G1 X109.0819 Y158.4354 Z15.0000 F1800.00
G1 X22.3723 Y8.2500 Z15.0000 F1800.00
G1 X32.1873 Y8.2500 Z15.0000 F1800.00
G1 X114.5681 Y150.9378 Z15.0000 F1800.00
G0 X114.5681 Y150.9378 Z23.0000
G0 X116.5167 Y149.8128 Z23.0000
G1 X116.5167 Y149.8128 Z15.0000 F1800.00
G1 X119.5167 Y155.0089 Z15.0000 F1800.00
G1 X108.2583 Y161.5089 Z15.0000 F1800.00
G1 X18.4752 Y6.0000 Z15.0000 F1800.00
G1 X33.4863 Y6.0000 Z15.0000 F1800.00
G1 X116.5167 Y149.8128 Z15.0000 F1800.00
G0 X116.5167 Y149.8128 Z23.0000
G0 X118.4652 Y148.6878 Z23.0000
G1 X118.4652 Y148.6878 Z15.0000 F1800.00
G1 X122.5902 Y155.8325 Z15.0000 F1800.00
G1 X107.4348 Y164.5825 Z15.0000 F1800.00
G1 X14.5781 Y3.7500 Z15.0000 F1800.00
G1 X34.7854 Y3.7500 Z15.0000 F1800.00
G1 X118.4652 Y148.6878 Z15.0000 F1800.00
G0 X118.4652 Y148.6878 Z23.0000
G0 X120.4138 Y147.5628 Z23.0000
G1 X120.4138 Y147.5628 Z15.0000 F1800.00
G1 X125.6638 Y156.6560 Z15.0000 F1800.00
G1 X106.6112 Y167.6560 Z15.0000 F1800.00
G1 X10.6810 Y1.5000 Z15.0000 F1800.00
G1 X36.0844 Y1.5000 Z15.0000 F1800.00
G1 X120.4138 Y147.5628 Z15.0000 F1800.00
G0 Z23.0000
(finish operation: CutGrooves_Op)
(begin operation: CutProfile_Op)
(Path: CutProfile_Op)
G0 Z23.0000
G0 X161.7407 Y139.2041 Z23.0000
G0 X161.7407 Y139.2041 Z21.0000
G1 X161.7407 Y139.2041 Z17.5000 F1800.00
G3 X161.3718 Y139.5041 Z17.5000 I-1.1189 J-0.9990 F1800.00
G1 X100.7500 Y174.5041 Z17.5000 F1800.00
G3 X98.7010 Y173.9551 Z17.5000 I-0.7500 J-1.2990 F1800.00
G1 X-1.2990 Y0.7500 Z17.5000 F1800.00
G3 X0.0000 Y-1.5000 Z17.5000 I1.2990 J-0.7500 F1800.00
G1 X200.0000 Y-1.5000 Z17.5000 F1800.00
G3 X201.2990 Y0.7500 Z17.5000 I-0.0000 J1.5000 F1800.00
G1 X183.9548 Y30.7896 Z17.5000 F1800.00
G3 X165.3590 Y41.5000 Z17.5000 I-18.5977 J-10.7916 F1800.00
G1 X138.5872 Y41.5000 Z17.5000 F1800.00
G2 X122.5541 Y69.2700 Z17.5000 I-0.0218 J18.5007 F1800.00
G1 X161.9208 Y137.4551 Z17.5000 F1800.00
G3 X161.7407 Y139.2041 Z17.5000 I-1.2990 J0.7500 F1800.00
G1 X161.7407 Y139.2041 Z17.0000 F1800.00
G3 X161.3718 Y139.5041 Z17.0000 I-1.1189 J-0.9990 F1800.00
G1 X100.7500 Y174.5041 Z17.0000 F1800.00
G3 X98.7010 Y173.9551 Z17.0000 I-0.7500 J-1.2990 F1800.00
G1 X-1.2990 Y0.7500 Z17.0000 F1800.00
G3 X0.0000 Y-1.5000 Z17.0000 I1.2990 J-0.7500 F1800.00
G1 X200.0000 Y-1.5000 Z17.0000 F1800.00
G3 X201.2990 Y0.7500 Z17.0000 I-0.0000 J1.5000 F1800.00
G1 X183.9548 Y30.7896 Z17.0000 F1800.00
G3 X165.3590 Y41.5000 Z17.0000 I-18.5977 J-10.7916 F1800.00
G1 X138.5872 Y41.5000 Z17.0000 F1800.00
G2 X122.5541 Y69.2700 Z17.0000 I-0.0218 J18.5007 F1800.00
G1 X161.9208 Y137.4551 Z17.0000 F1800.00
G3 X161.7407 Y139.2041 Z17.0000 I-1.2990 J0.7500 F1800.00
G1 X161.7407 Y139.2041 Z16.5000 F1800.00
G3 X161.3718 Y139.5041 Z16.5000 I-1.1189 J-0.9990 F1800.00
G1 X100.7500 Y174.5041 Z16.5000 F1800.00
G3 X98.7010 Y173.9551 Z16.5000 I-0.7500 J-1.2990 F1800.00
G1 X-1.2990 Y0.7500 Z16.5000 F1800.00
G3 X0.0000 Y-1.5000 Z16.5000 I1.2990 J-0.7500 F1800.00
G1 X200.0000 Y-1.5000 Z16.5000 F1800.00
G3 X201.2990 Y0.7500 Z16.5000 I-0.0000 J1.5000 F1800.00
G1 X183.9548 Y30.7896 Z16.5000 F1800.00
G3 X165.3590 Y41.5000 Z16.5000 I-18.5977 J-10.7916 F1800.00
G1 X138.5872 Y41.5000 Z16.5000 F1800.00
G2 X122.5541 Y69.2700 Z16.5000 I-0.0218 J18.5007 F1800.00
G1 X161.9208 Y137.4551 Z16.5000 F1800.00
G3 X161.7407 Y139.2041 Z16.5000 I-1.2990 J0.7500 F1800.00
G1 X161.7407 Y139.2041 Z16.0000 F1800.00
G3 X161.3718 Y139.5041 Z16.0000 I-1.1189 J-0.9990 F1800.00
G1 X100.7500 Y174.5041 Z16.0000 F1800.00
G3 X98.7010 Y173.9551 Z16.0000 I-0.7500 J-1.2990 F1800.00
G1 X-1.2990 Y0.7500 Z16.0000 F1800.00
G3 X0.0000 Y-1.5000 Z16.0000 I1.2990 J-0.7500 F1800.00
G1 X200.0000 Y-1.5000 Z16.0000 F1800.00
G3 X201.2990 Y0.7500 Z16.0000 I-0.0000 J1.5000 F1800.00
G1 X183.9548 Y30.7896 Z16.0000 F1800.00
G3 X165.3590 Y41.5000 Z16.0000 I-18.5977 J-10.7916 F1800.00
G1 X138.5872 Y41.5000 Z16.0000 F1800.00
G2 X122.5541 Y69.2700 Z16.0000 I-0.0218 J18.5007 F1800.00
G1 X161.9208 Y137.4551 Z16.0000 F1800.00
G3 X161.7407 Y139.2041 Z16.0000 I-1.2990 J0.7500 F1800.00
G1 X161.7407 Y139.2041 Z15.5000 F1800.00
G3 X161.3718 Y139.5041 Z15.5000 I-1.1189 J-0.9990 F1800.00
G1 X100.7500 Y174.5041 Z15.5000 F1800.00
G3 X98.7010 Y173.9551 Z15.5000 I-0.7500 J-1.2990 F1800.00
G1 X-1.2990 Y0.7500 Z15.5000 F1800.00
G3 X0.0000 Y-1.5000 Z15.5000 I1.2990 J-0.7500 F1800.00
G1 X200.0000 Y-1.5000 Z15.5000 F1800.00
G3 X201.2990 Y0.7500 Z15.5000 I-0.0000 J1.5000 F1800.00
G1 X183.9548 Y30.7896 Z15.5000 F1800.00
G3 X165.3590 Y41.5000 Z15.5000 I-18.5977 J-10.7916 F1800.00
G1 X138.5872 Y41.5000 Z15.5000 F1800.00
G2 X122.5541 Y69.2700 Z15.5000 I-0.0218 J18.5007 F1800.00
G1 X161.9208 Y137.4551 Z15.5000 F1800.00
G3 X161.7407 Y139.2041 Z15.5000 I-1.2990 J0.7500 F1800.00
G1 X161.7407 Y139.2041 Z15.0000 F1800.00
G3 X161.3718 Y139.5041 Z15.0000 I-1.1189 J-0.9990 F1800.00
G1 X100.7500 Y174.5041 Z15.0000 F1800.00
G3 X98.7010 Y173.9551 Z15.0000 I-0.7500 J-1.2990 F1800.00
G1 X-1.2990 Y0.7500 Z15.0000 F1800.00
G3 X0.0000 Y-1.5000 Z15.0000 I1.2990 J-0.7500 F1800.00
G1 X200.0000 Y-1.5000 Z15.0000 F1800.00
G3 X201.2990 Y0.7500 Z15.0000 I-0.0000 J1.5000 F1800.00
G1 X183.9548 Y30.7896 Z15.0000 F1800.00
G3 X165.3590 Y41.5000 Z15.0000 I-18.5977 J-10.7916 F1800.00
G1 X138.5872 Y41.5000 Z15.0000 F1800.00
G2 X122.5541 Y69.2700 Z15.0000 I-0.0218 J18.5007 F1800.00
G1 X161.9208 Y137.4551 Z15.0000 F1800.00
G3 X161.7407 Y139.2041 Z15.0000 I-1.2990 J0.7500 F1800.00
G1 X161.7407 Y139.2041 Z14.5000 F1800.00
G3 X161.3718 Y139.5041 Z14.5000 I-1.1189 J-0.9990 F1800.00
G1 X100.7500 Y174.5041 Z14.5000 F1800.00
G3 X98.7010 Y173.9551 Z14.5000 I-0.7500 J-1.2990 F1800.00
G1 X-1.2990 Y0.7500 Z14.5000 F1800.00
G3 X0.0000 Y-1.5000 Z14.5000 I1.2990 J-0.7500 F1800.00
G1 X200.0000 Y-1.5000 Z14.5000 F1800.00
G3 X201.2990 Y0.7500 Z14.5000 I-0.0000 J1.5000 F1800.00
G1 X183.9548 Y30.7896 Z14.5000 F1800.00
G3 X165.3590 Y41.5000 Z14.5000 I-18.5977 J-10.7916 F1800.00
G1 X138.5872 Y41.5000 Z14.5000 F1800.00
G2 X122.5541 Y69.2700 Z14.5000 I-0.0218 J18.5007 F1800.00
G1 X161.9208 Y137.4551 Z14.5000 F1800.00
G3 X161.7407 Y139.2041 Z14.5000 I-1.2990 J0.7500 F1800.00
G1 X161.7407 Y139.2041 Z14.0000 F1800.00
G3 X161.3718 Y139.5041 Z14.0000 I-1.1189 J-0.9990 F1800.00
G1 X100.7500 Y174.5041 Z14.0000 F1800.00
G3 X98.7010 Y173.9551 Z14.0000 I-0.7500 J-1.2990 F1800.00
G1 X-1.2990 Y0.7500 Z14.0000 F1800.00
G3 X0.0000 Y-1.5000 Z14.0000 I1.2990 J-0.7500 F1800.00
G1 X200.0000 Y-1.5000 Z14.0000 F1800.00
G3 X201.2990 Y0.7500 Z14.0000 I-0.0000 J1.5000 F1800.00
G1 X183.9548 Y30.7896 Z14.0000 F1800.00
G3 X165.3590 Y41.5000 Z14.0000 I-18.5977 J-10.7916 F1800.00
G1 X138.5872 Y41.5000 Z14.0000 F1800.00
G2 X122.5541 Y69.2700 Z14.0000 I-0.0218 J18.5007 F1800.00
G1 X161.9208 Y137.4551 Z14.0000 F1800.00
G3 X161.7407 Y139.2041 Z14.0000 I-1.2990 J0.7500 F1800.00
G1 X161.7407 Y139.2041 Z13.5000 F1800.00
G3 X161.3718 Y139.5041 Z13.5000 I-1.1189 J-0.9990 F1800.00
G1 X100.7500 Y174.5041 Z13.5000 F1800.00
G3 X98.7010 Y173.9551 Z13.5000 I-0.7500 J-1.2990 F1800.00
G1 X-1.2990 Y0.7500 Z13.5000 F1800.00
G3 X0.0000 Y-1.5000 Z13.5000 I1.2990 J-0.7500 F1800.00
G1 X200.0000 Y-1.5000 Z13.5000 F1800.00
G3 X201.2990 Y0.7500 Z13.5000 I-0.0000 J1.5000 F1800.00
G1 X183.9548 Y30.7896 Z13.5000 F1800.00
G3 X165.3590 Y41.5000 Z13.5000 I-18.5977 J-10.7916 F1800.00
G1 X138.5872 Y41.5000 Z13.5000 F1800.00
G2 X122.5541 Y69.2700 Z13.5000 I-0.0218 J18.5007 F1800.00
G1 X161.9208 Y137.4551 Z13.5000 F1800.00
G3 X161.7407 Y139.2041 Z13.5000 I-1.2990 J0.7500 F1800.00
G1 X161.7407 Y139.2041 Z13.0000 F1800.00
G3 X161.3718 Y139.5041 Z13.0000 I-1.1189 J-0.9990 F1800.00
G1 X100.7500 Y174.5041 Z13.0000 F1800.00
G3 X98.7010 Y173.9551 Z13.0000 I-0.7500 J-1.2990 F1800.00
G1 X-1.2990 Y0.7500 Z13.0000 F1800.00
G3 X0.0000 Y-1.5000 Z13.0000 I1.2990 J-0.7500 F1800.00
G1 X200.0000 Y-1.5000 Z13.0000 F1800.00
G3 X201.2990 Y0.7500 Z13.0000 I-0.0000 J1.5000 F1800.00
G1 X183.9548 Y30.7896 Z13.0000 F1800.00
G3 X165.3590 Y41.5000 Z13.0000 I-18.5977 J-10.7916 F1800.00
G1 X138.5872 Y41.5000 Z13.0000 F1800.00
G2 X122.5541 Y69.2700 Z13.0000 I-0.0218 J18.5007 F1800.00
G1 X161.9208 Y137.4551 Z13.0000 F1800.00
G3 X161.7407 Y139.2041 Z13.0000 I-1.2990 J0.7500 F1800.00
G1 X161.7407 Y139.2041 Z12.5000 F1800.00
G3 X161.3718 Y139.5041 Z12.5000 I-1.1189 J-0.9990 F1800.00
G1 X100.7500 Y174.5041 Z12.5000 F1800.00
G3 X98.7010 Y173.9551 Z12.5000 I-0.7500 J-1.2990 F1800.00
G1 X-1.2990 Y0.7500 Z12.5000 F1800.00
G3 X0.0000 Y-1.5000 Z12.5000 I1.2990 J-0.7500 F1800.00
G1 X200.0000 Y-1.5000 Z12.5000 F1800.00
G3 X201.2990 Y0.7500 Z12.5000 I-0.0000 J1.5000 F1800.00
G1 X183.9548 Y30.7896 Z12.5000 F1800.00
G3 X165.3590 Y41.5000 Z12.5000 I-18.5977 J-10.7916 F1800.00
G1 X138.5872 Y41.5000 Z12.5000 F1800.00
G2 X122.5541 Y69.2700 Z12.5000 I-0.0218 J18.5007 F1800.00
G1 X161.9208 Y137.4551 Z12.5000 F1800.00
G3 X161.7407 Y139.2041 Z12.5000 I-1.2990 J0.7500 F1800.00
G1 X161.7407 Y139.2041 Z12.0000 F1800.00
G3 X161.3718 Y139.5041 Z12.0000 I-1.1189 J-0.9990 F1800.00
G1 X100.7500 Y174.5041 Z12.0000 F1800.00
G3 X98.7010 Y173.9551 Z12.0000 I-0.7500 J-1.2990 F1800.00
G1 X-1.2990 Y0.7500 Z12.0000 F1800.00
G3 X0.0000 Y-1.5000 Z12.0000 I1.2990 J-0.7500 F1800.00
G1 X200.0000 Y-1.5000 Z12.0000 F1800.00
G3 X201.2990 Y0.7500 Z12.0000 I-0.0000 J1.5000 F1800.00
G1 X183.9548 Y30.7896 Z12.0000 F1800.00
G3 X165.3590 Y41.5000 Z12.0000 I-18.5977 J-10.7916 F1800.00
G1 X138.5872 Y41.5000 Z12.0000 F1800.00
G2 X122.5541 Y69.2700 Z12.0000 I-0.0218 J18.5007 F1800.00
G1 X161.9208 Y137.4551 Z12.0000 F1800.00
G3 X161.7407 Y139.2041 Z12.0000 I-1.2990 J0.7500 F1800.00
G1 X161.7407 Y139.2041 Z11.5000 F1800.00
G3 X161.3718 Y139.5041 Z11.5000 I-1.1189 J-0.9990 F1800.00
G1 X100.7500 Y174.5041 Z11.5000 F1800.00
G3 X98.7010 Y173.9551 Z11.5000 I-0.7500 J-1.2990 F1800.00
G1 X-1.2990 Y0.7500 Z11.5000 F1800.00
G3 X0.0000 Y-1.5000 Z11.5000 I1.2990 J-0.7500 F1800.00
G1 X200.0000 Y-1.5000 Z11.5000 F1800.00
G3 X201.2990 Y0.7500 Z11.5000 I-0.0000 J1.5000 F1800.00
G1 X183.9548 Y30.7896 Z11.5000 F1800.00
G3 X165.3590 Y41.5000 Z11.5000 I-18.5977 J-10.7916 F1800.00
G1 X138.5872 Y41.5000 Z11.5000 F1800.00
G2 X122.5541 Y69.2700 Z11.5000 I-0.0218 J18.5007 F1800.00
G1 X161.9208 Y137.4551 Z11.5000 F1800.00
G3 X161.7407 Y139.2041 Z11.5000 I-1.2990 J0.7500 F1800.00
G1 X161.7407 Y139.2041 Z11.0000 F1800.00
G3 X161.3718 Y139.5041 Z11.0000 I-1.1189 J-0.9990 F1800.00
G1 X100.7500 Y174.5041 Z11.0000 F1800.00
G3 X98.7010 Y173.9551 Z11.0000 I-0.7500 J-1.2990 F1800.00
G1 X-1.2990 Y0.7500 Z11.0000 F1800.00
G3 X0.0000 Y-1.5000 Z11.0000 I1.2990 J-0.7500 F1800.00
G1 X200.0000 Y-1.5000 Z11.0000 F1800.00
G3 X201.2990 Y0.7500 Z11.0000 I-0.0000 J1.5000 F1800.00
G1 X183.9548 Y30.7896 Z11.0000 F1800.00
G3 X165.3590 Y41.5000 Z11.0000 I-18.5977 J-10.7916 F1800.00
G1 X138.5872 Y41.5000 Z11.0000 F1800.00
G2 X122.5541 Y69.2700 Z11.0000 I-0.0218 J18.5007 F1800.00
G1 X161.9208 Y137.4551 Z11.0000 F1800.00
G3 X161.7407 Y139.2041 Z11.0000 I-1.2990 J0.7500 F1800.00
G1 X161.7407 Y139.2041 Z10.5000 F1800.00
G3 X161.3718 Y139.5041 Z10.5000 I-1.1189 J-0.9990 F1800.00
G1 X100.7500 Y174.5041 Z10.5000 F1800.00
G3 X98.7010 Y173.9551 Z10.5000 I-0.7500 J-1.2990 F1800.00
G1 X-1.2990 Y0.7500 Z10.5000 F1800.00
G3 X0.0000 Y-1.5000 Z10.5000 I1.2990 J-0.7500 F1800.00
G1 X200.0000 Y-1.5000 Z10.5000 F1800.00
G3 X201.2990 Y0.7500 Z10.5000 I-0.0000 J1.5000 F1800.00
G1 X183.9548 Y30.7896 Z10.5000 F1800.00
G3 X165.3590 Y41.5000 Z10.5000 I-18.5977 J-10.7916 F1800.00
G1 X138.5872 Y41.5000 Z10.5000 F1800.00
G2 X122.5541 Y69.2700 Z10.5000 I-0.0218 J18.5007 F1800.00
G1 X161.9208 Y137.4551 Z10.5000 F1800.00
G3 X161.7407 Y139.2041 Z10.5000 I-1.2990 J0.7500 F1800.00
G1 X161.7407 Y139.2041 Z10.0000 F1800.00
G3 X161.3718 Y139.5041 Z10.0000 I-1.1189 J-0.9990 F1800.00
G1 X100.7500 Y174.5041 Z10.0000 F1800.00
G3 X98.7010 Y173.9551 Z10.0000 I-0.7500 J-1.2990 F1800.00
G1 X-1.2990 Y0.7500 Z10.0000 F1800.00
G3 X0.0000 Y-1.5000 Z10.0000 I1.2990 J-0.7500 F1800.00
G1 X200.0000 Y-1.5000 Z10.0000 F1800.00
G3 X201.2990 Y0.7500 Z10.0000 I-0.0000 J1.5000 F1800.00
G1 X183.9548 Y30.7896 Z10.0000 F1800.00
G3 X165.3590 Y41.5000 Z10.0000 I-18.5977 J-10.7916 F1800.00
G1 X138.5872 Y41.5000 Z10.0000 F1800.00
G2 X122.5541 Y69.2700 Z10.0000 I-0.0218 J18.5007 F1800.00
G1 X161.9208 Y137.4551 Z10.0000 F1800.00
G3 X161.7407 Y139.2041 Z10.0000 I-1.2990 J0.7500 F1800.00
G1 X161.7407 Y139.2041 Z9.5000 F1800.00
G3 X161.3718 Y139.5041 Z9.5000 I-1.1189 J-0.9990 F1800.00
G1 X100.7500 Y174.5041 Z9.5000 F1800.00
G3 X98.7010 Y173.9551 Z9.5000 I-0.7500 J-1.2990 F1800.00
G1 X-1.2990 Y0.7500 Z9.5000 F1800.00
G3 X0.0000 Y-1.5000 Z9.5000 I1.2990 J-0.7500 F1800.00
G1 X200.0000 Y-1.5000 Z9.5000 F1800.00
G3 X201.2990 Y0.7500 Z9.5000 I-0.0000 J1.5000 F1800.00
G1 X183.9548 Y30.7896 Z9.5000 F1800.00
G3 X165.3590 Y41.5000 Z9.5000 I-18.5977 J-10.7916 F1800.00
G1 X138.5872 Y41.5000 Z9.5000 F1800.00
G2 X122.5541 Y69.2700 Z9.5000 I-0.0218 J18.5007 F1800.00
G1 X161.9208 Y137.4551 Z9.5000 F1800.00
G3 X161.7407 Y139.2041 Z9.5000 I-1.2990 J0.7500 F1800.00
G1 X161.7407 Y139.2041 Z9.0000 F1800.00
G3 X161.3718 Y139.5041 Z9.0000 I-1.1189 J-0.9990 F1800.00
G1 X100.7500 Y174.5041 Z9.0000 F1800.00
G3 X98.7010 Y173.9551 Z9.0000 I-0.7500 J-1.2990 F1800.00
G1 X-1.2990 Y0.7500 Z9.0000 F1800.00
G3 X0.0000 Y-1.5000 Z9.0000 I1.2990 J-0.7500 F1800.00
G1 X200.0000 Y-1.5000 Z9.0000 F1800.00
G3 X201.2990 Y0.7500 Z9.0000 I-0.0000 J1.5000 F1800.00
G1 X183.9548 Y30.7896 Z9.0000 F1800.00
G3 X165.3590 Y41.5000 Z9.0000 I-18.5977 J-10.7916 F1800.00
G1 X138.5872 Y41.5000 Z9.0000 F1800.00
G2 X122.5541 Y69.2700 Z9.0000 I-0.0218 J18.5007 F1800.00
G1 X161.9208 Y137.4551 Z9.0000 F1800.00
G3 X161.7407 Y139.2041 Z9.0000 I-1.2990 J0.7500 F1800.00
G1 X161.7407 Y139.2041 Z8.5000 F1800.00
G3 X161.3718 Y139.5041 Z8.5000 I-1.1189 J-0.9990 F1800.00
G1 X100.7500 Y174.5041 Z8.5000 F1800.00
G3 X98.7010 Y173.9551 Z8.5000 I-0.7500 J-1.2990 F1800.00
G1 X-1.2990 Y0.7500 Z8.5000 F1800.00
G3 X0.0000 Y-1.5000 Z8.5000 I1.2990 J-0.7500 F1800.00
G1 X200.0000 Y-1.5000 Z8.5000 F1800.00
G3 X201.2990 Y0.7500 Z8.5000 I-0.0000 J1.5000 F1800.00
G1 X183.9548 Y30.7896 Z8.5000 F1800.00
G3 X165.3590 Y41.5000 Z8.5000 I-18.5977 J-10.7916 F1800.00
G1 X138.5872 Y41.5000 Z8.5000 F1800.00
G2 X122.5541 Y69.2700 Z8.5000 I-0.0218 J18.5007 F1800.00
G1 X161.9208 Y137.4551 Z8.5000 F1800.00
G3 X161.7407 Y139.2041 Z8.5000 I-1.2990 J0.7500 F1800.00
G1 X161.7407 Y139.2041 Z8.0000 F1800.00
G3 X161.3718 Y139.5041 Z8.0000 I-1.1189 J-0.9990 F1800.00
G1 X100.7500 Y174.5041 Z8.0000 F1800.00
G3 X98.7010 Y173.9551 Z8.0000 I-0.7500 J-1.2990 F1800.00
G1 X-1.2990 Y0.7500 Z8.0000 F1800.00
G3 X0.0000 Y-1.5000 Z8.0000 I1.2990 J-0.7500 F1800.00
G1 X200.0000 Y-1.5000 Z8.0000 F1800.00
G3 X201.2990 Y0.7500 Z8.0000 I-0.0000 J1.5000 F1800.00
G1 X183.9548 Y30.7896 Z8.0000 F1800.00
G3 X165.3590 Y41.5000 Z8.0000 I-18.5977 J-10.7916 F1800.00
G1 X138.5872 Y41.5000 Z8.0000 F1800.00
G2 X122.5541 Y69.2700 Z8.0000 I-0.0218 J18.5007 F1800.00
G1 X161.9208 Y137.4551 Z8.0000 F1800.00
G3 X161.7407 Y139.2041 Z8.0000 I-1.2990 J0.7500 F1800.00
G1 X161.7407 Y139.2041 Z7.5000 F1800.00
G3 X161.3718 Y139.5041 Z7.5000 I-1.1189 J-0.9990 F1800.00
G1 X100.7500 Y174.5041 Z7.5000 F1800.00
G3 X98.7010 Y173.9551 Z7.5000 I-0.7500 J-1.2990 F1800.00
G1 X-1.2990 Y0.7500 Z7.5000 F1800.00
G3 X0.0000 Y-1.5000 Z7.5000 I1.2990 J-0.7500 F1800.00
G1 X200.0000 Y-1.5000 Z7.5000 F1800.00
G3 X201.2990 Y0.7500 Z7.5000 I-0.0000 J1.5000 F1800.00
G1 X183.9548 Y30.7896 Z7.5000 F1800.00
G3 X165.3590 Y41.5000 Z7.5000 I-18.5977 J-10.7916 F1800.00
G1 X138.5872 Y41.5000 Z7.5000 F1800.00
G2 X122.5541 Y69.2700 Z7.5000 I-0.0218 J18.5007 F1800.00
G1 X161.9208 Y137.4551 Z7.5000 F1800.00
G3 X161.7407 Y139.2041 Z7.5000 I-1.2990 J0.7500 F1800.00
G1 X161.7407 Y139.2041 Z7.0000 F1800.00
G3 X161.3718 Y139.5041 Z7.0000 I-1.1189 J-0.9990 F1800.00
G1 X100.7500 Y174.5041 Z7.0000 F1800.00
G3 X98.7010 Y173.9551 Z7.0000 I-0.7500 J-1.2990 F1800.00
G1 X-1.2990 Y0.7500 Z7.0000 F1800.00
G3 X0.0000 Y-1.5000 Z7.0000 I1.2990 J-0.7500 F1800.00
G1 X200.0000 Y-1.5000 Z7.0000 F1800.00
G3 X201.2990 Y0.7500 Z7.0000 I-0.0000 J1.5000 F1800.00
G1 X183.9548 Y30.7896 Z7.0000 F1800.00
G3 X165.3590 Y41.5000 Z7.0000 I-18.5977 J-10.7916 F1800.00
G1 X138.5872 Y41.5000 Z7.0000 F1800.00
G2 X122.5541 Y69.2700 Z7.0000 I-0.0218 J18.5007 F1800.00
G1 X161.9208 Y137.4551 Z7.0000 F1800.00
G3 X161.7407 Y139.2041 Z7.0000 I-1.2990 J0.7500 F1800.00
G1 X161.7407 Y139.2041 Z6.5000 F1800.00
G3 X161.3718 Y139.5041 Z6.5000 I-1.1189 J-0.9990 F1800.00
G1 X100.7500 Y174.5041 Z6.5000 F1800.00
G3 X98.7010 Y173.9551 Z6.5000 I-0.7500 J-1.2990 F1800.00
G1 X-1.2990 Y0.7500 Z6.5000 F1800.00
G3 X0.0000 Y-1.5000 Z6.5000 I1.2990 J-0.7500 F1800.00
G1 X200.0000 Y-1.5000 Z6.5000 F1800.00
G3 X201.2990 Y0.7500 Z6.5000 I-0.0000 J1.5000 F1800.00
G1 X183.9548 Y30.7896 Z6.5000 F1800.00
G3 X165.3590 Y41.5000 Z6.5000 I-18.5977 J-10.7916 F1800.00
G1 X138.5872 Y41.5000 Z6.5000 F1800.00
G2 X122.5541 Y69.2700 Z6.5000 I-0.0218 J18.5007 F1800.00
G1 X161.9208 Y137.4551 Z6.5000 F1800.00
G3 X161.7407 Y139.2041 Z6.5000 I-1.2990 J0.7500 F1800.00
G1 X161.7407 Y139.2041 Z6.0000 F1800.00
G3 X161.3718 Y139.5041 Z6.0000 I-1.1189 J-0.9990 F1800.00
G1 X100.7500 Y174.5041 Z6.0000 F1800.00
G3 X98.7010 Y173.9551 Z6.0000 I-0.7500 J-1.2990 F1800.00
G1 X-1.2990 Y0.7500 Z6.0000 F1800.00
G3 X0.0000 Y-1.5000 Z6.0000 I1.2990 J-0.7500 F1800.00
G1 X200.0000 Y-1.5000 Z6.0000 F1800.00
G3 X201.2990 Y0.7500 Z6.0000 I-0.0000 J1.5000 F1800.00
G1 X183.9548 Y30.7896 Z6.0000 F1800.00
G3 X165.3590 Y41.5000 Z6.0000 I-18.5977 J-10.7916 F1800.00
G1 X138.5872 Y41.5000 Z6.0000 F1800.00
G2 X122.5541 Y69.2700 Z6.0000 I-0.0218 J18.5007 F1800.00
G1 X161.9208 Y137.4551 Z6.0000 F1800.00
G3 X161.7407 Y139.2041 Z6.0000 I-1.2990 J0.7500 F1800.00
G1 X161.7407 Y139.2041 Z5.5000 F1800.00
G3 X161.3718 Y139.5041 Z5.5000 I-1.1189 J-0.9990 F1800.00
G1 X100.7500 Y174.5041 Z5.5000 F1800.00
G3 X98.7010 Y173.9551 Z5.5000 I-0.7500 J-1.2990 F1800.00
G1 X-1.2990 Y0.7500 Z5.5000 F1800.00
G3 X0.0000 Y-1.5000 Z5.5000 I1.2990 J-0.7500 F1800.00
G1 X200.0000 Y-1.5000 Z5.5000 F1800.00
G3 X201.2990 Y0.7500 Z5.5000 I-0.0000 J1.5000 F1800.00
G1 X183.9548 Y30.7896 Z5.5000 F1800.00
G3 X165.3590 Y41.5000 Z5.5000 I-18.5977 J-10.7916 F1800.00
G1 X138.5872 Y41.5000 Z5.5000 F1800.00
G2 X122.5541 Y69.2700 Z5.5000 I-0.0218 J18.5007 F1800.00
G1 X161.9208 Y137.4551 Z5.5000 F1800.00
G3 X161.7407 Y139.2041 Z5.5000 I-1.2990 J0.7500 F1800.00
G1 X161.7407 Y139.2041 Z5.0000 F1800.00
G3 X161.3718 Y139.5041 Z5.0000 I-1.1189 J-0.9990 F1800.00
G1 X100.7500 Y174.5041 Z5.0000 F1800.00
G3 X98.7010 Y173.9551 Z5.0000 I-0.7500 J-1.2990 F1800.00
G1 X-1.2990 Y0.7500 Z5.0000 F1800.00
G3 X0.0000 Y-1.5000 Z5.0000 I1.2990 J-0.7500 F1800.00
G1 X200.0000 Y-1.5000 Z5.0000 F1800.00
G3 X201.2990 Y0.7500 Z5.0000 I-0.0000 J1.5000 F1800.00
G1 X183.9548 Y30.7896 Z5.0000 F1800.00
G3 X165.3590 Y41.5000 Z5.0000 I-18.5977 J-10.7916 F1800.00
G1 X138.5872 Y41.5000 Z5.0000 F1800.00
G2 X122.5541 Y69.2700 Z5.0000 I-0.0218 J18.5007 F1800.00
G1 X161.9208 Y137.4551 Z5.0000 F1800.00
G3 X161.7407 Y139.2041 Z5.0000 I-1.2990 J0.7500 F1800.00
G1 X161.7407 Y139.2041 Z4.5000 F1800.00
G3 X161.3718 Y139.5041 Z4.5000 I-1.1189 J-0.9990 F1800.00
G1 X100.7500 Y174.5041 Z4.5000 F1800.00
G3 X98.7010 Y173.9551 Z4.5000 I-0.7500 J-1.2990 F1800.00
G1 X-1.2990 Y0.7500 Z4.5000 F1800.00
G3 X0.0000 Y-1.5000 Z4.5000 I1.2990 J-0.7500 F1800.00
G1 X200.0000 Y-1.5000 Z4.5000 F1800.00
G3 X201.2990 Y0.7500 Z4.5000 I-0.0000 J1.5000 F1800.00
G1 X183.9548 Y30.7896 Z4.5000 F1800.00
G3 X165.3590 Y41.5000 Z4.5000 I-18.5977 J-10.7916 F1800.00
G1 X138.5872 Y41.5000 Z4.5000 F1800.00
G2 X122.5541 Y69.2700 Z4.5000 I-0.0218 J18.5007 F1800.00
G1 X161.9208 Y137.4551 Z4.5000 F1800.00
G3 X161.7407 Y139.2041 Z4.5000 I-1.2990 J0.7500 F1800.00
G1 X161.7407 Y139.2041 Z4.0000 F1800.00
G3 X161.3718 Y139.5041 Z4.0000 I-1.1189 J-0.9990 F1800.00
G1 X100.7500 Y174.5041 Z4.0000 F1800.00
G3 X98.7010 Y173.9551 Z4.0000 I-0.7500 J-1.2990 F1800.00
G1 X-1.2990 Y0.7500 Z4.0000 F1800.00
G3 X0.0000 Y-1.5000 Z4.0000 I1.2990 J-0.7500 F1800.00
G1 X200.0000 Y-1.5000 Z4.0000 F1800.00
G3 X201.2990 Y0.7500 Z4.0000 I-0.0000 J1.5000 F1800.00
G1 X183.9548 Y30.7896 Z4.0000 F1800.00
G3 X165.3590 Y41.5000 Z4.0000 I-18.5977 J-10.7916 F1800.00
G1 X138.5872 Y41.5000 Z4.0000 F1800.00
G2 X122.5541 Y69.2700 Z4.0000 I-0.0218 J18.5007 F1800.00
G1 X161.9208 Y137.4551 Z4.0000 F1800.00
G3 X161.7407 Y139.2041 Z4.0000 I-1.2990 J0.7500 F1800.00
G1 X161.7407 Y139.2041 Z3.5000 F1800.00
G3 X161.3718 Y139.5041 Z3.5000 I-1.1189 J-0.9990 F1800.00
G1 X100.7500 Y174.5041 Z3.5000 F1800.00
G3 X98.7010 Y173.9551 Z3.5000 I-0.7500 J-1.2990 F1800.00
G1 X-1.2990 Y0.7500 Z3.5000 F1800.00
G3 X0.0000 Y-1.5000 Z3.5000 I1.2990 J-0.7500 F1800.00
G1 X200.0000 Y-1.5000 Z3.5000 F1800.00
G3 X201.2990 Y0.7500 Z3.5000 I-0.0000 J1.5000 F1800.00
G1 X183.9548 Y30.7896 Z3.5000 F1800.00
G3 X165.3590 Y41.5000 Z3.5000 I-18.5977 J-10.7916 F1800.00
G1 X138.5872 Y41.5000 Z3.5000 F1800.00
G2 X122.5541 Y69.2700 Z3.5000 I-0.0218 J18.5007 F1800.00
G1 X161.9208 Y137.4551 Z3.5000 F1800.00
G3 X161.7407 Y139.2041 Z3.5000 I-1.2990 J0.7500 F1800.00
G1 X161.7407 Y139.2041 Z3.0000 F1800.00
G3 X161.3718 Y139.5041 Z3.0000 I-1.1189 J-0.9990 F1800.00
G1 X100.7500 Y174.5041 Z3.0000 F1800.00
G3 X98.7010 Y173.9551 Z3.0000 I-0.7500 J-1.2990 F1800.00
G1 X-1.2990 Y0.7500 Z3.0000 F1800.00
G3 X0.0000 Y-1.5000 Z3.0000 I1.2990 J-0.7500 F1800.00
G1 X200.0000 Y-1.5000 Z3.0000 F1800.00
G3 X201.2990 Y0.7500 Z3.0000 I-0.0000 J1.5000 F1800.00
G1 X183.9548 Y30.7896 Z3.0000 F1800.00
G3 X165.3590 Y41.5000 Z3.0000 I-18.5977 J-10.7916 F1800.00
G1 X138.5872 Y41.5000 Z3.0000 F1800.00
G2 X122.5541 Y69.2700 Z3.0000 I-0.0218 J18.5007 F1800.00
G1 X161.9208 Y137.4551 Z3.0000 F1800.00
G3 X161.7407 Y139.2041 Z3.0000 I-1.2990 J0.7500 F1800.00
G1 X161.7407 Y139.2041 Z2.5000 F1800.00
G3 X161.3718 Y139.5041 Z2.5000 I-1.1189 J-0.9990 F1800.00
G1 X100.7500 Y174.5041 Z2.5000 F1800.00
G3 X98.7010 Y173.9551 Z2.5000 I-0.7500 J-1.2990 F1800.00
G1 X-1.2990 Y0.7500 Z2.5000 F1800.00
G3 X0.0000 Y-1.5000 Z2.5000 I1.2990 J-0.7500 F1800.00
G1 X200.0000 Y-1.5000 Z2.5000 F1800.00
G3 X201.2990 Y0.7500 Z2.5000 I-0.0000 J1.5000 F1800.00
G1 X183.9548 Y30.7896 Z2.5000 F1800.00
G3 X165.3590 Y41.5000 Z2.5000 I-18.5977 J-10.7916 F1800.00
G1 X138.5872 Y41.5000 Z2.5000 F1800.00
G2 X122.5541 Y69.2700 Z2.5000 I-0.0218 J18.5007 F1800.00
G1 X161.9208 Y137.4551 Z2.5000 F1800.00
G3 X161.7407 Y139.2041 Z2.5000 I-1.2990 J0.7500 F1800.00
G1 X161.7407 Y139.2041 Z2.0000 F1800.00
G3 X161.3718 Y139.5041 Z2.0000 I-1.1189 J-0.9990 F1800.00
G1 X100.7500 Y174.5041 Z2.0000 F1800.00
G3 X98.7010 Y173.9551 Z2.0000 I-0.7500 J-1.2990 F1800.00
G1 X-1.2990 Y0.7500 Z2.0000 F1800.00
G3 X0.0000 Y-1.5000 Z2.0000 I1.2990 J-0.7500 F1800.00
G1 X200.0000 Y-1.5000 Z2.0000 F1800.00
G3 X201.2990 Y0.7500 Z2.0000 I-0.0000 J1.5000 F1800.00
G1 X183.9548 Y30.7896 Z2.0000 F1800.00
G3 X165.3590 Y41.5000 Z2.0000 I-18.5977 J-10.7916 F1800.00
G1 X138.5872 Y41.5000 Z2.0000 F1800.00
G2 X122.5541 Y69.2700 Z2.0000 I-0.0218 J18.5007 F1800.00
G1 X161.9208 Y137.4551 Z2.0000 F1800.00
G3 X161.7407 Y139.2041 Z2.0000 I-1.2990 J0.7500 F1800.00
G1 X161.7407 Y139.2041 Z1.5000 F1800.00
G3 X161.3718 Y139.5041 Z1.5000 I-1.1189 J-0.9990 F1800.00
G1 X100.7500 Y174.5041 Z1.5000 F1800.00
G3 X98.7010 Y173.9551 Z1.5000 I-0.7500 J-1.2990 F1800.00
G1 X-1.2990 Y0.7500 Z1.5000 F1800.00
G3 X0.0000 Y-1.5000 Z1.5000 I1.2990 J-0.7500 F1800.00
G1 X200.0000 Y-1.5000 Z1.5000 F1800.00
G3 X201.2990 Y0.7500 Z1.5000 I-0.0000 J1.5000 F1800.00
G1 X183.9548 Y30.7896 Z1.5000 F1800.00
G3 X165.3590 Y41.5000 Z1.5000 I-18.5977 J-10.7916 F1800.00
G1 X138.5872 Y41.5000 Z1.5000 F1800.00
G2 X122.5541 Y69.2700 Z1.5000 I-0.0218 J18.5007 F1800.00
G1 X161.9208 Y137.4551 Z1.5000 F1800.00
G3 X161.7407 Y139.2041 Z1.5000 I-1.2990 J0.7500 F1800.00
G1 X161.7407 Y139.2041 Z1.0000 F1800.00
G3 X161.3718 Y139.5041 Z1.0000 I-1.1189 J-0.9990 F1800.00
G1 X135.9301 Y154.1929 Z1.0000 F1800.00
G1 X135.6801 Y154.3372 Z1.5000 F1800.00
G1 X126.4417 Y159.6710 Z1.5000 F1800.00
G1 X126.1917 Y159.8153 Z1.0000 F1800.00
G1 X100.7500 Y174.5041 Z1.0000 F1800.00
G3 X98.7010 Y173.9551 Z1.0000 I-0.7500 J-1.2990 F1800.00
G1 X84.8455 Y149.9567 Z1.0000 F1800.00
G1 X84.7012 Y149.7067 Z1.5000 F1800.00
G1 X79.3674 Y140.4684 Z1.5000 F1800.00
G1 X79.2231 Y140.2184 Z1.0000 F1800.00
G1 X51.5122 Y92.2217 Z1.0000 F1800.00
G1 X51.3678 Y91.9717 Z1.5000 F1800.00
G1 X46.0341 Y82.7334 Z1.5000 F1800.00
G1 X45.8897 Y82.4834 Z1.0000 F1800.00
G1 X18.1788 Y34.4867 Z1.0000 F1800.00
G1 X18.0345 Y34.2367 Z1.5000 F1800.00
G1 X12.7008 Y24.9983 Z1.5000 F1800.00
G1 X12.5564 Y24.7483 Z1.0000 F1800.00
G1 X-1.2990 Y0.7500 Z1.0000 F1800.00
G3 X0.0000 Y-1.5000 Z1.0000 I1.2990 J-0.7500 F1800.00
G1 X44.3776 Y-1.5000 Z1.0000 F1800.00
G1 X44.6662 Y-1.5000 Z1.5000 F1800.00
G1 X55.3338 Y-1.5000 Z1.5000 F1800.00
G1 X55.6224 Y-1.5000 Z1.0000 F1800.00
G1 X144.3776 Y-1.5000 Z1.0000 F1800.00
G1 X144.6662 Y-1.5000 Z1.5000 F1800.00
G1 X155.3338 Y-1.5000 Z1.5000 F1800.00
G1 X155.6224 Y-1.5000 Z1.0000 F1800.00
G1 X200.0000 Y-1.5000 Z1.0000 F1800.00
G3 X201.2990 Y0.7500 Z1.0000 I-0.0000 J1.5000 F1800.00
G1 X183.9548 Y30.7896 Z1.0000 F1800.00
G3 X165.3590 Y41.5000 Z1.0000 I-18.5977 J-10.7916 F1800.00
G1 X138.5872 Y41.5000 Z1.0000 F1800.00
G2 X122.5541 Y69.2700 Z1.0000 I-0.0218 J18.5007 F1800.00
G1 X129.5846 Y81.4471 Z1.0000 F1800.00
G1 X129.7289 Y81.6971 Z1.5000 F1800.00
G1 X135.0627 Y90.9354 Z1.5000 F1800.00
G1 X135.2070 Y91.1854 Z1.0000 F1800.00
G1 X149.2679 Y115.5396 Z1.0000 F1800.00
G1 X149.4123 Y115.7896 Z1.5000 F1800.00
G1 X154.7460 Y125.0280 Z1.5000 F1800.00
G1 X154.8904 Y125.2780 Z1.0000 F1800.00
G1 X161.9208 Y137.4551 Z1.0000 F1800.00
G3 X161.7407 Y139.2041 Z1.0000 I-1.2990 J0.7500 F1800.00
G1 X161.7407 Y139.2041 Z0.5000 F1800.00
G3 X161.3718 Y139.5041 Z0.5000 I-1.1189 J-0.9990 F1800.00
G1 X136.1801 Y154.0486 Z0.5000 F1800.00
G1 X135.6801 Y154.3372 Z1.5000 F1800.00
G1 X126.4417 Y159.6710 Z1.5000 F1800.00
G1 X125.9417 Y159.9597 Z0.5000 F1800.00
G1 X100.7500 Y174.5041 Z0.5000 F1800.00
G3 X98.7010 Y173.9551 Z0.5000 I-0.7500 J-1.2990 F1800.00
G1 X84.9898 Y150.2067 Z0.5000 F1800.00
G1 X84.7012 Y149.7067 Z1.5000 F1800.00
G1 X79.3674 Y140.4684 Z1.5000 F1800.00
G1 X79.0787 Y139.9684 Z0.5000 F1800.00
G1 X51.6565 Y92.4717 Z0.5000 F1800.00
G1 X51.3678 Y91.9717 Z1.5000 F1800.00
G1 X46.0341 Y82.7334 Z1.5000 F1800.00
G1 X45.7454 Y82.2334 Z0.5000 F1800.00
G1 X18.3232 Y34.7367 Z0.5000 F1800.00
G1 X18.0345 Y34.2367 Z1.5000 F1800.00
G1 X12.7008 Y24.9983 Z1.5000 F1800.00
G1 X12.4121 Y24.4983 Z0.5000 F1800.00
G1 X-1.2990 Y0.7500 Z0.5000 F1800.00
G3 X0.0000 Y-1.5000 Z0.5000 I1.2990 J-0.7500 F1800.00
G1 X44.0889 Y-1.5000 Z0.5000 F1800.00
G1 X44.6662 Y-1.5000 Z1.5000 F1800.00
G1 X55.3338 Y-1.5000 Z1.5000 F1800.00
G1 X55.9111 Y-1.5000 Z0.5000 F1800.00
G1 X144.0889 Y-1.5000 Z0.5000 F1800.00
G1 X144.6662 Y-1.5000 Z1.5000 F1800.00
G1 X155.3338 Y-1.5000 Z1.5000 F1800.00
G1 X155.9111 Y-1.5000 Z0.5000 F1800.00
G1 X200.0000 Y-1.5000 Z0.5000 F1800.00
G3 X201.2990 Y0.7500 Z0.5000 I-0.0000 J1.5000 F1800.00
G1 X183.9548 Y30.7896 Z0.5000 F1800.00
G3 X165.3590 Y41.5000 Z0.5000 I-18.5977 J-10.7916 F1800.00
G1 X138.5872 Y41.5000 Z0.5000 F1800.00
G2 X122.5541 Y69.2700 Z0.5000 I-0.0218 J18.5007 F1800.00
G1 X129.4403 Y81.1971 Z0.5000 F1800.00
G1 X129.7289 Y81.6971 Z1.5000 F1800.00
G1 X135.0627 Y90.9354 Z1.5000 F1800.00
G1 X135.3514 Y91.4354 Z0.5000 F1800.00
G1 X149.1236 Y115.2896 Z0.5000 F1800.00
G1 X149.4123 Y115.7896 Z1.5000 F1800.00
G1 X154.7460 Y125.0280 Z1.5000 F1800.00
G1 X155.0347 Y125.5280 Z0.5000 F1800.00
G1 X161.9208 Y137.4551 Z0.5000 F1800.00
G3 X161.7407 Y139.2041 Z0.5000 I-1.2990 J0.7500 F1800.00
G1 X161.7407 Y139.2041 Z0.0000 F1800.00
G3 X161.3718 Y139.5041 Z0.0000 I-1.1189 J-0.9990 F1800.00
G1 X136.4301 Y153.9042 Z0.0000 F1800.00
G1 X135.6801 Y154.3372 Z1.5000 F1800.00
G1 X126.4417 Y159.6710 Z1.5000 F1800.00
G1 X125.6917 Y160.1040 Z-0.0000 F1800.00
G1 X100.7500 Y174.5041 Z0.0000 F1800.00
G3 X98.7010 Y173.9551 Z0.0000 I-0.7500 J-1.2990 F1800.00
G1 X85.1342 Y150.4567 Z0.0000 F1800.00
G1 X84.7012 Y149.7067 Z1.5000 F1800.00
G1 X79.3674 Y140.4684 Z1.5000 F1800.00
G1 X78.9344 Y139.7184 Z0.0000 F1800.00
G1 X51.8009 Y92.7217 Z0.0000 F1800.00
G1 X51.3678 Y91.9717 Z1.5000 F1800.00
G1 X46.0341 Y82.7334 Z1.5000 F1800.00
G1 X45.6011 Y81.9834 Z-0.0000 F1800.00
G1 X18.4675 Y34.9867 Z0.0000 F1800.00
G1 X18.0345 Y34.2367 Z1.5000 F1800.00
G1 X12.7008 Y24.9983 Z1.5000 F1800.00
G1 X12.2677 Y24.2483 Z-0.0000 F1800.00
G1 X-1.2990 Y0.7500 Z0.0000 F1800.00
G3 X0.0000 Y-1.5000 Z0.0000 I1.2990 J-0.7500 F1800.00
G1 X43.8002 Y-1.5000 Z0.0000 F1800.00
G1 X44.6662 Y-1.5000 Z1.5000 F1800.00
G1 X55.3338 Y-1.5000 Z1.5000 F1800.00
G1 X56.1998 Y-1.5000 Z0.0000 F1800.00
G1 X143.8002 Y-1.5000 Z0.0000 F1800.00
G1 X144.6662 Y-1.5000 Z1.5000 F1800.00
G1 X155.3338 Y-1.5000 Z1.5000 F1800.00
G1 X156.1998 Y-1.5000 Z0.0000 F1800.00
G1 X200.0000 Y-1.5000 Z0.0000 F1800.00
G3 X201.2990 Y0.7500 Z0.0000 I-0.0000 J1.5000 F1800.00
G1 X183.9548 Y30.7896 Z0.0000 F1800.00
G3 X165.3590 Y41.5000 Z0.0000 I-18.5977 J-10.7916 F1800.00
G1 X138.5872 Y41.5000 Z0.0000 F1800.00
G2 X122.5541 Y69.2700 Z0.0000 I-0.0218 J18.5007 F1800.00
G1 X129.2959 Y80.9471 Z0.0000 F1800.00
G1 X129.7289 Y81.6971 Z1.5000 F1800.00
G1 X135.0627 Y90.9354 Z1.5000 F1800.00
G1 X135.4957 Y91.6854 Z-0.0000 F1800.00
G1 X148.9793 Y115.0396 Z0.0000 F1800.00
G1 X149.4123 Y115.7896 Z1.5000 F1800.00
G1 X154.7460 Y125.0280 Z1.5000 F1800.00
G1 X155.1790 Y125.7780 Z-0.0000 F1800.00
G1 X161.9208 Y137.4551 Z0.0000 F1800.00
G3 X161.7407 Y139.2041 Z0.0000 I-1.2990 J0.7500 F1800.00
G1 X161.7407 Y139.2041 Z-0.5000 F1800.00
G3 X161.3718 Y139.5041 Z-0.5000 I-1.1189 J-0.9990 F1800.00
G1 X136.6801 Y153.7599 Z-0.5000 F1800.00
G1 X135.6801 Y154.3372 Z1.5000 F1800.00
G1 X126.4417 Y159.6710 Z1.5000 F1800.00
G1 X125.4417 Y160.2483 Z-0.5000 F1800.00
G1 X100.7500 Y174.5041 Z-0.5000 F1800.00
G3 X98.7010 Y173.9551 Z-0.5000 I-0.7500 J-1.2990 F1800.00
G1 X85.2785 Y150.7067 Z-0.5000 F1800.00
G1 X84.7012 Y149.7067 Z1.5000 F1800.00
G1 X79.3674 Y140.4684 Z1.5000 F1800.00
G1 X78.7901 Y139.4684 Z-0.5000 F1800.00
G1 X51.9452 Y92.9717 Z-0.5000 F1800.00
G1 X51.3678 Y91.9717 Z1.5000 F1800.00
G1 X46.0341 Y82.7334 Z1.5000 F1800.00
G1 X45.4567 Y81.7334 Z-0.5000 F1800.00
G1 X18.6119 Y35.2367 Z-0.5000 F1800.00
G1 X18.0345 Y34.2367 Z1.5000 F1800.00
G1 X12.7008 Y24.9983 Z1.5000 F1800.00
G1 X12.1234 Y23.9983 Z-0.5000 F1800.00
G1 X-1.2990 Y0.7500 Z-0.5000 F1800.00
G3 X0.0000 Y-1.5000 Z-0.5000 I1.2990 J-0.7500 F1800.00
G1 X43.5115 Y-1.5000 Z-0.5000 F1800.00
G1 X44.6662 Y-1.5000 Z1.5000 F1800.00
G1 X55.3338 Y-1.5000 Z1.5000 F1800.00
G1 X56.4885 Y-1.5000 Z-0.5000 F1800.00
G1 X143.5115 Y-1.5000 Z-0.5000 F1800.00
G1 X144.6662 Y-1.5000 Z1.5000 F1800.00
G1 X155.3338 Y-1.5000 Z1.5000 F1800.00
G1 X156.4885 Y-1.5000 Z-0.5000 F1800.00
G1 X200.0000 Y-1.5000 Z-0.5000 F1800.00
G3 X201.2990 Y0.7500 Z-0.5000 I-0.0000 J1.5000 F1800.00
G1 X183.9548 Y30.7896 Z-0.5000 F1800.00
G3 X165.3590 Y41.5000 Z-0.5000 I-18.5977 J-10.7916 F1800.00
G1 X138.5872 Y41.5000 Z-0.5000 F1800.00
G2 X122.5541 Y69.2700 Z-0.5000 I-0.0218 J18.5007 F1800.00
G1 X129.1516 Y80.6971 Z-0.5000 F1800.00
G1 X129.7289 Y81.6971 Z1.5000 F1800.00
G1 X135.0627 Y90.9354 Z1.5000 F1800.00
G1 X135.6400 Y91.9354 Z-0.5000 F1800.00
G1 X148.8349 Y114.7896 Z-0.5000 F1800.00
G1 X149.4123 Y115.7896 Z1.5000 F1800.00
G1 X154.7460 Y125.0280 Z1.5000 F1800.00
G1 X155.3234 Y126.0280 Z-0.5000 F1800.00
G1 X161.9208 Y137.4551 Z-0.5000 F1800.00
G3 X161.7407 Y139.2041 Z-0.5000 I-1.2990 J0.7500 F1800.00
G0 X161.7407 Y139.2041 Z23.0000
(finish operation: CutProfile_Op)
(begin postamble)
M5
G17 G90
; M2
