(Exported by FreeCAD)
(Post Processor: grbl_post)
(Output Time:2020-01-30 21:35:18.958024)
(begin preamble)
G17 G90
G21
(begin operation: T3: AluminiumMill)
(Path: T3: AluminiumMill)
(T3: AluminiumMill)
(begin toolchange)
; M6 T3
M3 S17000.0000
(finish operation: T3: AluminiumMill)
(begin operation: SideFeed_Holes)
(Path: SideFeed_Holes)
(inactive operation)
(finish operation: SideFeed_Holes)
(begin operation: Sidefeed_Holes_001)
(Path: Sidefeed_Holes_001)
(inactive operation)
(finish operation: Sidefeed_Holes_001)
(begin operation: SideFeet_Outline)
(Path: SideFeet_Outline)
(SideFeet_Outline)
(Compensated Tool Path. Diameter: 3.0)
G0 Z8.0000
G0 X165.2799 Y145.1584
G0 Z6.0000
G1 X165.2799 Y145.1584 Z2.6000 F800.00
G3 X164.8718 Y145.5041 Z2.6000 I-1.1581 J-0.9533 F800.00
G1 X104.2500 Y180.5041 Z2.6000 F800.00
G3 X102.2010 Y179.9551 Z2.6000 I-0.7500 J-1.2990 F800.00
G1 X-1.2631 Y0.7500 Z2.6000 F800.00
G3 X0.0359 Y-1.5000 Z2.6000 I1.2990 J-0.7500 F800.00
G1 X20.0359 Y-1.5000 Z2.6000 F800.00
G3 X21.3349 Y-0.7500 Z2.6000 I-0.0000 J1.5000 F800.00
G1 X23.3338 Y2.7122 Z2.6000 F800.00
G2 X26.4304 Y4.5000 Z2.6000 I3.0631 J-1.7299 F800.00
G1 X87.1055 Y4.5000 Z2.6000 F800.00
G2 X90.2021 Y2.7122 Z2.6000 I0.0334 J-3.5177 F800.00
G1 X92.2010 Y-0.7500 Z2.6000 F800.00
G3 X93.5000 Y-1.5000 Z2.6000 I1.2990 J0.7500 F800.00
G1 X113.5000 Y-1.5000 Z2.6000 F800.00
G3 X114.7990 Y-0.7500 Z2.6000 I0.0000 J1.5000 F800.00
G1 X116.7979 Y2.7122 Z2.6000 F800.00
G2 X119.8945 Y4.5000 Z2.6000 I3.0631 J-1.7299 F800.00
G1 X180.5696 Y4.5000 Z2.6000 F800.00
G2 X183.6662 Y2.7122 Z2.6000 I0.0334 J-3.5177 F800.00
G1 X185.6651 Y-0.7500 Z2.6000 F800.00
G3 X186.9641 Y-1.5000 Z2.6000 I1.2990 J0.7500 F800.00
G1 X206.9641 Y-1.5000 Z2.6000 F800.00
G3 X208.2631 Y0.7500 Z2.6000 I-0.0000 J1.5000 F800.00
G1 X187.4548 Y36.7896 Z2.6000 F800.00
G3 X168.8590 Y47.5000 Z2.6000 I-18.5978 J-10.7916 F800.00
G1 X142.0872 Y47.5000 Z2.6000 F800.00
G2 X126.0541 Y75.2700 Z2.6000 I-0.0218 J18.5007 F800.00
G1 X165.4208 Y143.4551 Z2.6000 F800.00
G3 X165.2799 Y145.1584 Z2.6000 I-1.2990 J0.7500 F800.00
G1 X165.2799 Y145.1584 Z2.2000 F800.00
G3 X164.8718 Y145.5041 Z2.2000 I-1.1581 J-0.9533 F800.00
G1 X104.2500 Y180.5041 Z2.2000 F800.00
G3 X102.2010 Y179.9551 Z2.2000 I-0.7500 J-1.2990 F800.00
G1 X-1.2631 Y0.7500 Z2.2000 F800.00
G3 X0.0359 Y-1.5000 Z2.2000 I1.2990 J-0.7500 F800.00
G1 X20.0359 Y-1.5000 Z2.2000 F800.00
G3 X21.3349 Y-0.7500 Z2.2000 I-0.0000 J1.5000 F800.00
G1 X23.3338 Y2.7122 Z2.2000 F800.00
G2 X26.4304 Y4.5000 Z2.2000 I3.0631 J-1.7299 F800.00
G1 X87.1055 Y4.5000 Z2.2000 F800.00
G2 X90.2021 Y2.7122 Z2.2000 I0.0334 J-3.5177 F800.00
G1 X92.2010 Y-0.7500 Z2.2000 F800.00
G3 X93.5000 Y-1.5000 Z2.2000 I1.2990 J0.7500 F800.00
G1 X113.5000 Y-1.5000 Z2.2000 F800.00
G3 X114.7990 Y-0.7500 Z2.2000 I0.0000 J1.5000 F800.00
G1 X116.7979 Y2.7122 Z2.2000 F800.00
G2 X119.8945 Y4.5000 Z2.2000 I3.0631 J-1.7299 F800.00
G1 X180.5696 Y4.5000 Z2.2000 F800.00
G2 X183.6662 Y2.7122 Z2.2000 I0.0334 J-3.5177 F800.00
G1 X185.6651 Y-0.7500 Z2.2000 F800.00
G3 X186.9641 Y-1.5000 Z2.2000 I1.2990 J0.7500 F800.00
G1 X206.9641 Y-1.5000 Z2.2000 F800.00
G3 X208.2631 Y0.7500 Z2.2000 I-0.0000 J1.5000 F800.00
G1 X187.4548 Y36.7896 Z2.2000 F800.00
G3 X168.8590 Y47.5000 Z2.2000 I-18.5978 J-10.7916 F800.00
G1 X142.0872 Y47.5000 Z2.2000 F800.00
G2 X126.0541 Y75.2700 Z2.2000 I-0.0218 J18.5007 F800.00
G1 X165.4208 Y143.4551 Z2.2000 F800.00
G3 X165.2799 Y145.1584 Z2.2000 I-1.2990 J0.7500 F800.00
G1 X165.2799 Y145.1584 Z1.8000 F800.00
G3 X164.8718 Y145.5041 Z1.8000 I-1.1581 J-0.9533 F800.00
G1 X104.2500 Y180.5041 Z1.8000 F800.00
G3 X102.2010 Y179.9551 Z1.8000 I-0.7500 J-1.2990 F800.00
G1 X-1.2631 Y0.7500 Z1.8000 F800.00
G3 X0.0359 Y-1.5000 Z1.8000 I1.2990 J-0.7500 F800.00
G1 X20.0359 Y-1.5000 Z1.8000 F800.00
G3 X21.3349 Y-0.7500 Z1.8000 I-0.0000 J1.5000 F800.00
G1 X23.3338 Y2.7122 Z1.8000 F800.00
G2 X26.4304 Y4.5000 Z1.8000 I3.0631 J-1.7299 F800.00
G1 X87.1055 Y4.5000 Z1.8000 F800.00
G2 X90.2021 Y2.7122 Z1.8000 I0.0334 J-3.5177 F800.00
G1 X92.2010 Y-0.7500 Z1.8000 F800.00
G3 X93.5000 Y-1.5000 Z1.8000 I1.2990 J0.7500 F800.00
G1 X113.5000 Y-1.5000 Z1.8000 F800.00
G3 X114.7990 Y-0.7500 Z1.8000 I0.0000 J1.5000 F800.00
G1 X116.7979 Y2.7122 Z1.8000 F800.00
G2 X119.8945 Y4.5000 Z1.8000 I3.0631 J-1.7299 F800.00
G1 X180.5696 Y4.5000 Z1.8000 F800.00
G2 X183.6662 Y2.7122 Z1.8000 I0.0334 J-3.5177 F800.00
G1 X185.6651 Y-0.7500 Z1.8000 F800.00
G3 X186.9641 Y-1.5000 Z1.8000 I1.2990 J0.7500 F800.00
G1 X206.9641 Y-1.5000 Z1.8000 F800.00
G3 X208.2631 Y0.7500 Z1.8000 I-0.0000 J1.5000 F800.00
G1 X187.4548 Y36.7896 Z1.8000 F800.00
G3 X168.8590 Y47.5000 Z1.8000 I-18.5978 J-10.7916 F800.00
G1 X142.0872 Y47.5000 Z1.8000 F800.00
G2 X126.0541 Y75.2700 Z1.8000 I-0.0218 J18.5007 F800.00
G1 X165.4208 Y143.4551 Z1.8000 F800.00
G3 X165.2799 Y145.1584 Z1.8000 I-1.2990 J0.7500 F800.00
G1 X165.2799 Y145.1584 Z1.4000 F800.00
G3 X164.8718 Y145.5041 Z1.4000 I-1.1581 J-0.9533 F800.00
G1 X104.2500 Y180.5041 Z1.4000 F800.00
G3 X102.2010 Y179.9551 Z1.4000 I-0.7500 J-1.2990 F800.00
G1 X-1.2631 Y0.7500 Z1.4000 F800.00
G3 X0.0359 Y-1.5000 Z1.4000 I1.2990 J-0.7500 F800.00
G1 X20.0359 Y-1.5000 Z1.4000 F800.00
G3 X21.3349 Y-0.7500 Z1.4000 I-0.0000 J1.5000 F800.00
G1 X23.3338 Y2.7122 Z1.4000 F800.00
G2 X26.4304 Y4.5000 Z1.4000 I3.0631 J-1.7299 F800.00
G1 X87.1055 Y4.5000 Z1.4000 F800.00
G2 X90.2021 Y2.7122 Z1.4000 I0.0334 J-3.5177 F800.00
G1 X92.2010 Y-0.7500 Z1.4000 F800.00
G3 X93.5000 Y-1.5000 Z1.4000 I1.2990 J0.7500 F800.00
G1 X113.5000 Y-1.5000 Z1.4000 F800.00
G3 X114.7990 Y-0.7500 Z1.4000 I0.0000 J1.5000 F800.00
G1 X116.7979 Y2.7122 Z1.4000 F800.00
G2 X119.8945 Y4.5000 Z1.4000 I3.0631 J-1.7299 F800.00
G1 X180.5696 Y4.5000 Z1.4000 F800.00
G2 X183.6662 Y2.7122 Z1.4000 I0.0334 J-3.5177 F800.00
G1 X185.6651 Y-0.7500 Z1.4000 F800.00
G3 X186.9641 Y-1.5000 Z1.4000 I1.2990 J0.7500 F800.00
G1 X206.9641 Y-1.5000 Z1.4000 F800.00
G3 X208.2631 Y0.7500 Z1.4000 I-0.0000 J1.5000 F800.00
G1 X187.4548 Y36.7896 Z1.4000 F800.00
G3 X168.8590 Y47.5000 Z1.4000 I-18.5978 J-10.7916 F800.00
G1 X142.0872 Y47.5000 Z1.4000 F800.00
G2 X126.0541 Y75.2700 Z1.4000 I-0.0218 J18.5007 F800.00
G1 X165.4208 Y143.4551 Z1.4000 F800.00
G3 X165.2799 Y145.1584 Z1.4000 I-1.2990 J0.7500 F800.00
G1 X165.2799 Y145.1584 Z1.0000 F800.00
G3 X164.8718 Y145.5041 Z1.0000 I-1.1581 J-0.9533 F800.00
G1 X104.2500 Y180.5041 Z1.0000 F800.00
G3 X102.2010 Y179.9551 Z1.0000 I-0.7500 J-1.2990 F800.00
G1 X-1.2631 Y0.7500 Z1.0000 F800.00
G3 X0.0359 Y-1.5000 Z1.0000 I1.2990 J-0.7500 F800.00
G1 X20.0359 Y-1.5000 Z1.0000 F800.00
G3 X21.3349 Y-0.7500 Z1.0000 I-0.0000 J1.5000 F800.00
G1 X23.3338 Y2.7122 Z1.0000 F800.00
G2 X26.4304 Y4.5000 Z1.0000 I3.0631 J-1.7299 F800.00
G1 X87.1055 Y4.5000 Z1.0000 F800.00
G2 X90.2021 Y2.7122 Z1.0000 I0.0334 J-3.5177 F800.00
G1 X92.2010 Y-0.7500 Z1.0000 F800.00
G3 X93.5000 Y-1.5000 Z1.0000 I1.2990 J0.7500 F800.00
G1 X113.5000 Y-1.5000 Z1.0000 F800.00
G3 X114.7990 Y-0.7500 Z1.0000 I0.0000 J1.5000 F800.00
G1 X116.7979 Y2.7122 Z1.0000 F800.00
G2 X119.8945 Y4.5000 Z1.0000 I3.0631 J-1.7299 F800.00
G1 X180.5696 Y4.5000 Z1.0000 F800.00
G2 X183.6662 Y2.7122 Z1.0000 I0.0334 J-3.5177 F800.00
G1 X185.6651 Y-0.7500 Z1.0000 F800.00
G3 X186.9641 Y-1.5000 Z1.0000 I1.2990 J0.7500 F800.00
G1 X206.9641 Y-1.5000 Z1.0000 F800.00
G3 X208.2631 Y0.7500 Z1.0000 I-0.0000 J1.5000 F800.00
G1 X187.4548 Y36.7896 Z1.0000 F800.00
G3 X168.8590 Y47.5000 Z1.0000 I-18.5978 J-10.7916 F800.00
G1 X142.0872 Y47.5000 Z1.0000 F800.00
G2 X126.0541 Y75.2700 Z1.0000 I-0.0218 J18.5007 F800.00
G1 X165.4208 Y143.4551 Z1.0000 F800.00
G3 X165.2799 Y145.1584 Z1.0000 I-1.2990 J0.7500 F800.00
G1 X165.2799 Y145.1584 Z0.6000 F800.00
G3 X164.8718 Y145.5041 Z0.6000 I-1.1581 J-0.9533 F800.00
G1 X104.2500 Y180.5041 Z0.6000 F800.00
G3 X102.2010 Y179.9551 Z0.6000 I-0.7500 J-1.2990 F800.00
G1 X-1.2631 Y0.7500 Z0.6000 F800.00
G3 X0.0359 Y-1.5000 Z0.6000 I1.2990 J-0.7500 F800.00
G1 X20.0359 Y-1.5000 Z0.6000 F800.00
G3 X21.3349 Y-0.7500 Z0.6000 I-0.0000 J1.5000 F800.00
G1 X23.3338 Y2.7122 Z0.6000 F800.00
G2 X26.4304 Y4.5000 Z0.6000 I3.0631 J-1.7299 F800.00
G1 X87.1055 Y4.5000 Z0.6000 F800.00
G2 X90.2021 Y2.7122 Z0.6000 I0.0334 J-3.5177 F800.00
G1 X92.2010 Y-0.7500 Z0.6000 F800.00
G3 X93.5000 Y-1.5000 Z0.6000 I1.2990 J0.7500 F800.00
G1 X113.5000 Y-1.5000 Z0.6000 F800.00
G3 X114.7990 Y-0.7500 Z0.6000 I0.0000 J1.5000 F800.00
G1 X116.7979 Y2.7122 Z0.6000 F800.00
G2 X119.8945 Y4.5000 Z0.6000 I3.0631 J-1.7299 F800.00
G1 X180.5696 Y4.5000 Z0.6000 F800.00
G2 X183.6662 Y2.7122 Z0.6000 I0.0334 J-3.5177 F800.00
G1 X185.6651 Y-0.7500 Z0.6000 F800.00
G3 X186.9641 Y-1.5000 Z0.6000 I1.2990 J0.7500 F800.00
G1 X206.9641 Y-1.5000 Z0.6000 F800.00
G3 X208.2631 Y0.7500 Z0.6000 I-0.0000 J1.5000 F800.00
G1 X187.4548 Y36.7896 Z0.6000 F800.00
G3 X168.8590 Y47.5000 Z0.6000 I-18.5978 J-10.7916 F800.00
G1 X142.0872 Y47.5000 Z0.6000 F800.00
G2 X126.0541 Y75.2700 Z0.6000 I-0.0218 J18.5007 F800.00
G1 X165.4208 Y143.4551 Z0.6000 F800.00
G3 X165.2799 Y145.1584 Z0.6000 I-1.2990 J0.7500 F800.00
G1 X165.2799 Y145.1584 Z0.2000 F800.00
G3 X164.8718 Y145.5041 Z0.2000 I-1.1581 J-0.9533 F800.00
G1 X104.2500 Y180.5041 Z0.2000 F800.00
G3 X102.2010 Y179.9551 Z0.2000 I-0.7500 J-1.2990 F800.00
G1 X-1.2631 Y0.7500 Z0.2000 F800.00
G3 X0.0359 Y-1.5000 Z0.2000 I1.2990 J-0.7500 F800.00
G1 X20.0359 Y-1.5000 Z0.2000 F800.00
G3 X21.3349 Y-0.7500 Z0.2000 I-0.0000 J1.5000 F800.00
G1 X23.3338 Y2.7122 Z0.2000 F800.00
G2 X26.4304 Y4.5000 Z0.2000 I3.0631 J-1.7299 F800.00
G1 X87.1055 Y4.5000 Z0.2000 F800.00
G2 X90.2021 Y2.7122 Z0.2000 I0.0334 J-3.5177 F800.00
G1 X92.2010 Y-0.7500 Z0.2000 F800.00
G3 X93.5000 Y-1.5000 Z0.2000 I1.2990 J0.7500 F800.00
G1 X113.5000 Y-1.5000 Z0.2000 F800.00
G3 X114.7990 Y-0.7500 Z0.2000 I0.0000 J1.5000 F800.00
G1 X116.7979 Y2.7122 Z0.2000 F800.00
G2 X119.8945 Y4.5000 Z0.2000 I3.0631 J-1.7299 F800.00
G1 X180.5696 Y4.5000 Z0.2000 F800.00
G2 X183.6662 Y2.7122 Z0.2000 I0.0334 J-3.5177 F800.00
G1 X185.6651 Y-0.7500 Z0.2000 F800.00
G3 X186.9641 Y-1.5000 Z0.2000 I1.2990 J0.7500 F800.00
G1 X206.9641 Y-1.5000 Z0.2000 F800.00
G3 X208.2631 Y0.7500 Z0.2000 I-0.0000 J1.5000 F800.00
G1 X187.4548 Y36.7896 Z0.2000 F800.00
G3 X168.8590 Y47.5000 Z0.2000 I-18.5978 J-10.7916 F800.00
G1 X142.0872 Y47.5000 Z0.2000 F800.00
G2 X126.0541 Y75.2700 Z0.2000 I-0.0218 J18.5007 F800.00
G1 X165.4208 Y143.4551 Z0.2000 F800.00
G3 X165.2799 Y145.1584 Z0.2000 I-1.2990 J0.7500 F800.00
G1 X165.2799 Y145.1584 Z-0.2000 F800.00
G3 X164.8718 Y145.5041 Z-0.2000 I-1.1581 J-0.9533 F800.00
G1 X104.2500 Y180.5041 Z-0.2000 F800.00
G3 X102.2010 Y179.9551 Z-0.2000 I-0.7500 J-1.2990 F800.00
G1 X-1.2631 Y0.7500 Z-0.2000 F800.00
G3 X0.0359 Y-1.5000 Z-0.2000 I1.2990 J-0.7500 F800.00
G1 X20.0359 Y-1.5000 Z-0.2000 F800.00
G3 X21.3349 Y-0.7500 Z-0.2000 I-0.0000 J1.5000 F800.00
G1 X23.3338 Y2.7122 Z-0.2000 F800.00
G2 X26.4304 Y4.5000 Z-0.2000 I3.0631 J-1.7299 F800.00
G1 X87.1055 Y4.5000 Z-0.2000 F800.00
G2 X90.2021 Y2.7122 Z-0.2000 I0.0334 J-3.5177 F800.00
G1 X92.2010 Y-0.7500 Z-0.2000 F800.00
G3 X93.5000 Y-1.5000 Z-0.2000 I1.2990 J0.7500 F800.00
G1 X113.5000 Y-1.5000 Z-0.2000 F800.00
G3 X114.7990 Y-0.7500 Z-0.2000 I0.0000 J1.5000 F800.00
G1 X116.7979 Y2.7122 Z-0.2000 F800.00
G2 X119.8945 Y4.5000 Z-0.2000 I3.0631 J-1.7299 F800.00
G1 X180.5696 Y4.5000 Z-0.2000 F800.00
G2 X183.6662 Y2.7122 Z-0.2000 I0.0334 J-3.5177 F800.00
G1 X185.6651 Y-0.7500 Z-0.2000 F800.00
G3 X186.9641 Y-1.5000 Z-0.2000 I1.2990 J0.7500 F800.00
G1 X206.9641 Y-1.5000 Z-0.2000 F800.00
G3 X208.2631 Y0.7500 Z-0.2000 I-0.0000 J1.5000 F800.00
G1 X187.4548 Y36.7896 Z-0.2000 F800.00
G3 X168.8590 Y47.5000 Z-0.2000 I-18.5978 J-10.7916 F800.00
G1 X142.0872 Y47.5000 Z-0.2000 F800.00
G2 X126.0541 Y75.2700 Z-0.2000 I-0.0218 J18.5007 F800.00
G1 X165.4208 Y143.4551 Z-0.2000 F800.00
G3 X165.2799 Y145.1584 Z-0.2000 I-1.2990 J0.7500 F800.00
G1 X165.2799 Y145.1584 Z-0.4000 F800.00
G3 X164.8718 Y145.5041 Z-0.4000 I-1.1581 J-0.9533 F800.00
G1 X104.2500 Y180.5041 Z-0.4000 F800.00
G3 X102.2010 Y179.9551 Z-0.4000 I-0.7500 J-1.2990 F800.00
G1 X-1.2631 Y0.7500 Z-0.4000 F800.00
G3 X0.0359 Y-1.5000 Z-0.4000 I1.2990 J-0.7500 F800.00
G1 X20.0359 Y-1.5000 Z-0.4000 F800.00
G3 X21.3349 Y-0.7500 Z-0.4000 I-0.0000 J1.5000 F800.00
G1 X23.3338 Y2.7122 Z-0.4000 F800.00
G2 X26.4304 Y4.5000 Z-0.4000 I3.0631 J-1.7299 F800.00
G1 X87.1055 Y4.5000 Z-0.4000 F800.00
G2 X90.2021 Y2.7122 Z-0.4000 I0.0334 J-3.5177 F800.00
G1 X92.2010 Y-0.7500 Z-0.4000 F800.00
G3 X93.5000 Y-1.5000 Z-0.4000 I1.2990 J0.7500 F800.00
G1 X113.5000 Y-1.5000 Z-0.4000 F800.00
G3 X114.7990 Y-0.7500 Z-0.4000 I0.0000 J1.5000 F800.00
G1 X116.7979 Y2.7122 Z-0.4000 F800.00
G2 X119.8945 Y4.5000 Z-0.4000 I3.0631 J-1.7299 F800.00
G1 X180.5696 Y4.5000 Z-0.4000 F800.00
G2 X183.6662 Y2.7122 Z-0.4000 I0.0334 J-3.5177 F800.00
G1 X185.6651 Y-0.7500 Z-0.4000 F800.00
G3 X186.9641 Y-1.5000 Z-0.4000 I1.2990 J0.7500 F800.00
G1 X206.9641 Y-1.5000 Z-0.4000 F800.00
G3 X208.2631 Y0.7500 Z-0.4000 I-0.0000 J1.5000 F800.00
G1 X187.4548 Y36.7896 Z-0.4000 F800.00
G3 X168.8590 Y47.5000 Z-0.4000 I-18.5978 J-10.7916 F800.00
G1 X142.0872 Y47.5000 Z-0.4000 F800.00
G2 X126.0541 Y75.2700 Z-0.4000 I-0.0218 J18.5007 F800.00
G1 X165.4208 Y143.4551 Z-0.4000 F800.00
G3 X165.2799 Y145.1584 Z-0.4000 I-1.2990 J0.7500 F800.00
G0 Z8.0000
(finish operation: SideFeet_Outline)
(begin operation: SideFeet_Outline_001)
(Path: SideFeet_Outline_001)
(SideFeet_Outline)
(Compensated Tool Path. Diameter: 3.0)
G0 Z8.0000
G0 X165.2799 Y345.1584
G0 Z6.0000
G1 X165.2799 Y345.1584 Z2.6000 F800.00
G3 X164.8718 Y345.5041 Z2.6000 I-1.1581 J-0.9533 F800.00
G1 X104.2500 Y380.5041 Z2.6000 F800.00
G3 X102.2010 Y379.9551 Z2.6000 I-0.7500 J-1.2990 F800.00
G1 X-1.2631 Y200.7500 Z2.6000 F800.00
G3 X0.0359 Y198.5000 Z2.6000 I1.2990 J-0.7500 F800.00
G1 X20.0359 Y198.5000 Z2.6000 F800.00
G3 X21.3349 Y199.2500 Z2.6000 I0.0000 J1.5000 F800.00
G1 X23.3338 Y202.7122 Z2.6000 F800.00
G2 X26.4304 Y204.5000 Z2.6000 I3.0631 J-1.7299 F800.00
G1 X87.1055 Y204.5000 Z2.6000 F800.00
G2 X90.2021 Y202.7122 Z2.6000 I0.0334 J-3.5177 F800.00
G1 X92.2010 Y199.2500 Z2.6000 F800.00
G3 X93.5000 Y198.5000 Z2.6000 I1.2990 J0.7500 F800.00
G1 X113.5000 Y198.5000 Z2.6000 F800.00
G3 X114.7990 Y199.2500 Z2.6000 I0.0000 J1.5000 F800.00
G1 X116.7979 Y202.7122 Z2.6000 F800.00
G2 X119.8945 Y204.5000 Z2.6000 I3.0631 J-1.7299 F800.00
G1 X180.5696 Y204.5000 Z2.6000 F800.00
G2 X183.6662 Y202.7122 Z2.6000 I0.0334 J-3.5177 F800.00
G1 X185.6651 Y199.2500 Z2.6000 F800.00
G3 X186.9641 Y198.5000 Z2.6000 I1.2990 J0.7500 F800.00
G1 X206.9641 Y198.5000 Z2.6000 F800.00
G3 X208.2631 Y200.7500 Z2.6000 I0.0000 J1.5000 F800.00
G1 X187.4548 Y236.7896 Z2.6000 F800.00
G3 X168.8590 Y247.5000 Z2.6000 I-18.5978 J-10.7916 F800.00
G1 X142.0872 Y247.5000 Z2.6000 F800.00
G2 X126.0541 Y275.2700 Z2.6000 I-0.0218 J18.5007 F800.00
G1 X165.4208 Y343.4551 Z2.6000 F800.00
G3 X165.2799 Y345.1584 Z2.6000 I-1.2990 J0.7500 F800.00
G1 X165.2799 Y345.1584 Z2.2000 F800.00
G3 X164.8718 Y345.5041 Z2.2000 I-1.1581 J-0.9533 F800.00
G1 X104.2500 Y380.5041 Z2.2000 F800.00
G3 X102.2010 Y379.9551 Z2.2000 I-0.7500 J-1.2990 F800.00
G1 X-1.2631 Y200.7500 Z2.2000 F800.00
G3 X0.0359 Y198.5000 Z2.2000 I1.2990 J-0.7500 F800.00
G1 X20.0359 Y198.5000 Z2.2000 F800.00
G3 X21.3349 Y199.2500 Z2.2000 I0.0000 J1.5000 F800.00
G1 X23.3338 Y202.7122 Z2.2000 F800.00
G2 X26.4304 Y204.5000 Z2.2000 I3.0631 J-1.7299 F800.00
G1 X87.1055 Y204.5000 Z2.2000 F800.00
G2 X90.2021 Y202.7122 Z2.2000 I0.0334 J-3.5177 F800.00
G1 X92.2010 Y199.2500 Z2.2000 F800.00
G3 X93.5000 Y198.5000 Z2.2000 I1.2990 J0.7500 F800.00
G1 X113.5000 Y198.5000 Z2.2000 F800.00
G3 X114.7990 Y199.2500 Z2.2000 I0.0000 J1.5000 F800.00
G1 X116.7979 Y202.7122 Z2.2000 F800.00
G2 X119.8945 Y204.5000 Z2.2000 I3.0631 J-1.7299 F800.00
G1 X180.5696 Y204.5000 Z2.2000 F800.00
G2 X183.6662 Y202.7122 Z2.2000 I0.0334 J-3.5177 F800.00
G1 X185.6651 Y199.2500 Z2.2000 F800.00
G3 X186.9641 Y198.5000 Z2.2000 I1.2990 J0.7500 F800.00
G1 X206.9641 Y198.5000 Z2.2000 F800.00
G3 X208.2631 Y200.7500 Z2.2000 I0.0000 J1.5000 F800.00
G1 X187.4548 Y236.7896 Z2.2000 F800.00
G3 X168.8590 Y247.5000 Z2.2000 I-18.5978 J-10.7916 F800.00
G1 X142.0872 Y247.5000 Z2.2000 F800.00
G2 X126.0541 Y275.2700 Z2.2000 I-0.0218 J18.5007 F800.00
G1 X165.4208 Y343.4551 Z2.2000 F800.00
G3 X165.2799 Y345.1584 Z2.2000 I-1.2990 J0.7500 F800.00
G1 X165.2799 Y345.1584 Z1.8000 F800.00
G3 X164.8718 Y345.5041 Z1.8000 I-1.1581 J-0.9533 F800.00
G1 X104.2500 Y380.5041 Z1.8000 F800.00
G3 X102.2010 Y379.9551 Z1.8000 I-0.7500 J-1.2990 F800.00
G1 X-1.2631 Y200.7500 Z1.8000 F800.00
G3 X0.0359 Y198.5000 Z1.8000 I1.2990 J-0.7500 F800.00
G1 X20.0359 Y198.5000 Z1.8000 F800.00
G3 X21.3349 Y199.2500 Z1.8000 I0.0000 J1.5000 F800.00
G1 X23.3338 Y202.7122 Z1.8000 F800.00
G2 X26.4304 Y204.5000 Z1.8000 I3.0631 J-1.7299 F800.00
G1 X87.1055 Y204.5000 Z1.8000 F800.00
G2 X90.2021 Y202.7122 Z1.8000 I0.0334 J-3.5177 F800.00
G1 X92.2010 Y199.2500 Z1.8000 F800.00
G3 X93.5000 Y198.5000 Z1.8000 I1.2990 J0.7500 F800.00
G1 X113.5000 Y198.5000 Z1.8000 F800.00
G3 X114.7990 Y199.2500 Z1.8000 I0.0000 J1.5000 F800.00
G1 X116.7979 Y202.7122 Z1.8000 F800.00
G2 X119.8945 Y204.5000 Z1.8000 I3.0631 J-1.7299 F800.00
G1 X180.5696 Y204.5000 Z1.8000 F800.00
G2 X183.6662 Y202.7122 Z1.8000 I0.0334 J-3.5177 F800.00
G1 X185.6651 Y199.2500 Z1.8000 F800.00
G3 X186.9641 Y198.5000 Z1.8000 I1.2990 J0.7500 F800.00
G1 X206.9641 Y198.5000 Z1.8000 F800.00
G3 X208.2631 Y200.7500 Z1.8000 I0.0000 J1.5000 F800.00
G1 X187.4548 Y236.7896 Z1.8000 F800.00
G3 X168.8590 Y247.5000 Z1.8000 I-18.5978 J-10.7916 F800.00
G1 X142.0872 Y247.5000 Z1.8000 F800.00
G2 X126.0541 Y275.2700 Z1.8000 I-0.0218 J18.5007 F800.00
G1 X165.4208 Y343.4551 Z1.8000 F800.00
G3 X165.2799 Y345.1584 Z1.8000 I-1.2990 J0.7500 F800.00
G1 X165.2799 Y345.1584 Z1.4000 F800.00
G3 X164.8718 Y345.5041 Z1.4000 I-1.1581 J-0.9533 F800.00
G1 X104.2500 Y380.5041 Z1.4000 F800.00
G3 X102.2010 Y379.9551 Z1.4000 I-0.7500 J-1.2990 F800.00
G1 X-1.2631 Y200.7500 Z1.4000 F800.00
G3 X0.0359 Y198.5000 Z1.4000 I1.2990 J-0.7500 F800.00
G1 X20.0359 Y198.5000 Z1.4000 F800.00
G3 X21.3349 Y199.2500 Z1.4000 I0.0000 J1.5000 F800.00
G1 X23.3338 Y202.7122 Z1.4000 F800.00
G2 X26.4304 Y204.5000 Z1.4000 I3.0631 J-1.7299 F800.00
G1 X87.1055 Y204.5000 Z1.4000 F800.00
G2 X90.2021 Y202.7122 Z1.4000 I0.0334 J-3.5177 F800.00
G1 X92.2010 Y199.2500 Z1.4000 F800.00
G3 X93.5000 Y198.5000 Z1.4000 I1.2990 J0.7500 F800.00
G1 X113.5000 Y198.5000 Z1.4000 F800.00
G3 X114.7990 Y199.2500 Z1.4000 I0.0000 J1.5000 F800.00
G1 X116.7979 Y202.7122 Z1.4000 F800.00
G2 X119.8945 Y204.5000 Z1.4000 I3.0631 J-1.7299 F800.00
G1 X180.5696 Y204.5000 Z1.4000 F800.00
G2 X183.6662 Y202.7122 Z1.4000 I0.0334 J-3.5177 F800.00
G1 X185.6651 Y199.2500 Z1.4000 F800.00
G3 X186.9641 Y198.5000 Z1.4000 I1.2990 J0.7500 F800.00
G1 X206.9641 Y198.5000 Z1.4000 F800.00
G3 X208.2631 Y200.7500 Z1.4000 I0.0000 J1.5000 F800.00
G1 X187.4548 Y236.7896 Z1.4000 F800.00
G3 X168.8590 Y247.5000 Z1.4000 I-18.5978 J-10.7916 F800.00
G1 X142.0872 Y247.5000 Z1.4000 F800.00
G2 X126.0541 Y275.2700 Z1.4000 I-0.0218 J18.5007 F800.00
G1 X165.4208 Y343.4551 Z1.4000 F800.00
G3 X165.2799 Y345.1584 Z1.4000 I-1.2990 J0.7500 F800.00
G1 X165.2799 Y345.1584 Z1.0000 F800.00
G3 X164.8718 Y345.5041 Z1.0000 I-1.1581 J-0.9533 F800.00
G1 X104.2500 Y380.5041 Z1.0000 F800.00
G3 X102.2010 Y379.9551 Z1.0000 I-0.7500 J-1.2990 F800.00
G1 X-1.2631 Y200.7500 Z1.0000 F800.00
G3 X0.0359 Y198.5000 Z1.0000 I1.2990 J-0.7500 F800.00
G1 X20.0359 Y198.5000 Z1.0000 F800.00
G3 X21.3349 Y199.2500 Z1.0000 I0.0000 J1.5000 F800.00
G1 X23.3338 Y202.7122 Z1.0000 F800.00
G2 X26.4304 Y204.5000 Z1.0000 I3.0631 J-1.7299 F800.00
G1 X87.1055 Y204.5000 Z1.0000 F800.00
G2 X90.2021 Y202.7122 Z1.0000 I0.0334 J-3.5177 F800.00
G1 X92.2010 Y199.2500 Z1.0000 F800.00
G3 X93.5000 Y198.5000 Z1.0000 I1.2990 J0.7500 F800.00
G1 X113.5000 Y198.5000 Z1.0000 F800.00
G3 X114.7990 Y199.2500 Z1.0000 I0.0000 J1.5000 F800.00
G1 X116.7979 Y202.7122 Z1.0000 F800.00
G2 X119.8945 Y204.5000 Z1.0000 I3.0631 J-1.7299 F800.00
G1 X180.5696 Y204.5000 Z1.0000 F800.00
G2 X183.6662 Y202.7122 Z1.0000 I0.0334 J-3.5177 F800.00
G1 X185.6651 Y199.2500 Z1.0000 F800.00
G3 X186.9641 Y198.5000 Z1.0000 I1.2990 J0.7500 F800.00
G1 X206.9641 Y198.5000 Z1.0000 F800.00
G3 X208.2631 Y200.7500 Z1.0000 I0.0000 J1.5000 F800.00
G1 X187.4548 Y236.7896 Z1.0000 F800.00
G3 X168.8590 Y247.5000 Z1.0000 I-18.5978 J-10.7916 F800.00
G1 X142.0872 Y247.5000 Z1.0000 F800.00
G2 X126.0541 Y275.2700 Z1.0000 I-0.0218 J18.5007 F800.00
G1 X165.4208 Y343.4551 Z1.0000 F800.00
G3 X165.2799 Y345.1584 Z1.0000 I-1.2990 J0.7500 F800.00
G1 X165.2799 Y345.1584 Z0.6000 F800.00
G3 X164.8718 Y345.5041 Z0.6000 I-1.1581 J-0.9533 F800.00
G1 X104.2500 Y380.5041 Z0.6000 F800.00
G3 X102.2010 Y379.9551 Z0.6000 I-0.7500 J-1.2990 F800.00
G1 X-1.2631 Y200.7500 Z0.6000 F800.00
G3 X0.0359 Y198.5000 Z0.6000 I1.2990 J-0.7500 F800.00
G1 X20.0359 Y198.5000 Z0.6000 F800.00
G3 X21.3349 Y199.2500 Z0.6000 I0.0000 J1.5000 F800.00
G1 X23.3338 Y202.7122 Z0.6000 F800.00
G2 X26.4304 Y204.5000 Z0.6000 I3.0631 J-1.7299 F800.00
G1 X87.1055 Y204.5000 Z0.6000 F800.00
G2 X90.2021 Y202.7122 Z0.6000 I0.0334 J-3.5177 F800.00
G1 X92.2010 Y199.2500 Z0.6000 F800.00
G3 X93.5000 Y198.5000 Z0.6000 I1.2990 J0.7500 F800.00
G1 X113.5000 Y198.5000 Z0.6000 F800.00
G3 X114.7990 Y199.2500 Z0.6000 I0.0000 J1.5000 F800.00
G1 X116.7979 Y202.7122 Z0.6000 F800.00
G2 X119.8945 Y204.5000 Z0.6000 I3.0631 J-1.7299 F800.00
G1 X180.5696 Y204.5000 Z0.6000 F800.00
G2 X183.6662 Y202.7122 Z0.6000 I0.0334 J-3.5177 F800.00
G1 X185.6651 Y199.2500 Z0.6000 F800.00
G3 X186.9641 Y198.5000 Z0.6000 I1.2990 J0.7500 F800.00
G1 X206.9641 Y198.5000 Z0.6000 F800.00
G3 X208.2631 Y200.7500 Z0.6000 I0.0000 J1.5000 F800.00
G1 X187.4548 Y236.7896 Z0.6000 F800.00
G3 X168.8590 Y247.5000 Z0.6000 I-18.5978 J-10.7916 F800.00
G1 X142.0872 Y247.5000 Z0.6000 F800.00
G2 X126.0541 Y275.2700 Z0.6000 I-0.0218 J18.5007 F800.00
G1 X165.4208 Y343.4551 Z0.6000 F800.00
G3 X165.2799 Y345.1584 Z0.6000 I-1.2990 J0.7500 F800.00
G1 X165.2799 Y345.1584 Z0.2000 F800.00
G3 X164.8718 Y345.5041 Z0.2000 I-1.1581 J-0.9533 F800.00
G1 X104.2500 Y380.5041 Z0.2000 F800.00
G3 X102.2010 Y379.9551 Z0.2000 I-0.7500 J-1.2990 F800.00
G1 X-1.2631 Y200.7500 Z0.2000 F800.00
G3 X0.0359 Y198.5000 Z0.2000 I1.2990 J-0.7500 F800.00
G1 X20.0359 Y198.5000 Z0.2000 F800.00
G3 X21.3349 Y199.2500 Z0.2000 I0.0000 J1.5000 F800.00
G1 X23.3338 Y202.7122 Z0.2000 F800.00
G2 X26.4304 Y204.5000 Z0.2000 I3.0631 J-1.7299 F800.00
G1 X87.1055 Y204.5000 Z0.2000 F800.00
G2 X90.2021 Y202.7122 Z0.2000 I0.0334 J-3.5177 F800.00
G1 X92.2010 Y199.2500 Z0.2000 F800.00
G3 X93.5000 Y198.5000 Z0.2000 I1.2990 J0.7500 F800.00
G1 X113.5000 Y198.5000 Z0.2000 F800.00
G3 X114.7990 Y199.2500 Z0.2000 I0.0000 J1.5000 F800.00
G1 X116.7979 Y202.7122 Z0.2000 F800.00
G2 X119.8945 Y204.5000 Z0.2000 I3.0631 J-1.7299 F800.00
G1 X180.5696 Y204.5000 Z0.2000 F800.00
G2 X183.6662 Y202.7122 Z0.2000 I0.0334 J-3.5177 F800.00
G1 X185.6651 Y199.2500 Z0.2000 F800.00
G3 X186.9641 Y198.5000 Z0.2000 I1.2990 J0.7500 F800.00
G1 X206.9641 Y198.5000 Z0.2000 F800.00
G3 X208.2631 Y200.7500 Z0.2000 I0.0000 J1.5000 F800.00
G1 X187.4548 Y236.7896 Z0.2000 F800.00
G3 X168.8590 Y247.5000 Z0.2000 I-18.5978 J-10.7916 F800.00
G1 X142.0872 Y247.5000 Z0.2000 F800.00
G2 X126.0541 Y275.2700 Z0.2000 I-0.0218 J18.5007 F800.00
G1 X165.4208 Y343.4551 Z0.2000 F800.00
G3 X165.2799 Y345.1584 Z0.2000 I-1.2990 J0.7500 F800.00
G1 X165.2799 Y345.1584 Z-0.2000 F800.00
G3 X164.8718 Y345.5041 Z-0.2000 I-1.1581 J-0.9533 F800.00
G1 X104.2500 Y380.5041 Z-0.2000 F800.00
G3 X102.2010 Y379.9551 Z-0.2000 I-0.7500 J-1.2990 F800.00
G1 X-1.2631 Y200.7500 Z-0.2000 F800.00
G3 X0.0359 Y198.5000 Z-0.2000 I1.2990 J-0.7500 F800.00
G1 X20.0359 Y198.5000 Z-0.2000 F800.00
G3 X21.3349 Y199.2500 Z-0.2000 I0.0000 J1.5000 F800.00
G1 X23.3338 Y202.7122 Z-0.2000 F800.00
G2 X26.4304 Y204.5000 Z-0.2000 I3.0631 J-1.7299 F800.00
G1 X87.1055 Y204.5000 Z-0.2000 F800.00
G2 X90.2021 Y202.7122 Z-0.2000 I0.0334 J-3.5177 F800.00
G1 X92.2010 Y199.2500 Z-0.2000 F800.00
G3 X93.5000 Y198.5000 Z-0.2000 I1.2990 J0.7500 F800.00
G1 X113.5000 Y198.5000 Z-0.2000 F800.00
G3 X114.7990 Y199.2500 Z-0.2000 I0.0000 J1.5000 F800.00
G1 X116.7979 Y202.7122 Z-0.2000 F800.00
G2 X119.8945 Y204.5000 Z-0.2000 I3.0631 J-1.7299 F800.00
G1 X180.5696 Y204.5000 Z-0.2000 F800.00
G2 X183.6662 Y202.7122 Z-0.2000 I0.0334 J-3.5177 F800.00
G1 X185.6651 Y199.2500 Z-0.2000 F800.00
G3 X186.9641 Y198.5000 Z-0.2000 I1.2990 J0.7500 F800.00
G1 X206.9641 Y198.5000 Z-0.2000 F800.00
G3 X208.2631 Y200.7500 Z-0.2000 I0.0000 J1.5000 F800.00
G1 X187.4548 Y236.7896 Z-0.2000 F800.00
G3 X168.8590 Y247.5000 Z-0.2000 I-18.5978 J-10.7916 F800.00
G1 X142.0872 Y247.5000 Z-0.2000 F800.00
G2 X126.0541 Y275.2700 Z-0.2000 I-0.0218 J18.5007 F800.00
G1 X165.4208 Y343.4551 Z-0.2000 F800.00
G3 X165.2799 Y345.1584 Z-0.2000 I-1.2990 J0.7500 F800.00
G1 X165.2799 Y345.1584 Z-0.4000 F800.00
G3 X164.8718 Y345.5041 Z-0.4000 I-1.1581 J-0.9533 F800.00
G1 X104.2500 Y380.5041 Z-0.4000 F800.00
G3 X102.2010 Y379.9551 Z-0.4000 I-0.7500 J-1.2990 F800.00
G1 X-1.2631 Y200.7500 Z-0.4000 F800.00
G3 X0.0359 Y198.5000 Z-0.4000 I1.2990 J-0.7500 F800.00
G1 X20.0359 Y198.5000 Z-0.4000 F800.00
G3 X21.3349 Y199.2500 Z-0.4000 I0.0000 J1.5000 F800.00
G1 X23.3338 Y202.7122 Z-0.4000 F800.00
G2 X26.4304 Y204.5000 Z-0.4000 I3.0631 J-1.7299 F800.00
G1 X87.1055 Y204.5000 Z-0.4000 F800.00
G2 X90.2021 Y202.7122 Z-0.4000 I0.0334 J-3.5177 F800.00
G1 X92.2010 Y199.2500 Z-0.4000 F800.00
G3 X93.5000 Y198.5000 Z-0.4000 I1.2990 J0.7500 F800.00
G1 X113.5000 Y198.5000 Z-0.4000 F800.00
G3 X114.7990 Y199.2500 Z-0.4000 I0.0000 J1.5000 F800.00
G1 X116.7979 Y202.7122 Z-0.4000 F800.00
G2 X119.8945 Y204.5000 Z-0.4000 I3.0631 J-1.7299 F800.00
G1 X180.5696 Y204.5000 Z-0.4000 F800.00
G2 X183.6662 Y202.7122 Z-0.4000 I0.0334 J-3.5177 F800.00
G1 X185.6651 Y199.2500 Z-0.4000 F800.00
G3 X186.9641 Y198.5000 Z-0.4000 I1.2990 J0.7500 F800.00
G1 X206.9641 Y198.5000 Z-0.4000 F800.00
G3 X208.2631 Y200.7500 Z-0.4000 I0.0000 J1.5000 F800.00
G1 X187.4548 Y236.7896 Z-0.4000 F800.00
G3 X168.8590 Y247.5000 Z-0.4000 I-18.5978 J-10.7916 F800.00
G1 X142.0872 Y247.5000 Z-0.4000 F800.00
G2 X126.0541 Y275.2700 Z-0.4000 I-0.0218 J18.5007 F800.00
G1 X165.4208 Y343.4551 Z-0.4000 F800.00
G3 X165.2799 Y345.1584 Z-0.4000 I-1.2990 J0.7500 F800.00
G0 Z8.0000
(finish operation: SideFeet_Outline_001)
(begin postamble)
M5
G17 G90
; M2
