(Exported by FreeCAD)
(Post Processor: grbl_post)
(Output Time:2020-01-30 00:24:46.416543)
(begin preamble)
G17 G90
G21
(begin operation: T3: AluminiumMill)
(Path: T3: AluminiumMill)
(T3: AluminiumMill)
(begin toolchange)
; M6 T3
M3 S17000.0000
(finish operation: T3: AluminiumMill)
(begin operation: SideFeed_Holes)
(Path: SideFeed_Holes)
(SideFeed_Holes)
(Compensated Tool Path. Diameter: 3.0)
G0 Z8.0000
G0 X169.5974 Y26.7384
G0 Z6.0000
G1 X169.5974 Y26.7384 Z2.6000 F800.00
G2 X169.2161 Y25.0187 Z2.6000 I-0.7384 J-0.7384 F800.00
G2 X168.5018 Y26.9813 Z2.6000 I-0.3572 J0.9813 F800.00
G2 X169.5974 Y26.7384 Z2.6000 I0.3572 J-0.9813 F800.00
G1 X169.5974 Y26.7384 Z2.2000 F800.00
G2 X169.2161 Y25.0187 Z2.2000 I-0.7384 J-0.7384 F800.00
G2 X168.5018 Y26.9813 Z2.2000 I-0.3572 J0.9813 F800.00
G2 X169.5974 Y26.7384 Z2.2000 I0.3572 J-0.9813 F800.00
G1 X169.5974 Y26.7384 Z1.8000 F800.00
G2 X169.2161 Y25.0187 Z1.8000 I-0.7384 J-0.7384 F800.00
G2 X168.5018 Y26.9813 Z1.8000 I-0.3572 J0.9813 F800.00
G2 X169.5974 Y26.7384 Z1.8000 I0.3572 J-0.9813 F800.00
G1 X169.5974 Y26.7384 Z1.4000 F800.00
G2 X169.2161 Y25.0187 Z1.4000 I-0.7384 J-0.7384 F800.00
G2 X168.5018 Y26.9813 Z1.4000 I-0.3572 J0.9813 F800.00
G2 X169.5974 Y26.7384 Z1.4000 I0.3572 J-0.9813 F800.00
G1 X169.5974 Y26.7384 Z1.0000 F800.00
G2 X169.2161 Y25.0187 Z1.0000 I-0.7384 J-0.7384 F800.00
G2 X168.5018 Y26.9813 Z1.0000 I-0.3572 J0.9813 F800.00
G2 X169.5974 Y26.7384 Z1.0000 I0.3572 J-0.9813 F800.00
G1 X169.5974 Y26.7384 Z0.6000 F800.00
G2 X169.2161 Y25.0187 Z0.6000 I-0.7384 J-0.7384 F800.00
G2 X168.5018 Y26.9813 Z0.6000 I-0.3572 J0.9813 F800.00
G2 X169.5974 Y26.7384 Z0.6000 I0.3572 J-0.9813 F800.00
G1 X169.5974 Y26.7384 Z0.2000 F800.00
G2 X169.2161 Y25.0187 Z0.2000 I-0.7384 J-0.7384 F800.00
G2 X168.5018 Y26.9813 Z0.2000 I-0.3572 J0.9813 F800.00
G2 X169.5974 Y26.7384 Z0.2000 I0.3572 J-0.9813 F800.00
G1 X169.5974 Y26.7384 Z-0.2000 F800.00
G2 X169.2161 Y25.0187 Z-0.2000 I-0.7384 J-0.7384 F800.00
G2 X168.5018 Y26.9813 Z-0.2000 I-0.3572 J0.9813 F800.00
G2 X169.5974 Y26.7384 Z-0.2000 I0.3572 J-0.9813 F800.00
G1 X169.5974 Y26.7384 Z-0.4000 F800.00
G2 X169.2161 Y25.0187 Z-0.4000 I-0.7384 J-0.7384 F800.00
G2 X168.5018 Y26.9813 Z-0.4000 I-0.3572 J0.9813 F800.00
G2 X169.5974 Y26.7384 Z-0.4000 I0.3572 J-0.9813 F800.00
G0 Z8.0000
G0 X112.8987 Y26.7384
G0 Z6.0000
G1 X112.8987 Y26.7384 Z2.6000 F800.00
G2 X112.5174 Y25.0187 Z2.6000 I-0.7384 J-0.7384 F800.00
G2 X111.8031 Y26.9813 Z2.6000 I-0.3572 J0.9813 F800.00
G2 X112.8987 Y26.7384 Z2.6000 I0.3572 J-0.9813 F800.00
G1 X112.8987 Y26.7384 Z2.2000 F800.00
G2 X112.5174 Y25.0187 Z2.2000 I-0.7384 J-0.7384 F800.00
G2 X111.8031 Y26.9813 Z2.2000 I-0.3572 J0.9813 F800.00
G2 X112.8987 Y26.7384 Z2.2000 I0.3572 J-0.9813 F800.00
G1 X112.8987 Y26.7384 Z1.8000 F800.00
G2 X112.5174 Y25.0187 Z1.8000 I-0.7384 J-0.7384 F800.00
G2 X111.8031 Y26.9813 Z1.8000 I-0.3572 J0.9813 F800.00
G2 X112.8987 Y26.7384 Z1.8000 I0.3572 J-0.9813 F800.00
G1 X112.8987 Y26.7384 Z1.4000 F800.00
G2 X112.5174 Y25.0187 Z1.4000 I-0.7384 J-0.7384 F800.00
G2 X111.8031 Y26.9813 Z1.4000 I-0.3572 J0.9813 F800.00
G2 X112.8987 Y26.7384 Z1.4000 I0.3572 J-0.9813 F800.00
G1 X112.8987 Y26.7384 Z1.0000 F800.00
G2 X112.5174 Y25.0187 Z1.0000 I-0.7384 J-0.7384 F800.00
G2 X111.8031 Y26.9813 Z1.0000 I-0.3572 J0.9813 F800.00
G2 X112.8987 Y26.7384 Z1.0000 I0.3572 J-0.9813 F800.00
G1 X112.8987 Y26.7384 Z0.6000 F800.00
G2 X112.5174 Y25.0187 Z0.6000 I-0.7384 J-0.7384 F800.00
G2 X111.8031 Y26.9813 Z0.6000 I-0.3572 J0.9813 F800.00
G2 X112.8987 Y26.7384 Z0.6000 I0.3572 J-0.9813 F800.00
G1 X112.8987 Y26.7384 Z0.2000 F800.00
G2 X112.5174 Y25.0187 Z0.2000 I-0.7384 J-0.7384 F800.00
G2 X111.8031 Y26.9813 Z0.2000 I-0.3572 J0.9813 F800.00
G2 X112.8987 Y26.7384 Z0.2000 I0.3572 J-0.9813 F800.00
G1 X112.8987 Y26.7384 Z-0.2000 F800.00
G2 X112.5174 Y25.0187 Z-0.2000 I-0.7384 J-0.7384 F800.00
G2 X111.8031 Y26.9813 Z-0.2000 I-0.3572 J0.9813 F800.00
G2 X112.8987 Y26.7384 Z-0.2000 I0.3572 J-0.9813 F800.00
G1 X112.8987 Y26.7384 Z-0.4000 F800.00
G2 X112.5174 Y25.0187 Z-0.4000 I-0.7384 J-0.7384 F800.00
G2 X111.8031 Y26.9813 Z-0.4000 I-0.3572 J0.9813 F800.00
G2 X112.8987 Y26.7384 Z-0.4000 I0.3572 J-0.9813 F800.00
G0 Z8.0000
G0 X89.6011 Y84.5910
G0 Z6.0000
G1 X89.6011 Y84.5910 Z2.6000 F800.00
G2 X89.2199 Y82.8712 Z2.6000 I-0.7384 J-0.7384 F800.00
G2 X88.5055 Y84.8338 Z2.6000 I-0.3572 J0.9813 F800.00
G2 X89.6011 Y84.5910 Z2.6000 I0.3572 J-0.9813 F800.00
G1 X89.6011 Y84.5910 Z2.2000 F800.00
G2 X89.2199 Y82.8712 Z2.2000 I-0.7384 J-0.7384 F800.00
G2 X88.5055 Y84.8338 Z2.2000 I-0.3572 J0.9813 F800.00
G2 X89.6011 Y84.5910 Z2.2000 I0.3572 J-0.9813 F800.00
G1 X89.6011 Y84.5910 Z1.8000 F800.00
G2 X89.2199 Y82.8712 Z1.8000 I-0.7384 J-0.7384 F800.00
G2 X88.5055 Y84.8338 Z1.8000 I-0.3572 J0.9813 F800.00
G2 X89.6011 Y84.5910 Z1.8000 I0.3572 J-0.9813 F800.00
G1 X89.6011 Y84.5910 Z1.4000 F800.00
G2 X89.2199 Y82.8712 Z1.4000 I-0.7384 J-0.7384 F800.00
G2 X88.5055 Y84.8338 Z1.4000 I-0.3572 J0.9813 F800.00
G2 X89.6011 Y84.5910 Z1.4000 I0.3572 J-0.9813 F800.00
G1 X89.6011 Y84.5910 Z1.0000 F800.00
G2 X89.2199 Y82.8712 Z1.0000 I-0.7384 J-0.7384 F800.00
G2 X88.5055 Y84.8338 Z1.0000 I-0.3572 J0.9813 F800.00
G2 X89.6011 Y84.5910 Z1.0000 I0.3572 J-0.9813 F800.00
G1 X89.6011 Y84.5910 Z0.6000 F800.00
G2 X89.2199 Y82.8712 Z0.6000 I-0.7384 J-0.7384 F800.00
G2 X88.5055 Y84.8338 Z0.6000 I-0.3572 J0.9813 F800.00
G2 X89.6011 Y84.5910 Z0.6000 I0.3572 J-0.9813 F800.00
G1 X89.6011 Y84.5910 Z0.2000 F800.00
G2 X89.2199 Y82.8712 Z0.2000 I-0.7384 J-0.7384 F800.00
G2 X88.5055 Y84.8338 Z0.2000 I-0.3572 J0.9813 F800.00
G2 X89.6011 Y84.5910 Z0.2000 I0.3572 J-0.9813 F800.00
G1 X89.6011 Y84.5910 Z-0.2000 F800.00
G2 X89.2199 Y82.8712 Z-0.2000 I-0.7384 J-0.7384 F800.00
G2 X88.5055 Y84.8338 Z-0.2000 I-0.3572 J0.9813 F800.00
G2 X89.6011 Y84.5910 Z-0.2000 I0.3572 J-0.9813 F800.00
G1 X89.6011 Y84.5910 Z-0.4000 F800.00
G2 X89.2199 Y82.8712 Z-0.4000 I-0.7384 J-0.7384 F800.00
G2 X88.5055 Y84.8338 Z-0.4000 I-0.3572 J0.9813 F800.00
G2 X89.6011 Y84.5910 Z-0.4000 I0.3572 J-0.9813 F800.00
G0 Z8.0000
G0 X123.0023 Y142.4435
G0 Z6.0000
G1 X123.0023 Y142.4435 Z2.6000 F800.00
G2 X122.6210 Y140.7238 Z2.6000 I-0.7384 J-0.7384 F800.00
G2 X121.9067 Y142.6864 Z2.6000 I-0.3572 J0.9813 F800.00
G2 X123.0023 Y142.4435 Z2.6000 I0.3572 J-0.9813 F800.00
G1 X123.0023 Y142.4435 Z2.2000 F800.00
G2 X122.6210 Y140.7238 Z2.2000 I-0.7384 J-0.7384 F800.00
G2 X121.9067 Y142.6864 Z2.2000 I-0.3572 J0.9813 F800.00
G2 X123.0023 Y142.4435 Z2.2000 I0.3572 J-0.9813 F800.00
G1 X123.0023 Y142.4435 Z1.8000 F800.00
G2 X122.6210 Y140.7238 Z1.8000 I-0.7384 J-0.7384 F800.00
G2 X121.9067 Y142.6864 Z1.8000 I-0.3572 J0.9813 F800.00
G2 X123.0023 Y142.4435 Z1.8000 I0.3572 J-0.9813 F800.00
G1 X123.0023 Y142.4435 Z1.4000 F800.00
G2 X122.6210 Y140.7238 Z1.4000 I-0.7384 J-0.7384 F800.00
G2 X121.9067 Y142.6864 Z1.4000 I-0.3572 J0.9813 F800.00
G2 X123.0023 Y142.4435 Z1.4000 I0.3572 J-0.9813 F800.00
G1 X123.0023 Y142.4435 Z1.0000 F800.00
G2 X122.6210 Y140.7238 Z1.0000 I-0.7384 J-0.7384 F800.00
G2 X121.9067 Y142.6864 Z1.0000 I-0.3572 J0.9813 F800.00
G2 X123.0023 Y142.4435 Z1.0000 I0.3572 J-0.9813 F800.00
G1 X123.0023 Y142.4435 Z0.6000 F800.00
G2 X122.6210 Y140.7238 Z0.6000 I-0.7384 J-0.7384 F800.00
G2 X121.9067 Y142.6864 Z0.6000 I-0.3572 J0.9813 F800.00
G2 X123.0023 Y142.4435 Z0.6000 I0.3572 J-0.9813 F800.00
G1 X123.0023 Y142.4435 Z0.2000 F800.00
G2 X122.6210 Y140.7238 Z0.2000 I-0.7384 J-0.7384 F800.00
G2 X121.9067 Y142.6864 Z0.2000 I-0.3572 J0.9813 F800.00
G2 X123.0023 Y142.4435 Z0.2000 I0.3572 J-0.9813 F800.00
G1 X123.0023 Y142.4435 Z-0.2000 F800.00
G2 X122.6210 Y140.7238 Z-0.2000 I-0.7384 J-0.7384 F800.00
G2 X121.9067 Y142.6864 Z-0.2000 I-0.3572 J0.9813 F800.00
G2 X123.0023 Y142.4435 Z-0.2000 I0.3572 J-0.9813 F800.00
G1 X123.0023 Y142.4435 Z-0.4000 F800.00
G2 X122.6210 Y140.7238 Z-0.4000 I-0.7384 J-0.7384 F800.00
G2 X121.9067 Y142.6864 Z-0.4000 I-0.3572 J0.9813 F800.00
G2 X123.0023 Y142.4435 Z-0.4000 I0.3572 J-0.9813 F800.00
G0 Z8.0000
G0 X56.1999 Y26.7384
G0 Z6.0000
G1 X56.1999 Y26.7384 Z2.6000 F800.00
G2 X55.8187 Y25.0187 Z2.6000 I-0.7384 J-0.7384 F800.00
G2 X55.1044 Y26.9813 Z2.6000 I-0.3572 J0.9813 F800.00
G2 X56.1999 Y26.7384 Z2.6000 I0.3572 J-0.9813 F800.00
G1 X56.1999 Y26.7384 Z2.2000 F800.00
G2 X55.8187 Y25.0187 Z2.2000 I-0.7384 J-0.7384 F800.00
G2 X55.1044 Y26.9813 Z2.2000 I-0.3572 J0.9813 F800.00
G2 X56.1999 Y26.7384 Z2.2000 I0.3572 J-0.9813 F800.00
G1 X56.1999 Y26.7384 Z1.8000 F800.00
G2 X55.8187 Y25.0187 Z1.8000 I-0.7384 J-0.7384 F800.00
G2 X55.1044 Y26.9813 Z1.8000 I-0.3572 J0.9813 F800.00
G2 X56.1999 Y26.7384 Z1.8000 I0.3572 J-0.9813 F800.00
G1 X56.1999 Y26.7384 Z1.4000 F800.00
G2 X55.8187 Y25.0187 Z1.4000 I-0.7384 J-0.7384 F800.00
G2 X55.1044 Y26.9813 Z1.4000 I-0.3572 J0.9813 F800.00
G2 X56.1999 Y26.7384 Z1.4000 I0.3572 J-0.9813 F800.00
G1 X56.1999 Y26.7384 Z1.0000 F800.00
G2 X55.8187 Y25.0187 Z1.0000 I-0.7384 J-0.7384 F800.00
G2 X55.1044 Y26.9813 Z1.0000 I-0.3572 J0.9813 F800.00
G2 X56.1999 Y26.7384 Z1.0000 I0.3572 J-0.9813 F800.00
G1 X56.1999 Y26.7384 Z0.6000 F800.00
G2 X55.8187 Y25.0187 Z0.6000 I-0.7384 J-0.7384 F800.00
G2 X55.1044 Y26.9813 Z0.6000 I-0.3572 J0.9813 F800.00
G2 X56.1999 Y26.7384 Z0.6000 I0.3572 J-0.9813 F800.00
G1 X56.1999 Y26.7384 Z0.2000 F800.00
G2 X55.8187 Y25.0187 Z0.2000 I-0.7384 J-0.7384 F800.00
G2 X55.1044 Y26.9813 Z0.2000 I-0.3572 J0.9813 F800.00
G2 X56.1999 Y26.7384 Z0.2000 I0.3572 J-0.9813 F800.00
G1 X56.1999 Y26.7384 Z-0.2000 F800.00
G2 X55.8187 Y25.0187 Z-0.2000 I-0.7384 J-0.7384 F800.00
G2 X55.1044 Y26.9813 Z-0.2000 I-0.3572 J0.9813 F800.00
G2 X56.1999 Y26.7384 Z-0.2000 I0.3572 J-0.9813 F800.00
G1 X56.1999 Y26.7384 Z-0.4000 F800.00
G2 X55.8187 Y25.0187 Z-0.4000 I-0.7384 J-0.7384 F800.00
G2 X55.1044 Y26.9813 Z-0.4000 I-0.3572 J0.9813 F800.00
G2 X56.1999 Y26.7384 Z-0.4000 I0.3572 J-0.9813 F800.00
G0 Z8.0000
(finish operation: SideFeed_Holes)
(begin operation: SideFeed_Holes001)
(Path: SideFeed_Holes001)
(SideFeed_Holes001)
(Compensated Tool Path. Diameter: 3.0)
G0 Z8.0000
G0 X169.5974 Y26.7384
G0 Z6.0000
G1 X169.5974 Y26.7384 Z2.6000 F800.00
G2 X169.2161 Y25.0187 Z2.6000 I-0.7384 J-0.7384 F800.00
G2 X168.5018 Y26.9813 Z2.6000 I-0.3572 J0.9813 F800.00
G2 X169.5974 Y26.7384 Z2.6000 I0.3572 J-0.9813 F800.00
G1 X169.5974 Y26.7384 Z2.2000 F800.00
G2 X169.2161 Y25.0187 Z2.2000 I-0.7384 J-0.7384 F800.00
G2 X168.5018 Y26.9813 Z2.2000 I-0.3572 J0.9813 F800.00
G2 X169.5974 Y26.7384 Z2.2000 I0.3572 J-0.9813 F800.00
G1 X169.5974 Y26.7384 Z1.8000 F800.00
G2 X169.2161 Y25.0187 Z1.8000 I-0.7384 J-0.7384 F800.00
G2 X168.5018 Y26.9813 Z1.8000 I-0.3572 J0.9813 F800.00
G2 X169.5974 Y26.7384 Z1.8000 I0.3572 J-0.9813 F800.00
G1 X169.5974 Y26.7384 Z1.4000 F800.00
G2 X169.2161 Y25.0187 Z1.4000 I-0.7384 J-0.7384 F800.00
G2 X168.5018 Y26.9813 Z1.4000 I-0.3572 J0.9813 F800.00
G2 X169.5974 Y26.7384 Z1.4000 I0.3572 J-0.9813 F800.00
G1 X169.5974 Y26.7384 Z1.0000 F800.00
G2 X169.2161 Y25.0187 Z1.0000 I-0.7384 J-0.7384 F800.00
G2 X168.5018 Y26.9813 Z1.0000 I-0.3572 J0.9813 F800.00
G2 X169.5974 Y26.7384 Z1.0000 I0.3572 J-0.9813 F800.00
G1 X169.5974 Y26.7384 Z0.6000 F800.00
G2 X169.2161 Y25.0187 Z0.6000 I-0.7384 J-0.7384 F800.00
G2 X168.5018 Y26.9813 Z0.6000 I-0.3572 J0.9813 F800.00
G2 X169.5974 Y26.7384 Z0.6000 I0.3572 J-0.9813 F800.00
G1 X169.5974 Y26.7384 Z0.2000 F800.00
G2 X169.2161 Y25.0187 Z0.2000 I-0.7384 J-0.7384 F800.00
G2 X168.5018 Y26.9813 Z0.2000 I-0.3572 J0.9813 F800.00
G2 X169.5974 Y26.7384 Z0.2000 I0.3572 J-0.9813 F800.00
G1 X169.5974 Y26.7384 Z-0.2000 F800.00
G2 X169.2161 Y25.0187 Z-0.2000 I-0.7384 J-0.7384 F800.00
G2 X168.5018 Y26.9813 Z-0.2000 I-0.3572 J0.9813 F800.00
G2 X169.5974 Y26.7384 Z-0.2000 I0.3572 J-0.9813 F800.00
G1 X169.5974 Y26.7384 Z-0.4000 F800.00
G2 X169.2161 Y25.0187 Z-0.4000 I-0.7384 J-0.7384 F800.00
G2 X168.5018 Y26.9813 Z-0.4000 I-0.3572 J0.9813 F800.00
G2 X169.5974 Y26.7384 Z-0.4000 I0.3572 J-0.9813 F800.00
G0 Z8.0000
G0 X112.8987 Y26.7384
G0 Z6.0000
G1 X112.8987 Y26.7384 Z2.6000 F800.00
G2 X112.5174 Y25.0187 Z2.6000 I-0.7384 J-0.7384 F800.00
G2 X111.8031 Y26.9813 Z2.6000 I-0.3572 J0.9813 F800.00
G2 X112.8987 Y26.7384 Z2.6000 I0.3572 J-0.9813 F800.00
G1 X112.8987 Y26.7384 Z2.2000 F800.00
G2 X112.5174 Y25.0187 Z2.2000 I-0.7384 J-0.7384 F800.00
G2 X111.8031 Y26.9813 Z2.2000 I-0.3572 J0.9813 F800.00
G2 X112.8987 Y26.7384 Z2.2000 I0.3572 J-0.9813 F800.00
G1 X112.8987 Y26.7384 Z1.8000 F800.00
G2 X112.5174 Y25.0187 Z1.8000 I-0.7384 J-0.7384 F800.00
G2 X111.8031 Y26.9813 Z1.8000 I-0.3572 J0.9813 F800.00
G2 X112.8987 Y26.7384 Z1.8000 I0.3572 J-0.9813 F800.00
G1 X112.8987 Y26.7384 Z1.4000 F800.00
G2 X112.5174 Y25.0187 Z1.4000 I-0.7384 J-0.7384 F800.00
G2 X111.8031 Y26.9813 Z1.4000 I-0.3572 J0.9813 F800.00
G2 X112.8987 Y26.7384 Z1.4000 I0.3572 J-0.9813 F800.00
G1 X112.8987 Y26.7384 Z1.0000 F800.00
G2 X112.5174 Y25.0187 Z1.0000 I-0.7384 J-0.7384 F800.00
G2 X111.8031 Y26.9813 Z1.0000 I-0.3572 J0.9813 F800.00
G2 X112.8987 Y26.7384 Z1.0000 I0.3572 J-0.9813 F800.00
G1 X112.8987 Y26.7384 Z0.6000 F800.00
G2 X112.5174 Y25.0187 Z0.6000 I-0.7384 J-0.7384 F800.00
G2 X111.8031 Y26.9813 Z0.6000 I-0.3572 J0.9813 F800.00
G2 X112.8987 Y26.7384 Z0.6000 I0.3572 J-0.9813 F800.00
G1 X112.8987 Y26.7384 Z0.2000 F800.00
G2 X112.5174 Y25.0187 Z0.2000 I-0.7384 J-0.7384 F800.00
G2 X111.8031 Y26.9813 Z0.2000 I-0.3572 J0.9813 F800.00
G2 X112.8987 Y26.7384 Z0.2000 I0.3572 J-0.9813 F800.00
G1 X112.8987 Y26.7384 Z-0.2000 F800.00
G2 X112.5174 Y25.0187 Z-0.2000 I-0.7384 J-0.7384 F800.00
G2 X111.8031 Y26.9813 Z-0.2000 I-0.3572 J0.9813 F800.00
G2 X112.8987 Y26.7384 Z-0.2000 I0.3572 J-0.9813 F800.00
G1 X112.8987 Y26.7384 Z-0.4000 F800.00
G2 X112.5174 Y25.0187 Z-0.4000 I-0.7384 J-0.7384 F800.00
G2 X111.8031 Y26.9813 Z-0.4000 I-0.3572 J0.9813 F800.00
G2 X112.8987 Y26.7384 Z-0.4000 I0.3572 J-0.9813 F800.00
G0 Z8.0000
G0 X89.6011 Y84.5910
G0 Z6.0000
G1 X89.6011 Y84.5910 Z2.6000 F800.00
G2 X89.2199 Y82.8712 Z2.6000 I-0.7384 J-0.7384 F800.00
G2 X88.5055 Y84.8338 Z2.6000 I-0.3572 J0.9813 F800.00
G2 X89.6011 Y84.5910 Z2.6000 I0.3572 J-0.9813 F800.00
G1 X89.6011 Y84.5910 Z2.2000 F800.00
G2 X89.2199 Y82.8712 Z2.2000 I-0.7384 J-0.7384 F800.00
G2 X88.5055 Y84.8338 Z2.2000 I-0.3572 J0.9813 F800.00
G2 X89.6011 Y84.5910 Z2.2000 I0.3572 J-0.9813 F800.00
G1 X89.6011 Y84.5910 Z1.8000 F800.00
G2 X89.2199 Y82.8712 Z1.8000 I-0.7384 J-0.7384 F800.00
G2 X88.5055 Y84.8338 Z1.8000 I-0.3572 J0.9813 F800.00
G2 X89.6011 Y84.5910 Z1.8000 I0.3572 J-0.9813 F800.00
G1 X89.6011 Y84.5910 Z1.4000 F800.00
G2 X89.2199 Y82.8712 Z1.4000 I-0.7384 J-0.7384 F800.00
G2 X88.5055 Y84.8338 Z1.4000 I-0.3572 J0.9813 F800.00
G2 X89.6011 Y84.5910 Z1.4000 I0.3572 J-0.9813 F800.00
G1 X89.6011 Y84.5910 Z1.0000 F800.00
G2 X89.2199 Y82.8712 Z1.0000 I-0.7384 J-0.7384 F800.00
G2 X88.5055 Y84.8338 Z1.0000 I-0.3572 J0.9813 F800.00
G2 X89.6011 Y84.5910 Z1.0000 I0.3572 J-0.9813 F800.00
G1 X89.6011 Y84.5910 Z0.6000 F800.00
G2 X89.2199 Y82.8712 Z0.6000 I-0.7384 J-0.7384 F800.00
G2 X88.5055 Y84.8338 Z0.6000 I-0.3572 J0.9813 F800.00
G2 X89.6011 Y84.5910 Z0.6000 I0.3572 J-0.9813 F800.00
G1 X89.6011 Y84.5910 Z0.2000 F800.00
G2 X89.2199 Y82.8712 Z0.2000 I-0.7384 J-0.7384 F800.00
G2 X88.5055 Y84.8338 Z0.2000 I-0.3572 J0.9813 F800.00
G2 X89.6011 Y84.5910 Z0.2000 I0.3572 J-0.9813 F800.00
G1 X89.6011 Y84.5910 Z-0.2000 F800.00
G2 X89.2199 Y82.8712 Z-0.2000 I-0.7384 J-0.7384 F800.00
G2 X88.5055 Y84.8338 Z-0.2000 I-0.3572 J0.9813 F800.00
G2 X89.6011 Y84.5910 Z-0.2000 I0.3572 J-0.9813 F800.00
G1 X89.6011 Y84.5910 Z-0.4000 F800.00
G2 X89.2199 Y82.8712 Z-0.4000 I-0.7384 J-0.7384 F800.00
G2 X88.5055 Y84.8338 Z-0.4000 I-0.3572 J0.9813 F800.00
G2 X89.6011 Y84.5910 Z-0.4000 I0.3572 J-0.9813 F800.00
G0 Z8.0000
G0 X123.0023 Y142.4435
G0 Z6.0000
G1 X123.0023 Y142.4435 Z2.6000 F800.00
G2 X122.6210 Y140.7238 Z2.6000 I-0.7384 J-0.7384 F800.00
G2 X121.9067 Y142.6864 Z2.6000 I-0.3572 J0.9813 F800.00
G2 X123.0023 Y142.4435 Z2.6000 I0.3572 J-0.9813 F800.00
G1 X123.0023 Y142.4435 Z2.2000 F800.00
G2 X122.6210 Y140.7238 Z2.2000 I-0.7384 J-0.7384 F800.00
G2 X121.9067 Y142.6864 Z2.2000 I-0.3572 J0.9813 F800.00
G2 X123.0023 Y142.4435 Z2.2000 I0.3572 J-0.9813 F800.00
G1 X123.0023 Y142.4435 Z1.8000 F800.00
G2 X122.6210 Y140.7238 Z1.8000 I-0.7384 J-0.7384 F800.00
G2 X121.9067 Y142.6864 Z1.8000 I-0.3572 J0.9813 F800.00
G2 X123.0023 Y142.4435 Z1.8000 I0.3572 J-0.9813 F800.00
G1 X123.0023 Y142.4435 Z1.4000 F800.00
G2 X122.6210 Y140.7238 Z1.4000 I-0.7384 J-0.7384 F800.00
G2 X121.9067 Y142.6864 Z1.4000 I-0.3572 J0.9813 F800.00
G2 X123.0023 Y142.4435 Z1.4000 I0.3572 J-0.9813 F800.00
G1 X123.0023 Y142.4435 Z1.0000 F800.00
G2 X122.6210 Y140.7238 Z1.0000 I-0.7384 J-0.7384 F800.00
G2 X121.9067 Y142.6864 Z1.0000 I-0.3572 J0.9813 F800.00
G2 X123.0023 Y142.4435 Z1.0000 I0.3572 J-0.9813 F800.00
G1 X123.0023 Y142.4435 Z0.6000 F800.00
G2 X122.6210 Y140.7238 Z0.6000 I-0.7384 J-0.7384 F800.00
G2 X121.9067 Y142.6864 Z0.6000 I-0.3572 J0.9813 F800.00
G2 X123.0023 Y142.4435 Z0.6000 I0.3572 J-0.9813 F800.00
G1 X123.0023 Y142.4435 Z0.2000 F800.00
G2 X122.6210 Y140.7238 Z0.2000 I-0.7384 J-0.7384 F800.00
G2 X121.9067 Y142.6864 Z0.2000 I-0.3572 J0.9813 F800.00
G2 X123.0023 Y142.4435 Z0.2000 I0.3572 J-0.9813 F800.00
G1 X123.0023 Y142.4435 Z-0.2000 F800.00
G2 X122.6210 Y140.7238 Z-0.2000 I-0.7384 J-0.7384 F800.00
G2 X121.9067 Y142.6864 Z-0.2000 I-0.3572 J0.9813 F800.00
G2 X123.0023 Y142.4435 Z-0.2000 I0.3572 J-0.9813 F800.00
G1 X123.0023 Y142.4435 Z-0.4000 F800.00
G2 X122.6210 Y140.7238 Z-0.4000 I-0.7384 J-0.7384 F800.00
G2 X121.9067 Y142.6864 Z-0.4000 I-0.3572 J0.9813 F800.00
G2 X123.0023 Y142.4435 Z-0.4000 I0.3572 J-0.9813 F800.00
G0 Z8.0000
G0 X56.1999 Y26.7384
G0 Z6.0000
G1 X56.1999 Y26.7384 Z2.6000 F800.00
G2 X55.8187 Y25.0187 Z2.6000 I-0.7384 J-0.7384 F800.00
G2 X55.1044 Y26.9813 Z2.6000 I-0.3572 J0.9813 F800.00
G2 X56.1999 Y26.7384 Z2.6000 I0.3572 J-0.9813 F800.00
G1 X56.1999 Y26.7384 Z2.2000 F800.00
G2 X55.8187 Y25.0187 Z2.2000 I-0.7384 J-0.7384 F800.00
G2 X55.1044 Y26.9813 Z2.2000 I-0.3572 J0.9813 F800.00
G2 X56.1999 Y26.7384 Z2.2000 I0.3572 J-0.9813 F800.00
G1 X56.1999 Y26.7384 Z1.8000 F800.00
G2 X55.8187 Y25.0187 Z1.8000 I-0.7384 J-0.7384 F800.00
G2 X55.1044 Y26.9813 Z1.8000 I-0.3572 J0.9813 F800.00
G2 X56.1999 Y26.7384 Z1.8000 I0.3572 J-0.9813 F800.00
G1 X56.1999 Y26.7384 Z1.4000 F800.00
G2 X55.8187 Y25.0187 Z1.4000 I-0.7384 J-0.7384 F800.00
G2 X55.1044 Y26.9813 Z1.4000 I-0.3572 J0.9813 F800.00
G2 X56.1999 Y26.7384 Z1.4000 I0.3572 J-0.9813 F800.00
G1 X56.1999 Y26.7384 Z1.0000 F800.00
G2 X55.8187 Y25.0187 Z1.0000 I-0.7384 J-0.7384 F800.00
G2 X55.1044 Y26.9813 Z1.0000 I-0.3572 J0.9813 F800.00
G2 X56.1999 Y26.7384 Z1.0000 I0.3572 J-0.9813 F800.00
G1 X56.1999 Y26.7384 Z0.6000 F800.00
G2 X55.8187 Y25.0187 Z0.6000 I-0.7384 J-0.7384 F800.00
G2 X55.1044 Y26.9813 Z0.6000 I-0.3572 J0.9813 F800.00
G2 X56.1999 Y26.7384 Z0.6000 I0.3572 J-0.9813 F800.00
G1 X56.1999 Y26.7384 Z0.2000 F800.00
G2 X55.8187 Y25.0187 Z0.2000 I-0.7384 J-0.7384 F800.00
G2 X55.1044 Y26.9813 Z0.2000 I-0.3572 J0.9813 F800.00
G2 X56.1999 Y26.7384 Z0.2000 I0.3572 J-0.9813 F800.00
G1 X56.1999 Y26.7384 Z-0.2000 F800.00
G2 X55.8187 Y25.0187 Z-0.2000 I-0.7384 J-0.7384 F800.00
G2 X55.1044 Y26.9813 Z-0.2000 I-0.3572 J0.9813 F800.00
G2 X56.1999 Y26.7384 Z-0.2000 I0.3572 J-0.9813 F800.00
G1 X56.1999 Y26.7384 Z-0.4000 F800.00
G2 X55.8187 Y25.0187 Z-0.4000 I-0.7384 J-0.7384 F800.00
G2 X55.1044 Y26.9813 Z-0.4000 I-0.3572 J0.9813 F800.00
G2 X56.1999 Y26.7384 Z-0.4000 I0.3572 J-0.9813 F800.00
G0 Z8.0000
(finish operation: SideFeed_Holes001)
(begin operation: SideFeet_Outline)
(Path: SideFeet_Outline)
(inactive operation)
(finish operation: SideFeet_Outline)
(begin operation: SideFeet_Outline001)
(Path: SideFeet_Outline001)
(inactive operation)
(finish operation: SideFeet_Outline001)
(begin postamble)
M5
G17 G90
; M2
