(Exported by FreeCAD)
(Post Processor: grbl_post)
(Output Time:2020-01-26 21:13:18.120132)
(begin preamble)
G17 G90
G21
(begin operation: T4: 2FluteWoodMill001)
(Path: T4: 2FluteWoodMill001)
(T4: 2FluteWoodMill001)
(begin toolchange)
; M6 T4
M3 S10000.0000
(finish operation: T4: 2FluteWoodMill001)
(begin operation: Thin_Op)
(Path: Thin_Op)
(Thin_Op)
G0 Z23.0000
G0 X39.4313 Y138.1132
G0 Z21.0000
G1 X39.4313 Y138.1132 Z17.5000 F1800.00
G1 X39.7212 Y138.4031 Z17.5000 F1800.00
G1 X39.3782 Y138.2051 Z17.5000 F1800.00
G1 X39.4313 Y138.1132 Z17.5000 F1800.00
G1 X40.6736 Y135.9614 Z17.5000 F1800.00
G1 X47.7517 Y143.0395 Z17.5000 F1800.00
G1 X55.7823 Y147.6760 Z17.5000 F1800.00
G1 X41.9159 Y133.8096 Z17.5000 F1800.00
G1 X43.1583 Y131.6578 Z17.5000 F1800.00
G1 X63.8129 Y152.3124 Z17.5000 F1800.00
G1 X71.8434 Y156.9489 Z17.5000 F1800.00
G1 X44.4006 Y129.5061 Z17.5000 F1800.00
G1 X45.6429 Y127.3543 Z17.5000 F1800.00
G1 X79.8740 Y161.5853 Z17.5000 F1800.00
G1 X87.9045 Y166.2218 Z17.5000 F1800.00
G1 X46.8853 Y125.2025 Z17.5000 F1800.00
G1 X48.1276 Y123.0507 Z17.5000 F1800.00
G1 X95.9351 Y170.8582 Z17.5000 F1800.00
G1 X100.0000 Y173.2051 Z17.5000 F1800.00
G1 X100.6135 Y172.1425 Z17.5000 F1800.00
G1 X49.3699 Y120.8989 Z17.5000 F1800.00
G1 X50.6123 Y118.7472 Z17.5000 F1800.00
G1 X101.8558 Y169.9907 Z17.5000 F1800.00
G1 X103.0981 Y167.8389 Z17.5000 F1800.00
G1 X51.8546 Y116.5954 Z17.5000 F1800.00
G1 X53.0969 Y114.4436 Z17.5000 F1800.00
G1 X104.3405 Y165.6871 Z17.5000 F1800.00
G1 X105.5828 Y163.5354 Z17.5000 F1800.00
G1 X54.3393 Y112.2918 Z17.5000 F1800.00
G1 X55.5816 Y110.1400 Z17.5000 F1800.00
G1 X106.8251 Y161.3836 Z17.5000 F1800.00
G1 X108.0675 Y159.2318 Z17.5000 F1800.00
G1 X56.8239 Y107.9882 Z17.5000 F1800.00
G1 X58.0663 Y105.8365 Z17.5000 F1800.00
G1 X109.3098 Y157.0800 Z17.5000 F1800.00
G1 X110.5521 Y154.9282 Z17.5000 F1800.00
G1 X59.3086 Y103.6847 Z17.5000 F1800.00
G1 X60.5509 Y101.5329 Z17.5000 F1800.00
G1 X111.7945 Y152.7765 Z17.5000 F1800.00
G1 X113.0368 Y150.6247 Z17.5000 F1800.00
G1 X61.7932 Y99.3811 Z17.5000 F1800.00
G1 X63.0356 Y97.2293 Z17.5000 F1800.00
G1 X114.2791 Y148.4729 Z17.5000 F1800.00
G1 X115.5215 Y146.3211 Z17.5000 F1800.00
G1 X64.2779 Y95.0776 Z17.5000 F1800.00
G1 X65.5202 Y92.9258 Z17.5000 F1800.00
G1 X116.7638 Y144.1693 Z17.5000 F1800.00
G1 X118.0061 Y142.0176 Z17.5000 F1800.00
G1 X66.7626 Y90.7740 Z17.5000 F1800.00
G1 X68.0049 Y88.6222 Z17.5000 F1800.00
G1 X119.2485 Y139.8658 Z17.5000 F1800.00
G1 X120.4908 Y137.7140 Z17.5000 F1800.00
G1 X69.2472 Y86.4704 Z17.5000 F1800.00
G1 X70.4896 Y84.3187 Z17.5000 F1800.00
G1 X121.7331 Y135.5622 Z17.5000 F1800.00
G1 X122.9755 Y133.4104 Z17.5000 F1800.00
G1 X71.7319 Y82.1669 Z17.5000 F1800.00
G1 X72.9742 Y80.0151 Z17.5000 F1800.00
G1 X124.2178 Y131.2586 Z17.5000 F1800.00
G1 X125.4601 Y129.1069 Z17.5000 F1800.00
G1 X74.2166 Y77.8633 Z17.5000 F1800.00
G1 X75.4589 Y75.7115 Z17.5000 F1800.00
G1 X126.7024 Y126.9551 Z17.5000 F1800.00
G1 X127.9448 Y124.8033 Z17.5000 F1800.00
G1 X76.7012 Y73.5597 Z17.5000 F1800.00
G1 X77.9436 Y71.4080 Z17.5000 F1800.00
G1 X129.1871 Y122.6515 Z17.5000 F1800.00
G1 X130.4294 Y120.4997 Z17.5000 F1800.00
G1 X79.1664 Y69.2367 Z17.5000 F1800.00
G2 X80.2074 Y66.8836 Z17.5000 I-12.6843 J-7.0187 F1800.00
G1 X131.6718 Y118.3480 Z17.5000 F1800.00
G1 X132.9141 Y116.1962 Z17.5000 F1800.00
G1 X80.9766 Y64.2587 Z17.5000 F1800.00
G2 X81.3859 Y61.2738 Z17.5000 I-18.1472 J-4.0085 F1800.00
G1 X134.1564 Y114.0444 Z17.5000 F1800.00
G1 X135.3988 Y111.8926 Z17.5000 F1800.00
G1 X81.3068 Y57.8006 Z17.5000 F1800.00
G2 X80.3204 Y53.4202 Z17.5000 I-19.1156 J2.0030 F1800.00
G1 X136.6411 Y109.7408 Z17.5000 F1800.00
G1 X137.8834 Y107.5891 Z17.5000 F1800.00
G1 X30.2944 Y0.0000 Z17.5000 F1800.00
G1 X33.6885 Y0.0000 Z17.5000 F1800.00
G1 X139.1258 Y105.4373 Z17.5000 F1800.00
G1 X140.3681 Y103.2855 Z17.5000 F1800.00
G1 X37.0826 Y0.0000 Z17.5000 F1800.00
G1 X40.4767 Y0.0000 Z17.5000 F1800.00
G1 X141.6104 Y101.1337 Z17.5000 F1800.00
G1 X142.8528 Y98.9819 Z17.5000 F1800.00
G1 X43.8708 Y0.0000 Z17.5000 F1800.00
G1 X47.2649 Y0.0000 Z17.5000 F1800.00
G1 X144.0951 Y96.8302 Z17.5000 F1800.00
G1 X145.3374 Y94.6784 Z17.5000 F1800.00
G1 X50.6590 Y0.0000 Z17.5000 F1800.00
G1 X54.0532 Y0.0000 Z17.5000 F1800.00
G1 X146.5797 Y92.5266 Z17.5000 F1800.00
G1 X147.8221 Y90.3748 Z17.5000 F1800.00
G1 X57.4473 Y0.0000 Z17.5000 F1800.00
G1 X60.8414 Y0.0000 Z17.5000 F1800.00
G1 X149.0644 Y88.2230 Z17.5000 F1800.00
G1 X150.3067 Y86.0712 Z17.5000 F1800.00
G1 X64.2355 Y0.0000 Z17.5000 F1800.00
G1 X67.6296 Y0.0000 Z17.5000 F1800.00
G1 X151.5491 Y83.9195 Z17.5000 F1800.00
G1 X152.7914 Y81.7677 Z17.5000 F1800.00
G1 X71.0237 Y0.0000 Z17.5000 F1800.00
G1 X74.4178 Y0.0000 Z17.5000 F1800.00
G1 X154.0337 Y79.6159 Z17.5000 F1800.00
G1 X155.2761 Y77.4641 Z17.5000 F1800.00
G1 X77.8119 Y0.0000 Z17.5000 F1800.00
G1 X81.2061 Y0.0000 Z17.5000 F1800.00
G1 X156.5184 Y75.3123 Z17.5000 F1800.00
G1 X157.7607 Y73.1606 Z17.5000 F1800.00
G1 X84.6002 Y0.0000 Z17.5000 F1800.00
G1 X87.9943 Y0.0000 Z17.5000 F1800.00
G1 X159.0031 Y71.0088 Z17.5000 F1800.00
G1 X160.2454 Y68.8570 Z17.5000 F1800.00
G1 X91.3884 Y0.0000 Z17.5000 F1800.00
G1 X94.7825 Y0.0000 Z17.5000 F1800.00
G1 X161.4877 Y66.7052 Z17.5000 F1800.00
G1 X162.7301 Y64.5534 Z17.5000 F1800.00
G1 X98.1766 Y0.0000 Z17.5000 F1800.00
G1 X101.5707 Y0.0000 Z17.5000 F1800.00
G1 X163.9724 Y62.4017 Z17.5000 F1800.00
G1 X165.2147 Y60.2499 Z17.5000 F1800.00
G1 X104.9648 Y0.0000 Z17.5000 F1800.00
G1 X108.3590 Y0.0000 Z17.5000 F1800.00
G1 X166.4571 Y58.0981 Z17.5000 F1800.00
G1 X167.6994 Y55.9463 Z17.5000 F1800.00
G1 X111.7531 Y0.0000 Z17.5000 F1800.00
G1 X115.1472 Y0.0000 Z17.5000 F1800.00
G1 X168.9417 Y53.7945 Z17.5000 F1800.00
G1 X170.1840 Y51.6427 Z17.5000 F1800.00
G1 X118.5413 Y0.0000 Z17.5000 F1800.00
G1 X121.9354 Y0.0000 Z17.5000 F1800.00
G1 X171.4264 Y49.4910 Z17.5000 F1800.00
G1 X172.6687 Y47.3392 Z17.5000 F1800.00
G1 X125.3295 Y0.0000 Z17.5000 F1800.00
G1 X128.7236 Y0.0000 Z17.5000 F1800.00
G1 X173.9110 Y45.1874 Z17.5000 F1800.00
G1 X175.1534 Y43.0356 Z17.5000 F1800.00
G1 X132.1177 Y0.0000 Z17.5000 F1800.00
G1 X135.5119 Y0.0000 Z17.5000 F1800.00
G1 X176.3957 Y40.8838 Z17.5000 F1800.00
G1 X177.6380 Y38.7321 Z17.5000 F1800.00
G1 X138.9060 Y0.0000 Z17.5000 F1800.00
G1 X142.3001 Y0.0000 Z17.5000 F1800.00
G1 X178.8804 Y36.5803 Z17.5000 F1800.00
G1 X180.1227 Y34.4285 Z17.5000 F1800.00
G1 X145.6942 Y0.0000 Z17.5000 F1800.00
G1 X149.0883 Y0.0000 Z17.5000 F1800.00
G1 X181.3650 Y32.2767 Z17.5000 F1800.00
G1 X182.6074 Y30.1249 Z17.5000 F1800.00
G1 X152.4824 Y0.0000 Z17.5000 F1800.00
G1 X155.8765 Y0.0000 Z17.5000 F1800.00
G1 X183.8497 Y27.9732 Z17.5000 F1800.00
G1 X185.0920 Y25.8214 Z17.5000 F1800.00
G1 X159.2706 Y0.0000 Z17.5000 F1800.00
G1 X162.6648 Y0.0000 Z17.5000 F1800.00
G1 X186.3344 Y23.6696 Z17.5000 F1800.00
G1 X187.5767 Y21.5178 Z17.5000 F1800.00
G1 X166.0589 Y0.0000 Z17.5000 F1800.00
G1 X169.4530 Y0.0000 Z17.5000 F1800.00
G1 X188.8190 Y19.3660 Z17.5000 F1800.00
G1 X190.0613 Y17.2142 Z17.5000 F1800.00
G1 X172.8471 Y0.0000 Z17.5000 F1800.00
G1 X176.2412 Y0.0000 Z17.5000 F1800.00
G1 X191.3037 Y15.0625 Z17.5000 F1800.00
G1 X192.5460 Y12.9107 Z17.5000 F1800.00
G1 X179.6353 Y0.0000 Z17.5000 F1800.00
G1 X183.0294 Y0.0000 Z17.5000 F1800.00
G1 X193.7883 Y10.7589 Z17.5000 F1800.00
G1 X195.0307 Y8.6071 Z17.5000 F1800.00
G1 X186.4235 Y0.0000 Z17.5000 F1800.00
G1 X189.8177 Y0.0000 Z17.5000 F1800.00
G1 X196.2730 Y6.4553 Z17.5000 F1800.00
G1 X197.5153 Y4.3036 Z17.5000 F1800.00
G1 X193.2118 Y0.0000 Z17.5000 F1800.00
G1 X196.6059 Y0.0000 Z17.5000 F1800.00
G1 X198.7577 Y2.1518 Z17.5000 F1800.00
G1 X200.0000 Y0.0000 Z17.5000 F1800.00
G0 X200.0000 Y0.0000 Z23.0000
G0 X68.0277 Y41.1275 Z23.0000
G1 X68.0277 Y41.1275 Z17.5000 F1800.00
G1 X26.9003 Y0.0000 Z17.5000 F1800.00
G1 X23.5061 Y0.0000 Z17.5000 F1800.00
G1 X63.6336 Y40.1275 Z17.5000 F1800.00
G2 X60.1120 Y40.0000 Z17.5000 I-2.8597 J30.2890 F1800.00
G1 X20.1120 Y0.0000 Z17.5000 F1800.00
G1 X16.7179 Y0.0000 Z17.5000 F1800.00
G1 X56.7179 Y40.0000 Z17.5000 F1800.00
G1 X53.3238 Y40.0000 Z17.5000 F1800.00
G1 X13.3238 Y0.0000 Z17.5000 F1800.00
G1 X9.9297 Y0.0000 Z17.5000 F1800.00
G1 X49.9297 Y40.0000 Z17.5000 F1800.00
G1 X46.5356 Y40.0000 Z17.5000 F1800.00
G1 X6.5356 Y0.0000 Z17.5000 F1800.00
G1 X3.1415 Y0.0000 Z17.5000 F1800.00
G1 X43.1415 Y40.0000 Z17.5000 F1800.00
G1 X39.7474 Y40.0000 Z17.5000 F1800.00
G1 X0.3451 Y0.5978 Z17.5000 F1800.00
G1 X4.9816 Y8.6283 Z17.5000 F1800.00
G1 X36.3532 Y40.0000 Z17.5000 F1800.00
G3 X33.4098 Y39.9621 Z17.5000 I-0.8561 J-47.7872 F1800.00
G1 X32.8713 Y39.9122 Z17.5000 F1800.00
G1 X9.6180 Y16.6589 Z17.5000 F1800.00
G1 X14.2544 Y24.6894 Z17.5000 F1800.00
G1 X17.3205 Y30.0000 Z17.5000 F1800.00
G2 X28.6421 Y39.0771 Z17.5000 I17.3095 J-9.9906 F1800.00
G1 X14.2544 Y24.6894 Z17.5000 F1800.00
G1 X14.2544 Y24.6894 Z17.0000 F1800.00
G1 X28.6421 Y39.0771 Z17.0000 F1800.00
G3 X17.3205 Y30.0000 Z17.0000 I5.9879 J-19.0677 F1800.00
G1 X14.2544 Y24.6894 Z17.0000 F1800.00
G1 X9.6180 Y16.6589 Z17.0000 F1800.00
G1 X32.8713 Y39.9122 Z17.0000 F1800.00
G1 X33.4098 Y39.9621 Z17.0000 F1800.00
G2 X36.3532 Y40.0000 Z17.0000 I2.0873 J-47.7493 F1800.00
G1 X4.9816 Y8.6283 Z17.0000 F1800.00
G1 X0.3451 Y0.5978 Z17.0000 F1800.00
G1 X39.7474 Y40.0000 Z17.0000 F1800.00
G1 X43.1415 Y40.0000 Z17.0000 F1800.00
G1 X3.1415 Y0.0000 Z17.0000 F1800.00
G1 X6.5356 Y0.0000 Z17.0000 F1800.00
G1 X46.5356 Y40.0000 Z17.0000 F1800.00
G1 X49.9297 Y40.0000 Z17.0000 F1800.00
G1 X9.9297 Y0.0000 Z17.0000 F1800.00
G1 X13.3238 Y0.0000 Z17.0000 F1800.00
G1 X53.3238 Y40.0000 Z17.0000 F1800.00
G1 X56.7179 Y40.0000 Z17.0000 F1800.00
G1 X16.7179 Y0.0000 Z17.0000 F1800.00
G1 X20.1120 Y0.0000 Z17.0000 F1800.00
G1 X60.1120 Y40.0000 Z17.0000 F1800.00
G3 X63.6336 Y40.1275 Z17.0000 I0.6620 J30.4165 F1800.00
G1 X23.5061 Y0.0000 Z17.0000 F1800.00
G1 X26.9003 Y0.0000 Z17.0000 F1800.00
G1 X68.0277 Y41.1275 Z17.0000 F1800.00
G0 X68.0277 Y41.1275 Z23.0000
G0 X39.4313 Y138.1132 Z23.0000
G1 X39.4313 Y138.1132 Z17.0000 F1800.00
G1 X39.7212 Y138.4031 Z17.0000 F1800.00
G1 X39.3782 Y138.2051 Z17.0000 F1800.00
G1 X39.4313 Y138.1132 Z17.0000 F1800.00
G1 X40.6736 Y135.9614 Z17.0000 F1800.00
G1 X47.7517 Y143.0395 Z17.0000 F1800.00
G1 X55.7823 Y147.6760 Z17.0000 F1800.00
G1 X41.9159 Y133.8096 Z17.0000 F1800.00
G1 X43.1583 Y131.6578 Z17.0000 F1800.00
G1 X63.8129 Y152.3124 Z17.0000 F1800.00
G1 X71.8434 Y156.9489 Z17.0000 F1800.00
G1 X44.4006 Y129.5061 Z17.0000 F1800.00
G1 X45.6429 Y127.3543 Z17.0000 F1800.00
G1 X79.8740 Y161.5853 Z17.0000 F1800.00
G1 X87.9045 Y166.2218 Z17.0000 F1800.00
G1 X46.8853 Y125.2025 Z17.0000 F1800.00
G1 X48.1276 Y123.0507 Z17.0000 F1800.00
G1 X95.9351 Y170.8582 Z17.0000 F1800.00
G1 X100.0000 Y173.2051 Z17.0000 F1800.00
G1 X100.6135 Y172.1425 Z17.0000 F1800.00
G1 X49.3699 Y120.8989 Z17.0000 F1800.00
G1 X50.6123 Y118.7472 Z17.0000 F1800.00
G1 X101.8558 Y169.9907 Z17.0000 F1800.00
G1 X103.0981 Y167.8389 Z17.0000 F1800.00
G1 X51.8546 Y116.5954 Z17.0000 F1800.00
G1 X53.0969 Y114.4436 Z17.0000 F1800.00
G1 X104.3405 Y165.6871 Z17.0000 F1800.00
G1 X105.5828 Y163.5354 Z17.0000 F1800.00
G1 X54.3393 Y112.2918 Z17.0000 F1800.00
G1 X55.5816 Y110.1400 Z17.0000 F1800.00
G1 X106.8251 Y161.3836 Z17.0000 F1800.00
G1 X108.0675 Y159.2318 Z17.0000 F1800.00
G1 X56.8239 Y107.9882 Z17.0000 F1800.00
G1 X58.0663 Y105.8365 Z17.0000 F1800.00
G1 X109.3098 Y157.0800 Z17.0000 F1800.00
G1 X110.5521 Y154.9282 Z17.0000 F1800.00
G1 X59.3086 Y103.6847 Z17.0000 F1800.00
G1 X60.5509 Y101.5329 Z17.0000 F1800.00
G1 X111.7945 Y152.7765 Z17.0000 F1800.00
G1 X113.0368 Y150.6247 Z17.0000 F1800.00
G1 X61.7932 Y99.3811 Z17.0000 F1800.00
G1 X63.0356 Y97.2293 Z17.0000 F1800.00
G1 X114.2791 Y148.4729 Z17.0000 F1800.00
G1 X115.5215 Y146.3211 Z17.0000 F1800.00
G1 X64.2779 Y95.0776 Z17.0000 F1800.00
G1 X65.5202 Y92.9258 Z17.0000 F1800.00
G1 X116.7638 Y144.1693 Z17.0000 F1800.00
G1 X118.0061 Y142.0176 Z17.0000 F1800.00
G1 X66.7626 Y90.7740 Z17.0000 F1800.00
G1 X68.0049 Y88.6222 Z17.0000 F1800.00
G1 X119.2485 Y139.8658 Z17.0000 F1800.00
G1 X120.4908 Y137.7140 Z17.0000 F1800.00
G1 X69.2472 Y86.4704 Z17.0000 F1800.00
G1 X70.4896 Y84.3187 Z17.0000 F1800.00
G1 X121.7331 Y135.5622 Z17.0000 F1800.00
G1 X122.9755 Y133.4104 Z17.0000 F1800.00
G1 X71.7319 Y82.1669 Z17.0000 F1800.00
G1 X72.9742 Y80.0151 Z17.0000 F1800.00
G1 X124.2178 Y131.2586 Z17.0000 F1800.00
G1 X125.4601 Y129.1069 Z17.0000 F1800.00
G1 X74.2166 Y77.8633 Z17.0000 F1800.00
G1 X75.4589 Y75.7115 Z17.0000 F1800.00
G1 X126.7024 Y126.9551 Z17.0000 F1800.00
G1 X127.9448 Y124.8033 Z17.0000 F1800.00
G1 X76.7012 Y73.5597 Z17.0000 F1800.00
G1 X77.9436 Y71.4080 Z17.0000 F1800.00
G1 X129.1871 Y122.6515 Z17.0000 F1800.00
G1 X130.4294 Y120.4997 Z17.0000 F1800.00
G1 X79.1664 Y69.2367 Z17.0000 F1800.00
G2 X80.2074 Y66.8836 Z17.0000 I-12.6843 J-7.0187 F1800.00
G1 X131.6718 Y118.3480 Z17.0000 F1800.00
G1 X132.9141 Y116.1962 Z17.0000 F1800.00
G1 X80.9766 Y64.2587 Z17.0000 F1800.00
G2 X81.3859 Y61.2738 Z17.0000 I-18.1472 J-4.0085 F1800.00
G1 X134.1564 Y114.0444 Z17.0000 F1800.00
G1 X135.3988 Y111.8926 Z17.0000 F1800.00
G1 X81.3068 Y57.8006 Z17.0000 F1800.00
G2 X80.3204 Y53.4202 Z17.0000 I-19.1156 J2.0030 F1800.00
G1 X136.6411 Y109.7408 Z17.0000 F1800.00
G1 X137.8834 Y107.5891 Z17.0000 F1800.00
G1 X30.2944 Y0.0000 Z17.0000 F1800.00
G1 X33.6885 Y0.0000 Z17.0000 F1800.00
G1 X139.1258 Y105.4373 Z17.0000 F1800.00
G1 X140.3681 Y103.2855 Z17.0000 F1800.00
G1 X37.0826 Y0.0000 Z17.0000 F1800.00
G1 X40.4767 Y0.0000 Z17.0000 F1800.00
G1 X141.6104 Y101.1337 Z17.0000 F1800.00
G1 X142.8528 Y98.9819 Z17.0000 F1800.00
G1 X43.8708 Y0.0000 Z17.0000 F1800.00
G1 X47.2649 Y0.0000 Z17.0000 F1800.00
G1 X144.0951 Y96.8302 Z17.0000 F1800.00
G1 X145.3374 Y94.6784 Z17.0000 F1800.00
G1 X50.6590 Y0.0000 Z17.0000 F1800.00
G1 X54.0532 Y0.0000 Z17.0000 F1800.00
G1 X146.5797 Y92.5266 Z17.0000 F1800.00
G1 X147.8221 Y90.3748 Z17.0000 F1800.00
G1 X57.4473 Y0.0000 Z17.0000 F1800.00
G1 X60.8414 Y0.0000 Z17.0000 F1800.00
G1 X149.0644 Y88.2230 Z17.0000 F1800.00
G1 X150.3067 Y86.0712 Z17.0000 F1800.00
G1 X64.2355 Y0.0000 Z17.0000 F1800.00
G1 X67.6296 Y0.0000 Z17.0000 F1800.00
G1 X151.5491 Y83.9195 Z17.0000 F1800.00
G1 X152.7914 Y81.7677 Z17.0000 F1800.00
G1 X71.0237 Y0.0000 Z17.0000 F1800.00
G1 X74.4178 Y0.0000 Z17.0000 F1800.00
G1 X154.0337 Y79.6159 Z17.0000 F1800.00
G1 X155.2761 Y77.4641 Z17.0000 F1800.00
G1 X77.8119 Y0.0000 Z17.0000 F1800.00
G1 X81.2061 Y0.0000 Z17.0000 F1800.00
G1 X156.5184 Y75.3123 Z17.0000 F1800.00
G1 X157.7607 Y73.1606 Z17.0000 F1800.00
G1 X84.6002 Y0.0000 Z17.0000 F1800.00
G1 X87.9943 Y0.0000 Z17.0000 F1800.00
G1 X159.0031 Y71.0088 Z17.0000 F1800.00
G1 X160.2454 Y68.8570 Z17.0000 F1800.00
G1 X91.3884 Y0.0000 Z17.0000 F1800.00
G1 X94.7825 Y0.0000 Z17.0000 F1800.00
G1 X161.4877 Y66.7052 Z17.0000 F1800.00
G1 X162.7301 Y64.5534 Z17.0000 F1800.00
G1 X98.1766 Y0.0000 Z17.0000 F1800.00
G1 X101.5707 Y0.0000 Z17.0000 F1800.00
G1 X163.9724 Y62.4017 Z17.0000 F1800.00
G1 X165.2147 Y60.2499 Z17.0000 F1800.00
G1 X104.9648 Y0.0000 Z17.0000 F1800.00
G1 X108.3590 Y0.0000 Z17.0000 F1800.00
G1 X166.4571 Y58.0981 Z17.0000 F1800.00
G1 X167.6994 Y55.9463 Z17.0000 F1800.00
G1 X111.7531 Y0.0000 Z17.0000 F1800.00
G1 X115.1472 Y0.0000 Z17.0000 F1800.00
G1 X168.9417 Y53.7945 Z17.0000 F1800.00
G1 X170.1840 Y51.6427 Z17.0000 F1800.00
G1 X118.5413 Y0.0000 Z17.0000 F1800.00
G1 X121.9354 Y0.0000 Z17.0000 F1800.00
G1 X171.4264 Y49.4910 Z17.0000 F1800.00
G1 X172.6687 Y47.3392 Z17.0000 F1800.00
G1 X125.3295 Y0.0000 Z17.0000 F1800.00
G1 X128.7236 Y0.0000 Z17.0000 F1800.00
G1 X173.9110 Y45.1874 Z17.0000 F1800.00
G1 X175.1534 Y43.0356 Z17.0000 F1800.00
G1 X132.1177 Y0.0000 Z17.0000 F1800.00
G1 X135.5119 Y0.0000 Z17.0000 F1800.00
G1 X176.3957 Y40.8838 Z17.0000 F1800.00
G1 X177.6380 Y38.7321 Z17.0000 F1800.00
G1 X138.9060 Y0.0000 Z17.0000 F1800.00
G1 X142.3001 Y0.0000 Z17.0000 F1800.00
G1 X178.8804 Y36.5803 Z17.0000 F1800.00
G1 X180.1227 Y34.4285 Z17.0000 F1800.00
G1 X145.6942 Y0.0000 Z17.0000 F1800.00
G1 X149.0883 Y0.0000 Z17.0000 F1800.00
G1 X181.3650 Y32.2767 Z17.0000 F1800.00
G1 X182.6074 Y30.1249 Z17.0000 F1800.00
G1 X152.4824 Y0.0000 Z17.0000 F1800.00
G1 X155.8765 Y0.0000 Z17.0000 F1800.00
G1 X183.8497 Y27.9732 Z17.0000 F1800.00
G1 X185.0920 Y25.8214 Z17.0000 F1800.00
G1 X159.2706 Y0.0000 Z17.0000 F1800.00
G1 X162.6648 Y0.0000 Z17.0000 F1800.00
G1 X186.3344 Y23.6696 Z17.0000 F1800.00
G1 X187.5767 Y21.5178 Z17.0000 F1800.00
G1 X166.0589 Y0.0000 Z17.0000 F1800.00
G1 X169.4530 Y0.0000 Z17.0000 F1800.00
G1 X188.8190 Y19.3660 Z17.0000 F1800.00
G1 X190.0613 Y17.2142 Z17.0000 F1800.00
G1 X172.8471 Y0.0000 Z17.0000 F1800.00
G1 X176.2412 Y0.0000 Z17.0000 F1800.00
G1 X191.3037 Y15.0625 Z17.0000 F1800.00
G1 X192.5460 Y12.9107 Z17.0000 F1800.00
G1 X179.6353 Y0.0000 Z17.0000 F1800.00
G1 X183.0294 Y0.0000 Z17.0000 F1800.00
G1 X193.7883 Y10.7589 Z17.0000 F1800.00
G1 X195.0307 Y8.6071 Z17.0000 F1800.00
G1 X186.4235 Y0.0000 Z17.0000 F1800.00
G1 X189.8177 Y0.0000 Z17.0000 F1800.00
G1 X196.2730 Y6.4553 Z17.0000 F1800.00
G1 X197.5153 Y4.3036 Z17.0000 F1800.00
G1 X193.2118 Y0.0000 Z17.0000 F1800.00
G1 X196.6059 Y0.0000 Z17.0000 F1800.00
G1 X198.7577 Y2.1518 Z17.0000 F1800.00
G1 X200.0000 Y0.0000 Z17.0000 F1800.00
G1 X200.0000 Y0.0000 Z16.5000 F1800.00
G1 X198.7577 Y2.1518 Z16.5000 F1800.00
G1 X196.6059 Y0.0000 Z16.5000 F1800.00
G1 X193.2118 Y0.0000 Z16.5000 F1800.00
G1 X197.5153 Y4.3036 Z16.5000 F1800.00
G1 X196.2730 Y6.4553 Z16.5000 F1800.00
G1 X189.8177 Y0.0000 Z16.5000 F1800.00
G1 X186.4235 Y0.0000 Z16.5000 F1800.00
G1 X195.0307 Y8.6071 Z16.5000 F1800.00
G1 X193.7883 Y10.7589 Z16.5000 F1800.00
G1 X183.0294 Y0.0000 Z16.5000 F1800.00
G1 X179.6353 Y0.0000 Z16.5000 F1800.00
G1 X192.5460 Y12.9107 Z16.5000 F1800.00
G1 X191.3037 Y15.0625 Z16.5000 F1800.00
G1 X176.2412 Y0.0000 Z16.5000 F1800.00
G1 X172.8471 Y0.0000 Z16.5000 F1800.00
G1 X190.0613 Y17.2142 Z16.5000 F1800.00
G1 X188.8190 Y19.3660 Z16.5000 F1800.00
G1 X169.4530 Y0.0000 Z16.5000 F1800.00
G1 X166.0589 Y0.0000 Z16.5000 F1800.00
G1 X187.5767 Y21.5178 Z16.5000 F1800.00
G1 X186.3344 Y23.6696 Z16.5000 F1800.00
G1 X162.6648 Y0.0000 Z16.5000 F1800.00
G1 X159.2706 Y0.0000 Z16.5000 F1800.00
G1 X185.0920 Y25.8214 Z16.5000 F1800.00
G1 X183.8497 Y27.9732 Z16.5000 F1800.00
G1 X155.8765 Y0.0000 Z16.5000 F1800.00
G1 X152.4824 Y0.0000 Z16.5000 F1800.00
G1 X182.6074 Y30.1249 Z16.5000 F1800.00
G1 X181.3650 Y32.2767 Z16.5000 F1800.00
G1 X149.0883 Y0.0000 Z16.5000 F1800.00
G1 X145.6942 Y0.0000 Z16.5000 F1800.00
G1 X180.1227 Y34.4285 Z16.5000 F1800.00
G1 X178.8804 Y36.5803 Z16.5000 F1800.00
G1 X142.3001 Y0.0000 Z16.5000 F1800.00
G1 X138.9060 Y0.0000 Z16.5000 F1800.00
G1 X177.6380 Y38.7321 Z16.5000 F1800.00
G1 X176.3957 Y40.8838 Z16.5000 F1800.00
G1 X135.5119 Y0.0000 Z16.5000 F1800.00
G1 X132.1177 Y0.0000 Z16.5000 F1800.00
G1 X175.1534 Y43.0356 Z16.5000 F1800.00
G1 X173.9110 Y45.1874 Z16.5000 F1800.00
G1 X128.7236 Y0.0000 Z16.5000 F1800.00
G1 X125.3295 Y0.0000 Z16.5000 F1800.00
G1 X172.6687 Y47.3392 Z16.5000 F1800.00
G1 X171.4264 Y49.4910 Z16.5000 F1800.00
G1 X121.9354 Y0.0000 Z16.5000 F1800.00
G1 X118.5413 Y0.0000 Z16.5000 F1800.00
G1 X170.1840 Y51.6427 Z16.5000 F1800.00
G1 X168.9417 Y53.7945 Z16.5000 F1800.00
G1 X115.1472 Y0.0000 Z16.5000 F1800.00
G1 X111.7531 Y0.0000 Z16.5000 F1800.00
G1 X167.6994 Y55.9463 Z16.5000 F1800.00
G1 X166.4571 Y58.0981 Z16.5000 F1800.00
G1 X108.3590 Y0.0000 Z16.5000 F1800.00
G1 X104.9648 Y0.0000 Z16.5000 F1800.00
G1 X165.2147 Y60.2499 Z16.5000 F1800.00
G1 X163.9724 Y62.4017 Z16.5000 F1800.00
G1 X101.5707 Y0.0000 Z16.5000 F1800.00
G1 X98.1766 Y0.0000 Z16.5000 F1800.00
G1 X162.7301 Y64.5534 Z16.5000 F1800.00
G1 X161.4877 Y66.7052 Z16.5000 F1800.00
G1 X94.7825 Y0.0000 Z16.5000 F1800.00
G1 X91.3884 Y0.0000 Z16.5000 F1800.00
G1 X160.2454 Y68.8570 Z16.5000 F1800.00
G1 X159.0031 Y71.0088 Z16.5000 F1800.00
G1 X87.9943 Y0.0000 Z16.5000 F1800.00
G1 X84.6002 Y0.0000 Z16.5000 F1800.00
G1 X157.7607 Y73.1606 Z16.5000 F1800.00
G1 X156.5184 Y75.3123 Z16.5000 F1800.00
G1 X81.2061 Y0.0000 Z16.5000 F1800.00
G1 X77.8119 Y0.0000 Z16.5000 F1800.00
G1 X155.2761 Y77.4641 Z16.5000 F1800.00
G1 X154.0337 Y79.6159 Z16.5000 F1800.00
G1 X74.4178 Y0.0000 Z16.5000 F1800.00
G1 X71.0237 Y0.0000 Z16.5000 F1800.00
G1 X152.7914 Y81.7677 Z16.5000 F1800.00
G1 X151.5491 Y83.9195 Z16.5000 F1800.00
G1 X67.6296 Y0.0000 Z16.5000 F1800.00
G1 X64.2355 Y0.0000 Z16.5000 F1800.00
G1 X150.3067 Y86.0712 Z16.5000 F1800.00
G1 X149.0644 Y88.2230 Z16.5000 F1800.00
G1 X60.8414 Y0.0000 Z16.5000 F1800.00
G1 X57.4473 Y0.0000 Z16.5000 F1800.00
G1 X147.8221 Y90.3748 Z16.5000 F1800.00
G1 X146.5797 Y92.5266 Z16.5000 F1800.00
G1 X54.0532 Y0.0000 Z16.5000 F1800.00
G1 X50.6590 Y0.0000 Z16.5000 F1800.00
G1 X145.3374 Y94.6784 Z16.5000 F1800.00
G1 X144.0951 Y96.8302 Z16.5000 F1800.00
G1 X47.2649 Y0.0000 Z16.5000 F1800.00
G1 X43.8708 Y0.0000 Z16.5000 F1800.00
G1 X142.8528 Y98.9819 Z16.5000 F1800.00
G1 X141.6104 Y101.1337 Z16.5000 F1800.00
G1 X40.4767 Y0.0000 Z16.5000 F1800.00
G1 X37.0826 Y0.0000 Z16.5000 F1800.00
G1 X140.3681 Y103.2855 Z16.5000 F1800.00
G1 X139.1258 Y105.4373 Z16.5000 F1800.00
G1 X33.6885 Y0.0000 Z16.5000 F1800.00
G1 X30.2944 Y0.0000 Z16.5000 F1800.00
G1 X137.8834 Y107.5891 Z16.5000 F1800.00
G1 X136.6411 Y109.7408 Z16.5000 F1800.00
G1 X80.3204 Y53.4202 Z16.5000 F1800.00
G3 X81.3068 Y57.8006 Z16.5000 I-18.1293 J6.3835 F1800.00
G1 X135.3988 Y111.8926 Z16.5000 F1800.00
G1 X134.1564 Y114.0444 Z16.5000 F1800.00
G1 X81.3859 Y61.2738 Z16.5000 F1800.00
G3 X80.9766 Y64.2587 Z16.5000 I-18.5565 J-1.0237 F1800.00
G1 X132.9141 Y116.1962 Z16.5000 F1800.00
G1 X131.6718 Y118.3480 Z16.5000 F1800.00
G1 X80.2074 Y66.8836 Z16.5000 F1800.00
G3 X79.1664 Y69.2367 Z16.5000 I-13.7253 J-4.6656 F1800.00
G1 X130.4294 Y120.4997 Z16.5000 F1800.00
G1 X129.1871 Y122.6515 Z16.5000 F1800.00
G1 X77.9436 Y71.4080 Z16.5000 F1800.00
G1 X76.7012 Y73.5597 Z16.5000 F1800.00
G1 X127.9448 Y124.8033 Z16.5000 F1800.00
G1 X126.7024 Y126.9551 Z16.5000 F1800.00
G1 X75.4589 Y75.7115 Z16.5000 F1800.00
G1 X74.2166 Y77.8633 Z16.5000 F1800.00
G1 X125.4601 Y129.1069 Z16.5000 F1800.00
G1 X124.2178 Y131.2586 Z16.5000 F1800.00
G1 X72.9742 Y80.0151 Z16.5000 F1800.00
G1 X71.7319 Y82.1669 Z16.5000 F1800.00
G1 X122.9755 Y133.4104 Z16.5000 F1800.00
G1 X121.7331 Y135.5622 Z16.5000 F1800.00
G1 X70.4896 Y84.3187 Z16.5000 F1800.00
G1 X69.2472 Y86.4704 Z16.5000 F1800.00
G1 X120.4908 Y137.7140 Z16.5000 F1800.00
G1 X119.2485 Y139.8658 Z16.5000 F1800.00
G1 X68.0049 Y88.6222 Z16.5000 F1800.00
G1 X66.7626 Y90.7740 Z16.5000 F1800.00
G1 X118.0061 Y142.0176 Z16.5000 F1800.00
G1 X116.7638 Y144.1693 Z16.5000 F1800.00
G1 X65.5202 Y92.9258 Z16.5000 F1800.00
G1 X64.2779 Y95.0776 Z16.5000 F1800.00
G1 X115.5215 Y146.3211 Z16.5000 F1800.00
G1 X114.2791 Y148.4729 Z16.5000 F1800.00
G1 X63.0356 Y97.2293 Z16.5000 F1800.00
G1 X61.7932 Y99.3811 Z16.5000 F1800.00
G1 X113.0368 Y150.6247 Z16.5000 F1800.00
G1 X111.7945 Y152.7765 Z16.5000 F1800.00
G1 X60.5509 Y101.5329 Z16.5000 F1800.00
G1 X59.3086 Y103.6847 Z16.5000 F1800.00
G1 X110.5521 Y154.9282 Z16.5000 F1800.00
G1 X109.3098 Y157.0800 Z16.5000 F1800.00
G1 X58.0663 Y105.8365 Z16.5000 F1800.00
G1 X56.8239 Y107.9882 Z16.5000 F1800.00
G1 X108.0675 Y159.2318 Z16.5000 F1800.00
G1 X106.8251 Y161.3836 Z16.5000 F1800.00
G1 X55.5816 Y110.1400 Z16.5000 F1800.00
G1 X54.3393 Y112.2918 Z16.5000 F1800.00
G1 X105.5828 Y163.5354 Z16.5000 F1800.00
G1 X104.3405 Y165.6871 Z16.5000 F1800.00
G1 X53.0969 Y114.4436 Z16.5000 F1800.00
G1 X51.8546 Y116.5954 Z16.5000 F1800.00
G1 X103.0981 Y167.8389 Z16.5000 F1800.00
G1 X101.8558 Y169.9907 Z16.5000 F1800.00
G1 X50.6123 Y118.7472 Z16.5000 F1800.00
G1 X49.3699 Y120.8989 Z16.5000 F1800.00
G1 X100.6135 Y172.1425 Z16.5000 F1800.00
G1 X100.0000 Y173.2051 Z16.5000 F1800.00
G1 X95.9351 Y170.8582 Z16.5000 F1800.00
G1 X48.1276 Y123.0507 Z16.5000 F1800.00
G1 X46.8853 Y125.2025 Z16.5000 F1800.00
G1 X87.9045 Y166.2218 Z16.5000 F1800.00
G1 X79.8740 Y161.5853 Z16.5000 F1800.00
G1 X45.6429 Y127.3543 Z16.5000 F1800.00
G1 X44.4006 Y129.5061 Z16.5000 F1800.00
G1 X71.8434 Y156.9489 Z16.5000 F1800.00
G1 X63.8129 Y152.3124 Z16.5000 F1800.00
G1 X43.1583 Y131.6578 Z16.5000 F1800.00
G1 X41.9159 Y133.8096 Z16.5000 F1800.00
G1 X55.7823 Y147.6760 Z16.5000 F1800.00
G1 X47.7517 Y143.0395 Z16.5000 F1800.00
G1 X40.6736 Y135.9614 Z16.5000 F1800.00
G1 X39.4313 Y138.1132 Z16.5000 F1800.00
G1 X39.3782 Y138.2051 Z16.5000 F1800.00
G1 X39.7212 Y138.4031 Z16.5000 F1800.00
G1 X39.4313 Y138.1132 Z16.5000 F1800.00
G0 X39.4313 Y138.1132 Z23.0000
G0 X68.0277 Y41.1275 Z23.0000
G1 X68.0277 Y41.1275 Z16.5000 F1800.00
G1 X26.9003 Y0.0000 Z16.5000 F1800.00
G1 X23.5061 Y0.0000 Z16.5000 F1800.00
G1 X63.6336 Y40.1275 Z16.5000 F1800.00
G2 X60.1120 Y40.0000 Z16.5000 I-2.8597 J30.2890 F1800.00
G1 X20.1120 Y0.0000 Z16.5000 F1800.00
G1 X16.7179 Y0.0000 Z16.5000 F1800.00
G1 X56.7179 Y40.0000 Z16.5000 F1800.00
G1 X53.3238 Y40.0000 Z16.5000 F1800.00
G1 X13.3238 Y0.0000 Z16.5000 F1800.00
G1 X9.9297 Y0.0000 Z16.5000 F1800.00
G1 X49.9297 Y40.0000 Z16.5000 F1800.00
G1 X46.5356 Y40.0000 Z16.5000 F1800.00
G1 X6.5356 Y0.0000 Z16.5000 F1800.00
G1 X3.1415 Y0.0000 Z16.5000 F1800.00
G1 X43.1415 Y40.0000 Z16.5000 F1800.00
G1 X39.7474 Y40.0000 Z16.5000 F1800.00
G1 X0.3451 Y0.5978 Z16.5000 F1800.00
G1 X4.9816 Y8.6283 Z16.5000 F1800.00
G1 X36.3532 Y40.0000 Z16.5000 F1800.00
G3 X33.4098 Y39.9621 Z16.5000 I-0.8561 J-47.7872 F1800.00
G1 X32.8713 Y39.9122 Z16.5000 F1800.00
G1 X9.6180 Y16.6589 Z16.5000 F1800.00
G1 X14.2544 Y24.6894 Z16.5000 F1800.00
G1 X17.3205 Y30.0000 Z16.5000 F1800.00
G2 X28.6421 Y39.0771 Z16.5000 I17.3095 J-9.9906 F1800.00
G1 X14.2544 Y24.6894 Z16.5000 F1800.00
G1 X14.2544 Y24.6894 Z16.0000 F1800.00
G1 X28.6421 Y39.0771 Z16.0000 F1800.00
G3 X17.3205 Y30.0000 Z16.0000 I5.9879 J-19.0677 F1800.00
G1 X14.2544 Y24.6894 Z16.0000 F1800.00
G1 X9.6180 Y16.6589 Z16.0000 F1800.00
G1 X32.8713 Y39.9122 Z16.0000 F1800.00
G1 X33.4098 Y39.9621 Z16.0000 F1800.00
G2 X36.3532 Y40.0000 Z16.0000 I2.0873 J-47.7493 F1800.00
G1 X4.9816 Y8.6283 Z16.0000 F1800.00
G1 X0.3451 Y0.5978 Z16.0000 F1800.00
G1 X39.7474 Y40.0000 Z16.0000 F1800.00
G1 X43.1415 Y40.0000 Z16.0000 F1800.00
G1 X3.1415 Y0.0000 Z16.0000 F1800.00
G1 X6.5356 Y0.0000 Z16.0000 F1800.00
G1 X46.5356 Y40.0000 Z16.0000 F1800.00
G1 X49.9297 Y40.0000 Z16.0000 F1800.00
G1 X9.9297 Y0.0000 Z16.0000 F1800.00
G1 X13.3238 Y0.0000 Z16.0000 F1800.00
G1 X53.3238 Y40.0000 Z16.0000 F1800.00
G1 X56.7179 Y40.0000 Z16.0000 F1800.00
G1 X16.7179 Y0.0000 Z16.0000 F1800.00
G1 X20.1120 Y0.0000 Z16.0000 F1800.00
G1 X60.1120 Y40.0000 Z16.0000 F1800.00
G3 X63.6336 Y40.1275 Z16.0000 I0.6620 J30.4165 F1800.00
G1 X23.5061 Y0.0000 Z16.0000 F1800.00
G1 X26.9003 Y0.0000 Z16.0000 F1800.00
G1 X68.0277 Y41.1275 Z16.0000 F1800.00
G0 X68.0277 Y41.1275 Z23.0000
G0 X39.4313 Y138.1132 Z23.0000
G1 X39.4313 Y138.1132 Z16.0000 F1800.00
G1 X39.7212 Y138.4031 Z16.0000 F1800.00
G1 X39.3782 Y138.2051 Z16.0000 F1800.00
G1 X39.4313 Y138.1132 Z16.0000 F1800.00
G1 X40.6736 Y135.9614 Z16.0000 F1800.00
G1 X47.7517 Y143.0395 Z16.0000 F1800.00
G1 X55.7823 Y147.6760 Z16.0000 F1800.00
G1 X41.9159 Y133.8096 Z16.0000 F1800.00
G1 X43.1583 Y131.6578 Z16.0000 F1800.00
G1 X63.8129 Y152.3124 Z16.0000 F1800.00
G1 X71.8434 Y156.9489 Z16.0000 F1800.00
G1 X44.4006 Y129.5061 Z16.0000 F1800.00
G1 X45.6429 Y127.3543 Z16.0000 F1800.00
G1 X79.8740 Y161.5853 Z16.0000 F1800.00
G1 X87.9045 Y166.2218 Z16.0000 F1800.00
G1 X46.8853 Y125.2025 Z16.0000 F1800.00
G1 X48.1276 Y123.0507 Z16.0000 F1800.00
G1 X95.9351 Y170.8582 Z16.0000 F1800.00
G1 X100.0000 Y173.2051 Z16.0000 F1800.00
G1 X100.6135 Y172.1425 Z16.0000 F1800.00
G1 X49.3699 Y120.8989 Z16.0000 F1800.00
G1 X50.6123 Y118.7472 Z16.0000 F1800.00
G1 X101.8558 Y169.9907 Z16.0000 F1800.00
G1 X103.0981 Y167.8389 Z16.0000 F1800.00
G1 X51.8546 Y116.5954 Z16.0000 F1800.00
G1 X53.0969 Y114.4436 Z16.0000 F1800.00
G1 X104.3405 Y165.6871 Z16.0000 F1800.00
G1 X105.5828 Y163.5354 Z16.0000 F1800.00
G1 X54.3393 Y112.2918 Z16.0000 F1800.00
G1 X55.5816 Y110.1400 Z16.0000 F1800.00
G1 X106.8251 Y161.3836 Z16.0000 F1800.00
G1 X108.0675 Y159.2318 Z16.0000 F1800.00
G1 X56.8239 Y107.9882 Z16.0000 F1800.00
G1 X58.0663 Y105.8365 Z16.0000 F1800.00
G1 X109.3098 Y157.0800 Z16.0000 F1800.00
G1 X110.5521 Y154.9282 Z16.0000 F1800.00
G1 X59.3086 Y103.6847 Z16.0000 F1800.00
G1 X60.5509 Y101.5329 Z16.0000 F1800.00
G1 X111.7945 Y152.7765 Z16.0000 F1800.00
G1 X113.0368 Y150.6247 Z16.0000 F1800.00
G1 X61.7932 Y99.3811 Z16.0000 F1800.00
G1 X63.0356 Y97.2293 Z16.0000 F1800.00
G1 X114.2791 Y148.4729 Z16.0000 F1800.00
G1 X115.5215 Y146.3211 Z16.0000 F1800.00
G1 X64.2779 Y95.0776 Z16.0000 F1800.00
G1 X65.5202 Y92.9258 Z16.0000 F1800.00
G1 X116.7638 Y144.1693 Z16.0000 F1800.00
G1 X118.0061 Y142.0176 Z16.0000 F1800.00
G1 X66.7626 Y90.7740 Z16.0000 F1800.00
G1 X68.0049 Y88.6222 Z16.0000 F1800.00
G1 X119.2485 Y139.8658 Z16.0000 F1800.00
G1 X120.4908 Y137.7140 Z16.0000 F1800.00
G1 X69.2472 Y86.4704 Z16.0000 F1800.00
G1 X70.4896 Y84.3187 Z16.0000 F1800.00
G1 X121.7331 Y135.5622 Z16.0000 F1800.00
G1 X122.9755 Y133.4104 Z16.0000 F1800.00
G1 X71.7319 Y82.1669 Z16.0000 F1800.00
G1 X72.9742 Y80.0151 Z16.0000 F1800.00
G1 X124.2178 Y131.2586 Z16.0000 F1800.00
G1 X125.4601 Y129.1069 Z16.0000 F1800.00
G1 X74.2166 Y77.8633 Z16.0000 F1800.00
G1 X75.4589 Y75.7115 Z16.0000 F1800.00
G1 X126.7024 Y126.9551 Z16.0000 F1800.00
G1 X127.9448 Y124.8033 Z16.0000 F1800.00
G1 X76.7012 Y73.5597 Z16.0000 F1800.00
G1 X77.9436 Y71.4080 Z16.0000 F1800.00
G1 X129.1871 Y122.6515 Z16.0000 F1800.00
G1 X130.4294 Y120.4997 Z16.0000 F1800.00
G1 X79.1664 Y69.2367 Z16.0000 F1800.00
G2 X80.2074 Y66.8836 Z16.0000 I-12.6843 J-7.0187 F1800.00
G1 X131.6718 Y118.3480 Z16.0000 F1800.00
G1 X132.9141 Y116.1962 Z16.0000 F1800.00
G1 X80.9766 Y64.2587 Z16.0000 F1800.00
G2 X81.3859 Y61.2738 Z16.0000 I-18.1472 J-4.0085 F1800.00
G1 X134.1564 Y114.0444 Z16.0000 F1800.00
G1 X135.3988 Y111.8926 Z16.0000 F1800.00
G1 X81.3068 Y57.8006 Z16.0000 F1800.00
G2 X80.3204 Y53.4202 Z16.0000 I-19.1156 J2.0030 F1800.00
G1 X136.6411 Y109.7408 Z16.0000 F1800.00
G1 X137.8834 Y107.5891 Z16.0000 F1800.00
G1 X30.2944 Y0.0000 Z16.0000 F1800.00
G1 X33.6885 Y0.0000 Z16.0000 F1800.00
G1 X139.1258 Y105.4373 Z16.0000 F1800.00
G1 X140.3681 Y103.2855 Z16.0000 F1800.00
G1 X37.0826 Y0.0000 Z16.0000 F1800.00
G1 X40.4767 Y0.0000 Z16.0000 F1800.00
G1 X141.6104 Y101.1337 Z16.0000 F1800.00
G1 X142.8528 Y98.9819 Z16.0000 F1800.00
G1 X43.8708 Y0.0000 Z16.0000 F1800.00
G1 X47.2649 Y0.0000 Z16.0000 F1800.00
G1 X144.0951 Y96.8302 Z16.0000 F1800.00
G1 X145.3374 Y94.6784 Z16.0000 F1800.00
G1 X50.6590 Y0.0000 Z16.0000 F1800.00
G1 X54.0532 Y0.0000 Z16.0000 F1800.00
G1 X146.5797 Y92.5266 Z16.0000 F1800.00
G1 X147.8221 Y90.3748 Z16.0000 F1800.00
G1 X57.4473 Y0.0000 Z16.0000 F1800.00
G1 X60.8414 Y0.0000 Z16.0000 F1800.00
G1 X149.0644 Y88.2230 Z16.0000 F1800.00
G1 X150.3067 Y86.0712 Z16.0000 F1800.00
G1 X64.2355 Y0.0000 Z16.0000 F1800.00
G1 X67.6296 Y0.0000 Z16.0000 F1800.00
G1 X151.5491 Y83.9195 Z16.0000 F1800.00
G1 X152.7914 Y81.7677 Z16.0000 F1800.00
G1 X71.0237 Y0.0000 Z16.0000 F1800.00
G1 X74.4178 Y0.0000 Z16.0000 F1800.00
G1 X154.0337 Y79.6159 Z16.0000 F1800.00
G1 X155.2761 Y77.4641 Z16.0000 F1800.00
G1 X77.8119 Y0.0000 Z16.0000 F1800.00
G1 X81.2061 Y0.0000 Z16.0000 F1800.00
G1 X156.5184 Y75.3123 Z16.0000 F1800.00
G1 X157.7607 Y73.1606 Z16.0000 F1800.00
G1 X84.6002 Y0.0000 Z16.0000 F1800.00
G1 X87.9943 Y0.0000 Z16.0000 F1800.00
G1 X159.0031 Y71.0088 Z16.0000 F1800.00
G1 X160.2454 Y68.8570 Z16.0000 F1800.00
G1 X91.3884 Y0.0000 Z16.0000 F1800.00
G1 X94.7825 Y0.0000 Z16.0000 F1800.00
G1 X161.4877 Y66.7052 Z16.0000 F1800.00
G1 X162.7301 Y64.5534 Z16.0000 F1800.00
G1 X98.1766 Y0.0000 Z16.0000 F1800.00
G1 X101.5707 Y0.0000 Z16.0000 F1800.00
G1 X163.9724 Y62.4017 Z16.0000 F1800.00
G1 X165.2147 Y60.2499 Z16.0000 F1800.00
G1 X104.9648 Y0.0000 Z16.0000 F1800.00
G1 X108.3590 Y0.0000 Z16.0000 F1800.00
G1 X166.4571 Y58.0981 Z16.0000 F1800.00
G1 X167.6994 Y55.9463 Z16.0000 F1800.00
G1 X111.7531 Y0.0000 Z16.0000 F1800.00
G1 X115.1472 Y0.0000 Z16.0000 F1800.00
G1 X168.9417 Y53.7945 Z16.0000 F1800.00
G1 X170.1840 Y51.6427 Z16.0000 F1800.00
G1 X118.5413 Y0.0000 Z16.0000 F1800.00
G1 X121.9354 Y0.0000 Z16.0000 F1800.00
G1 X171.4264 Y49.4910 Z16.0000 F1800.00
G1 X172.6687 Y47.3392 Z16.0000 F1800.00
G1 X125.3295 Y0.0000 Z16.0000 F1800.00
G1 X128.7236 Y0.0000 Z16.0000 F1800.00
G1 X173.9110 Y45.1874 Z16.0000 F1800.00
G1 X175.1534 Y43.0356 Z16.0000 F1800.00
G1 X132.1177 Y0.0000 Z16.0000 F1800.00
G1 X135.5119 Y0.0000 Z16.0000 F1800.00
G1 X176.3957 Y40.8838 Z16.0000 F1800.00
G1 X177.6380 Y38.7321 Z16.0000 F1800.00
G1 X138.9060 Y0.0000 Z16.0000 F1800.00
G1 X142.3001 Y0.0000 Z16.0000 F1800.00
G1 X178.8804 Y36.5803 Z16.0000 F1800.00
G1 X180.1227 Y34.4285 Z16.0000 F1800.00
G1 X145.6942 Y0.0000 Z16.0000 F1800.00
G1 X149.0883 Y0.0000 Z16.0000 F1800.00
G1 X181.3650 Y32.2767 Z16.0000 F1800.00
G1 X182.6074 Y30.1249 Z16.0000 F1800.00
G1 X152.4824 Y0.0000 Z16.0000 F1800.00
G1 X155.8765 Y0.0000 Z16.0000 F1800.00
G1 X183.8497 Y27.9732 Z16.0000 F1800.00
G1 X185.0920 Y25.8214 Z16.0000 F1800.00
G1 X159.2706 Y0.0000 Z16.0000 F1800.00
G1 X162.6648 Y0.0000 Z16.0000 F1800.00
G1 X186.3344 Y23.6696 Z16.0000 F1800.00
G1 X187.5767 Y21.5178 Z16.0000 F1800.00
G1 X166.0589 Y0.0000 Z16.0000 F1800.00
G1 X169.4530 Y0.0000 Z16.0000 F1800.00
G1 X188.8190 Y19.3660 Z16.0000 F1800.00
G1 X190.0613 Y17.2142 Z16.0000 F1800.00
G1 X172.8471 Y0.0000 Z16.0000 F1800.00
G1 X176.2412 Y0.0000 Z16.0000 F1800.00
G1 X191.3037 Y15.0625 Z16.0000 F1800.00
G1 X192.5460 Y12.9107 Z16.0000 F1800.00
G1 X179.6353 Y0.0000 Z16.0000 F1800.00
G1 X183.0294 Y0.0000 Z16.0000 F1800.00
G1 X193.7883 Y10.7589 Z16.0000 F1800.00
G1 X195.0307 Y8.6071 Z16.0000 F1800.00
G1 X186.4235 Y0.0000 Z16.0000 F1800.00
G1 X189.8177 Y0.0000 Z16.0000 F1800.00
G1 X196.2730 Y6.4553 Z16.0000 F1800.00
G1 X197.5153 Y4.3036 Z16.0000 F1800.00
G1 X193.2118 Y0.0000 Z16.0000 F1800.00
G1 X196.6059 Y0.0000 Z16.0000 F1800.00
G1 X198.7577 Y2.1518 Z16.0000 F1800.00
G1 X200.0000 Y0.0000 Z16.0000 F1800.00
G1 X200.0000 Y0.0000 Z15.5000 F1800.00
G1 X198.7577 Y2.1518 Z15.5000 F1800.00
G1 X196.6059 Y0.0000 Z15.5000 F1800.00
G1 X193.2118 Y0.0000 Z15.5000 F1800.00
G1 X197.5153 Y4.3036 Z15.5000 F1800.00
G1 X196.2730 Y6.4553 Z15.5000 F1800.00
G1 X189.8177 Y0.0000 Z15.5000 F1800.00
G1 X186.4235 Y0.0000 Z15.5000 F1800.00
G1 X195.0307 Y8.6071 Z15.5000 F1800.00
G1 X193.7883 Y10.7589 Z15.5000 F1800.00
G1 X183.0294 Y0.0000 Z15.5000 F1800.00
G1 X179.6353 Y0.0000 Z15.5000 F1800.00
G1 X192.5460 Y12.9107 Z15.5000 F1800.00
G1 X191.3037 Y15.0625 Z15.5000 F1800.00
G1 X176.2412 Y0.0000 Z15.5000 F1800.00
G1 X172.8471 Y0.0000 Z15.5000 F1800.00
G1 X190.0613 Y17.2142 Z15.5000 F1800.00
G1 X188.8190 Y19.3660 Z15.5000 F1800.00
G1 X169.4530 Y0.0000 Z15.5000 F1800.00
G1 X166.0589 Y0.0000 Z15.5000 F1800.00
G1 X187.5767 Y21.5178 Z15.5000 F1800.00
G1 X186.3344 Y23.6696 Z15.5000 F1800.00
G1 X162.6648 Y0.0000 Z15.5000 F1800.00
G1 X159.2706 Y0.0000 Z15.5000 F1800.00
G1 X185.0920 Y25.8214 Z15.5000 F1800.00
G1 X183.8497 Y27.9732 Z15.5000 F1800.00
G1 X155.8765 Y0.0000 Z15.5000 F1800.00
G1 X152.4824 Y0.0000 Z15.5000 F1800.00
G1 X182.6074 Y30.1249 Z15.5000 F1800.00
G1 X181.3650 Y32.2767 Z15.5000 F1800.00
G1 X149.0883 Y0.0000 Z15.5000 F1800.00
G1 X145.6942 Y0.0000 Z15.5000 F1800.00
G1 X180.1227 Y34.4285 Z15.5000 F1800.00
G1 X178.8804 Y36.5803 Z15.5000 F1800.00
G1 X142.3001 Y0.0000 Z15.5000 F1800.00
G1 X138.9060 Y0.0000 Z15.5000 F1800.00
G1 X177.6380 Y38.7321 Z15.5000 F1800.00
G1 X176.3957 Y40.8838 Z15.5000 F1800.00
G1 X135.5119 Y0.0000 Z15.5000 F1800.00
G1 X132.1177 Y0.0000 Z15.5000 F1800.00
G1 X175.1534 Y43.0356 Z15.5000 F1800.00
G1 X173.9110 Y45.1874 Z15.5000 F1800.00
G1 X128.7236 Y0.0000 Z15.5000 F1800.00
G1 X125.3295 Y0.0000 Z15.5000 F1800.00
G1 X172.6687 Y47.3392 Z15.5000 F1800.00
G1 X171.4264 Y49.4910 Z15.5000 F1800.00
G1 X121.9354 Y0.0000 Z15.5000 F1800.00
G1 X118.5413 Y0.0000 Z15.5000 F1800.00
G1 X170.1840 Y51.6427 Z15.5000 F1800.00
G1 X168.9417 Y53.7945 Z15.5000 F1800.00
G1 X115.1472 Y0.0000 Z15.5000 F1800.00
G1 X111.7531 Y0.0000 Z15.5000 F1800.00
G1 X167.6994 Y55.9463 Z15.5000 F1800.00
G1 X166.4571 Y58.0981 Z15.5000 F1800.00
G1 X108.3590 Y0.0000 Z15.5000 F1800.00
G1 X104.9648 Y0.0000 Z15.5000 F1800.00
G1 X165.2147 Y60.2499 Z15.5000 F1800.00
G1 X163.9724 Y62.4017 Z15.5000 F1800.00
G1 X101.5707 Y0.0000 Z15.5000 F1800.00
G1 X98.1766 Y0.0000 Z15.5000 F1800.00
G1 X162.7301 Y64.5534 Z15.5000 F1800.00
G1 X161.4877 Y66.7052 Z15.5000 F1800.00
G1 X94.7825 Y0.0000 Z15.5000 F1800.00
G1 X91.3884 Y0.0000 Z15.5000 F1800.00
G1 X160.2454 Y68.8570 Z15.5000 F1800.00
G1 X159.0031 Y71.0088 Z15.5000 F1800.00
G1 X87.9943 Y0.0000 Z15.5000 F1800.00
G1 X84.6002 Y0.0000 Z15.5000 F1800.00
G1 X157.7607 Y73.1606 Z15.5000 F1800.00
G1 X156.5184 Y75.3123 Z15.5000 F1800.00
G1 X81.2061 Y0.0000 Z15.5000 F1800.00
G1 X77.8119 Y0.0000 Z15.5000 F1800.00
G1 X155.2761 Y77.4641 Z15.5000 F1800.00
G1 X154.0337 Y79.6159 Z15.5000 F1800.00
G1 X74.4178 Y0.0000 Z15.5000 F1800.00
G1 X71.0237 Y0.0000 Z15.5000 F1800.00
G1 X152.7914 Y81.7677 Z15.5000 F1800.00
G1 X151.5491 Y83.9195 Z15.5000 F1800.00
G1 X67.6296 Y0.0000 Z15.5000 F1800.00
G1 X64.2355 Y0.0000 Z15.5000 F1800.00
G1 X150.3067 Y86.0712 Z15.5000 F1800.00
G1 X149.0644 Y88.2230 Z15.5000 F1800.00
G1 X60.8414 Y0.0000 Z15.5000 F1800.00
G1 X57.4473 Y0.0000 Z15.5000 F1800.00
G1 X147.8221 Y90.3748 Z15.5000 F1800.00
G1 X146.5797 Y92.5266 Z15.5000 F1800.00
G1 X54.0532 Y0.0000 Z15.5000 F1800.00
G1 X50.6590 Y0.0000 Z15.5000 F1800.00
G1 X145.3374 Y94.6784 Z15.5000 F1800.00
G1 X144.0951 Y96.8302 Z15.5000 F1800.00
G1 X47.2649 Y0.0000 Z15.5000 F1800.00
G1 X43.8708 Y0.0000 Z15.5000 F1800.00
G1 X142.8528 Y98.9819 Z15.5000 F1800.00
G1 X141.6104 Y101.1337 Z15.5000 F1800.00
G1 X40.4767 Y0.0000 Z15.5000 F1800.00
G1 X37.0826 Y0.0000 Z15.5000 F1800.00
G1 X140.3681 Y103.2855 Z15.5000 F1800.00
G1 X139.1258 Y105.4373 Z15.5000 F1800.00
G1 X33.6885 Y0.0000 Z15.5000 F1800.00
G1 X30.2944 Y0.0000 Z15.5000 F1800.00
G1 X137.8834 Y107.5891 Z15.5000 F1800.00
G1 X136.6411 Y109.7408 Z15.5000 F1800.00
G1 X80.3204 Y53.4202 Z15.5000 F1800.00
G3 X81.3068 Y57.8006 Z15.5000 I-18.1293 J6.3835 F1800.00
G1 X135.3988 Y111.8926 Z15.5000 F1800.00
G1 X134.1564 Y114.0444 Z15.5000 F1800.00
G1 X81.3859 Y61.2738 Z15.5000 F1800.00
G3 X80.9766 Y64.2587 Z15.5000 I-18.5565 J-1.0237 F1800.00
G1 X132.9141 Y116.1962 Z15.5000 F1800.00
G1 X131.6718 Y118.3480 Z15.5000 F1800.00
G1 X80.2074 Y66.8836 Z15.5000 F1800.00
G3 X79.1664 Y69.2367 Z15.5000 I-13.7253 J-4.6656 F1800.00
G1 X130.4294 Y120.4997 Z15.5000 F1800.00
G1 X129.1871 Y122.6515 Z15.5000 F1800.00
G1 X77.9436 Y71.4080 Z15.5000 F1800.00
G1 X76.7012 Y73.5597 Z15.5000 F1800.00
G1 X127.9448 Y124.8033 Z15.5000 F1800.00
G1 X126.7024 Y126.9551 Z15.5000 F1800.00
G1 X75.4589 Y75.7115 Z15.5000 F1800.00
G1 X74.2166 Y77.8633 Z15.5000 F1800.00
G1 X125.4601 Y129.1069 Z15.5000 F1800.00
G1 X124.2178 Y131.2586 Z15.5000 F1800.00
G1 X72.9742 Y80.0151 Z15.5000 F1800.00
G1 X71.7319 Y82.1669 Z15.5000 F1800.00
G1 X122.9755 Y133.4104 Z15.5000 F1800.00
G1 X121.7331 Y135.5622 Z15.5000 F1800.00
G1 X70.4896 Y84.3187 Z15.5000 F1800.00
G1 X69.2472 Y86.4704 Z15.5000 F1800.00
G1 X120.4908 Y137.7140 Z15.5000 F1800.00
G1 X119.2485 Y139.8658 Z15.5000 F1800.00
G1 X68.0049 Y88.6222 Z15.5000 F1800.00
G1 X66.7626 Y90.7740 Z15.5000 F1800.00
G1 X118.0061 Y142.0176 Z15.5000 F1800.00
G1 X116.7638 Y144.1693 Z15.5000 F1800.00
G1 X65.5202 Y92.9258 Z15.5000 F1800.00
G1 X64.2779 Y95.0776 Z15.5000 F1800.00
G1 X115.5215 Y146.3211 Z15.5000 F1800.00
G1 X114.2791 Y148.4729 Z15.5000 F1800.00
G1 X63.0356 Y97.2293 Z15.5000 F1800.00
G1 X61.7932 Y99.3811 Z15.5000 F1800.00
G1 X113.0368 Y150.6247 Z15.5000 F1800.00
G1 X111.7945 Y152.7765 Z15.5000 F1800.00
G1 X60.5509 Y101.5329 Z15.5000 F1800.00
G1 X59.3086 Y103.6847 Z15.5000 F1800.00
G1 X110.5521 Y154.9282 Z15.5000 F1800.00
G1 X109.3098 Y157.0800 Z15.5000 F1800.00
G1 X58.0663 Y105.8365 Z15.5000 F1800.00
G1 X56.8239 Y107.9882 Z15.5000 F1800.00
G1 X108.0675 Y159.2318 Z15.5000 F1800.00
G1 X106.8251 Y161.3836 Z15.5000 F1800.00
G1 X55.5816 Y110.1400 Z15.5000 F1800.00
G1 X54.3393 Y112.2918 Z15.5000 F1800.00
G1 X105.5828 Y163.5354 Z15.5000 F1800.00
G1 X104.3405 Y165.6871 Z15.5000 F1800.00
G1 X53.0969 Y114.4436 Z15.5000 F1800.00
G1 X51.8546 Y116.5954 Z15.5000 F1800.00
G1 X103.0981 Y167.8389 Z15.5000 F1800.00
G1 X101.8558 Y169.9907 Z15.5000 F1800.00
G1 X50.6123 Y118.7472 Z15.5000 F1800.00
G1 X49.3699 Y120.8989 Z15.5000 F1800.00
G1 X100.6135 Y172.1425 Z15.5000 F1800.00
G1 X100.0000 Y173.2051 Z15.5000 F1800.00
G1 X95.9351 Y170.8582 Z15.5000 F1800.00
G1 X48.1276 Y123.0507 Z15.5000 F1800.00
G1 X46.8853 Y125.2025 Z15.5000 F1800.00
G1 X87.9045 Y166.2218 Z15.5000 F1800.00
G1 X79.8740 Y161.5853 Z15.5000 F1800.00
G1 X45.6429 Y127.3543 Z15.5000 F1800.00
G1 X44.4006 Y129.5061 Z15.5000 F1800.00
G1 X71.8434 Y156.9489 Z15.5000 F1800.00
G1 X63.8129 Y152.3124 Z15.5000 F1800.00
G1 X43.1583 Y131.6578 Z15.5000 F1800.00
G1 X41.9159 Y133.8096 Z15.5000 F1800.00
G1 X55.7823 Y147.6760 Z15.5000 F1800.00
G1 X47.7517 Y143.0395 Z15.5000 F1800.00
G1 X40.6736 Y135.9614 Z15.5000 F1800.00
G1 X39.4313 Y138.1132 Z15.5000 F1800.00
G1 X39.3782 Y138.2051 Z15.5000 F1800.00
G1 X39.7212 Y138.4031 Z15.5000 F1800.00
G1 X39.4313 Y138.1132 Z15.5000 F1800.00
G0 X39.4313 Y138.1132 Z23.0000
G0 X68.0277 Y41.1275 Z23.0000
G1 X68.0277 Y41.1275 Z15.5000 F1800.00
G1 X26.9003 Y0.0000 Z15.5000 F1800.00
G1 X23.5061 Y0.0000 Z15.5000 F1800.00
G1 X63.6336 Y40.1275 Z15.5000 F1800.00
G2 X60.1120 Y40.0000 Z15.5000 I-2.8597 J30.2890 F1800.00
G1 X20.1120 Y0.0000 Z15.5000 F1800.00
G1 X16.7179 Y0.0000 Z15.5000 F1800.00
G1 X56.7179 Y40.0000 Z15.5000 F1800.00
G1 X53.3238 Y40.0000 Z15.5000 F1800.00
G1 X13.3238 Y0.0000 Z15.5000 F1800.00
G1 X9.9297 Y0.0000 Z15.5000 F1800.00
G1 X49.9297 Y40.0000 Z15.5000 F1800.00
G1 X46.5356 Y40.0000 Z15.5000 F1800.00
G1 X6.5356 Y0.0000 Z15.5000 F1800.00
G1 X3.1415 Y0.0000 Z15.5000 F1800.00
G1 X43.1415 Y40.0000 Z15.5000 F1800.00
G1 X39.7474 Y40.0000 Z15.5000 F1800.00
G1 X0.3451 Y0.5978 Z15.5000 F1800.00
G1 X4.9816 Y8.6283 Z15.5000 F1800.00
G1 X36.3532 Y40.0000 Z15.5000 F1800.00
G3 X33.4098 Y39.9621 Z15.5000 I-0.8561 J-47.7872 F1800.00
G1 X32.8713 Y39.9122 Z15.5000 F1800.00
G1 X9.6180 Y16.6589 Z15.5000 F1800.00
G1 X14.2544 Y24.6894 Z15.5000 F1800.00
G1 X17.3205 Y30.0000 Z15.5000 F1800.00
G2 X28.6421 Y39.0771 Z15.5000 I17.3095 J-9.9906 F1800.00
G1 X14.2544 Y24.6894 Z15.5000 F1800.00
G1 X14.2544 Y24.6894 Z15.0000 F1800.00
G1 X28.6421 Y39.0771 Z15.0000 F1800.00
G3 X17.3205 Y30.0000 Z15.0000 I5.9879 J-19.0677 F1800.00
G1 X14.2544 Y24.6894 Z15.0000 F1800.00
G1 X9.6180 Y16.6589 Z15.0000 F1800.00
G1 X32.8713 Y39.9122 Z15.0000 F1800.00
G1 X33.4098 Y39.9621 Z15.0000 F1800.00
G2 X36.3532 Y40.0000 Z15.0000 I2.0873 J-47.7493 F1800.00
G1 X4.9816 Y8.6283 Z15.0000 F1800.00
G1 X0.3451 Y0.5978 Z15.0000 F1800.00
G1 X39.7474 Y40.0000 Z15.0000 F1800.00
G1 X43.1415 Y40.0000 Z15.0000 F1800.00
G1 X3.1415 Y0.0000 Z15.0000 F1800.00
G1 X6.5356 Y0.0000 Z15.0000 F1800.00
G1 X46.5356 Y40.0000 Z15.0000 F1800.00
G1 X49.9297 Y40.0000 Z15.0000 F1800.00
G1 X9.9297 Y0.0000 Z15.0000 F1800.00
G1 X13.3238 Y0.0000 Z15.0000 F1800.00
G1 X53.3238 Y40.0000 Z15.0000 F1800.00
G1 X56.7179 Y40.0000 Z15.0000 F1800.00
G1 X16.7179 Y0.0000 Z15.0000 F1800.00
G1 X20.1120 Y0.0000 Z15.0000 F1800.00
G1 X60.1120 Y40.0000 Z15.0000 F1800.00
G3 X63.6336 Y40.1275 Z15.0000 I0.6620 J30.4165 F1800.00
G1 X23.5061 Y0.0000 Z15.0000 F1800.00
G1 X26.9003 Y0.0000 Z15.0000 F1800.00
G1 X68.0277 Y41.1275 Z15.0000 F1800.00
G0 X68.0277 Y41.1275 Z23.0000
G0 X39.4313 Y138.1132 Z23.0000
G1 X39.4313 Y138.1132 Z15.0000 F1800.00
G1 X39.7212 Y138.4031 Z15.0000 F1800.00
G1 X39.3782 Y138.2051 Z15.0000 F1800.00
G1 X39.4313 Y138.1132 Z15.0000 F1800.00
G1 X40.6736 Y135.9614 Z15.0000 F1800.00
G1 X47.7517 Y143.0395 Z15.0000 F1800.00
G1 X55.7823 Y147.6760 Z15.0000 F1800.00
G1 X41.9159 Y133.8096 Z15.0000 F1800.00
G1 X43.1583 Y131.6578 Z15.0000 F1800.00
G1 X63.8129 Y152.3124 Z15.0000 F1800.00
G1 X71.8434 Y156.9489 Z15.0000 F1800.00
G1 X44.4006 Y129.5061 Z15.0000 F1800.00
G1 X45.6429 Y127.3543 Z15.0000 F1800.00
G1 X79.8740 Y161.5853 Z15.0000 F1800.00
G1 X87.9045 Y166.2218 Z15.0000 F1800.00
G1 X46.8853 Y125.2025 Z15.0000 F1800.00
G1 X48.1276 Y123.0507 Z15.0000 F1800.00
G1 X95.9351 Y170.8582 Z15.0000 F1800.00
G1 X100.0000 Y173.2051 Z15.0000 F1800.00
G1 X100.6135 Y172.1425 Z15.0000 F1800.00
G1 X49.3699 Y120.8989 Z15.0000 F1800.00
G1 X50.6123 Y118.7472 Z15.0000 F1800.00
G1 X101.8558 Y169.9907 Z15.0000 F1800.00
G1 X103.0981 Y167.8389 Z15.0000 F1800.00
G1 X51.8546 Y116.5954 Z15.0000 F1800.00
G1 X53.0969 Y114.4436 Z15.0000 F1800.00
G1 X104.3405 Y165.6871 Z15.0000 F1800.00
G1 X105.5828 Y163.5354 Z15.0000 F1800.00
G1 X54.3393 Y112.2918 Z15.0000 F1800.00
G1 X55.5816 Y110.1400 Z15.0000 F1800.00
G1 X106.8251 Y161.3836 Z15.0000 F1800.00
G1 X108.0675 Y159.2318 Z15.0000 F1800.00
G1 X56.8239 Y107.9882 Z15.0000 F1800.00
G1 X58.0663 Y105.8365 Z15.0000 F1800.00
G1 X109.3098 Y157.0800 Z15.0000 F1800.00
G1 X110.5521 Y154.9282 Z15.0000 F1800.00
G1 X59.3086 Y103.6847 Z15.0000 F1800.00
G1 X60.5509 Y101.5329 Z15.0000 F1800.00
G1 X111.7945 Y152.7765 Z15.0000 F1800.00
G1 X113.0368 Y150.6247 Z15.0000 F1800.00
G1 X61.7932 Y99.3811 Z15.0000 F1800.00
G1 X63.0356 Y97.2293 Z15.0000 F1800.00
G1 X114.2791 Y148.4729 Z15.0000 F1800.00
G1 X115.5215 Y146.3211 Z15.0000 F1800.00
G1 X64.2779 Y95.0776 Z15.0000 F1800.00
G1 X65.5202 Y92.9258 Z15.0000 F1800.00
G1 X116.7638 Y144.1693 Z15.0000 F1800.00
G1 X118.0061 Y142.0176 Z15.0000 F1800.00
G1 X66.7626 Y90.7740 Z15.0000 F1800.00
G1 X68.0049 Y88.6222 Z15.0000 F1800.00
G1 X119.2485 Y139.8658 Z15.0000 F1800.00
G1 X120.4908 Y137.7140 Z15.0000 F1800.00
G1 X69.2472 Y86.4704 Z15.0000 F1800.00
G1 X70.4896 Y84.3187 Z15.0000 F1800.00
G1 X121.7331 Y135.5622 Z15.0000 F1800.00
G1 X122.9755 Y133.4104 Z15.0000 F1800.00
G1 X71.7319 Y82.1669 Z15.0000 F1800.00
G1 X72.9742 Y80.0151 Z15.0000 F1800.00
G1 X124.2178 Y131.2586 Z15.0000 F1800.00
G1 X125.4601 Y129.1069 Z15.0000 F1800.00
G1 X74.2166 Y77.8633 Z15.0000 F1800.00
G1 X75.4589 Y75.7115 Z15.0000 F1800.00
G1 X126.7024 Y126.9551 Z15.0000 F1800.00
G1 X127.9448 Y124.8033 Z15.0000 F1800.00
G1 X76.7012 Y73.5597 Z15.0000 F1800.00
G1 X77.9436 Y71.4080 Z15.0000 F1800.00
G1 X129.1871 Y122.6515 Z15.0000 F1800.00
G1 X130.4294 Y120.4997 Z15.0000 F1800.00
G1 X79.1664 Y69.2367 Z15.0000 F1800.00
G2 X80.2074 Y66.8836 Z15.0000 I-12.6843 J-7.0187 F1800.00
G1 X131.6718 Y118.3480 Z15.0000 F1800.00
G1 X132.9141 Y116.1962 Z15.0000 F1800.00
G1 X80.9766 Y64.2587 Z15.0000 F1800.00
G2 X81.3859 Y61.2738 Z15.0000 I-18.1472 J-4.0085 F1800.00
G1 X134.1564 Y114.0444 Z15.0000 F1800.00
G1 X135.3988 Y111.8926 Z15.0000 F1800.00
G1 X81.3068 Y57.8006 Z15.0000 F1800.00
G2 X80.3204 Y53.4202 Z15.0000 I-19.1156 J2.0030 F1800.00
G1 X136.6411 Y109.7408 Z15.0000 F1800.00
G1 X137.8834 Y107.5891 Z15.0000 F1800.00
G1 X30.2944 Y0.0000 Z15.0000 F1800.00
G1 X33.6885 Y0.0000 Z15.0000 F1800.00
G1 X139.1258 Y105.4373 Z15.0000 F1800.00
G1 X140.3681 Y103.2855 Z15.0000 F1800.00
G1 X37.0826 Y0.0000 Z15.0000 F1800.00
G1 X40.4767 Y0.0000 Z15.0000 F1800.00
G1 X141.6104 Y101.1337 Z15.0000 F1800.00
G1 X142.8528 Y98.9819 Z15.0000 F1800.00
G1 X43.8708 Y0.0000 Z15.0000 F1800.00
G1 X47.2649 Y0.0000 Z15.0000 F1800.00
G1 X144.0951 Y96.8302 Z15.0000 F1800.00
G1 X145.3374 Y94.6784 Z15.0000 F1800.00
G1 X50.6590 Y0.0000 Z15.0000 F1800.00
G1 X54.0532 Y0.0000 Z15.0000 F1800.00
G1 X146.5797 Y92.5266 Z15.0000 F1800.00
G1 X147.8221 Y90.3748 Z15.0000 F1800.00
G1 X57.4473 Y0.0000 Z15.0000 F1800.00
G1 X60.8414 Y0.0000 Z15.0000 F1800.00
G1 X149.0644 Y88.2230 Z15.0000 F1800.00
G1 X150.3067 Y86.0712 Z15.0000 F1800.00
G1 X64.2355 Y0.0000 Z15.0000 F1800.00
G1 X67.6296 Y0.0000 Z15.0000 F1800.00
G1 X151.5491 Y83.9195 Z15.0000 F1800.00
G1 X152.7914 Y81.7677 Z15.0000 F1800.00
G1 X71.0237 Y0.0000 Z15.0000 F1800.00
G1 X74.4178 Y0.0000 Z15.0000 F1800.00
G1 X154.0337 Y79.6159 Z15.0000 F1800.00
G1 X155.2761 Y77.4641 Z15.0000 F1800.00
G1 X77.8119 Y0.0000 Z15.0000 F1800.00
G1 X81.2061 Y0.0000 Z15.0000 F1800.00
G1 X156.5184 Y75.3123 Z15.0000 F1800.00
G1 X157.7607 Y73.1606 Z15.0000 F1800.00
G1 X84.6002 Y0.0000 Z15.0000 F1800.00
G1 X87.9943 Y0.0000 Z15.0000 F1800.00
G1 X159.0031 Y71.0088 Z15.0000 F1800.00
G1 X160.2454 Y68.8570 Z15.0000 F1800.00
G1 X91.3884 Y0.0000 Z15.0000 F1800.00
G1 X94.7825 Y0.0000 Z15.0000 F1800.00
G1 X161.4877 Y66.7052 Z15.0000 F1800.00
G1 X162.7301 Y64.5534 Z15.0000 F1800.00
G1 X98.1766 Y0.0000 Z15.0000 F1800.00
G1 X101.5707 Y0.0000 Z15.0000 F1800.00
G1 X163.9724 Y62.4017 Z15.0000 F1800.00
G1 X165.2147 Y60.2499 Z15.0000 F1800.00
G1 X104.9648 Y0.0000 Z15.0000 F1800.00
G1 X108.3590 Y0.0000 Z15.0000 F1800.00
G1 X166.4571 Y58.0981 Z15.0000 F1800.00
G1 X167.6994 Y55.9463 Z15.0000 F1800.00
G1 X111.7531 Y0.0000 Z15.0000 F1800.00
G1 X115.1472 Y0.0000 Z15.0000 F1800.00
G1 X168.9417 Y53.7945 Z15.0000 F1800.00
G1 X170.1840 Y51.6427 Z15.0000 F1800.00
G1 X118.5413 Y0.0000 Z15.0000 F1800.00
G1 X121.9354 Y0.0000 Z15.0000 F1800.00
G1 X171.4264 Y49.4910 Z15.0000 F1800.00
G1 X172.6687 Y47.3392 Z15.0000 F1800.00
G1 X125.3295 Y0.0000 Z15.0000 F1800.00
G1 X128.7236 Y0.0000 Z15.0000 F1800.00
G1 X173.9110 Y45.1874 Z15.0000 F1800.00
G1 X175.1534 Y43.0356 Z15.0000 F1800.00
G1 X132.1177 Y0.0000 Z15.0000 F1800.00
G1 X135.5119 Y0.0000 Z15.0000 F1800.00
G1 X176.3957 Y40.8838 Z15.0000 F1800.00
G1 X177.6380 Y38.7321 Z15.0000 F1800.00
G1 X138.9060 Y0.0000 Z15.0000 F1800.00
G1 X142.3001 Y0.0000 Z15.0000 F1800.00
G1 X178.8804 Y36.5803 Z15.0000 F1800.00
G1 X180.1227 Y34.4285 Z15.0000 F1800.00
G1 X145.6942 Y0.0000 Z15.0000 F1800.00
G1 X149.0883 Y0.0000 Z15.0000 F1800.00
G1 X181.3650 Y32.2767 Z15.0000 F1800.00
G1 X182.6074 Y30.1249 Z15.0000 F1800.00
G1 X152.4824 Y0.0000 Z15.0000 F1800.00
G1 X155.8765 Y0.0000 Z15.0000 F1800.00
G1 X183.8497 Y27.9732 Z15.0000 F1800.00
G1 X185.0920 Y25.8214 Z15.0000 F1800.00
G1 X159.2706 Y0.0000 Z15.0000 F1800.00
G1 X162.6648 Y0.0000 Z15.0000 F1800.00
G1 X186.3344 Y23.6696 Z15.0000 F1800.00
G1 X187.5767 Y21.5178 Z15.0000 F1800.00
G1 X166.0589 Y0.0000 Z15.0000 F1800.00
G1 X169.4530 Y0.0000 Z15.0000 F1800.00
G1 X188.8190 Y19.3660 Z15.0000 F1800.00
G1 X190.0613 Y17.2142 Z15.0000 F1800.00
G1 X172.8471 Y0.0000 Z15.0000 F1800.00
G1 X176.2412 Y0.0000 Z15.0000 F1800.00
G1 X191.3037 Y15.0625 Z15.0000 F1800.00
G1 X192.5460 Y12.9107 Z15.0000 F1800.00
G1 X179.6353 Y0.0000 Z15.0000 F1800.00
G1 X183.0294 Y0.0000 Z15.0000 F1800.00
G1 X193.7883 Y10.7589 Z15.0000 F1800.00
G1 X195.0307 Y8.6071 Z15.0000 F1800.00
G1 X186.4235 Y0.0000 Z15.0000 F1800.00
G1 X189.8177 Y0.0000 Z15.0000 F1800.00
G1 X196.2730 Y6.4553 Z15.0000 F1800.00
G1 X197.5153 Y4.3036 Z15.0000 F1800.00
G1 X193.2118 Y0.0000 Z15.0000 F1800.00
G1 X196.6059 Y0.0000 Z15.0000 F1800.00
G1 X198.7577 Y2.1518 Z15.0000 F1800.00
G1 X200.0000 Y0.0000 Z15.0000 F1800.00
G0 Z23.0000
(finish operation: Thin_Op)
(begin operation: DrillHoles_Op001)
(Path: DrillHoles_Op001)
(DrillHoles_Op001)
(Compensated Tool Path. Diameter: 3.0)
G0 Z23.0000
G0 X35.3794 Y20.7384
G0 Z21.0000
G1 X35.3794 Y20.7384 Z14.5000 F1800.00
G3 X34.2839 Y20.9813 Z14.5000 I-0.7384 J-0.7384 F1800.00
G3 X33.6597 Y19.6428 Z14.5000 I0.3572 J-0.9813 F1800.00
G3 X34.9982 Y19.0187 Z14.5000 I0.9813 J0.3572 F1800.00
G3 X35.3794 Y20.7384 Z14.5000 I-0.3572 J0.9813 F1800.00
G1 X35.3794 Y20.7384 Z14.0000 F1800.00
G3 X34.2839 Y20.9813 Z14.0000 I-0.7384 J-0.7384 F1800.00
G3 X33.6597 Y19.6428 Z14.0000 I0.3572 J-0.9813 F1800.00
G3 X34.9982 Y19.0187 Z14.0000 I0.9813 J0.3572 F1800.00
G3 X35.3794 Y20.7384 Z14.0000 I-0.3572 J0.9813 F1800.00
G1 X35.3794 Y20.7384 Z13.5000 F1800.00
G3 X34.2839 Y20.9813 Z13.5000 I-0.7384 J-0.7384 F1800.00
G3 X33.6597 Y19.6428 Z13.5000 I0.3572 J-0.9813 F1800.00
G3 X34.9982 Y19.0187 Z13.5000 I0.9813 J0.3572 F1800.00
G3 X35.3794 Y20.7384 Z13.5000 I-0.3572 J0.9813 F1800.00
G1 X35.3794 Y20.7384 Z13.0000 F1800.00
G3 X34.2839 Y20.9813 Z13.0000 I-0.7384 J-0.7384 F1800.00
G3 X33.6597 Y19.6428 Z13.0000 I0.3572 J-0.9813 F1800.00
G3 X34.9982 Y19.0187 Z13.0000 I0.9813 J0.3572 F1800.00
G3 X35.3794 Y20.7384 Z13.0000 I-0.3572 J0.9813 F1800.00
G1 X35.3794 Y20.7384 Z12.5000 F1800.00
G3 X34.2839 Y20.9813 Z12.5000 I-0.7384 J-0.7384 F1800.00
G3 X33.6597 Y19.6428 Z12.5000 I0.3572 J-0.9813 F1800.00
G3 X34.9982 Y19.0187 Z12.5000 I0.9813 J0.3572 F1800.00
G3 X35.3794 Y20.7384 Z12.5000 I-0.3572 J0.9813 F1800.00
G1 X35.3794 Y20.7384 Z12.0000 F1800.00
G3 X34.2839 Y20.9813 Z12.0000 I-0.7384 J-0.7384 F1800.00
G3 X33.6597 Y19.6428 Z12.0000 I0.3572 J-0.9813 F1800.00
G3 X34.9982 Y19.0187 Z12.0000 I0.9813 J0.3572 F1800.00
G3 X35.3794 Y20.7384 Z12.0000 I-0.3572 J0.9813 F1800.00
G1 X35.3794 Y20.7384 Z11.5000 F1800.00
G3 X34.2839 Y20.9813 Z11.5000 I-0.7384 J-0.7384 F1800.00
G3 X33.6597 Y19.6428 Z11.5000 I0.3572 J-0.9813 F1800.00
G3 X34.9982 Y19.0187 Z11.5000 I0.9813 J0.3572 F1800.00
G3 X35.3794 Y20.7384 Z11.5000 I-0.3572 J0.9813 F1800.00
G1 X35.3794 Y20.7384 Z11.0000 F1800.00
G3 X34.2839 Y20.9813 Z11.0000 I-0.7384 J-0.7384 F1800.00
G3 X33.6597 Y19.6428 Z11.0000 I0.3572 J-0.9813 F1800.00
G3 X34.9982 Y19.0187 Z11.0000 I0.9813 J0.3572 F1800.00
G3 X35.3794 Y20.7384 Z11.0000 I-0.3572 J0.9813 F1800.00
G1 X35.3794 Y20.7384 Z10.5000 F1800.00
G3 X34.2839 Y20.9813 Z10.5000 I-0.7384 J-0.7384 F1800.00
G3 X33.6597 Y19.6428 Z10.5000 I0.3572 J-0.9813 F1800.00
G3 X34.9982 Y19.0187 Z10.5000 I0.9813 J0.3572 F1800.00
G3 X35.3794 Y20.7384 Z10.5000 I-0.3572 J0.9813 F1800.00
G1 X35.3794 Y20.7384 Z10.0000 F1800.00
G3 X34.2839 Y20.9813 Z10.0000 I-0.7384 J-0.7384 F1800.00
G3 X33.6597 Y19.6428 Z10.0000 I0.3572 J-0.9813 F1800.00
G3 X34.9982 Y19.0187 Z10.0000 I0.9813 J0.3572 F1800.00
G3 X35.3794 Y20.7384 Z10.0000 I-0.3572 J0.9813 F1800.00
G1 X35.3794 Y20.7384 Z9.5000 F1800.00
G3 X34.2839 Y20.9813 Z9.5000 I-0.7384 J-0.7384 F1800.00
G3 X33.6597 Y19.6428 Z9.5000 I0.3572 J-0.9813 F1800.00
G3 X34.9982 Y19.0187 Z9.5000 I0.9813 J0.3572 F1800.00
G3 X35.3794 Y20.7384 Z9.5000 I-0.3572 J0.9813 F1800.00
G1 X35.3794 Y20.7384 Z9.0000 F1800.00
G3 X34.2839 Y20.9813 Z9.0000 I-0.7384 J-0.7384 F1800.00
G3 X33.6597 Y19.6428 Z9.0000 I0.3572 J-0.9813 F1800.00
G3 X34.9982 Y19.0187 Z9.0000 I0.9813 J0.3572 F1800.00
G3 X35.3794 Y20.7384 Z9.0000 I-0.3572 J0.9813 F1800.00
G1 X35.3794 Y20.7384 Z8.5000 F1800.00
G3 X34.2839 Y20.9813 Z8.5000 I-0.7384 J-0.7384 F1800.00
G3 X33.6597 Y19.6428 Z8.5000 I0.3572 J-0.9813 F1800.00
G3 X34.9982 Y19.0187 Z8.5000 I0.9813 J0.3572 F1800.00
G3 X35.3794 Y20.7384 Z8.5000 I-0.3572 J0.9813 F1800.00
G1 X35.3794 Y20.7384 Z8.0000 F1800.00
G3 X34.2839 Y20.9813 Z8.0000 I-0.7384 J-0.7384 F1800.00
G3 X33.6597 Y19.6428 Z8.0000 I0.3572 J-0.9813 F1800.00
G3 X34.9982 Y19.0187 Z8.0000 I0.9813 J0.3572 F1800.00
G3 X35.3794 Y20.7384 Z8.0000 I-0.3572 J0.9813 F1800.00
G1 X35.3794 Y20.7384 Z7.5000 F1800.00
G3 X34.2839 Y20.9813 Z7.5000 I-0.7384 J-0.7384 F1800.00
G3 X33.6597 Y19.6428 Z7.5000 I0.3572 J-0.9813 F1800.00
G3 X34.9982 Y19.0187 Z7.5000 I0.9813 J0.3572 F1800.00
G3 X35.3794 Y20.7384 Z7.5000 I-0.3572 J0.9813 F1800.00
G1 X35.3794 Y20.7384 Z7.0000 F1800.00
G3 X34.2839 Y20.9813 Z7.0000 I-0.7384 J-0.7384 F1800.00
G3 X33.6597 Y19.6428 Z7.0000 I0.3572 J-0.9813 F1800.00
G3 X34.9982 Y19.0187 Z7.0000 I0.9813 J0.3572 F1800.00
G3 X35.3794 Y20.7384 Z7.0000 I-0.3572 J0.9813 F1800.00
G1 X35.3794 Y20.7384 Z6.5000 F1800.00
G3 X34.2839 Y20.9813 Z6.5000 I-0.7384 J-0.7384 F1800.00
G3 X33.6597 Y19.6428 Z6.5000 I0.3572 J-0.9813 F1800.00
G3 X34.9982 Y19.0187 Z6.5000 I0.9813 J0.3572 F1800.00
G3 X35.3794 Y20.7384 Z6.5000 I-0.3572 J0.9813 F1800.00
G1 X35.3794 Y20.7384 Z6.0000 F1800.00
G3 X34.2839 Y20.9813 Z6.0000 I-0.7384 J-0.7384 F1800.00
G3 X33.6597 Y19.6428 Z6.0000 I0.3572 J-0.9813 F1800.00
G3 X34.9982 Y19.0187 Z6.0000 I0.9813 J0.3572 F1800.00
G3 X35.3794 Y20.7384 Z6.0000 I-0.3572 J0.9813 F1800.00
G1 X35.3794 Y20.7384 Z5.5000 F1800.00
G3 X34.2839 Y20.9813 Z5.5000 I-0.7384 J-0.7384 F1800.00
G3 X33.6597 Y19.6428 Z5.5000 I0.3572 J-0.9813 F1800.00
G3 X34.9982 Y19.0187 Z5.5000 I0.9813 J0.3572 F1800.00
G3 X35.3794 Y20.7384 Z5.5000 I-0.3572 J0.9813 F1800.00
G1 X35.3794 Y20.7384 Z5.0000 F1800.00
G3 X34.2839 Y20.9813 Z5.0000 I-0.7384 J-0.7384 F1800.00
G3 X33.6597 Y19.6428 Z5.0000 I0.3572 J-0.9813 F1800.00
G3 X34.9982 Y19.0187 Z5.0000 I0.9813 J0.3572 F1800.00
G3 X35.3794 Y20.7384 Z5.0000 I-0.3572 J0.9813 F1800.00
G1 X35.3794 Y20.7384 Z4.5000 F1800.00
G3 X34.2839 Y20.9813 Z4.5000 I-0.7384 J-0.7384 F1800.00
G3 X33.6597 Y19.6428 Z4.5000 I0.3572 J-0.9813 F1800.00
G3 X34.9982 Y19.0187 Z4.5000 I0.9813 J0.3572 F1800.00
G3 X35.3794 Y20.7384 Z4.5000 I-0.3572 J0.9813 F1800.00
G1 X35.3794 Y20.7384 Z4.0000 F1800.00
G3 X34.2839 Y20.9813 Z4.0000 I-0.7384 J-0.7384 F1800.00
G3 X33.6597 Y19.6428 Z4.0000 I0.3572 J-0.9813 F1800.00
G3 X34.9982 Y19.0187 Z4.0000 I0.9813 J0.3572 F1800.00
G3 X35.3794 Y20.7384 Z4.0000 I-0.3572 J0.9813 F1800.00
G1 X35.3794 Y20.7384 Z3.5000 F1800.00
G3 X34.2839 Y20.9813 Z3.5000 I-0.7384 J-0.7384 F1800.00
G3 X33.6597 Y19.6428 Z3.5000 I0.3572 J-0.9813 F1800.00
G3 X34.9982 Y19.0187 Z3.5000 I0.9813 J0.3572 F1800.00
G3 X35.3794 Y20.7384 Z3.5000 I-0.3572 J0.9813 F1800.00
G1 X35.3794 Y20.7384 Z3.0000 F1800.00
G3 X34.2839 Y20.9813 Z3.0000 I-0.7384 J-0.7384 F1800.00
G3 X33.6597 Y19.6428 Z3.0000 I0.3572 J-0.9813 F1800.00
G3 X34.9982 Y19.0187 Z3.0000 I0.9813 J0.3572 F1800.00
G3 X35.3794 Y20.7384 Z3.0000 I-0.3572 J0.9813 F1800.00
G1 X35.3794 Y20.7384 Z2.5000 F1800.00
G3 X34.2839 Y20.9813 Z2.5000 I-0.7384 J-0.7384 F1800.00
G3 X33.6597 Y19.6428 Z2.5000 I0.3572 J-0.9813 F1800.00
G3 X34.9982 Y19.0187 Z2.5000 I0.9813 J0.3572 F1800.00
G3 X35.3794 Y20.7384 Z2.5000 I-0.3572 J0.9813 F1800.00
G1 X35.3794 Y20.7384 Z2.0000 F1800.00
G3 X34.2839 Y20.9813 Z2.0000 I-0.7384 J-0.7384 F1800.00
G3 X33.6597 Y19.6428 Z2.0000 I0.3572 J-0.9813 F1800.00
G3 X34.9982 Y19.0187 Z2.0000 I0.9813 J0.3572 F1800.00
G3 X35.3794 Y20.7384 Z2.0000 I-0.3572 J0.9813 F1800.00
G1 X35.3794 Y20.7384 Z1.5000 F1800.00
G3 X34.2839 Y20.9813 Z1.5000 I-0.7384 J-0.7384 F1800.00
G3 X33.6597 Y19.6428 Z1.5000 I0.3572 J-0.9813 F1800.00
G3 X34.9982 Y19.0187 Z1.5000 I0.9813 J0.3572 F1800.00
G3 X35.3794 Y20.7384 Z1.5000 I-0.3572 J0.9813 F1800.00
G1 X35.3794 Y20.7384 Z1.0000 F1800.00
G3 X34.2839 Y20.9813 Z1.0000 I-0.7384 J-0.7384 F1800.00
G3 X33.6597 Y19.6428 Z1.0000 I0.3572 J-0.9813 F1800.00
G3 X34.9982 Y19.0187 Z1.0000 I0.9813 J0.3572 F1800.00
G3 X35.3794 Y20.7384 Z1.0000 I-0.3572 J0.9813 F1800.00
G1 X35.3794 Y20.7384 Z0.5000 F1800.00
G3 X34.2839 Y20.9813 Z0.5000 I-0.7384 J-0.7384 F1800.00
G3 X33.6597 Y19.6428 Z0.5000 I0.3572 J-0.9813 F1800.00
G3 X34.9982 Y19.0187 Z0.5000 I0.9813 J0.3572 F1800.00
G3 X35.3794 Y20.7384 Z0.5000 I-0.3572 J0.9813 F1800.00
G1 X35.3794 Y20.7384 Z0.0000 F1800.00
G3 X34.2839 Y20.9813 Z0.0000 I-0.7384 J-0.7384 F1800.00
G3 X33.6597 Y19.6428 Z0.0000 I0.3572 J-0.9813 F1800.00
G3 X34.9982 Y19.0187 Z0.0000 I0.9813 J0.3572 F1800.00
G3 X35.3794 Y20.7384 Z0.0000 I-0.3572 J0.9813 F1800.00
G1 X35.3794 Y20.7384 Z-0.5000 F1800.00
G3 X34.2839 Y20.9813 Z-0.5000 I-0.7384 J-0.7384 F1800.00
G3 X33.6597 Y19.6428 Z-0.5000 I0.3572 J-0.9813 F1800.00
G3 X34.9982 Y19.0187 Z-0.5000 I0.9813 J0.3572 F1800.00
G3 X35.3794 Y20.7384 Z-0.5000 I-0.3572 J0.9813 F1800.00
G0 Z23.0000
G0 X92.0782 Y20.7384
G0 Z21.0000
G1 X92.0782 Y20.7384 Z14.5000 F1800.00
G3 X90.9826 Y20.9813 Z14.5000 I-0.7384 J-0.7384 F1800.00
G3 X90.3585 Y19.6428 Z14.5000 I0.3572 J-0.9813 F1800.00
G3 X91.6969 Y19.0187 Z14.5000 I0.9813 J0.3572 F1800.00
G3 X92.0782 Y20.7384 Z14.5000 I-0.3572 J0.9813 F1800.00
G1 X92.0782 Y20.7384 Z14.0000 F1800.00
G3 X90.9826 Y20.9813 Z14.0000 I-0.7384 J-0.7384 F1800.00
G3 X90.3585 Y19.6428 Z14.0000 I0.3572 J-0.9813 F1800.00
G3 X91.6969 Y19.0187 Z14.0000 I0.9813 J0.3572 F1800.00
G3 X92.0782 Y20.7384 Z14.0000 I-0.3572 J0.9813 F1800.00
G1 X92.0782 Y20.7384 Z13.5000 F1800.00
G3 X90.9826 Y20.9813 Z13.5000 I-0.7384 J-0.7384 F1800.00
G3 X90.3585 Y19.6428 Z13.5000 I0.3572 J-0.9813 F1800.00
G3 X91.6969 Y19.0187 Z13.5000 I0.9813 J0.3572 F1800.00
G3 X92.0782 Y20.7384 Z13.5000 I-0.3572 J0.9813 F1800.00
G1 X92.0782 Y20.7384 Z13.0000 F1800.00
G3 X90.9826 Y20.9813 Z13.0000 I-0.7384 J-0.7384 F1800.00
G3 X90.3585 Y19.6428 Z13.0000 I0.3572 J-0.9813 F1800.00
G3 X91.6969 Y19.0187 Z13.0000 I0.9813 J0.3572 F1800.00
G3 X92.0782 Y20.7384 Z13.0000 I-0.3572 J0.9813 F1800.00
G1 X92.0782 Y20.7384 Z12.5000 F1800.00
G3 X90.9826 Y20.9813 Z12.5000 I-0.7384 J-0.7384 F1800.00
G3 X90.3585 Y19.6428 Z12.5000 I0.3572 J-0.9813 F1800.00
G3 X91.6969 Y19.0187 Z12.5000 I0.9813 J0.3572 F1800.00
G3 X92.0782 Y20.7384 Z12.5000 I-0.3572 J0.9813 F1800.00
G1 X92.0782 Y20.7384 Z12.0000 F1800.00
G3 X90.9826 Y20.9813 Z12.0000 I-0.7384 J-0.7384 F1800.00
G3 X90.3585 Y19.6428 Z12.0000 I0.3572 J-0.9813 F1800.00
G3 X91.6969 Y19.0187 Z12.0000 I0.9813 J0.3572 F1800.00
G3 X92.0782 Y20.7384 Z12.0000 I-0.3572 J0.9813 F1800.00
G1 X92.0782 Y20.7384 Z11.5000 F1800.00
G3 X90.9826 Y20.9813 Z11.5000 I-0.7384 J-0.7384 F1800.00
G3 X90.3585 Y19.6428 Z11.5000 I0.3572 J-0.9813 F1800.00
G3 X91.6969 Y19.0187 Z11.5000 I0.9813 J0.3572 F1800.00
G3 X92.0782 Y20.7384 Z11.5000 I-0.3572 J0.9813 F1800.00
G1 X92.0782 Y20.7384 Z11.0000 F1800.00
G3 X90.9826 Y20.9813 Z11.0000 I-0.7384 J-0.7384 F1800.00
G3 X90.3585 Y19.6428 Z11.0000 I0.3572 J-0.9813 F1800.00
G3 X91.6969 Y19.0187 Z11.0000 I0.9813 J0.3572 F1800.00
G3 X92.0782 Y20.7384 Z11.0000 I-0.3572 J0.9813 F1800.00
G1 X92.0782 Y20.7384 Z10.5000 F1800.00
G3 X90.9826 Y20.9813 Z10.5000 I-0.7384 J-0.7384 F1800.00
G3 X90.3585 Y19.6428 Z10.5000 I0.3572 J-0.9813 F1800.00
G3 X91.6969 Y19.0187 Z10.5000 I0.9813 J0.3572 F1800.00
G3 X92.0782 Y20.7384 Z10.5000 I-0.3572 J0.9813 F1800.00
G1 X92.0782 Y20.7384 Z10.0000 F1800.00
G3 X90.9826 Y20.9813 Z10.0000 I-0.7384 J-0.7384 F1800.00
G3 X90.3585 Y19.6428 Z10.0000 I0.3572 J-0.9813 F1800.00
G3 X91.6969 Y19.0187 Z10.0000 I0.9813 J0.3572 F1800.00
G3 X92.0782 Y20.7384 Z10.0000 I-0.3572 J0.9813 F1800.00
G1 X92.0782 Y20.7384 Z9.5000 F1800.00
G3 X90.9826 Y20.9813 Z9.5000 I-0.7384 J-0.7384 F1800.00
G3 X90.3585 Y19.6428 Z9.5000 I0.3572 J-0.9813 F1800.00
G3 X91.6969 Y19.0187 Z9.5000 I0.9813 J0.3572 F1800.00
G3 X92.0782 Y20.7384 Z9.5000 I-0.3572 J0.9813 F1800.00
G1 X92.0782 Y20.7384 Z9.0000 F1800.00
G3 X90.9826 Y20.9813 Z9.0000 I-0.7384 J-0.7384 F1800.00
G3 X90.3585 Y19.6428 Z9.0000 I0.3572 J-0.9813 F1800.00
G3 X91.6969 Y19.0187 Z9.0000 I0.9813 J0.3572 F1800.00
G3 X92.0782 Y20.7384 Z9.0000 I-0.3572 J0.9813 F1800.00
G1 X92.0782 Y20.7384 Z8.5000 F1800.00
G3 X90.9826 Y20.9813 Z8.5000 I-0.7384 J-0.7384 F1800.00
G3 X90.3585 Y19.6428 Z8.5000 I0.3572 J-0.9813 F1800.00
G3 X91.6969 Y19.0187 Z8.5000 I0.9813 J0.3572 F1800.00
G3 X92.0782 Y20.7384 Z8.5000 I-0.3572 J0.9813 F1800.00
G1 X92.0782 Y20.7384 Z8.0000 F1800.00
G3 X90.9826 Y20.9813 Z8.0000 I-0.7384 J-0.7384 F1800.00
G3 X90.3585 Y19.6428 Z8.0000 I0.3572 J-0.9813 F1800.00
G3 X91.6969 Y19.0187 Z8.0000 I0.9813 J0.3572 F1800.00
G3 X92.0782 Y20.7384 Z8.0000 I-0.3572 J0.9813 F1800.00
G1 X92.0782 Y20.7384 Z7.5000 F1800.00
G3 X90.9826 Y20.9813 Z7.5000 I-0.7384 J-0.7384 F1800.00
G3 X90.3585 Y19.6428 Z7.5000 I0.3572 J-0.9813 F1800.00
G3 X91.6969 Y19.0187 Z7.5000 I0.9813 J0.3572 F1800.00
G3 X92.0782 Y20.7384 Z7.5000 I-0.3572 J0.9813 F1800.00
G1 X92.0782 Y20.7384 Z7.0000 F1800.00
G3 X90.9826 Y20.9813 Z7.0000 I-0.7384 J-0.7384 F1800.00
G3 X90.3585 Y19.6428 Z7.0000 I0.3572 J-0.9813 F1800.00
G3 X91.6969 Y19.0187 Z7.0000 I0.9813 J0.3572 F1800.00
G3 X92.0782 Y20.7384 Z7.0000 I-0.3572 J0.9813 F1800.00
G1 X92.0782 Y20.7384 Z6.5000 F1800.00
G3 X90.9826 Y20.9813 Z6.5000 I-0.7384 J-0.7384 F1800.00
G3 X90.3585 Y19.6428 Z6.5000 I0.3572 J-0.9813 F1800.00
G3 X91.6969 Y19.0187 Z6.5000 I0.9813 J0.3572 F1800.00
G3 X92.0782 Y20.7384 Z6.5000 I-0.3572 J0.9813 F1800.00
G1 X92.0782 Y20.7384 Z6.0000 F1800.00
G3 X90.9826 Y20.9813 Z6.0000 I-0.7384 J-0.7384 F1800.00
G3 X90.3585 Y19.6428 Z6.0000 I0.3572 J-0.9813 F1800.00
G3 X91.6969 Y19.0187 Z6.0000 I0.9813 J0.3572 F1800.00
G3 X92.0782 Y20.7384 Z6.0000 I-0.3572 J0.9813 F1800.00
G1 X92.0782 Y20.7384 Z5.5000 F1800.00
G3 X90.9826 Y20.9813 Z5.5000 I-0.7384 J-0.7384 F1800.00
G3 X90.3585 Y19.6428 Z5.5000 I0.3572 J-0.9813 F1800.00
G3 X91.6969 Y19.0187 Z5.5000 I0.9813 J0.3572 F1800.00
G3 X92.0782 Y20.7384 Z5.5000 I-0.3572 J0.9813 F1800.00
G1 X92.0782 Y20.7384 Z5.0000 F1800.00
G3 X90.9826 Y20.9813 Z5.0000 I-0.7384 J-0.7384 F1800.00
G3 X90.3585 Y19.6428 Z5.0000 I0.3572 J-0.9813 F1800.00
G3 X91.6969 Y19.0187 Z5.0000 I0.9813 J0.3572 F1800.00
G3 X92.0782 Y20.7384 Z5.0000 I-0.3572 J0.9813 F1800.00
G1 X92.0782 Y20.7384 Z4.5000 F1800.00
G3 X90.9826 Y20.9813 Z4.5000 I-0.7384 J-0.7384 F1800.00
G3 X90.3585 Y19.6428 Z4.5000 I0.3572 J-0.9813 F1800.00
G3 X91.6969 Y19.0187 Z4.5000 I0.9813 J0.3572 F1800.00
G3 X92.0782 Y20.7384 Z4.5000 I-0.3572 J0.9813 F1800.00
G1 X92.0782 Y20.7384 Z4.0000 F1800.00
G3 X90.9826 Y20.9813 Z4.0000 I-0.7384 J-0.7384 F1800.00
G3 X90.3585 Y19.6428 Z4.0000 I0.3572 J-0.9813 F1800.00
G3 X91.6969 Y19.0187 Z4.0000 I0.9813 J0.3572 F1800.00
G3 X92.0782 Y20.7384 Z4.0000 I-0.3572 J0.9813 F1800.00
G1 X92.0782 Y20.7384 Z3.5000 F1800.00
G3 X90.9826 Y20.9813 Z3.5000 I-0.7384 J-0.7384 F1800.00
G3 X90.3585 Y19.6428 Z3.5000 I0.3572 J-0.9813 F1800.00
G3 X91.6969 Y19.0187 Z3.5000 I0.9813 J0.3572 F1800.00
G3 X92.0782 Y20.7384 Z3.5000 I-0.3572 J0.9813 F1800.00
G1 X92.0782 Y20.7384 Z3.0000 F1800.00
G3 X90.9826 Y20.9813 Z3.0000 I-0.7384 J-0.7384 F1800.00
G3 X90.3585 Y19.6428 Z3.0000 I0.3572 J-0.9813 F1800.00
G3 X91.6969 Y19.0187 Z3.0000 I0.9813 J0.3572 F1800.00
G3 X92.0782 Y20.7384 Z3.0000 I-0.3572 J0.9813 F1800.00
G1 X92.0782 Y20.7384 Z2.5000 F1800.00
G3 X90.9826 Y20.9813 Z2.5000 I-0.7384 J-0.7384 F1800.00
G3 X90.3585 Y19.6428 Z2.5000 I0.3572 J-0.9813 F1800.00
G3 X91.6969 Y19.0187 Z2.5000 I0.9813 J0.3572 F1800.00
G3 X92.0782 Y20.7384 Z2.5000 I-0.3572 J0.9813 F1800.00
G1 X92.0782 Y20.7384 Z2.0000 F1800.00
G3 X90.9826 Y20.9813 Z2.0000 I-0.7384 J-0.7384 F1800.00
G3 X90.3585 Y19.6428 Z2.0000 I0.3572 J-0.9813 F1800.00
G3 X91.6969 Y19.0187 Z2.0000 I0.9813 J0.3572 F1800.00
G3 X92.0782 Y20.7384 Z2.0000 I-0.3572 J0.9813 F1800.00
G1 X92.0782 Y20.7384 Z1.5000 F1800.00
G3 X90.9826 Y20.9813 Z1.5000 I-0.7384 J-0.7384 F1800.00
G3 X90.3585 Y19.6428 Z1.5000 I0.3572 J-0.9813 F1800.00
G3 X91.6969 Y19.0187 Z1.5000 I0.9813 J0.3572 F1800.00
G3 X92.0782 Y20.7384 Z1.5000 I-0.3572 J0.9813 F1800.00
G1 X92.0782 Y20.7384 Z1.0000 F1800.00
G3 X90.9826 Y20.9813 Z1.0000 I-0.7384 J-0.7384 F1800.00
G3 X90.3585 Y19.6428 Z1.0000 I0.3572 J-0.9813 F1800.00
G3 X91.6969 Y19.0187 Z1.0000 I0.9813 J0.3572 F1800.00
G3 X92.0782 Y20.7384 Z1.0000 I-0.3572 J0.9813 F1800.00
G1 X92.0782 Y20.7384 Z0.5000 F1800.00
G3 X90.9826 Y20.9813 Z0.5000 I-0.7384 J-0.7384 F1800.00
G3 X90.3585 Y19.6428 Z0.5000 I0.3572 J-0.9813 F1800.00
G3 X91.6969 Y19.0187 Z0.5000 I0.9813 J0.3572 F1800.00
G3 X92.0782 Y20.7384 Z0.5000 I-0.3572 J0.9813 F1800.00
G1 X92.0782 Y20.7384 Z0.0000 F1800.00
G3 X90.9826 Y20.9813 Z0.0000 I-0.7384 J-0.7384 F1800.00
G3 X90.3585 Y19.6428 Z0.0000 I0.3572 J-0.9813 F1800.00
G3 X91.6969 Y19.0187 Z0.0000 I0.9813 J0.3572 F1800.00
G3 X92.0782 Y20.7384 Z0.0000 I-0.3572 J0.9813 F1800.00
G1 X92.0782 Y20.7384 Z-0.5000 F1800.00
G3 X90.9826 Y20.9813 Z-0.5000 I-0.7384 J-0.7384 F1800.00
G3 X90.3585 Y19.6428 Z-0.5000 I0.3572 J-0.9813 F1800.00
G3 X91.6969 Y19.0187 Z-0.5000 I0.9813 J0.3572 F1800.00
G3 X92.0782 Y20.7384 Z-0.5000 I-0.3572 J0.9813 F1800.00
G0 Z23.0000
G0 X115.3757 Y78.5910
G0 Z21.0000
G1 X115.3757 Y78.5910 Z14.5000 F1800.00
G3 X114.2801 Y78.8338 Z14.5000 I-0.7384 J-0.7384 F1800.00
G3 X113.6560 Y77.4954 Z14.5000 I0.3572 J-0.9813 F1800.00
G3 X114.9945 Y76.8712 Z14.5000 I0.9813 J0.3572 F1800.00
G3 X115.3757 Y78.5910 Z14.5000 I-0.3572 J0.9813 F1800.00
G1 X115.3757 Y78.5910 Z14.0000 F1800.00
G3 X114.2801 Y78.8338 Z14.0000 I-0.7384 J-0.7384 F1800.00
G3 X113.6560 Y77.4954 Z14.0000 I0.3572 J-0.9813 F1800.00
G3 X114.9945 Y76.8712 Z14.0000 I0.9813 J0.3572 F1800.00
G3 X115.3757 Y78.5910 Z14.0000 I-0.3572 J0.9813 F1800.00
G1 X115.3757 Y78.5910 Z13.5000 F1800.00
G3 X114.2801 Y78.8338 Z13.5000 I-0.7384 J-0.7384 F1800.00
G3 X113.6560 Y77.4954 Z13.5000 I0.3572 J-0.9813 F1800.00
G3 X114.9945 Y76.8712 Z13.5000 I0.9813 J0.3572 F1800.00
G3 X115.3757 Y78.5910 Z13.5000 I-0.3572 J0.9813 F1800.00
G1 X115.3757 Y78.5910 Z13.0000 F1800.00
G3 X114.2801 Y78.8338 Z13.0000 I-0.7384 J-0.7384 F1800.00
G3 X113.6560 Y77.4954 Z13.0000 I0.3572 J-0.9813 F1800.00
G3 X114.9945 Y76.8712 Z13.0000 I0.9813 J0.3572 F1800.00
G3 X115.3757 Y78.5910 Z13.0000 I-0.3572 J0.9813 F1800.00
G1 X115.3757 Y78.5910 Z12.5000 F1800.00
G3 X114.2801 Y78.8338 Z12.5000 I-0.7384 J-0.7384 F1800.00
G3 X113.6560 Y77.4954 Z12.5000 I0.3572 J-0.9813 F1800.00
G3 X114.9945 Y76.8712 Z12.5000 I0.9813 J0.3572 F1800.00
G3 X115.3757 Y78.5910 Z12.5000 I-0.3572 J0.9813 F1800.00
G1 X115.3757 Y78.5910 Z12.0000 F1800.00
G3 X114.2801 Y78.8338 Z12.0000 I-0.7384 J-0.7384 F1800.00
G3 X113.6560 Y77.4954 Z12.0000 I0.3572 J-0.9813 F1800.00
G3 X114.9945 Y76.8712 Z12.0000 I0.9813 J0.3572 F1800.00
G3 X115.3757 Y78.5910 Z12.0000 I-0.3572 J0.9813 F1800.00
G1 X115.3757 Y78.5910 Z11.5000 F1800.00
G3 X114.2801 Y78.8338 Z11.5000 I-0.7384 J-0.7384 F1800.00
G3 X113.6560 Y77.4954 Z11.5000 I0.3572 J-0.9813 F1800.00
G3 X114.9945 Y76.8712 Z11.5000 I0.9813 J0.3572 F1800.00
G3 X115.3757 Y78.5910 Z11.5000 I-0.3572 J0.9813 F1800.00
G1 X115.3757 Y78.5910 Z11.0000 F1800.00
G3 X114.2801 Y78.8338 Z11.0000 I-0.7384 J-0.7384 F1800.00
G3 X113.6560 Y77.4954 Z11.0000 I0.3572 J-0.9813 F1800.00
G3 X114.9945 Y76.8712 Z11.0000 I0.9813 J0.3572 F1800.00
G3 X115.3757 Y78.5910 Z11.0000 I-0.3572 J0.9813 F1800.00
G1 X115.3757 Y78.5910 Z10.5000 F1800.00
G3 X114.2801 Y78.8338 Z10.5000 I-0.7384 J-0.7384 F1800.00
G3 X113.6560 Y77.4954 Z10.5000 I0.3572 J-0.9813 F1800.00
G3 X114.9945 Y76.8712 Z10.5000 I0.9813 J0.3572 F1800.00
G3 X115.3757 Y78.5910 Z10.5000 I-0.3572 J0.9813 F1800.00
G1 X115.3757 Y78.5910 Z10.0000 F1800.00
G3 X114.2801 Y78.8338 Z10.0000 I-0.7384 J-0.7384 F1800.00
G3 X113.6560 Y77.4954 Z10.0000 I0.3572 J-0.9813 F1800.00
G3 X114.9945 Y76.8712 Z10.0000 I0.9813 J0.3572 F1800.00
G3 X115.3757 Y78.5910 Z10.0000 I-0.3572 J0.9813 F1800.00
G1 X115.3757 Y78.5910 Z9.5000 F1800.00
G3 X114.2801 Y78.8338 Z9.5000 I-0.7384 J-0.7384 F1800.00
G3 X113.6560 Y77.4954 Z9.5000 I0.3572 J-0.9813 F1800.00
G3 X114.9945 Y76.8712 Z9.5000 I0.9813 J0.3572 F1800.00
G3 X115.3757 Y78.5910 Z9.5000 I-0.3572 J0.9813 F1800.00
G1 X115.3757 Y78.5910 Z9.0000 F1800.00
G3 X114.2801 Y78.8338 Z9.0000 I-0.7384 J-0.7384 F1800.00
G3 X113.6560 Y77.4954 Z9.0000 I0.3572 J-0.9813 F1800.00
G3 X114.9945 Y76.8712 Z9.0000 I0.9813 J0.3572 F1800.00
G3 X115.3757 Y78.5910 Z9.0000 I-0.3572 J0.9813 F1800.00
G1 X115.3757 Y78.5910 Z8.5000 F1800.00
G3 X114.2801 Y78.8338 Z8.5000 I-0.7384 J-0.7384 F1800.00
G3 X113.6560 Y77.4954 Z8.5000 I0.3572 J-0.9813 F1800.00
G3 X114.9945 Y76.8712 Z8.5000 I0.9813 J0.3572 F1800.00
G3 X115.3757 Y78.5910 Z8.5000 I-0.3572 J0.9813 F1800.00
G1 X115.3757 Y78.5910 Z8.0000 F1800.00
G3 X114.2801 Y78.8338 Z8.0000 I-0.7384 J-0.7384 F1800.00
G3 X113.6560 Y77.4954 Z8.0000 I0.3572 J-0.9813 F1800.00
G3 X114.9945 Y76.8712 Z8.0000 I0.9813 J0.3572 F1800.00
G3 X115.3757 Y78.5910 Z8.0000 I-0.3572 J0.9813 F1800.00
G1 X115.3757 Y78.5910 Z7.5000 F1800.00
G3 X114.2801 Y78.8338 Z7.5000 I-0.7384 J-0.7384 F1800.00
G3 X113.6560 Y77.4954 Z7.5000 I0.3572 J-0.9813 F1800.00
G3 X114.9945 Y76.8712 Z7.5000 I0.9813 J0.3572 F1800.00
G3 X115.3757 Y78.5910 Z7.5000 I-0.3572 J0.9813 F1800.00
G1 X115.3757 Y78.5910 Z7.0000 F1800.00
G3 X114.2801 Y78.8338 Z7.0000 I-0.7384 J-0.7384 F1800.00
G3 X113.6560 Y77.4954 Z7.0000 I0.3572 J-0.9813 F1800.00
G3 X114.9945 Y76.8712 Z7.0000 I0.9813 J0.3572 F1800.00
G3 X115.3757 Y78.5910 Z7.0000 I-0.3572 J0.9813 F1800.00
G1 X115.3757 Y78.5910 Z6.5000 F1800.00
G3 X114.2801 Y78.8338 Z6.5000 I-0.7384 J-0.7384 F1800.00
G3 X113.6560 Y77.4954 Z6.5000 I0.3572 J-0.9813 F1800.00
G3 X114.9945 Y76.8712 Z6.5000 I0.9813 J0.3572 F1800.00
G3 X115.3757 Y78.5910 Z6.5000 I-0.3572 J0.9813 F1800.00
G1 X115.3757 Y78.5910 Z6.0000 F1800.00
G3 X114.2801 Y78.8338 Z6.0000 I-0.7384 J-0.7384 F1800.00
G3 X113.6560 Y77.4954 Z6.0000 I0.3572 J-0.9813 F1800.00
G3 X114.9945 Y76.8712 Z6.0000 I0.9813 J0.3572 F1800.00
G3 X115.3757 Y78.5910 Z6.0000 I-0.3572 J0.9813 F1800.00
G1 X115.3757 Y78.5910 Z5.5000 F1800.00
G3 X114.2801 Y78.8338 Z5.5000 I-0.7384 J-0.7384 F1800.00
G3 X113.6560 Y77.4954 Z5.5000 I0.3572 J-0.9813 F1800.00
G3 X114.9945 Y76.8712 Z5.5000 I0.9813 J0.3572 F1800.00
G3 X115.3757 Y78.5910 Z5.5000 I-0.3572 J0.9813 F1800.00
G1 X115.3757 Y78.5910 Z5.0000 F1800.00
G3 X114.2801 Y78.8338 Z5.0000 I-0.7384 J-0.7384 F1800.00
G3 X113.6560 Y77.4954 Z5.0000 I0.3572 J-0.9813 F1800.00
G3 X114.9945 Y76.8712 Z5.0000 I0.9813 J0.3572 F1800.00
G3 X115.3757 Y78.5910 Z5.0000 I-0.3572 J0.9813 F1800.00
G1 X115.3757 Y78.5910 Z4.5000 F1800.00
G3 X114.2801 Y78.8338 Z4.5000 I-0.7384 J-0.7384 F1800.00
G3 X113.6560 Y77.4954 Z4.5000 I0.3572 J-0.9813 F1800.00
G3 X114.9945 Y76.8712 Z4.5000 I0.9813 J0.3572 F1800.00
G3 X115.3757 Y78.5910 Z4.5000 I-0.3572 J0.9813 F1800.00
G1 X115.3757 Y78.5910 Z4.0000 F1800.00
G3 X114.2801 Y78.8338 Z4.0000 I-0.7384 J-0.7384 F1800.00
G3 X113.6560 Y77.4954 Z4.0000 I0.3572 J-0.9813 F1800.00
G3 X114.9945 Y76.8712 Z4.0000 I0.9813 J0.3572 F1800.00
G3 X115.3757 Y78.5910 Z4.0000 I-0.3572 J0.9813 F1800.00
G1 X115.3757 Y78.5910 Z3.5000 F1800.00
G3 X114.2801 Y78.8338 Z3.5000 I-0.7384 J-0.7384 F1800.00
G3 X113.6560 Y77.4954 Z3.5000 I0.3572 J-0.9813 F1800.00
G3 X114.9945 Y76.8712 Z3.5000 I0.9813 J0.3572 F1800.00
G3 X115.3757 Y78.5910 Z3.5000 I-0.3572 J0.9813 F1800.00
G1 X115.3757 Y78.5910 Z3.0000 F1800.00
G3 X114.2801 Y78.8338 Z3.0000 I-0.7384 J-0.7384 F1800.00
G3 X113.6560 Y77.4954 Z3.0000 I0.3572 J-0.9813 F1800.00
G3 X114.9945 Y76.8712 Z3.0000 I0.9813 J0.3572 F1800.00
G3 X115.3757 Y78.5910 Z3.0000 I-0.3572 J0.9813 F1800.00
G1 X115.3757 Y78.5910 Z2.5000 F1800.00
G3 X114.2801 Y78.8338 Z2.5000 I-0.7384 J-0.7384 F1800.00
G3 X113.6560 Y77.4954 Z2.5000 I0.3572 J-0.9813 F1800.00
G3 X114.9945 Y76.8712 Z2.5000 I0.9813 J0.3572 F1800.00
G3 X115.3757 Y78.5910 Z2.5000 I-0.3572 J0.9813 F1800.00
G1 X115.3757 Y78.5910 Z2.0000 F1800.00
G3 X114.2801 Y78.8338 Z2.0000 I-0.7384 J-0.7384 F1800.00
G3 X113.6560 Y77.4954 Z2.0000 I0.3572 J-0.9813 F1800.00
G3 X114.9945 Y76.8712 Z2.0000 I0.9813 J0.3572 F1800.00
G3 X115.3757 Y78.5910 Z2.0000 I-0.3572 J0.9813 F1800.00
G1 X115.3757 Y78.5910 Z1.5000 F1800.00
G3 X114.2801 Y78.8338 Z1.5000 I-0.7384 J-0.7384 F1800.00
G3 X113.6560 Y77.4954 Z1.5000 I0.3572 J-0.9813 F1800.00
G3 X114.9945 Y76.8712 Z1.5000 I0.9813 J0.3572 F1800.00
G3 X115.3757 Y78.5910 Z1.5000 I-0.3572 J0.9813 F1800.00
G1 X115.3757 Y78.5910 Z1.0000 F1800.00
G3 X114.2801 Y78.8338 Z1.0000 I-0.7384 J-0.7384 F1800.00
G3 X113.6560 Y77.4954 Z1.0000 I0.3572 J-0.9813 F1800.00
G3 X114.9945 Y76.8712 Z1.0000 I0.9813 J0.3572 F1800.00
G3 X115.3757 Y78.5910 Z1.0000 I-0.3572 J0.9813 F1800.00
G1 X115.3757 Y78.5910 Z0.5000 F1800.00
G3 X114.2801 Y78.8338 Z0.5000 I-0.7384 J-0.7384 F1800.00
G3 X113.6560 Y77.4954 Z0.5000 I0.3572 J-0.9813 F1800.00
G3 X114.9945 Y76.8712 Z0.5000 I0.9813 J0.3572 F1800.00
G3 X115.3757 Y78.5910 Z0.5000 I-0.3572 J0.9813 F1800.00
G1 X115.3757 Y78.5910 Z0.0000 F1800.00
G3 X114.2801 Y78.8338 Z0.0000 I-0.7384 J-0.7384 F1800.00
G3 X113.6560 Y77.4954 Z0.0000 I0.3572 J-0.9813 F1800.00
G3 X114.9945 Y76.8712 Z0.0000 I0.9813 J0.3572 F1800.00
G3 X115.3757 Y78.5910 Z0.0000 I-0.3572 J0.9813 F1800.00
G1 X115.3757 Y78.5910 Z-0.5000 F1800.00
G3 X114.2801 Y78.8338 Z-0.5000 I-0.7384 J-0.7384 F1800.00
G3 X113.6560 Y77.4954 Z-0.5000 I0.3572 J-0.9813 F1800.00
G3 X114.9945 Y76.8712 Z-0.5000 I0.9813 J0.3572 F1800.00
G3 X115.3757 Y78.5910 Z-0.5000 I-0.3572 J0.9813 F1800.00
G0 Z23.0000
G0 X81.9745 Y136.4435
G0 Z21.0000
G1 X81.9745 Y136.4435 Z14.5000 F1800.00
G3 X80.8790 Y136.6864 Z14.5000 I-0.7384 J-0.7384 F1800.00
G3 X81.5933 Y134.7238 Z14.5000 I0.3572 J-0.9813 F1800.00
G3 X81.9745 Y136.4435 Z14.5000 I-0.3572 J0.9813 F1800.00
G1 X81.9745 Y136.4435 Z14.0000 F1800.00
G3 X80.8790 Y136.6864 Z14.0000 I-0.7384 J-0.7384 F1800.00
G3 X81.5933 Y134.7238 Z14.0000 I0.3572 J-0.9813 F1800.00
G3 X81.9745 Y136.4435 Z14.0000 I-0.3572 J0.9813 F1800.00
G1 X81.9745 Y136.4435 Z13.5000 F1800.00
G3 X80.8790 Y136.6864 Z13.5000 I-0.7384 J-0.7384 F1800.00
G3 X81.5933 Y134.7238 Z13.5000 I0.3572 J-0.9813 F1800.00
G3 X81.9745 Y136.4435 Z13.5000 I-0.3572 J0.9813 F1800.00
G1 X81.9745 Y136.4435 Z13.0000 F1800.00
G3 X80.8790 Y136.6864 Z13.0000 I-0.7384 J-0.7384 F1800.00
G3 X81.5933 Y134.7238 Z13.0000 I0.3572 J-0.9813 F1800.00
G3 X81.9745 Y136.4435 Z13.0000 I-0.3572 J0.9813 F1800.00
G1 X81.9745 Y136.4435 Z12.5000 F1800.00
G3 X80.8790 Y136.6864 Z12.5000 I-0.7384 J-0.7384 F1800.00
G3 X81.5933 Y134.7238 Z12.5000 I0.3572 J-0.9813 F1800.00
G3 X81.9745 Y136.4435 Z12.5000 I-0.3572 J0.9813 F1800.00
G1 X81.9745 Y136.4435 Z12.0000 F1800.00
G3 X80.8790 Y136.6864 Z12.0000 I-0.7384 J-0.7384 F1800.00
G3 X81.5933 Y134.7238 Z12.0000 I0.3572 J-0.9813 F1800.00
G3 X81.9745 Y136.4435 Z12.0000 I-0.3572 J0.9813 F1800.00
G1 X81.9745 Y136.4435 Z11.5000 F1800.00
G3 X80.8790 Y136.6864 Z11.5000 I-0.7384 J-0.7384 F1800.00
G3 X81.5933 Y134.7238 Z11.5000 I0.3572 J-0.9813 F1800.00
G3 X81.9745 Y136.4435 Z11.5000 I-0.3572 J0.9813 F1800.00
G1 X81.9745 Y136.4435 Z11.0000 F1800.00
G3 X80.8790 Y136.6864 Z11.0000 I-0.7384 J-0.7384 F1800.00
G3 X81.5933 Y134.7238 Z11.0000 I0.3572 J-0.9813 F1800.00
G3 X81.9745 Y136.4435 Z11.0000 I-0.3572 J0.9813 F1800.00
G1 X81.9745 Y136.4435 Z10.5000 F1800.00
G3 X80.8790 Y136.6864 Z10.5000 I-0.7384 J-0.7384 F1800.00
G3 X81.5933 Y134.7238 Z10.5000 I0.3572 J-0.9813 F1800.00
G3 X81.9745 Y136.4435 Z10.5000 I-0.3572 J0.9813 F1800.00
G1 X81.9745 Y136.4435 Z10.0000 F1800.00
G3 X80.8790 Y136.6864 Z10.0000 I-0.7384 J-0.7384 F1800.00
G3 X81.5933 Y134.7238 Z10.0000 I0.3572 J-0.9813 F1800.00
G3 X81.9745 Y136.4435 Z10.0000 I-0.3572 J0.9813 F1800.00
G1 X81.9745 Y136.4435 Z9.5000 F1800.00
G3 X80.8790 Y136.6864 Z9.5000 I-0.7384 J-0.7384 F1800.00
G3 X81.5933 Y134.7238 Z9.5000 I0.3572 J-0.9813 F1800.00
G3 X81.9745 Y136.4435 Z9.5000 I-0.3572 J0.9813 F1800.00
G1 X81.9745 Y136.4435 Z9.0000 F1800.00
G3 X80.8790 Y136.6864 Z9.0000 I-0.7384 J-0.7384 F1800.00
G3 X81.5933 Y134.7238 Z9.0000 I0.3572 J-0.9813 F1800.00
G3 X81.9745 Y136.4435 Z9.0000 I-0.3572 J0.9813 F1800.00
G1 X81.9745 Y136.4435 Z8.5000 F1800.00
G3 X80.8790 Y136.6864 Z8.5000 I-0.7384 J-0.7384 F1800.00
G3 X81.5933 Y134.7238 Z8.5000 I0.3572 J-0.9813 F1800.00
G3 X81.9745 Y136.4435 Z8.5000 I-0.3572 J0.9813 F1800.00
G1 X81.9745 Y136.4435 Z8.0000 F1800.00
G3 X80.8790 Y136.6864 Z8.0000 I-0.7384 J-0.7384 F1800.00
G3 X81.5933 Y134.7238 Z8.0000 I0.3572 J-0.9813 F1800.00
G3 X81.9745 Y136.4435 Z8.0000 I-0.3572 J0.9813 F1800.00
G1 X81.9745 Y136.4435 Z7.5000 F1800.00
G3 X80.8790 Y136.6864 Z7.5000 I-0.7384 J-0.7384 F1800.00
G3 X81.5933 Y134.7238 Z7.5000 I0.3572 J-0.9813 F1800.00
G3 X81.9745 Y136.4435 Z7.5000 I-0.3572 J0.9813 F1800.00
G1 X81.9745 Y136.4435 Z7.0000 F1800.00
G3 X80.8790 Y136.6864 Z7.0000 I-0.7384 J-0.7384 F1800.00
G3 X81.5933 Y134.7238 Z7.0000 I0.3572 J-0.9813 F1800.00
G3 X81.9745 Y136.4435 Z7.0000 I-0.3572 J0.9813 F1800.00
G1 X81.9745 Y136.4435 Z6.5000 F1800.00
G3 X80.8790 Y136.6864 Z6.5000 I-0.7384 J-0.7384 F1800.00
G3 X81.5933 Y134.7238 Z6.5000 I0.3572 J-0.9813 F1800.00
G3 X81.9745 Y136.4435 Z6.5000 I-0.3572 J0.9813 F1800.00
G1 X81.9745 Y136.4435 Z6.0000 F1800.00
G3 X80.8790 Y136.6864 Z6.0000 I-0.7384 J-0.7384 F1800.00
G3 X81.5933 Y134.7238 Z6.0000 I0.3572 J-0.9813 F1800.00
G3 X81.9745 Y136.4435 Z6.0000 I-0.3572 J0.9813 F1800.00
G1 X81.9745 Y136.4435 Z5.5000 F1800.00
G3 X80.8790 Y136.6864 Z5.5000 I-0.7384 J-0.7384 F1800.00
G3 X81.5933 Y134.7238 Z5.5000 I0.3572 J-0.9813 F1800.00
G3 X81.9745 Y136.4435 Z5.5000 I-0.3572 J0.9813 F1800.00
G1 X81.9745 Y136.4435 Z5.0000 F1800.00
G3 X80.8790 Y136.6864 Z5.0000 I-0.7384 J-0.7384 F1800.00
G3 X81.5933 Y134.7238 Z5.0000 I0.3572 J-0.9813 F1800.00
G3 X81.9745 Y136.4435 Z5.0000 I-0.3572 J0.9813 F1800.00
G1 X81.9745 Y136.4435 Z4.5000 F1800.00
G3 X80.8790 Y136.6864 Z4.5000 I-0.7384 J-0.7384 F1800.00
G3 X81.5933 Y134.7238 Z4.5000 I0.3572 J-0.9813 F1800.00
G3 X81.9745 Y136.4435 Z4.5000 I-0.3572 J0.9813 F1800.00
G1 X81.9745 Y136.4435 Z4.0000 F1800.00
G3 X80.8790 Y136.6864 Z4.0000 I-0.7384 J-0.7384 F1800.00
G3 X81.5933 Y134.7238 Z4.0000 I0.3572 J-0.9813 F1800.00
G3 X81.9745 Y136.4435 Z4.0000 I-0.3572 J0.9813 F1800.00
G1 X81.9745 Y136.4435 Z3.5000 F1800.00
G3 X80.8790 Y136.6864 Z3.5000 I-0.7384 J-0.7384 F1800.00
G3 X81.5933 Y134.7238 Z3.5000 I0.3572 J-0.9813 F1800.00
G3 X81.9745 Y136.4435 Z3.5000 I-0.3572 J0.9813 F1800.00
G1 X81.9745 Y136.4435 Z3.0000 F1800.00
G3 X80.8790 Y136.6864 Z3.0000 I-0.7384 J-0.7384 F1800.00
G3 X81.5933 Y134.7238 Z3.0000 I0.3572 J-0.9813 F1800.00
G3 X81.9745 Y136.4435 Z3.0000 I-0.3572 J0.9813 F1800.00
G1 X81.9745 Y136.4435 Z2.5000 F1800.00
G3 X80.8790 Y136.6864 Z2.5000 I-0.7384 J-0.7384 F1800.00
G3 X81.5933 Y134.7238 Z2.5000 I0.3572 J-0.9813 F1800.00
G3 X81.9745 Y136.4435 Z2.5000 I-0.3572 J0.9813 F1800.00
G1 X81.9745 Y136.4435 Z2.0000 F1800.00
G3 X80.8790 Y136.6864 Z2.0000 I-0.7384 J-0.7384 F1800.00
G3 X81.5933 Y134.7238 Z2.0000 I0.3572 J-0.9813 F1800.00
G3 X81.9745 Y136.4435 Z2.0000 I-0.3572 J0.9813 F1800.00
G1 X81.9745 Y136.4435 Z1.5000 F1800.00
G3 X80.8790 Y136.6864 Z1.5000 I-0.7384 J-0.7384 F1800.00
G3 X81.5933 Y134.7238 Z1.5000 I0.3572 J-0.9813 F1800.00
G3 X81.9745 Y136.4435 Z1.5000 I-0.3572 J0.9813 F1800.00
G1 X81.9745 Y136.4435 Z1.0000 F1800.00
G3 X80.8790 Y136.6864 Z1.0000 I-0.7384 J-0.7384 F1800.00
G3 X81.5933 Y134.7238 Z1.0000 I0.3572 J-0.9813 F1800.00
G3 X81.9745 Y136.4435 Z1.0000 I-0.3572 J0.9813 F1800.00
G1 X81.9745 Y136.4435 Z0.5000 F1800.00
G3 X80.8790 Y136.6864 Z0.5000 I-0.7384 J-0.7384 F1800.00
G3 X81.5933 Y134.7238 Z0.5000 I0.3572 J-0.9813 F1800.00
G3 X81.9745 Y136.4435 Z0.5000 I-0.3572 J0.9813 F1800.00
G1 X81.9745 Y136.4435 Z-0.0000 F1800.00
G3 X80.8790 Y136.6864 Z0.0000 I-0.7384 J-0.7384 F1800.00
G3 X81.5933 Y134.7238 Z-0.0000 I0.3572 J-0.9813 F1800.00
G3 X81.9745 Y136.4435 Z-0.0000 I-0.3572 J0.9813 F1800.00
G1 X81.9745 Y136.4435 Z-0.5000 F1800.00
G3 X80.8790 Y136.6864 Z-0.5000 I-0.7384 J-0.7384 F1800.00
G3 X81.5933 Y134.7238 Z-0.5000 I0.3572 J-0.9813 F1800.00
G3 X81.9745 Y136.4435 Z-0.5000 I-0.3572 J0.9813 F1800.00
G0 Z23.0000
G0 X148.7769 Y20.7384
G0 Z21.0000
G1 X148.7769 Y20.7384 Z14.5000 F1800.00
G3 X147.6813 Y20.9813 Z14.5000 I-0.7384 J-0.7384 F1800.00
G3 X147.0572 Y19.6428 Z14.5000 I0.3572 J-0.9813 F1800.00
G3 X148.3956 Y19.0187 Z14.5000 I0.9813 J0.3572 F1800.00
G3 X148.7769 Y20.7384 Z14.5000 I-0.3572 J0.9813 F1800.00
G1 X148.7769 Y20.7384 Z14.0000 F1800.00
G3 X147.6813 Y20.9813 Z14.0000 I-0.7384 J-0.7384 F1800.00
G3 X147.0572 Y19.6428 Z14.0000 I0.3572 J-0.9813 F1800.00
G3 X148.3956 Y19.0187 Z14.0000 I0.9813 J0.3572 F1800.00
G3 X148.7769 Y20.7384 Z14.0000 I-0.3572 J0.9813 F1800.00
G1 X148.7769 Y20.7384 Z13.5000 F1800.00
G3 X147.6813 Y20.9813 Z13.5000 I-0.7384 J-0.7384 F1800.00
G3 X147.0572 Y19.6428 Z13.5000 I0.3572 J-0.9813 F1800.00
G3 X148.3956 Y19.0187 Z13.5000 I0.9813 J0.3572 F1800.00
G3 X148.7769 Y20.7384 Z13.5000 I-0.3572 J0.9813 F1800.00
G1 X148.7769 Y20.7384 Z13.0000 F1800.00
G3 X147.6813 Y20.9813 Z13.0000 I-0.7384 J-0.7384 F1800.00
G3 X147.0572 Y19.6428 Z13.0000 I0.3572 J-0.9813 F1800.00
G3 X148.3956 Y19.0187 Z13.0000 I0.9813 J0.3572 F1800.00
G3 X148.7769 Y20.7384 Z13.0000 I-0.3572 J0.9813 F1800.00
G1 X148.7769 Y20.7384 Z12.5000 F1800.00
G3 X147.6813 Y20.9813 Z12.5000 I-0.7384 J-0.7384 F1800.00
G3 X147.0572 Y19.6428 Z12.5000 I0.3572 J-0.9813 F1800.00
G3 X148.3956 Y19.0187 Z12.5000 I0.9813 J0.3572 F1800.00
G3 X148.7769 Y20.7384 Z12.5000 I-0.3572 J0.9813 F1800.00
G1 X148.7769 Y20.7384 Z12.0000 F1800.00
G3 X147.6813 Y20.9813 Z12.0000 I-0.7384 J-0.7384 F1800.00
G3 X147.0572 Y19.6428 Z12.0000 I0.3572 J-0.9813 F1800.00
G3 X148.3956 Y19.0187 Z12.0000 I0.9813 J0.3572 F1800.00
G3 X148.7769 Y20.7384 Z12.0000 I-0.3572 J0.9813 F1800.00
G1 X148.7769 Y20.7384 Z11.5000 F1800.00
G3 X147.6813 Y20.9813 Z11.5000 I-0.7384 J-0.7384 F1800.00
G3 X147.0572 Y19.6428 Z11.5000 I0.3572 J-0.9813 F1800.00
G3 X148.3956 Y19.0187 Z11.5000 I0.9813 J0.3572 F1800.00
G3 X148.7769 Y20.7384 Z11.5000 I-0.3572 J0.9813 F1800.00
G1 X148.7769 Y20.7384 Z11.0000 F1800.00
G3 X147.6813 Y20.9813 Z11.0000 I-0.7384 J-0.7384 F1800.00
G3 X147.0572 Y19.6428 Z11.0000 I0.3572 J-0.9813 F1800.00
G3 X148.3956 Y19.0187 Z11.0000 I0.9813 J0.3572 F1800.00
G3 X148.7769 Y20.7384 Z11.0000 I-0.3572 J0.9813 F1800.00
G1 X148.7769 Y20.7384 Z10.5000 F1800.00
G3 X147.6813 Y20.9813 Z10.5000 I-0.7384 J-0.7384 F1800.00
G3 X147.0572 Y19.6428 Z10.5000 I0.3572 J-0.9813 F1800.00
G3 X148.3956 Y19.0187 Z10.5000 I0.9813 J0.3572 F1800.00
G3 X148.7769 Y20.7384 Z10.5000 I-0.3572 J0.9813 F1800.00
G1 X148.7769 Y20.7384 Z10.0000 F1800.00
G3 X147.6813 Y20.9813 Z10.0000 I-0.7384 J-0.7384 F1800.00
G3 X147.0572 Y19.6428 Z10.0000 I0.3572 J-0.9813 F1800.00
G3 X148.3956 Y19.0187 Z10.0000 I0.9813 J0.3572 F1800.00
G3 X148.7769 Y20.7384 Z10.0000 I-0.3572 J0.9813 F1800.00
G1 X148.7769 Y20.7384 Z9.5000 F1800.00
G3 X147.6813 Y20.9813 Z9.5000 I-0.7384 J-0.7384 F1800.00
G3 X147.0572 Y19.6428 Z9.5000 I0.3572 J-0.9813 F1800.00
G3 X148.3956 Y19.0187 Z9.5000 I0.9813 J0.3572 F1800.00
G3 X148.7769 Y20.7384 Z9.5000 I-0.3572 J0.9813 F1800.00
G1 X148.7769 Y20.7384 Z9.0000 F1800.00
G3 X147.6813 Y20.9813 Z9.0000 I-0.7384 J-0.7384 F1800.00
G3 X147.0572 Y19.6428 Z9.0000 I0.3572 J-0.9813 F1800.00
G3 X148.3956 Y19.0187 Z9.0000 I0.9813 J0.3572 F1800.00
G3 X148.7769 Y20.7384 Z9.0000 I-0.3572 J0.9813 F1800.00
G1 X148.7769 Y20.7384 Z8.5000 F1800.00
G3 X147.6813 Y20.9813 Z8.5000 I-0.7384 J-0.7384 F1800.00
G3 X147.0572 Y19.6428 Z8.5000 I0.3572 J-0.9813 F1800.00
G3 X148.3956 Y19.0187 Z8.5000 I0.9813 J0.3572 F1800.00
G3 X148.7769 Y20.7384 Z8.5000 I-0.3572 J0.9813 F1800.00
G1 X148.7769 Y20.7384 Z8.0000 F1800.00
G3 X147.6813 Y20.9813 Z8.0000 I-0.7384 J-0.7384 F1800.00
G3 X147.0572 Y19.6428 Z8.0000 I0.3572 J-0.9813 F1800.00
G3 X148.3956 Y19.0187 Z8.0000 I0.9813 J0.3572 F1800.00
G3 X148.7769 Y20.7384 Z8.0000 I-0.3572 J0.9813 F1800.00
G1 X148.7769 Y20.7384 Z7.5000 F1800.00
G3 X147.6813 Y20.9813 Z7.5000 I-0.7384 J-0.7384 F1800.00
G3 X147.0572 Y19.6428 Z7.5000 I0.3572 J-0.9813 F1800.00
G3 X148.3956 Y19.0187 Z7.5000 I0.9813 J0.3572 F1800.00
G3 X148.7769 Y20.7384 Z7.5000 I-0.3572 J0.9813 F1800.00
G1 X148.7769 Y20.7384 Z7.0000 F1800.00
G3 X147.6813 Y20.9813 Z7.0000 I-0.7384 J-0.7384 F1800.00
G3 X147.0572 Y19.6428 Z7.0000 I0.3572 J-0.9813 F1800.00
G3 X148.3956 Y19.0187 Z7.0000 I0.9813 J0.3572 F1800.00
G3 X148.7769 Y20.7384 Z7.0000 I-0.3572 J0.9813 F1800.00
G1 X148.7769 Y20.7384 Z6.5000 F1800.00
G3 X147.6813 Y20.9813 Z6.5000 I-0.7384 J-0.7384 F1800.00
G3 X147.0572 Y19.6428 Z6.5000 I0.3572 J-0.9813 F1800.00
G3 X148.3956 Y19.0187 Z6.5000 I0.9813 J0.3572 F1800.00
G3 X148.7769 Y20.7384 Z6.5000 I-0.3572 J0.9813 F1800.00
G1 X148.7769 Y20.7384 Z6.0000 F1800.00
G3 X147.6813 Y20.9813 Z6.0000 I-0.7384 J-0.7384 F1800.00
G3 X147.0572 Y19.6428 Z6.0000 I0.3572 J-0.9813 F1800.00
G3 X148.3956 Y19.0187 Z6.0000 I0.9813 J0.3572 F1800.00
G3 X148.7769 Y20.7384 Z6.0000 I-0.3572 J0.9813 F1800.00
G1 X148.7769 Y20.7384 Z5.5000 F1800.00
G3 X147.6813 Y20.9813 Z5.5000 I-0.7384 J-0.7384 F1800.00
G3 X147.0572 Y19.6428 Z5.5000 I0.3572 J-0.9813 F1800.00
G3 X148.3956 Y19.0187 Z5.5000 I0.9813 J0.3572 F1800.00
G3 X148.7769 Y20.7384 Z5.5000 I-0.3572 J0.9813 F1800.00
G1 X148.7769 Y20.7384 Z5.0000 F1800.00
G3 X147.6813 Y20.9813 Z5.0000 I-0.7384 J-0.7384 F1800.00
G3 X147.0572 Y19.6428 Z5.0000 I0.3572 J-0.9813 F1800.00
G3 X148.3956 Y19.0187 Z5.0000 I0.9813 J0.3572 F1800.00
G3 X148.7769 Y20.7384 Z5.0000 I-0.3572 J0.9813 F1800.00
G1 X148.7769 Y20.7384 Z4.5000 F1800.00
G3 X147.6813 Y20.9813 Z4.5000 I-0.7384 J-0.7384 F1800.00
G3 X147.0572 Y19.6428 Z4.5000 I0.3572 J-0.9813 F1800.00
G3 X148.3956 Y19.0187 Z4.5000 I0.9813 J0.3572 F1800.00
G3 X148.7769 Y20.7384 Z4.5000 I-0.3572 J0.9813 F1800.00
G1 X148.7769 Y20.7384 Z4.0000 F1800.00
G3 X147.6813 Y20.9813 Z4.0000 I-0.7384 J-0.7384 F1800.00
G3 X147.0572 Y19.6428 Z4.0000 I0.3572 J-0.9813 F1800.00
G3 X148.3956 Y19.0187 Z4.0000 I0.9813 J0.3572 F1800.00
G3 X148.7769 Y20.7384 Z4.0000 I-0.3572 J0.9813 F1800.00
G1 X148.7769 Y20.7384 Z3.5000 F1800.00
G3 X147.6813 Y20.9813 Z3.5000 I-0.7384 J-0.7384 F1800.00
G3 X147.0572 Y19.6428 Z3.5000 I0.3572 J-0.9813 F1800.00
G3 X148.3956 Y19.0187 Z3.5000 I0.9813 J0.3572 F1800.00
G3 X148.7769 Y20.7384 Z3.5000 I-0.3572 J0.9813 F1800.00
G1 X148.7769 Y20.7384 Z3.0000 F1800.00
G3 X147.6813 Y20.9813 Z3.0000 I-0.7384 J-0.7384 F1800.00
G3 X147.0572 Y19.6428 Z3.0000 I0.3572 J-0.9813 F1800.00
G3 X148.3956 Y19.0187 Z3.0000 I0.9813 J0.3572 F1800.00
G3 X148.7769 Y20.7384 Z3.0000 I-0.3572 J0.9813 F1800.00
G1 X148.7769 Y20.7384 Z2.5000 F1800.00
G3 X147.6813 Y20.9813 Z2.5000 I-0.7384 J-0.7384 F1800.00
G3 X147.0572 Y19.6428 Z2.5000 I0.3572 J-0.9813 F1800.00
G3 X148.3956 Y19.0187 Z2.5000 I0.9813 J0.3572 F1800.00
G3 X148.7769 Y20.7384 Z2.5000 I-0.3572 J0.9813 F1800.00
G1 X148.7769 Y20.7384 Z2.0000 F1800.00
G3 X147.6813 Y20.9813 Z2.0000 I-0.7384 J-0.7384 F1800.00
G3 X147.0572 Y19.6428 Z2.0000 I0.3572 J-0.9813 F1800.00
G3 X148.3956 Y19.0187 Z2.0000 I0.9813 J0.3572 F1800.00
G3 X148.7769 Y20.7384 Z2.0000 I-0.3572 J0.9813 F1800.00
G1 X148.7769 Y20.7384 Z1.5000 F1800.00
G3 X147.6813 Y20.9813 Z1.5000 I-0.7384 J-0.7384 F1800.00
G3 X147.0572 Y19.6428 Z1.5000 I0.3572 J-0.9813 F1800.00
G3 X148.3956 Y19.0187 Z1.5000 I0.9813 J0.3572 F1800.00
G3 X148.7769 Y20.7384 Z1.5000 I-0.3572 J0.9813 F1800.00
G1 X148.7769 Y20.7384 Z1.0000 F1800.00
G3 X147.6813 Y20.9813 Z1.0000 I-0.7384 J-0.7384 F1800.00
G3 X147.0572 Y19.6428 Z1.0000 I0.3572 J-0.9813 F1800.00
G3 X148.3956 Y19.0187 Z1.0000 I0.9813 J0.3572 F1800.00
G3 X148.7769 Y20.7384 Z1.0000 I-0.3572 J0.9813 F1800.00
G1 X148.7769 Y20.7384 Z0.5000 F1800.00
G3 X147.6813 Y20.9813 Z0.5000 I-0.7384 J-0.7384 F1800.00
G3 X147.0572 Y19.6428 Z0.5000 I0.3572 J-0.9813 F1800.00
G3 X148.3956 Y19.0187 Z0.5000 I0.9813 J0.3572 F1800.00
G3 X148.7769 Y20.7384 Z0.5000 I-0.3572 J0.9813 F1800.00
G1 X148.7769 Y20.7384 Z0.0000 F1800.00
G3 X147.6813 Y20.9813 Z0.0000 I-0.7384 J-0.7384 F1800.00
G3 X147.0572 Y19.6428 Z0.0000 I0.3572 J-0.9813 F1800.00
G3 X148.3956 Y19.0187 Z0.0000 I0.9813 J0.3572 F1800.00
G3 X148.7769 Y20.7384 Z0.0000 I-0.3572 J0.9813 F1800.00
G1 X148.7769 Y20.7384 Z-0.5000 F1800.00
G3 X147.6813 Y20.9813 Z-0.5000 I-0.7384 J-0.7384 F1800.00
G3 X147.0572 Y19.6428 Z-0.5000 I0.3572 J-0.9813 F1800.00
G3 X148.3956 Y19.0187 Z-0.5000 I0.9813 J0.3572 F1800.00
G3 X148.7769 Y20.7384 Z-0.5000 I-0.3572 J0.9813 F1800.00
G0 Z23.0000
(finish operation: DrillHoles_Op001)
(begin operation: CutProfile_Op001)
(Path: CutProfile_Op001)
G0 Z23.0000
G0 X126.0245 Y131.1293 Z23.0000
G0 X126.0245 Y131.1293 Z21.0000
G1 X126.0245 Y131.1293 Z17.5000 F1800.00
G1 X101.2990 Y173.9551 Z17.5000 F1800.00
G3 X99.2500 Y174.5041 Z17.5000 I-1.2990 J-0.7500 F1800.00
G1 X38.6282 Y139.5041 Z17.5000 F1800.00
G3 X38.0792 Y137.4551 Z17.5000 I0.7500 J-1.2990 F1800.00
G1 X77.4459 Y69.2700 Z17.5000 F1800.00
G2 X61.4128 Y41.5000 Z17.5000 I-16.0112 J-9.2693 F1800.00
G1 X34.5948 Y41.4993 Z17.5000 F1800.00
G3 X16.0215 Y30.7500 Z17.5000 I0.0469 J-21.5019 F1800.00
G1 X-1.2990 Y0.7500 Z17.5000 F1800.00
G3 X0.0000 Y-1.5000 Z17.5000 I1.2990 J-0.7500 F1800.00
G1 X200.0000 Y-1.5000 Z17.5000 F1800.00
G3 X201.2990 Y0.7500 Z17.5000 I-0.0000 J1.5000 F1800.00
G1 X126.0245 Y131.1293 Z17.5000 F1800.00
G1 X126.0245 Y131.1293 Z17.0000 F1800.00
G1 X101.2990 Y173.9551 Z17.0000 F1800.00
G3 X99.2500 Y174.5041 Z17.0000 I-1.2990 J-0.7500 F1800.00
G1 X38.6282 Y139.5041 Z17.0000 F1800.00
G3 X38.0792 Y137.4551 Z17.0000 I0.7500 J-1.2990 F1800.00
G1 X77.4459 Y69.2700 Z17.0000 F1800.00
G2 X61.4128 Y41.5000 Z17.0000 I-16.0112 J-9.2693 F1800.00
G1 X34.5948 Y41.4993 Z17.0000 F1800.00
G3 X16.0215 Y30.7500 Z17.0000 I0.0469 J-21.5019 F1800.00
G1 X-1.2990 Y0.7500 Z17.0000 F1800.00
G3 X0.0000 Y-1.5000 Z17.0000 I1.2990 J-0.7500 F1800.00
G1 X200.0000 Y-1.5000 Z17.0000 F1800.00
G3 X201.2990 Y0.7500 Z17.0000 I-0.0000 J1.5000 F1800.00
G1 X126.0245 Y131.1293 Z17.0000 F1800.00
G1 X126.0245 Y131.1293 Z16.5000 F1800.00
G1 X101.2990 Y173.9551 Z16.5000 F1800.00
G3 X99.2500 Y174.5041 Z16.5000 I-1.2990 J-0.7500 F1800.00
G1 X38.6282 Y139.5041 Z16.5000 F1800.00
G3 X38.0792 Y137.4551 Z16.5000 I0.7500 J-1.2990 F1800.00
G1 X77.4459 Y69.2700 Z16.5000 F1800.00
G2 X61.4128 Y41.5000 Z16.5000 I-16.0112 J-9.2693 F1800.00
G1 X34.5948 Y41.4993 Z16.5000 F1800.00
G3 X16.0215 Y30.7500 Z16.5000 I0.0469 J-21.5019 F1800.00
G1 X-1.2990 Y0.7500 Z16.5000 F1800.00
G3 X0.0000 Y-1.5000 Z16.5000 I1.2990 J-0.7500 F1800.00
G1 X200.0000 Y-1.5000 Z16.5000 F1800.00
G3 X201.2990 Y0.7500 Z16.5000 I-0.0000 J1.5000 F1800.00
G1 X126.0245 Y131.1293 Z16.5000 F1800.00
G1 X126.0245 Y131.1293 Z16.0000 F1800.00
G1 X101.2990 Y173.9551 Z16.0000 F1800.00
G3 X99.2500 Y174.5041 Z16.0000 I-1.2990 J-0.7500 F1800.00
G1 X38.6282 Y139.5041 Z16.0000 F1800.00
G3 X38.0792 Y137.4551 Z16.0000 I0.7500 J-1.2990 F1800.00
G1 X77.4459 Y69.2700 Z16.0000 F1800.00
G2 X61.4128 Y41.5000 Z16.0000 I-16.0112 J-9.2693 F1800.00
G1 X34.5948 Y41.4993 Z16.0000 F1800.00
G3 X16.0215 Y30.7500 Z16.0000 I0.0469 J-21.5019 F1800.00
G1 X-1.2990 Y0.7500 Z16.0000 F1800.00
G3 X0.0000 Y-1.5000 Z16.0000 I1.2990 J-0.7500 F1800.00
G1 X200.0000 Y-1.5000 Z16.0000 F1800.00
G3 X201.2990 Y0.7500 Z16.0000 I-0.0000 J1.5000 F1800.00
G1 X126.0245 Y131.1293 Z16.0000 F1800.00
G1 X126.0245 Y131.1293 Z15.5000 F1800.00
G1 X101.2990 Y173.9551 Z15.5000 F1800.00
G3 X99.2500 Y174.5041 Z15.5000 I-1.2990 J-0.7500 F1800.00
G1 X38.6282 Y139.5041 Z15.5000 F1800.00
G3 X38.0792 Y137.4551 Z15.5000 I0.7500 J-1.2990 F1800.00
G1 X77.4459 Y69.2700 Z15.5000 F1800.00
G2 X61.4128 Y41.5000 Z15.5000 I-16.0112 J-9.2693 F1800.00
G1 X34.5948 Y41.4993 Z15.5000 F1800.00
G3 X16.0215 Y30.7500 Z15.5000 I0.0469 J-21.5019 F1800.00
G1 X-1.2990 Y0.7500 Z15.5000 F1800.00
G3 X0.0000 Y-1.5000 Z15.5000 I1.2990 J-0.7500 F1800.00
G1 X200.0000 Y-1.5000 Z15.5000 F1800.00
G3 X201.2990 Y0.7500 Z15.5000 I-0.0000 J1.5000 F1800.00
G1 X126.0245 Y131.1293 Z15.5000 F1800.00
G1 X126.0245 Y131.1293 Z15.0000 F1800.00
G1 X101.2990 Y173.9551 Z15.0000 F1800.00
G3 X99.2500 Y174.5041 Z15.0000 I-1.2990 J-0.7500 F1800.00
G1 X38.6282 Y139.5041 Z15.0000 F1800.00
G3 X38.0792 Y137.4551 Z15.0000 I0.7500 J-1.2990 F1800.00
G1 X77.4459 Y69.2700 Z15.0000 F1800.00
G2 X61.4128 Y41.5000 Z15.0000 I-16.0112 J-9.2693 F1800.00
G1 X34.5948 Y41.4993 Z15.0000 F1800.00
G3 X16.0215 Y30.7500 Z15.0000 I0.0469 J-21.5019 F1800.00
G1 X-1.2990 Y0.7500 Z15.0000 F1800.00
G3 X0.0000 Y-1.5000 Z15.0000 I1.2990 J-0.7500 F1800.00
G1 X200.0000 Y-1.5000 Z15.0000 F1800.00
G3 X201.2990 Y0.7500 Z15.0000 I-0.0000 J1.5000 F1800.00
G1 X126.0245 Y131.1293 Z15.0000 F1800.00
G1 X126.0245 Y131.1293 Z14.5000 F1800.00
G1 X101.2990 Y173.9551 Z14.5000 F1800.00
G3 X99.2500 Y174.5041 Z14.5000 I-1.2990 J-0.7500 F1800.00
G1 X38.6282 Y139.5041 Z14.5000 F1800.00
G3 X38.0792 Y137.4551 Z14.5000 I0.7500 J-1.2990 F1800.00
G1 X77.4459 Y69.2700 Z14.5000 F1800.00
G2 X61.4128 Y41.5000 Z14.5000 I-16.0112 J-9.2693 F1800.00
G1 X34.5948 Y41.4993 Z14.5000 F1800.00
G3 X16.0215 Y30.7500 Z14.5000 I0.0469 J-21.5019 F1800.00
G1 X-1.2990 Y0.7500 Z14.5000 F1800.00
G3 X0.0000 Y-1.5000 Z14.5000 I1.2990 J-0.7500 F1800.00
G1 X200.0000 Y-1.5000 Z14.5000 F1800.00
G3 X201.2990 Y0.7500 Z14.5000 I-0.0000 J1.5000 F1800.00
G1 X126.0245 Y131.1293 Z14.5000 F1800.00
G1 X126.0245 Y131.1293 Z14.0000 F1800.00
G1 X101.2990 Y173.9551 Z14.0000 F1800.00
G3 X99.2500 Y174.5041 Z14.0000 I-1.2990 J-0.7500 F1800.00
G1 X38.6282 Y139.5041 Z14.0000 F1800.00
G3 X38.0792 Y137.4551 Z14.0000 I0.7500 J-1.2990 F1800.00
G1 X77.4459 Y69.2700 Z14.0000 F1800.00
G2 X61.4128 Y41.5000 Z14.0000 I-16.0112 J-9.2693 F1800.00
G1 X34.5948 Y41.4993 Z14.0000 F1800.00
G3 X16.0215 Y30.7500 Z14.0000 I0.0469 J-21.5019 F1800.00
G1 X-1.2990 Y0.7500 Z14.0000 F1800.00
G3 X0.0000 Y-1.5000 Z14.0000 I1.2990 J-0.7500 F1800.00
G1 X200.0000 Y-1.5000 Z14.0000 F1800.00
G3 X201.2990 Y0.7500 Z14.0000 I-0.0000 J1.5000 F1800.00
G1 X126.0245 Y131.1293 Z14.0000 F1800.00
G1 X126.0245 Y131.1293 Z13.5000 F1800.00
G1 X101.2990 Y173.9551 Z13.5000 F1800.00
G3 X99.2500 Y174.5041 Z13.5000 I-1.2990 J-0.7500 F1800.00
G1 X38.6282 Y139.5041 Z13.5000 F1800.00
G3 X38.0792 Y137.4551 Z13.5000 I0.7500 J-1.2990 F1800.00
G1 X77.4459 Y69.2700 Z13.5000 F1800.00
G2 X61.4128 Y41.5000 Z13.5000 I-16.0112 J-9.2693 F1800.00
G1 X34.5948 Y41.4993 Z13.5000 F1800.00
G3 X16.0215 Y30.7500 Z13.5000 I0.0469 J-21.5019 F1800.00
G1 X-1.2990 Y0.7500 Z13.5000 F1800.00
G3 X0.0000 Y-1.5000 Z13.5000 I1.2990 J-0.7500 F1800.00
G1 X200.0000 Y-1.5000 Z13.5000 F1800.00
G3 X201.2990 Y0.7500 Z13.5000 I-0.0000 J1.5000 F1800.00
G1 X126.0245 Y131.1293 Z13.5000 F1800.00
G1 X126.0245 Y131.1293 Z13.0000 F1800.00
G1 X101.2990 Y173.9551 Z13.0000 F1800.00
G3 X99.2500 Y174.5041 Z13.0000 I-1.2990 J-0.7500 F1800.00
G1 X38.6282 Y139.5041 Z13.0000 F1800.00
G3 X38.0792 Y137.4551 Z13.0000 I0.7500 J-1.2990 F1800.00
G1 X77.4459 Y69.2700 Z13.0000 F1800.00
G2 X61.4128 Y41.5000 Z13.0000 I-16.0112 J-9.2693 F1800.00
G1 X34.5948 Y41.4993 Z13.0000 F1800.00
G3 X16.0215 Y30.7500 Z13.0000 I0.0469 J-21.5019 F1800.00
G1 X-1.2990 Y0.7500 Z13.0000 F1800.00
G3 X0.0000 Y-1.5000 Z13.0000 I1.2990 J-0.7500 F1800.00
G1 X200.0000 Y-1.5000 Z13.0000 F1800.00
G3 X201.2990 Y0.7500 Z13.0000 I-0.0000 J1.5000 F1800.00
G1 X126.0245 Y131.1293 Z13.0000 F1800.00
G1 X126.0245 Y131.1293 Z12.5000 F1800.00
G1 X101.2990 Y173.9551 Z12.5000 F1800.00
G3 X99.2500 Y174.5041 Z12.5000 I-1.2990 J-0.7500 F1800.00
G1 X38.6282 Y139.5041 Z12.5000 F1800.00
G3 X38.0792 Y137.4551 Z12.5000 I0.7500 J-1.2990 F1800.00
G1 X77.4459 Y69.2700 Z12.5000 F1800.00
G2 X61.4128 Y41.5000 Z12.5000 I-16.0112 J-9.2693 F1800.00
G1 X34.5948 Y41.4993 Z12.5000 F1800.00
G3 X16.0215 Y30.7500 Z12.5000 I0.0469 J-21.5019 F1800.00
G1 X-1.2990 Y0.7500 Z12.5000 F1800.00
G3 X0.0000 Y-1.5000 Z12.5000 I1.2990 J-0.7500 F1800.00
G1 X200.0000 Y-1.5000 Z12.5000 F1800.00
G3 X201.2990 Y0.7500 Z12.5000 I-0.0000 J1.5000 F1800.00
G1 X126.0245 Y131.1293 Z12.5000 F1800.00
G1 X126.0245 Y131.1293 Z12.0000 F1800.00
G1 X101.2990 Y173.9551 Z12.0000 F1800.00
G3 X99.2500 Y174.5041 Z12.0000 I-1.2990 J-0.7500 F1800.00
G1 X38.6282 Y139.5041 Z12.0000 F1800.00
G3 X38.0792 Y137.4551 Z12.0000 I0.7500 J-1.2990 F1800.00
G1 X77.4459 Y69.2700 Z12.0000 F1800.00
G2 X61.4128 Y41.5000 Z12.0000 I-16.0112 J-9.2693 F1800.00
G1 X34.5948 Y41.4993 Z12.0000 F1800.00
G3 X16.0215 Y30.7500 Z12.0000 I0.0469 J-21.5019 F1800.00
G1 X-1.2990 Y0.7500 Z12.0000 F1800.00
G3 X0.0000 Y-1.5000 Z12.0000 I1.2990 J-0.7500 F1800.00
G1 X200.0000 Y-1.5000 Z12.0000 F1800.00
G3 X201.2990 Y0.7500 Z12.0000 I-0.0000 J1.5000 F1800.00
G1 X126.0245 Y131.1293 Z12.0000 F1800.00
G1 X126.0245 Y131.1293 Z11.5000 F1800.00
G1 X101.2990 Y173.9551 Z11.5000 F1800.00
G3 X99.2500 Y174.5041 Z11.5000 I-1.2990 J-0.7500 F1800.00
G1 X38.6282 Y139.5041 Z11.5000 F1800.00
G3 X38.0792 Y137.4551 Z11.5000 I0.7500 J-1.2990 F1800.00
G1 X77.4459 Y69.2700 Z11.5000 F1800.00
G2 X61.4128 Y41.5000 Z11.5000 I-16.0112 J-9.2693 F1800.00
G1 X34.5948 Y41.4993 Z11.5000 F1800.00
G3 X16.0215 Y30.7500 Z11.5000 I0.0469 J-21.5019 F1800.00
G1 X-1.2990 Y0.7500 Z11.5000 F1800.00
G3 X0.0000 Y-1.5000 Z11.5000 I1.2990 J-0.7500 F1800.00
G1 X200.0000 Y-1.5000 Z11.5000 F1800.00
G3 X201.2990 Y0.7500 Z11.5000 I-0.0000 J1.5000 F1800.00
G1 X126.0245 Y131.1293 Z11.5000 F1800.00
G1 X126.0245 Y131.1293 Z11.0000 F1800.00
G1 X101.2990 Y173.9551 Z11.0000 F1800.00
G3 X99.2500 Y174.5041 Z11.0000 I-1.2990 J-0.7500 F1800.00
G1 X38.6282 Y139.5041 Z11.0000 F1800.00
G3 X38.0792 Y137.4551 Z11.0000 I0.7500 J-1.2990 F1800.00
G1 X77.4459 Y69.2700 Z11.0000 F1800.00
G2 X61.4128 Y41.5000 Z11.0000 I-16.0112 J-9.2693 F1800.00
G1 X34.5948 Y41.4993 Z11.0000 F1800.00
G3 X16.0215 Y30.7500 Z11.0000 I0.0469 J-21.5019 F1800.00
G1 X-1.2990 Y0.7500 Z11.0000 F1800.00
G3 X0.0000 Y-1.5000 Z11.0000 I1.2990 J-0.7500 F1800.00
G1 X200.0000 Y-1.5000 Z11.0000 F1800.00
G3 X201.2990 Y0.7500 Z11.0000 I-0.0000 J1.5000 F1800.00
G1 X126.0245 Y131.1293 Z11.0000 F1800.00
G1 X126.0245 Y131.1293 Z10.5000 F1800.00
G1 X101.2990 Y173.9551 Z10.5000 F1800.00
G3 X99.2500 Y174.5041 Z10.5000 I-1.2990 J-0.7500 F1800.00
G1 X38.6282 Y139.5041 Z10.5000 F1800.00
G3 X38.0792 Y137.4551 Z10.5000 I0.7500 J-1.2990 F1800.00
G1 X77.4459 Y69.2700 Z10.5000 F1800.00
G2 X61.4128 Y41.5000 Z10.5000 I-16.0112 J-9.2693 F1800.00
G1 X34.5948 Y41.4993 Z10.5000 F1800.00
G3 X16.0215 Y30.7500 Z10.5000 I0.0469 J-21.5019 F1800.00
G1 X-1.2990 Y0.7500 Z10.5000 F1800.00
G3 X0.0000 Y-1.5000 Z10.5000 I1.2990 J-0.7500 F1800.00
G1 X200.0000 Y-1.5000 Z10.5000 F1800.00
G3 X201.2990 Y0.7500 Z10.5000 I-0.0000 J1.5000 F1800.00
G1 X126.0245 Y131.1293 Z10.5000 F1800.00
