(Exported by FreeCAD)
(Post Processor: grbl_post)
(Output Time:2020-07-19 01:02:52.511732)
(Begin preamble)
G17 G90
G21
(Begin operation: Fixture)
(Path: Fixture)
G54
(Finish operation: Fixture)
(Begin operation: T6: 2FluteWoodMill001)
(Path: T6: 2FluteWoodMill001)
(T6: 2FluteWoodMill001)
(Begin toolchange)
(M6 T6.0)
M3 S14000.0
G4 P5
(Finish operation: T6: 2FluteWoodMill001)
(Begin operation: Handle_Holes_With_Tags)
(Path: Handle_Holes_With_Tags)
G0 Z17.800
G0 X-130.588 Y25.413 Z17.800
G0 X-130.588 Y25.413 Z15.800
G1 X-130.588 Y25.413 Z12.271 F999.600
G1 X-130.588 Y10.588 Z12.271 F1999.800
G1 X-130.123 Y10.123 Z12.271 F1999.800
G1 X-130.588 Y10.588 Z12.271 F1999.800
G1 X-140.412 Y10.588 Z12.271 F1999.800
G1 X-140.877 Y10.123 Z12.271 F1999.800
G1 X-140.412 Y10.588 Z12.271 F1999.800
G1 X-140.412 Y25.413 Z12.271 F1999.800
G1 X-140.877 Y25.877 Z12.271 F1999.800
G1 X-140.412 Y25.413 Z12.271 F1999.800
G1 X-130.588 Y25.413 Z12.271 F1999.800
G1 X-130.123 Y25.877 Z12.271 F1999.800
G1 X-130.588 Y25.413 Z12.271 F1999.800
G1 X-130.588 Y25.413 Z11.742 F999.600
G1 X-130.588 Y10.588 Z11.742 F1999.800
G1 X-130.123 Y10.123 Z11.742 F1999.800
G1 X-130.588 Y10.588 Z11.742 F1999.800
G1 X-140.412 Y10.588 Z11.742 F1999.800
G1 X-140.877 Y10.123 Z11.742 F1999.800
G1 X-140.412 Y10.588 Z11.742 F1999.800
G1 X-140.412 Y25.413 Z11.742 F1999.800
G1 X-140.877 Y25.877 Z11.742 F1999.800
G1 X-140.412 Y25.413 Z11.742 F1999.800
G1 X-130.588 Y25.413 Z11.742 F1999.800
G1 X-130.123 Y25.877 Z11.742 F1999.800
G1 X-130.588 Y25.413 Z11.742 F1999.800
G1 X-130.588 Y25.413 Z11.213 F999.600
G1 X-130.588 Y10.588 Z11.213 F1999.800
G1 X-130.123 Y10.123 Z11.213 F1999.800
G1 X-130.588 Y10.588 Z11.213 F1999.800
G1 X-140.412 Y10.588 Z11.213 F1999.800
G1 X-140.877 Y10.123 Z11.213 F1999.800
G1 X-140.412 Y10.588 Z11.213 F1999.800
G1 X-140.412 Y25.413 Z11.213 F1999.800
G1 X-140.877 Y25.877 Z11.213 F1999.800
G1 X-140.412 Y25.413 Z11.213 F1999.800
G1 X-130.588 Y25.413 Z11.213 F1999.800
G1 X-130.123 Y25.877 Z11.213 F1999.800
G1 X-130.588 Y25.413 Z11.213 F1999.800
G1 X-130.588 Y25.413 Z10.683 F999.600
G1 X-130.588 Y10.588 Z10.683 F1999.800
G1 X-130.123 Y10.123 Z10.683 F1999.800
G1 X-130.588 Y10.588 Z10.683 F1999.800
G1 X-140.412 Y10.588 Z10.683 F1999.800
G1 X-140.877 Y10.123 Z10.683 F1999.800
G1 X-140.412 Y10.588 Z10.683 F1999.800
G1 X-140.412 Y25.413 Z10.683 F1999.800
G1 X-140.877 Y25.877 Z10.683 F1999.800
G1 X-140.412 Y25.413 Z10.683 F1999.800
G1 X-130.588 Y25.413 Z10.683 F1999.800
G1 X-130.123 Y25.877 Z10.683 F1999.800
G1 X-130.588 Y25.413 Z10.683 F1999.800
G1 X-130.588 Y25.413 Z10.154 F999.600
G1 X-130.588 Y10.588 Z10.154 F1999.800
G1 X-130.123 Y10.123 Z10.154 F1999.800
G1 X-130.588 Y10.588 Z10.154 F1999.800
G1 X-140.412 Y10.588 Z10.154 F1999.800
G1 X-140.877 Y10.123 Z10.154 F1999.800
G1 X-140.412 Y10.588 Z10.154 F1999.800
G1 X-140.412 Y25.413 Z10.154 F1999.800
G1 X-140.877 Y25.877 Z10.154 F1999.800
G1 X-140.412 Y25.413 Z10.154 F1999.800
G1 X-130.588 Y25.413 Z10.154 F1999.800
G1 X-130.123 Y25.877 Z10.154 F1999.800
G1 X-130.588 Y25.413 Z10.154 F1999.800
G1 X-130.588 Y25.413 Z9.625 F999.600
G1 X-130.588 Y10.588 Z9.625 F1999.800
G1 X-130.123 Y10.123 Z9.625 F1999.800
G1 X-130.588 Y10.588 Z9.625 F1999.800
G1 X-140.412 Y10.588 Z9.625 F1999.800
G1 X-140.877 Y10.123 Z9.625 F1999.800
G1 X-140.412 Y10.588 Z9.625 F1999.800
G1 X-140.412 Y25.413 Z9.625 F1999.800
G1 X-140.877 Y25.877 Z9.625 F1999.800
G1 X-140.412 Y25.413 Z9.625 F1999.800
G1 X-130.588 Y25.413 Z9.625 F1999.800
G1 X-130.123 Y25.877 Z9.625 F1999.800
G1 X-130.588 Y25.413 Z9.625 F1999.800
G1 X-130.588 Y25.413 Z9.096 F999.600
G1 X-130.588 Y10.588 Z9.096 F1999.800
G1 X-130.123 Y10.123 Z9.096 F1999.800
G1 X-130.588 Y10.588 Z9.096 F1999.800
G1 X-140.412 Y10.588 Z9.096 F1999.800
G1 X-140.877 Y10.123 Z9.096 F1999.800
G1 X-140.412 Y10.588 Z9.096 F1999.800
G1 X-140.412 Y25.413 Z9.096 F1999.800
G1 X-140.877 Y25.877 Z9.096 F1999.800
G1 X-140.412 Y25.413 Z9.096 F1999.800
G1 X-130.588 Y25.413 Z9.096 F1999.800
G1 X-130.123 Y25.877 Z9.096 F1999.800
G1 X-130.588 Y25.413 Z9.096 F1999.800
G1 X-130.588 Y25.413 Z8.567 F999.600
G1 X-130.588 Y10.588 Z8.567 F1999.800
G1 X-130.123 Y10.123 Z8.567 F1999.800
G1 X-130.588 Y10.588 Z8.567 F1999.800
G1 X-140.412 Y10.588 Z8.567 F1999.800
G1 X-140.877 Y10.123 Z8.567 F1999.800
G1 X-140.412 Y10.588 Z8.567 F1999.800
G1 X-140.412 Y25.413 Z8.567 F1999.800
G1 X-140.877 Y25.877 Z8.567 F1999.800
G1 X-140.412 Y25.413 Z8.567 F1999.800
G1 X-130.588 Y25.413 Z8.567 F1999.800
G1 X-130.123 Y25.877 Z8.567 F1999.800
G1 X-130.588 Y25.413 Z8.567 F1999.800
G1 X-130.588 Y25.413 Z8.037 F999.600
G1 X-130.588 Y10.588 Z8.037 F1999.800
G1 X-130.123 Y10.123 Z8.037 F1999.800
G1 X-130.588 Y10.588 Z8.037 F1999.800
G1 X-140.412 Y10.588 Z8.037 F1999.800
G1 X-140.877 Y10.123 Z8.037 F1999.800
G1 X-140.412 Y10.588 Z8.037 F1999.800
G1 X-140.412 Y25.413 Z8.037 F1999.800
G1 X-140.877 Y25.877 Z8.037 F1999.800
G1 X-140.412 Y25.413 Z8.037 F1999.800
G1 X-130.588 Y25.413 Z8.037 F1999.800
G1 X-130.123 Y25.877 Z8.037 F1999.800
G1 X-130.588 Y25.413 Z8.037 F1999.800
G1 X-130.588 Y25.413 Z7.508 F999.600
G1 X-130.588 Y10.588 Z7.508 F1999.800
G1 X-130.123 Y10.123 Z7.508 F1999.800
G1 X-130.588 Y10.588 Z7.508 F1999.800
G1 X-140.412 Y10.588 Z7.508 F1999.800
G1 X-140.877 Y10.123 Z7.508 F1999.800
G1 X-140.412 Y10.588 Z7.508 F1999.800
G1 X-140.412 Y25.413 Z7.508 F1999.800
G1 X-140.877 Y25.877 Z7.508 F1999.800
G1 X-140.412 Y25.413 Z7.508 F1999.800
G1 X-130.588 Y25.413 Z7.508 F1999.800
G1 X-130.123 Y25.877 Z7.508 F1999.800
G1 X-130.588 Y25.413 Z7.508 F1999.800
G1 X-130.588 Y25.413 Z6.979 F999.600
G1 X-130.588 Y10.588 Z6.979 F1999.800
G1 X-130.123 Y10.123 Z6.979 F1999.800
G1 X-130.588 Y10.588 Z6.979 F1999.800
G1 X-140.412 Y10.588 Z6.979 F1999.800
G1 X-140.877 Y10.123 Z6.979 F1999.800
G1 X-140.412 Y10.588 Z6.979 F1999.800
G1 X-140.412 Y25.413 Z6.979 F1999.800
G1 X-140.877 Y25.877 Z6.979 F1999.800
G1 X-140.412 Y25.413 Z6.979 F1999.800
G1 X-130.588 Y25.413 Z6.979 F1999.800
G1 X-130.123 Y25.877 Z6.979 F1999.800
G1 X-130.588 Y25.413 Z6.979 F1999.800
G1 X-130.588 Y25.413 Z6.450 F999.600
G1 X-130.588 Y10.588 Z6.450 F1999.800
G1 X-130.123 Y10.123 Z6.450 F1999.800
G1 X-130.588 Y10.588 Z6.450 F1999.800
G1 X-140.412 Y10.588 Z6.450 F1999.800
G1 X-140.877 Y10.123 Z6.450 F1999.800
G1 X-140.412 Y10.588 Z6.450 F1999.800
G1 X-140.412 Y25.413 Z6.450 F1999.800
G1 X-140.877 Y25.877 Z6.450 F1999.800
G1 X-140.412 Y25.413 Z6.450 F1999.800
G1 X-130.588 Y25.413 Z6.450 F1999.800
G1 X-130.123 Y25.877 Z6.450 F1999.800
G1 X-130.588 Y25.413 Z6.450 F1999.800
G1 X-130.588 Y25.413 Z5.921 F999.600
G1 X-130.588 Y10.588 Z5.921 F1999.800
G1 X-130.123 Y10.123 Z5.921 F1999.800
G1 X-130.588 Y10.588 Z5.921 F1999.800
G1 X-140.412 Y10.588 Z5.921 F1999.800
G1 X-140.877 Y10.123 Z5.921 F1999.800
G1 X-140.412 Y10.588 Z5.921 F1999.800
G1 X-140.412 Y25.413 Z5.921 F1999.800
G1 X-140.877 Y25.877 Z5.921 F1999.800
G1 X-140.412 Y25.413 Z5.921 F1999.800
G1 X-130.588 Y25.413 Z5.921 F1999.800
G1 X-130.123 Y25.877 Z5.921 F1999.800
G1 X-130.588 Y25.413 Z5.921 F1999.800
G1 X-130.588 Y25.413 Z5.392 F999.600
G1 X-130.588 Y10.588 Z5.392 F1999.800
G1 X-130.123 Y10.123 Z5.392 F1999.800
G1 X-130.588 Y10.588 Z5.392 F1999.800
G1 X-140.412 Y10.588 Z5.392 F1999.800
G1 X-140.877 Y10.123 Z5.392 F1999.800
G1 X-140.412 Y10.588 Z5.392 F1999.800
G1 X-140.412 Y25.413 Z5.392 F1999.800
G1 X-140.877 Y25.877 Z5.392 F1999.800
G1 X-140.412 Y25.413 Z5.392 F1999.800
G1 X-130.588 Y25.413 Z5.392 F1999.800
G1 X-130.123 Y25.877 Z5.392 F1999.800
G1 X-130.588 Y25.413 Z5.392 F1999.800
G1 X-130.588 Y25.413 Z4.862 F999.600
G1 X-130.588 Y10.588 Z4.862 F1999.800
G1 X-130.123 Y10.123 Z4.862 F1999.800
G1 X-130.588 Y10.588 Z4.862 F1999.800
G1 X-140.412 Y10.588 Z4.862 F1999.800
G1 X-140.877 Y10.123 Z4.862 F1999.800
G1 X-140.412 Y10.588 Z4.862 F1999.800
G1 X-140.412 Y25.413 Z4.862 F1999.800
G1 X-140.877 Y25.877 Z4.862 F1999.800
G1 X-140.412 Y25.413 Z4.862 F1999.800
G1 X-130.588 Y25.413 Z4.862 F1999.800
G1 X-130.123 Y25.877 Z4.862 F1999.800
G1 X-130.588 Y25.413 Z4.862 F1999.800
G1 X-130.588 Y25.413 Z4.333 F999.600
G1 X-130.588 Y10.588 Z4.333 F1999.800
G1 X-130.123 Y10.123 Z4.333 F1999.800
G1 X-130.588 Y10.588 Z4.333 F1999.800
G1 X-140.412 Y10.588 Z4.333 F1999.800
G1 X-140.877 Y10.123 Z4.333 F1999.800
G1 X-140.412 Y10.588 Z4.333 F1999.800
G1 X-140.412 Y25.413 Z4.333 F1999.800
G1 X-140.877 Y25.877 Z4.333 F1999.800
G1 X-140.412 Y25.413 Z4.333 F1999.800
G1 X-130.588 Y25.413 Z4.333 F1999.800
G1 X-130.123 Y25.877 Z4.333 F1999.800
G1 X-130.588 Y25.413 Z4.333 F1999.800
G1 X-130.588 Y25.413 Z3.804 F999.600
G1 X-130.588 Y10.588 Z3.804 F1999.800
G1 X-130.123 Y10.123 Z3.804 F1999.800
G1 X-130.588 Y10.588 Z3.804 F1999.800
G1 X-140.412 Y10.588 Z3.804 F1999.800
G1 X-140.877 Y10.123 Z3.804 F1999.800
G1 X-140.412 Y10.588 Z3.804 F1999.800
G1 X-140.412 Y25.413 Z3.804 F1999.800
G1 X-140.877 Y25.877 Z3.804 F1999.800
G1 X-140.412 Y25.413 Z3.804 F1999.800
G1 X-130.588 Y25.413 Z3.804 F1999.800
G1 X-130.123 Y25.877 Z3.804 F1999.800
G1 X-130.588 Y25.413 Z3.804 F1999.800
G1 X-130.588 Y25.413 Z3.275 F999.600
G1 X-130.588 Y10.588 Z3.275 F1999.800
G1 X-130.123 Y10.123 Z3.275 F1999.800
G1 X-130.588 Y10.588 Z3.275 F1999.800
G1 X-140.412 Y10.588 Z3.275 F1999.800
G1 X-140.877 Y10.123 Z3.275 F1999.800
G1 X-140.412 Y10.588 Z3.275 F1999.800
G1 X-140.412 Y25.413 Z3.275 F1999.800
G1 X-140.877 Y25.877 Z3.275 F1999.800
G1 X-140.412 Y25.413 Z3.275 F1999.800
G1 X-130.588 Y25.413 Z3.275 F1999.800
G1 X-130.123 Y25.877 Z3.275 F1999.800
G1 X-130.588 Y25.413 Z3.275 F1999.800
G1 X-130.588 Y25.413 Z2.746 F999.600
G1 X-130.588 Y18.559 Z2.746 F1999.800
G1 X-130.588 Y18.528 Z2.800 F1333.000
G1 X-130.588 Y14.852 Z2.800 F1999.800
G1 X-130.588 Y14.821 Z2.746 F1333.000
G1 X-130.588 Y10.588 Z2.746 F1999.800
G1 X-130.123 Y10.123 Z2.746 F1999.800
G1 X-130.588 Y10.588 Z2.746 F1999.800
G1 X-132.821 Y10.588 Z2.746 F1999.800
G1 X-132.852 Y10.588 Z2.800 F1333.000
G1 X-136.528 Y10.588 Z2.800 F1999.800
G1 X-136.559 Y10.588 Z2.746 F1333.000
G1 X-140.412 Y10.588 Z2.746 F1999.800
G1 X-140.877 Y10.123 Z2.746 F1999.800
G1 X-140.412 Y10.588 Z2.746 F1999.800
G1 X-140.412 Y16.491 Z2.746 F1999.800
G1 X-140.412 Y16.522 Z2.800 F1333.000
G1 X-140.412 Y20.198 Z2.800 F1999.800
G1 X-140.412 Y20.229 Z2.746 F1333.000
G1 X-140.412 Y25.413 Z2.746 F1999.800
G1 X-140.877 Y25.877 Z2.746 F1999.800
G1 X-140.412 Y25.413 Z2.746 F1999.800
G1 X-137.389 Y25.413 Z2.746 F1999.800
G1 X-137.358 Y25.413 Z2.800 F1333.000
G1 X-133.682 Y25.413 Z2.800 F1999.800
G1 X-133.651 Y25.413 Z2.746 F1333.000
G1 X-130.588 Y25.413 Z2.746 F1999.800
G1 X-130.123 Y25.877 Z2.746 F1999.800
G1 X-130.588 Y25.413 Z2.746 F1999.800
G1 X-130.588 Y25.413 Z2.217 F999.600
G1 X-130.588 Y18.865 Z2.217 F1999.800
G1 X-130.588 Y18.528 Z2.800 F1333.000
G1 X-130.588 Y14.852 Z2.800 F1999.800
G1 X-130.588 Y14.515 Z2.217 F1333.000
G1 X-130.588 Y10.588 Z2.217 F1999.800
G1 X-130.123 Y10.123 Z2.217 F1999.800
G1 X-130.588 Y10.588 Z2.217 F1999.800
G1 X-132.515 Y10.588 Z2.217 F1999.800
G1 X-132.852 Y10.588 Z2.800 F1333.000
G1 X-136.528 Y10.588 Z2.800 F1999.800
G1 X-136.865 Y10.588 Z2.217 F1333.000
G1 X-140.412 Y10.588 Z2.217 F1999.800
G1 X-140.877 Y10.123 Z2.217 F1999.800
G1 X-140.412 Y10.588 Z2.217 F1999.800
G1 X-140.412 Y16.185 Z2.217 F1999.800
G1 X-140.412 Y16.522 Z2.800 F1333.000
G1 X-140.412 Y20.198 Z2.800 F1999.800
G1 X-140.412 Y20.535 Z2.217 F1333.000
G1 X-140.412 Y25.413 Z2.217 F1999.800
G1 X-140.877 Y25.877 Z2.217 F1999.800
G1 X-140.412 Y25.413 Z2.217 F1999.800
G1 X-137.695 Y25.413 Z2.217 F1999.800
G1 X-137.358 Y25.413 Z2.800 F1333.000
G1 X-133.682 Y25.413 Z2.800 F1999.800
G1 X-133.345 Y25.413 Z2.217 F1333.000
G1 X-130.588 Y25.413 Z2.217 F1999.800
G1 X-130.123 Y25.877 Z2.217 F1999.800
G1 X-130.588 Y25.413 Z2.217 F1999.800
G1 X-130.588 Y25.413 Z1.688 F999.600
G1 X-130.588 Y19.170 Z1.688 F1999.800
G1 X-130.588 Y18.528 Z2.800 F1333.000
G1 X-130.588 Y14.852 Z2.800 F1999.800
G1 X-130.588 Y14.210 Z1.688 F1333.000
G1 X-130.588 Y10.588 Z1.688 F1999.800
G1 X-130.123 Y10.123 Z1.688 F1999.800
G1 X-130.588 Y10.588 Z1.688 F1999.800
G1 X-132.210 Y10.588 Z1.688 F1999.800
G1 X-132.852 Y10.588 Z2.800 F1333.000
G1 X-136.528 Y10.588 Z2.800 F1999.800
G1 X-137.170 Y10.588 Z1.688 F1333.000
G1 X-140.412 Y10.588 Z1.688 F1999.800
G1 X-140.877 Y10.123 Z1.688 F1999.800
G1 X-140.412 Y10.588 Z1.688 F1999.800
G1 X-140.412 Y15.880 Z1.688 F1999.800
G1 X-140.412 Y16.522 Z2.800 F1333.000
G1 X-140.412 Y20.198 Z2.800 F1999.800
G1 X-140.412 Y20.840 Z1.688 F1333.000
G1 X-140.412 Y25.413 Z1.688 F1999.800
G1 X-140.877 Y25.877 Z1.688 F1999.800
G1 X-140.412 Y25.413 Z1.688 F1999.800
G1 X-138.000 Y25.413 Z1.688 F1999.800
G1 X-137.358 Y25.413 Z2.800 F1333.000
G1 X-133.682 Y25.413 Z2.800 F1999.800
G1 X-133.040 Y25.413 Z1.688 F1333.000
G1 X-130.588 Y25.413 Z1.688 F1999.800
G1 X-130.123 Y25.877 Z1.688 F1999.800
G1 X-130.588 Y25.413 Z1.688 F1999.800
G1 X-130.588 Y25.413 Z1.158 F999.600
G1 X-130.588 Y19.476 Z1.158 F1999.800
G1 X-130.588 Y18.528 Z2.800 F1333.000
G1 X-130.588 Y14.852 Z2.800 F1999.800
G1 X-130.588 Y13.904 Z1.158 F1333.000
G1 X-130.588 Y10.588 Z1.158 F1999.800
G1 X-130.123 Y10.123 Z1.158 F1999.800
G1 X-130.588 Y10.588 Z1.158 F1999.800
G1 X-131.904 Y10.588 Z1.158 F1999.800
G1 X-132.852 Y10.588 Z2.800 F1333.000
G1 X-136.528 Y10.588 Z2.800 F1999.800
G1 X-137.476 Y10.588 Z1.158 F1333.000
G1 X-140.412 Y10.588 Z1.158 F1999.800
G1 X-140.877 Y10.123 Z1.158 F1999.800
G1 X-140.412 Y10.588 Z1.158 F1999.800
G1 X-140.412 Y15.574 Z1.158 F1999.800
G1 X-140.412 Y16.522 Z2.800 F1333.000
G1 X-140.412 Y20.198 Z2.800 F1999.800
G1 X-140.412 Y21.146 Z1.158 F1333.000
G1 X-140.412 Y25.413 Z1.158 F1999.800
G1 X-140.877 Y25.877 Z1.158 F1999.800
G1 X-140.412 Y25.413 Z1.158 F1999.800
G1 X-138.306 Y25.413 Z1.158 F1999.800
G1 X-137.358 Y25.413 Z2.800 F1333.000
G1 X-133.682 Y25.413 Z2.800 F1999.800
G1 X-132.734 Y25.413 Z1.158 F1333.000
G1 X-130.588 Y25.413 Z1.158 F1999.800
G1 X-130.123 Y25.877 Z1.158 F1999.800
G1 X-130.588 Y25.413 Z1.158 F1999.800
G1 X-130.588 Y25.413 Z0.629 F999.600
G1 X-130.588 Y19.781 Z0.629 F1999.800
G1 X-130.588 Y18.528 Z2.800 F1333.000
G1 X-130.588 Y14.852 Z2.800 F1999.800
G1 X-130.588 Y13.599 Z0.629 F1333.000
G1 X-130.588 Y10.588 Z0.629 F1999.800
G1 X-130.123 Y10.123 Z0.629 F1999.800
G1 X-130.588 Y10.588 Z0.629 F1999.800
G1 X-131.599 Y10.588 Z0.629 F1999.800
G1 X-132.852 Y10.588 Z2.800 F1333.000
G1 X-136.528 Y10.588 Z2.800 F1999.800
G1 X-137.781 Y10.588 Z0.629 F1333.000
G1 X-140.412 Y10.588 Z0.629 F1999.800
G1 X-140.877 Y10.123 Z0.629 F1999.800
G1 X-140.412 Y10.588 Z0.629 F1999.800
G1 X-140.412 Y15.269 Z0.629 F1999.800
G1 X-140.412 Y16.522 Z2.800 F1333.000
G1 X-140.412 Y20.198 Z2.800 F1999.800
G1 X-140.412 Y21.451 Z0.629 F1333.000
G1 X-140.412 Y25.413 Z0.629 F1999.800
G1 X-140.877 Y25.877 Z0.629 F1999.800
G1 X-140.412 Y25.413 Z0.629 F1999.800
G1 X-138.611 Y25.413 Z0.629 F1999.800
G1 X-137.358 Y25.413 Z2.800 F1333.000
G1 X-133.682 Y25.413 Z2.800 F1999.800
G1 X-132.429 Y25.413 Z0.629 F1333.000
G1 X-130.588 Y25.413 Z0.629 F1999.800
G1 X-130.123 Y25.877 Z0.629 F1999.800
G1 X-130.588 Y25.413 Z0.629 F1999.800
G1 X-130.588 Y25.413 Z0.100 F999.600
G1 X-130.588 Y20.087 Z0.100 F1999.800
G1 X-130.588 Y18.528 Z2.800 F1333.000
G1 X-130.588 Y14.852 Z2.800 F1999.800
G1 X-130.588 Y13.293 Z0.100 F1333.000
G1 X-130.588 Y10.588 Z0.100 F1999.800
G1 X-130.123 Y10.123 Z0.100 F1999.800
G1 X-130.588 Y10.588 Z0.100 F1999.800
G1 X-131.293 Y10.588 Z0.100 F1999.800
G1 X-132.852 Y10.588 Z2.800 F1333.000
G1 X-136.528 Y10.588 Z2.800 F1999.800
G1 X-138.087 Y10.588 Z0.100 F1333.000
G1 X-140.412 Y10.588 Z0.100 F1999.800
G1 X-140.877 Y10.123 Z0.100 F1999.800
G1 X-140.412 Y10.588 Z0.100 F1999.800
G1 X-140.412 Y14.963 Z0.100 F1999.800
G1 X-140.412 Y16.522 Z2.800 F1333.000
G1 X-140.412 Y20.198 Z2.800 F1999.800
G1 X-140.412 Y21.757 Z0.100 F1333.000
G1 X-140.412 Y25.413 Z0.100 F1999.800
G1 X-140.877 Y25.877 Z0.100 F1999.800
G1 X-140.412 Y25.413 Z0.100 F1999.800
G1 X-138.917 Y25.413 Z0.100 F1999.800
G1 X-137.358 Y25.413 Z2.800 F1333.000
G1 X-133.682 Y25.413 Z2.800 F1999.800
G1 X-132.123 Y25.413 Z0.100 F1333.000
G1 X-130.588 Y25.413 Z0.100 F1999.800
G1 X-130.123 Y25.877 Z0.100 F1999.800
G1 X-130.588 Y25.413 Z0.100 F1999.800
G1 X-130.588 Y25.413 Z-0.200 F999.600
G1 X-130.588 Y20.260 Z-0.200 F1999.800
G1 X-130.588 Y18.528 Z2.800 F1333.000
G1 X-130.588 Y14.852 Z2.800 F1999.800
G1 X-130.588 Y13.120 Z-0.200 F1333.000
G1 X-130.588 Y10.588 Z-0.200 F1999.800
G1 X-130.123 Y10.123 Z-0.200 F1999.800
G1 X-130.588 Y10.588 Z-0.200 F1999.800
G1 X-131.120 Y10.588 Z-0.200 F1999.800
G1 X-132.852 Y10.588 Z2.800 F1333.000
G1 X-136.528 Y10.588 Z2.800 F1999.800
G1 X-138.260 Y10.588 Z-0.200 F1333.000
G1 X-140.412 Y10.588 Z-0.200 F1999.800
G1 X-140.877 Y10.123 Z-0.200 F1999.800
G1 X-140.412 Y10.588 Z-0.200 F1999.800
G1 X-140.412 Y14.790 Z-0.200 F1999.800
G1 X-140.412 Y16.522 Z2.800 F1333.000
G1 X-140.412 Y20.198 Z2.800 F1999.800
G1 X-140.412 Y21.930 Z-0.200 F1333.000
G1 X-140.412 Y25.413 Z-0.200 F1999.800
G1 X-140.877 Y25.877 Z-0.200 F1999.800
G1 X-140.412 Y25.413 Z-0.200 F1999.800
G1 X-139.090 Y25.413 Z-0.200 F1999.800
G1 X-137.358 Y25.413 Z2.800 F1333.000
G1 X-133.682 Y25.413 Z2.800 F1999.800
G1 X-131.950 Y25.413 Z-0.200 F1333.000
G1 X-130.588 Y25.413 Z-0.200 F1999.800
G1 X-130.123 Y25.877 Z-0.200 F1999.800
G1 X-130.588 Y25.413 Z-0.200 F1999.800
G0 X-130.588 Y25.413 Z17.800
G0 X-130.588 Y55.587 Z17.800
G0 X-130.588 Y55.587 Z15.800
G1 X-130.588 Y55.587 Z12.271 F999.600
G1 X-140.412 Y55.587 Z12.271 F1999.800
G1 X-140.877 Y55.123 Z12.271 F1999.800
G1 X-140.412 Y55.587 Z12.271 F1999.800
G1 X-140.412 Y70.412 Z12.271 F1999.800
G1 X-140.877 Y70.877 Z12.271 F1999.800
G1 X-140.412 Y70.412 Z12.271 F1999.800
G1 X-130.588 Y70.412 Z12.271 F1999.800
G1 X-130.123 Y70.877 Z12.271 F1999.800
G1 X-130.588 Y70.412 Z12.271 F1999.800
G1 X-130.588 Y55.587 Z12.271 F1999.800
G1 X-130.123 Y55.123 Z12.271 F1999.800
G1 X-130.588 Y55.587 Z12.271 F1999.800
G1 X-130.588 Y55.587 Z11.742 F999.600
G1 X-140.412 Y55.587 Z11.742 F1999.800
G1 X-140.877 Y55.123 Z11.742 F1999.800
G1 X-140.412 Y55.587 Z11.742 F1999.800
G1 X-140.412 Y70.412 Z11.742 F1999.800
G1 X-140.877 Y70.877 Z11.742 F1999.800
G1 X-140.412 Y70.412 Z11.742 F1999.800
G1 X-130.588 Y70.412 Z11.742 F1999.800
G1 X-130.123 Y70.877 Z11.742 F1999.800
G1 X-130.588 Y70.412 Z11.742 F1999.800
G1 X-130.588 Y55.587 Z11.742 F1999.800
G1 X-130.123 Y55.123 Z11.742 F1999.800
G1 X-130.588 Y55.587 Z11.742 F1999.800
G1 X-130.588 Y55.587 Z11.213 F999.600
G1 X-140.412 Y55.587 Z11.213 F1999.800
G1 X-140.877 Y55.123 Z11.213 F1999.800
G1 X-140.412 Y55.587 Z11.213 F1999.800
G1 X-140.412 Y70.412 Z11.213 F1999.800
G1 X-140.877 Y70.877 Z11.213 F1999.800
G1 X-140.412 Y70.412 Z11.213 F1999.800
G1 X-130.588 Y70.412 Z11.213 F1999.800
G1 X-130.123 Y70.877 Z11.213 F1999.800
G1 X-130.588 Y70.412 Z11.213 F1999.800
G1 X-130.588 Y55.587 Z11.213 F1999.800
G1 X-130.123 Y55.123 Z11.213 F1999.800
G1 X-130.588 Y55.587 Z11.213 F1999.800
G1 X-130.588 Y55.587 Z10.683 F999.600
G1 X-140.412 Y55.587 Z10.683 F1999.800
G1 X-140.877 Y55.123 Z10.683 F1999.800
G1 X-140.412 Y55.587 Z10.683 F1999.800
G1 X-140.412 Y70.412 Z10.683 F1999.800
G1 X-140.877 Y70.877 Z10.683 F1999.800
G1 X-140.412 Y70.412 Z10.683 F1999.800
G1 X-130.588 Y70.412 Z10.683 F1999.800
G1 X-130.123 Y70.877 Z10.683 F1999.800
G1 X-130.588 Y70.412 Z10.683 F1999.800
G1 X-130.588 Y55.587 Z10.683 F1999.800
G1 X-130.123 Y55.123 Z10.683 F1999.800
G1 X-130.588 Y55.587 Z10.683 F1999.800
G1 X-130.588 Y55.587 Z10.154 F999.600
G1 X-140.412 Y55.587 Z10.154 F1999.800
G1 X-140.877 Y55.123 Z10.154 F1999.800
G1 X-140.412 Y55.587 Z10.154 F1999.800
G1 X-140.412 Y70.412 Z10.154 F1999.800
G1 X-140.877 Y70.877 Z10.154 F1999.800
G1 X-140.412 Y70.412 Z10.154 F1999.800
G1 X-130.588 Y70.412 Z10.154 F1999.800
G1 X-130.123 Y70.877 Z10.154 F1999.800
G1 X-130.588 Y70.412 Z10.154 F1999.800
G1 X-130.588 Y55.587 Z10.154 F1999.800
G1 X-130.123 Y55.123 Z10.154 F1999.800
G1 X-130.588 Y55.587 Z10.154 F1999.800
G1 X-130.588 Y55.587 Z9.625 F999.600
G1 X-140.412 Y55.587 Z9.625 F1999.800
G1 X-140.877 Y55.123 Z9.625 F1999.800
G1 X-140.412 Y55.587 Z9.625 F1999.800
G1 X-140.412 Y70.412 Z9.625 F1999.800
G1 X-140.877 Y70.877 Z9.625 F1999.800
G1 X-140.412 Y70.412 Z9.625 F1999.800
G1 X-130.588 Y70.412 Z9.625 F1999.800
G1 X-130.123 Y70.877 Z9.625 F1999.800
G1 X-130.588 Y70.412 Z9.625 F1999.800
G1 X-130.588 Y55.587 Z9.625 F1999.800
G1 X-130.123 Y55.123 Z9.625 F1999.800
G1 X-130.588 Y55.587 Z9.625 F1999.800
G1 X-130.588 Y55.587 Z9.096 F999.600
G1 X-140.412 Y55.587 Z9.096 F1999.800
G1 X-140.877 Y55.123 Z9.096 F1999.800
G1 X-140.412 Y55.587 Z9.096 F1999.800
G1 X-140.412 Y70.412 Z9.096 F1999.800
G1 X-140.877 Y70.877 Z9.096 F1999.800
G1 X-140.412 Y70.412 Z9.096 F1999.800
G1 X-130.588 Y70.412 Z9.096 F1999.800
G1 X-130.123 Y70.877 Z9.096 F1999.800
G1 X-130.588 Y70.412 Z9.096 F1999.800
G1 X-130.588 Y55.587 Z9.096 F1999.800
G1 X-130.123 Y55.123 Z9.096 F1999.800
G1 X-130.588 Y55.587 Z9.096 F1999.800
G1 X-130.588 Y55.587 Z8.567 F999.600
G1 X-140.412 Y55.587 Z8.567 F1999.800
G1 X-140.877 Y55.123 Z8.567 F1999.800
G1 X-140.412 Y55.587 Z8.567 F1999.800
G1 X-140.412 Y70.412 Z8.567 F1999.800
G1 X-140.877 Y70.877 Z8.567 F1999.800
G1 X-140.412 Y70.412 Z8.567 F1999.800
G1 X-130.588 Y70.412 Z8.567 F1999.800
G1 X-130.123 Y70.877 Z8.567 F1999.800
G1 X-130.588 Y70.412 Z8.567 F1999.800
G1 X-130.588 Y55.587 Z8.567 F1999.800
G1 X-130.123 Y55.123 Z8.567 F1999.800
G1 X-130.588 Y55.587 Z8.567 F1999.800
G1 X-130.588 Y55.587 Z8.037 F999.600
G1 X-140.412 Y55.587 Z8.037 F1999.800
G1 X-140.877 Y55.123 Z8.037 F1999.800
G1 X-140.412 Y55.587 Z8.037 F1999.800
G1 X-140.412 Y70.412 Z8.037 F1999.800
G1 X-140.877 Y70.877 Z8.037 F1999.800
G1 X-140.412 Y70.412 Z8.037 F1999.800
G1 X-130.588 Y70.412 Z8.037 F1999.800
G1 X-130.123 Y70.877 Z8.037 F1999.800
G1 X-130.588 Y70.412 Z8.037 F1999.800
G1 X-130.588 Y55.587 Z8.037 F1999.800
G1 X-130.123 Y55.123 Z8.037 F1999.800
G1 X-130.588 Y55.587 Z8.037 F1999.800
G1 X-130.588 Y55.587 Z7.508 F999.600
G1 X-140.412 Y55.587 Z7.508 F1999.800
G1 X-140.877 Y55.123 Z7.508 F1999.800
G1 X-140.412 Y55.587 Z7.508 F1999.800
G1 X-140.412 Y70.412 Z7.508 F1999.800
G1 X-140.877 Y70.877 Z7.508 F1999.800
G1 X-140.412 Y70.412 Z7.508 F1999.800
G1 X-130.588 Y70.412 Z7.508 F1999.800
G1 X-130.123 Y70.877 Z7.508 F1999.800
G1 X-130.588 Y70.412 Z7.508 F1999.800
G1 X-130.588 Y55.587 Z7.508 F1999.800
G1 X-130.123 Y55.123 Z7.508 F1999.800
G1 X-130.588 Y55.587 Z7.508 F1999.800
G1 X-130.588 Y55.587 Z6.979 F999.600
G1 X-140.412 Y55.587 Z6.979 F1999.800
G1 X-140.877 Y55.123 Z6.979 F1999.800
G1 X-140.412 Y55.587 Z6.979 F1999.800
G1 X-140.412 Y70.412 Z6.979 F1999.800
G1 X-140.877 Y70.877 Z6.979 F1999.800
G1 X-140.412 Y70.412 Z6.979 F1999.800
G1 X-130.588 Y70.412 Z6.979 F1999.800
G1 X-130.123 Y70.877 Z6.979 F1999.800
G1 X-130.588 Y70.412 Z6.979 F1999.800
G1 X-130.588 Y55.587 Z6.979 F1999.800
G1 X-130.123 Y55.123 Z6.979 F1999.800
G1 X-130.588 Y55.587 Z6.979 F1999.800
G1 X-130.588 Y55.587 Z6.450 F999.600
G1 X-140.412 Y55.587 Z6.450 F1999.800
G1 X-140.877 Y55.123 Z6.450 F1999.800
G1 X-140.412 Y55.587 Z6.450 F1999.800
G1 X-140.412 Y70.412 Z6.450 F1999.800
G1 X-140.877 Y70.877 Z6.450 F1999.800
G1 X-140.412 Y70.412 Z6.450 F1999.800
G1 X-130.588 Y70.412 Z6.450 F1999.800
G1 X-130.123 Y70.877 Z6.450 F1999.800
G1 X-130.588 Y70.412 Z6.450 F1999.800
G1 X-130.588 Y55.587 Z6.450 F1999.800
G1 X-130.123 Y55.123 Z6.450 F1999.800
G1 X-130.588 Y55.587 Z6.450 F1999.800
G1 X-130.588 Y55.587 Z5.921 F999.600
G1 X-140.412 Y55.587 Z5.921 F1999.800
G1 X-140.877 Y55.123 Z5.921 F1999.800
G1 X-140.412 Y55.587 Z5.921 F1999.800
G1 X-140.412 Y70.412 Z5.921 F1999.800
G1 X-140.877 Y70.877 Z5.921 F1999.800
G1 X-140.412 Y70.412 Z5.921 F1999.800
G1 X-130.588 Y70.412 Z5.921 F1999.800
G1 X-130.123 Y70.877 Z5.921 F1999.800
G1 X-130.588 Y70.412 Z5.921 F1999.800
G1 X-130.588 Y55.587 Z5.921 F1999.800
G1 X-130.123 Y55.123 Z5.921 F1999.800
G1 X-130.588 Y55.587 Z5.921 F1999.800
G1 X-130.588 Y55.587 Z5.392 F999.600
G1 X-140.412 Y55.587 Z5.392 F1999.800
G1 X-140.877 Y55.123 Z5.392 F1999.800
G1 X-140.412 Y55.587 Z5.392 F1999.800
G1 X-140.412 Y70.412 Z5.392 F1999.800
G1 X-140.877 Y70.877 Z5.392 F1999.800
G1 X-140.412 Y70.412 Z5.392 F1999.800
G1 X-130.588 Y70.412 Z5.392 F1999.800
G1 X-130.123 Y70.877 Z5.392 F1999.800
G1 X-130.588 Y70.412 Z5.392 F1999.800
G1 X-130.588 Y55.587 Z5.392 F1999.800
G1 X-130.123 Y55.123 Z5.392 F1999.800
G1 X-130.588 Y55.587 Z5.392 F1999.800
G1 X-130.588 Y55.587 Z4.862 F999.600
G1 X-140.412 Y55.587 Z4.862 F1999.800
G1 X-140.877 Y55.123 Z4.862 F1999.800
G1 X-140.412 Y55.587 Z4.862 F1999.800
G1 X-140.412 Y70.412 Z4.862 F1999.800
G1 X-140.877 Y70.877 Z4.862 F1999.800
G1 X-140.412 Y70.412 Z4.862 F1999.800
G1 X-130.588 Y70.412 Z4.862 F1999.800
G1 X-130.123 Y70.877 Z4.862 F1999.800
G1 X-130.588 Y70.412 Z4.862 F1999.800
G1 X-130.588 Y55.587 Z4.862 F1999.800
G1 X-130.123 Y55.123 Z4.862 F1999.800
G1 X-130.588 Y55.587 Z4.862 F1999.800
G1 X-130.588 Y55.587 Z4.333 F999.600
G1 X-140.412 Y55.587 Z4.333 F1999.800
G1 X-140.877 Y55.123 Z4.333 F1999.800
G1 X-140.412 Y55.587 Z4.333 F1999.800
G1 X-140.412 Y70.412 Z4.333 F1999.800
G1 X-140.877 Y70.877 Z4.333 F1999.800
G1 X-140.412 Y70.412 Z4.333 F1999.800
G1 X-130.588 Y70.412 Z4.333 F1999.800
G1 X-130.123 Y70.877 Z4.333 F1999.800
G1 X-130.588 Y70.412 Z4.333 F1999.800
G1 X-130.588 Y55.587 Z4.333 F1999.800
G1 X-130.123 Y55.123 Z4.333 F1999.800
G1 X-130.588 Y55.587 Z4.333 F1999.800
G1 X-130.588 Y55.587 Z3.804 F999.600
G1 X-140.412 Y55.587 Z3.804 F1999.800
G1 X-140.877 Y55.123 Z3.804 F1999.800
G1 X-140.412 Y55.587 Z3.804 F1999.800
G1 X-140.412 Y70.412 Z3.804 F1999.800
G1 X-140.877 Y70.877 Z3.804 F1999.800
G1 X-140.412 Y70.412 Z3.804 F1999.800
G1 X-130.588 Y70.412 Z3.804 F1999.800
G1 X-130.123 Y70.877 Z3.804 F1999.800
G1 X-130.588 Y70.412 Z3.804 F1999.800
G1 X-130.588 Y55.587 Z3.804 F1999.800
G1 X-130.123 Y55.123 Z3.804 F1999.800
G1 X-130.588 Y55.587 Z3.804 F1999.800
G1 X-130.588 Y55.587 Z3.275 F999.600
G1 X-140.412 Y55.587 Z3.275 F1999.800
G1 X-140.877 Y55.123 Z3.275 F1999.800
G1 X-140.412 Y55.587 Z3.275 F1999.800
G1 X-140.412 Y70.412 Z3.275 F1999.800
G1 X-140.877 Y70.877 Z3.275 F1999.800
G1 X-140.412 Y70.412 Z3.275 F1999.800
G1 X-130.588 Y70.412 Z3.275 F1999.800
G1 X-130.123 Y70.877 Z3.275 F1999.800
G1 X-130.588 Y70.412 Z3.275 F1999.800
G1 X-130.588 Y55.587 Z3.275 F1999.800
G1 X-130.123 Y55.123 Z3.275 F1999.800
G1 X-130.588 Y55.587 Z3.275 F1999.800
G1 X-130.588 Y55.587 Z2.746 F999.600
G1 X-133.651 Y55.587 Z2.746 F1999.800
G1 X-133.682 Y55.587 Z2.800 F1333.000
G1 X-137.358 Y55.587 Z2.800 F1999.800
G1 X-137.389 Y55.587 Z2.746 F1333.000
G1 X-140.412 Y55.587 Z2.746 F1999.800
G1 X-140.877 Y55.123 Z2.746 F1999.800
G1 X-140.412 Y55.587 Z2.746 F1999.800
G1 X-140.412 Y60.861 Z2.746 F1999.800
G1 X-140.412 Y60.892 Z2.800 F1333.000
G1 X-140.412 Y64.568 Z2.800 F1999.800
G1 X-140.412 Y64.599 Z2.746 F1333.000
G1 X-140.412 Y70.412 Z2.746 F1999.800
G1 X-140.877 Y70.877 Z2.746 F1999.800
G1 X-140.412 Y70.412 Z2.746 F1999.800
G1 X-136.979 Y70.412 Z2.746 F1999.800
G1 X-136.948 Y70.412 Z2.800 F1333.000
G1 X-133.272 Y70.412 Z2.800 F1999.800
G1 X-133.241 Y70.412 Z2.746 F1333.000
G1 X-130.588 Y70.412 Z2.746 F1999.800
G1 X-130.123 Y70.877 Z2.746 F1999.800
G1 X-130.588 Y70.412 Z2.746 F1999.800
G1 X-130.588 Y65.019 Z2.746 F1999.800
G1 X-130.588 Y64.988 Z2.800 F1333.000
G1 X-130.588 Y61.312 Z2.800 F1999.800
G1 X-130.588 Y61.281 Z2.746 F1333.000
G1 X-130.588 Y55.587 Z2.746 F1999.800
G1 X-130.123 Y55.123 Z2.746 F1999.800
G1 X-130.588 Y55.587 Z2.746 F1999.800
G1 X-130.588 Y55.587 Z2.217 F999.600
G1 X-133.345 Y55.587 Z2.217 F1999.800
G1 X-133.682 Y55.587 Z2.800 F1333.000
G1 X-137.358 Y55.587 Z2.800 F1999.800
G1 X-137.695 Y55.587 Z2.217 F1333.000
G1 X-140.412 Y55.587 Z2.217 F1999.800
G1 X-140.877 Y55.123 Z2.217 F1999.800
G1 X-140.412 Y55.587 Z2.217 F1999.800
G1 X-140.412 Y60.555 Z2.217 F1999.800
G1 X-140.412 Y60.892 Z2.800 F1333.000
G1 X-140.412 Y64.568 Z2.800 F1999.800
G1 X-140.412 Y64.905 Z2.217 F1333.000
G1 X-140.412 Y70.412 Z2.217 F1999.800
G1 X-140.877 Y70.877 Z2.217 F1999.800
G1 X-140.412 Y70.412 Z2.217 F1999.800
G1 X-137.285 Y70.412 Z2.217 F1999.800
G1 X-136.948 Y70.412 Z2.800 F1333.000
G1 X-133.272 Y70.412 Z2.800 F1999.800
G1 X-132.935 Y70.412 Z2.217 F1333.000
G1 X-130.588 Y70.412 Z2.217 F1999.800
G1 X-130.123 Y70.877 Z2.217 F1999.800
G1 X-130.588 Y70.412 Z2.217 F1999.800
G1 X-130.588 Y65.325 Z2.217 F1999.800
G1 X-130.588 Y64.988 Z2.800 F1333.000
G1 X-130.588 Y61.312 Z2.800 F1999.800
G1 X-130.588 Y60.975 Z2.217 F1333.000
G1 X-130.588 Y55.587 Z2.217 F1999.800
G1 X-130.123 Y55.123 Z2.217 F1999.800
G1 X-130.588 Y55.587 Z2.217 F1999.800
G1 X-130.588 Y55.587 Z1.688 F999.600
G1 X-133.040 Y55.587 Z1.688 F1999.800
G1 X-133.682 Y55.587 Z2.800 F1333.000
G1 X-137.358 Y55.587 Z2.800 F1999.800
G1 X-138.000 Y55.587 Z1.688 F1333.000
G1 X-140.412 Y55.587 Z1.688 F1999.800
G1 X-140.877 Y55.123 Z1.688 F1999.800
G1 X-140.412 Y55.587 Z1.688 F1999.800
G1 X-140.412 Y60.250 Z1.688 F1999.800
G1 X-140.412 Y60.892 Z2.800 F1333.000
G1 X-140.412 Y64.568 Z2.800 F1999.800
G1 X-140.412 Y65.210 Z1.688 F1333.000
G1 X-140.412 Y70.412 Z1.688 F1999.800
G1 X-140.877 Y70.877 Z1.688 F1999.800
G1 X-140.412 Y70.412 Z1.688 F1999.800
G1 X-137.590 Y70.412 Z1.688 F1999.800
G1 X-136.948 Y70.412 Z2.800 F1333.000
G1 X-133.272 Y70.412 Z2.800 F1999.800
G1 X-132.630 Y70.412 Z1.688 F1333.000
G1 X-130.588 Y70.412 Z1.688 F1999.800
G1 X-130.123 Y70.877 Z1.688 F1999.800
G1 X-130.588 Y70.412 Z1.688 F1999.800
G1 X-130.588 Y65.630 Z1.688 F1999.800
G1 X-130.588 Y64.988 Z2.800 F1333.000
G1 X-130.588 Y61.312 Z2.800 F1999.800
G1 X-130.588 Y60.670 Z1.688 F1333.000
G1 X-130.588 Y55.587 Z1.688 F1999.800
G1 X-130.123 Y55.123 Z1.688 F1999.800
G1 X-130.588 Y55.587 Z1.688 F1999.800
G1 X-130.588 Y55.587 Z1.158 F999.600
G1 X-132.734 Y55.587 Z1.158 F1999.800
G1 X-133.682 Y55.587 Z2.800 F1333.000
G1 X-137.358 Y55.587 Z2.800 F1999.800
G1 X-138.306 Y55.587 Z1.158 F1333.000
G1 X-140.412 Y55.587 Z1.158 F1999.800
G1 X-140.877 Y55.123 Z1.158 F1999.800
G1 X-140.412 Y55.587 Z1.158 F1999.800
G1 X-140.412 Y59.944 Z1.158 F1999.800
G1 X-140.412 Y60.892 Z2.800 F1333.000
G1 X-140.412 Y64.568 Z2.800 F1999.800
G1 X-140.412 Y65.516 Z1.158 F1333.000
G1 X-140.412 Y70.412 Z1.158 F1999.800
G1 X-140.877 Y70.877 Z1.158 F1999.800
G1 X-140.412 Y70.412 Z1.158 F1999.800
G1 X-137.896 Y70.412 Z1.158 F1999.800
G1 X-136.948 Y70.412 Z2.800 F1333.000
G1 X-133.272 Y70.412 Z2.800 F1999.800
G1 X-132.324 Y70.412 Z1.158 F1333.000
G1 X-130.588 Y70.412 Z1.158 F1999.800
G1 X-130.123 Y70.877 Z1.158 F1999.800
G1 X-130.588 Y70.412 Z1.158 F1999.800
G1 X-130.588 Y65.936 Z1.158 F1999.800
G1 X-130.588 Y64.988 Z2.800 F1333.000
G1 X-130.588 Y61.312 Z2.800 F1999.800
G1 X-130.588 Y60.364 Z1.158 F1333.000
G1 X-130.588 Y55.587 Z1.158 F1999.800
G1 X-130.123 Y55.123 Z1.158 F1999.800
G1 X-130.588 Y55.587 Z1.158 F1999.800
G1 X-130.588 Y55.587 Z0.629 F999.600
G1 X-132.429 Y55.587 Z0.629 F1999.800
G1 X-133.682 Y55.587 Z2.800 F1333.000
G1 X-137.358 Y55.587 Z2.800 F1999.800
G1 X-138.611 Y55.587 Z0.629 F1333.000
G1 X-140.412 Y55.587 Z0.629 F1999.800
G1 X-140.877 Y55.123 Z0.629 F1999.800
G1 X-140.412 Y55.587 Z0.629 F1999.800
G1 X-140.412 Y59.639 Z0.629 F1999.800
G1 X-140.412 Y60.892 Z2.800 F1333.000
G1 X-140.412 Y64.568 Z2.800 F1999.800
G1 X-140.412 Y65.821 Z0.629 F1333.000
G1 X-140.412 Y70.412 Z0.629 F1999.800
G1 X-140.877 Y70.877 Z0.629 F1999.800
G1 X-140.412 Y70.412 Z0.629 F1999.800
G1 X-138.201 Y70.412 Z0.629 F1999.800
G1 X-136.948 Y70.412 Z2.800 F1333.000
G1 X-133.272 Y70.412 Z2.800 F1999.800
G1 X-132.019 Y70.412 Z0.629 F1333.000
G1 X-130.588 Y70.412 Z0.629 F1999.800
G1 X-130.123 Y70.877 Z0.629 F1999.800
G1 X-130.588 Y70.412 Z0.629 F1999.800
G1 X-130.588 Y66.241 Z0.629 F1999.800
G1 X-130.588 Y64.988 Z2.800 F1333.000
G1 X-130.588 Y61.312 Z2.800 F1999.800
G1 X-130.588 Y60.059 Z0.629 F1333.000
G1 X-130.588 Y55.587 Z0.629 F1999.800
G1 X-130.123 Y55.123 Z0.629 F1999.800
G1 X-130.588 Y55.587 Z0.629 F1999.800
G1 X-130.588 Y55.587 Z0.100 F999.600
G1 X-132.123 Y55.587 Z0.100 F1999.800
G1 X-133.682 Y55.587 Z2.800 F1333.000
G1 X-137.358 Y55.587 Z2.800 F1999.800
G1 X-138.917 Y55.587 Z0.100 F1333.000
G1 X-140.412 Y55.587 Z0.100 F1999.800
G1 X-140.877 Y55.123 Z0.100 F1999.800
G1 X-140.412 Y55.587 Z0.100 F1999.800
G1 X-140.412 Y59.333 Z0.100 F1999.800
G1 X-140.412 Y60.892 Z2.800 F1333.000
G1 X-140.412 Y64.568 Z2.800 F1999.800
G1 X-140.412 Y66.127 Z0.100 F1333.000
G1 X-140.412 Y70.412 Z0.100 F1999.800
G1 X-140.877 Y70.877 Z0.100 F1999.800
G1 X-140.412 Y70.412 Z0.100 F1999.800
G1 X-138.507 Y70.412 Z0.100 F1999.800
G1 X-136.948 Y70.412 Z2.800 F1333.000
G1 X-133.272 Y70.412 Z2.800 F1999.800
G1 X-131.713 Y70.412 Z0.100 F1333.000
G1 X-130.588 Y70.412 Z0.100 F1999.800
G1 X-130.123 Y70.877 Z0.100 F1999.800
G1 X-130.588 Y70.412 Z0.100 F1999.800
G1 X-130.588 Y66.547 Z0.100 F1999.800
G1 X-130.588 Y64.988 Z2.800 F1333.000
G1 X-130.588 Y61.312 Z2.800 F1999.800
G1 X-130.588 Y59.753 Z0.100 F1333.000
G1 X-130.588 Y55.587 Z0.100 F1999.800
G1 X-130.123 Y55.123 Z0.100 F1999.800
G1 X-130.588 Y55.587 Z0.100 F1999.800
G1 X-130.588 Y55.587 Z-0.200 F999.600
G1 X-131.950 Y55.587 Z-0.200 F1999.800
G1 X-133.682 Y55.587 Z2.800 F1333.000
G1 X-137.358 Y55.587 Z2.800 F1999.800
G1 X-139.090 Y55.587 Z-0.200 F1333.000
G1 X-140.412 Y55.587 Z-0.200 F1999.800
G1 X-140.877 Y55.123 Z-0.200 F1999.800
G1 X-140.412 Y55.587 Z-0.200 F1999.800
G1 X-140.412 Y59.160 Z-0.200 F1999.800
G1 X-140.412 Y60.892 Z2.800 F1333.000
G1 X-140.412 Y64.568 Z2.800 F1999.800
G1 X-140.412 Y66.300 Z-0.200 F1333.000
G1 X-140.412 Y70.412 Z-0.200 F1999.800
G1 X-140.877 Y70.877 Z-0.200 F1999.800
G1 X-140.412 Y70.412 Z-0.200 F1999.800
G1 X-138.680 Y70.412 Z-0.200 F1999.800
G1 X-136.948 Y70.412 Z2.800 F1333.000
G1 X-133.272 Y70.412 Z2.800 F1999.800
G1 X-131.540 Y70.412 Z-0.200 F1333.000
G1 X-130.588 Y70.412 Z-0.200 F1999.800
G1 X-130.123 Y70.877 Z-0.200 F1999.800
G1 X-130.588 Y70.412 Z-0.200 F1999.800
G1 X-130.588 Y66.720 Z-0.200 F1999.800
G1 X-130.588 Y64.988 Z2.800 F1333.000
G1 X-130.588 Y61.312 Z2.800 F1999.800
G1 X-130.588 Y59.580 Z-0.200 F1333.000
G1 X-130.588 Y55.587 Z-0.200 F1999.800
G1 X-130.123 Y55.123 Z-0.200 F1999.800
G1 X-130.588 Y55.587 Z-0.200 F1999.800
G0 X-130.588 Y55.587 Z17.800
G0 X130.588 Y55.587 Z17.800
G0 X130.588 Y55.587 Z15.800
G1 X130.588 Y55.587 Z12.271 F999.600
G1 X130.588 Y70.412 Z12.271 F1999.800
G1 X130.123 Y70.877 Z12.271 F1999.800
G1 X130.588 Y70.412 Z12.271 F1999.800
G1 X140.412 Y70.412 Z12.271 F1999.800
G1 X140.877 Y70.877 Z12.271 F1999.800
G1 X140.412 Y70.412 Z12.271 F1999.800
G1 X140.412 Y55.587 Z12.271 F1999.800
G1 X140.877 Y55.123 Z12.271 F1999.800
G1 X140.412 Y55.587 Z12.271 F1999.800
G1 X130.588 Y55.587 Z12.271 F1999.800
G1 X130.123 Y55.123 Z12.271 F1999.800
G1 X130.588 Y55.587 Z12.271 F1999.800
G1 X130.588 Y55.587 Z11.742 F999.600
G1 X130.588 Y70.412 Z11.742 F1999.800
G1 X130.123 Y70.877 Z11.742 F1999.800
G1 X130.588 Y70.412 Z11.742 F1999.800
G1 X140.412 Y70.412 Z11.742 F1999.800
G1 X140.877 Y70.877 Z11.742 F1999.800
G1 X140.412 Y70.412 Z11.742 F1999.800
G1 X140.412 Y55.587 Z11.742 F1999.800
G1 X140.877 Y55.123 Z11.742 F1999.800
G1 X140.412 Y55.587 Z11.742 F1999.800
G1 X130.588 Y55.587 Z11.742 F1999.800
G1 X130.123 Y55.123 Z11.742 F1999.800
G1 X130.588 Y55.587 Z11.742 F1999.800
G1 X130.588 Y55.587 Z11.213 F999.600
G1 X130.588 Y70.412 Z11.213 F1999.800
G1 X130.123 Y70.877 Z11.213 F1999.800
G1 X130.588 Y70.412 Z11.213 F1999.800
G1 X140.412 Y70.412 Z11.213 F1999.800
G1 X140.877 Y70.877 Z11.213 F1999.800
G1 X140.412 Y70.412 Z11.213 F1999.800
G1 X140.412 Y55.587 Z11.213 F1999.800
G1 X140.877 Y55.123 Z11.213 F1999.800
G1 X140.412 Y55.587 Z11.213 F1999.800
G1 X130.588 Y55.587 Z11.213 F1999.800
G1 X130.123 Y55.123 Z11.213 F1999.800
G1 X130.588 Y55.587 Z11.213 F1999.800
G1 X130.588 Y55.587 Z10.683 F999.600
G1 X130.588 Y70.412 Z10.683 F1999.800
G1 X130.123 Y70.877 Z10.683 F1999.800
G1 X130.588 Y70.412 Z10.683 F1999.800
G1 X140.412 Y70.412 Z10.683 F1999.800
G1 X140.877 Y70.877 Z10.683 F1999.800
G1 X140.412 Y70.412 Z10.683 F1999.800
G1 X140.412 Y55.587 Z10.683 F1999.800
G1 X140.877 Y55.123 Z10.683 F1999.800
G1 X140.412 Y55.587 Z10.683 F1999.800
G1 X130.588 Y55.587 Z10.683 F1999.800
G1 X130.123 Y55.123 Z10.683 F1999.800
G1 X130.588 Y55.587 Z10.683 F1999.800
G1 X130.588 Y55.587 Z10.154 F999.600
G1 X130.588 Y70.412 Z10.154 F1999.800
G1 X130.123 Y70.877 Z10.154 F1999.800
G1 X130.588 Y70.412 Z10.154 F1999.800
G1 X140.412 Y70.412 Z10.154 F1999.800
G1 X140.877 Y70.877 Z10.154 F1999.800
G1 X140.412 Y70.412 Z10.154 F1999.800
G1 X140.412 Y55.587 Z10.154 F1999.800
G1 X140.877 Y55.123 Z10.154 F1999.800
G1 X140.412 Y55.587 Z10.154 F1999.800
G1 X130.588 Y55.587 Z10.154 F1999.800
G1 X130.123 Y55.123 Z10.154 F1999.800
G1 X130.588 Y55.587 Z10.154 F1999.800
G1 X130.588 Y55.587 Z9.625 F999.600
G1 X130.588 Y70.412 Z9.625 F1999.800
G1 X130.123 Y70.877 Z9.625 F1999.800
G1 X130.588 Y70.412 Z9.625 F1999.800
G1 X140.412 Y70.412 Z9.625 F1999.800
G1 X140.877 Y70.877 Z9.625 F1999.800
G1 X140.412 Y70.412 Z9.625 F1999.800
G1 X140.412 Y55.587 Z9.625 F1999.800
G1 X140.877 Y55.123 Z9.625 F1999.800
G1 X140.412 Y55.587 Z9.625 F1999.800
G1 X130.588 Y55.587 Z9.625 F1999.800
G1 X130.123 Y55.123 Z9.625 F1999.800
G1 X130.588 Y55.587 Z9.625 F1999.800
G1 X130.588 Y55.587 Z9.096 F999.600
G1 X130.588 Y70.412 Z9.096 F1999.800
G1 X130.123 Y70.877 Z9.096 F1999.800
G1 X130.588 Y70.412 Z9.096 F1999.800
G1 X140.412 Y70.412 Z9.096 F1999.800
G1 X140.877 Y70.877 Z9.096 F1999.800
G1 X140.412 Y70.412 Z9.096 F1999.800
G1 X140.412 Y55.587 Z9.096 F1999.800
G1 X140.877 Y55.123 Z9.096 F1999.800
G1 X140.412 Y55.587 Z9.096 F1999.800
G1 X130.588 Y55.587 Z9.096 F1999.800
G1 X130.123 Y55.123 Z9.096 F1999.800
G1 X130.588 Y55.587 Z9.096 F1999.800
G1 X130.588 Y55.587 Z8.567 F999.600
G1 X130.588 Y70.412 Z8.567 F1999.800
G1 X130.123 Y70.877 Z8.567 F1999.800
G1 X130.588 Y70.412 Z8.567 F1999.800
G1 X140.412 Y70.412 Z8.567 F1999.800
G1 X140.877 Y70.877 Z8.567 F1999.800
G1 X140.412 Y70.412 Z8.567 F1999.800
G1 X140.412 Y55.587 Z8.567 F1999.800
G1 X140.877 Y55.123 Z8.567 F1999.800
G1 X140.412 Y55.587 Z8.567 F1999.800
G1 X130.588 Y55.587 Z8.567 F1999.800
G1 X130.123 Y55.123 Z8.567 F1999.800
G1 X130.588 Y55.587 Z8.567 F1999.800
G1 X130.588 Y55.587 Z8.037 F999.600
G1 X130.588 Y70.412 Z8.037 F1999.800
G1 X130.123 Y70.877 Z8.037 F1999.800
G1 X130.588 Y70.412 Z8.037 F1999.800
G1 X140.412 Y70.412 Z8.037 F1999.800
G1 X140.877 Y70.877 Z8.037 F1999.800
G1 X140.412 Y70.412 Z8.037 F1999.800
G1 X140.412 Y55.587 Z8.037 F1999.800
G1 X140.877 Y55.123 Z8.037 F1999.800
G1 X140.412 Y55.587 Z8.037 F1999.800
G1 X130.588 Y55.587 Z8.037 F1999.800
G1 X130.123 Y55.123 Z8.037 F1999.800
G1 X130.588 Y55.587 Z8.037 F1999.800
G1 X130.588 Y55.587 Z7.508 F999.600
G1 X130.588 Y70.412 Z7.508 F1999.800
G1 X130.123 Y70.877 Z7.508 F1999.800
G1 X130.588 Y70.412 Z7.508 F1999.800
G1 X140.412 Y70.412 Z7.508 F1999.800
G1 X140.877 Y70.877 Z7.508 F1999.800
G1 X140.412 Y70.412 Z7.508 F1999.800
G1 X140.412 Y55.587 Z7.508 F1999.800
G1 X140.877 Y55.123 Z7.508 F1999.800
G1 X140.412 Y55.587 Z7.508 F1999.800
G1 X130.588 Y55.587 Z7.508 F1999.800
G1 X130.123 Y55.123 Z7.508 F1999.800
G1 X130.588 Y55.587 Z7.508 F1999.800
G1 X130.588 Y55.587 Z6.979 F999.600
G1 X130.588 Y70.412 Z6.979 F1999.800
G1 X130.123 Y70.877 Z6.979 F1999.800
G1 X130.588 Y70.412 Z6.979 F1999.800
G1 X140.412 Y70.412 Z6.979 F1999.800
G1 X140.877 Y70.877 Z6.979 F1999.800
G1 X140.412 Y70.412 Z6.979 F1999.800
G1 X140.412 Y55.587 Z6.979 F1999.800
G1 X140.877 Y55.123 Z6.979 F1999.800
G1 X140.412 Y55.587 Z6.979 F1999.800
G1 X130.588 Y55.587 Z6.979 F1999.800
G1 X130.123 Y55.123 Z6.979 F1999.800
G1 X130.588 Y55.587 Z6.979 F1999.800
G1 X130.588 Y55.587 Z6.450 F999.600
G1 X130.588 Y70.412 Z6.450 F1999.800
G1 X130.123 Y70.877 Z6.450 F1999.800
G1 X130.588 Y70.412 Z6.450 F1999.800
G1 X140.412 Y70.412 Z6.450 F1999.800
G1 X140.877 Y70.877 Z6.450 F1999.800
G1 X140.412 Y70.412 Z6.450 F1999.800
G1 X140.412 Y55.587 Z6.450 F1999.800
G1 X140.877 Y55.123 Z6.450 F1999.800
G1 X140.412 Y55.587 Z6.450 F1999.800
G1 X130.588 Y55.587 Z6.450 F1999.800
G1 X130.123 Y55.123 Z6.450 F1999.800
G1 X130.588 Y55.587 Z6.450 F1999.800
G1 X130.588 Y55.587 Z5.921 F999.600
G1 X130.588 Y70.412 Z5.921 F1999.800
G1 X130.123 Y70.877 Z5.921 F1999.800
G1 X130.588 Y70.412 Z5.921 F1999.800
G1 X140.412 Y70.412 Z5.921 F1999.800
G1 X140.877 Y70.877 Z5.921 F1999.800
G1 X140.412 Y70.412 Z5.921 F1999.800
G1 X140.412 Y55.587 Z5.921 F1999.800
G1 X140.877 Y55.123 Z5.921 F1999.800
G1 X140.412 Y55.587 Z5.921 F1999.800
G1 X130.588 Y55.587 Z5.921 F1999.800
G1 X130.123 Y55.123 Z5.921 F1999.800
G1 X130.588 Y55.587 Z5.921 F1999.800
G1 X130.588 Y55.587 Z5.392 F999.600
G1 X130.588 Y70.412 Z5.392 F1999.800
G1 X130.123 Y70.877 Z5.392 F1999.800
G1 X130.588 Y70.412 Z5.392 F1999.800
G1 X140.412 Y70.412 Z5.392 F1999.800
G1 X140.877 Y70.877 Z5.392 F1999.800
G1 X140.412 Y70.412 Z5.392 F1999.800
G1 X140.412 Y55.587 Z5.392 F1999.800
G1 X140.877 Y55.123 Z5.392 F1999.800
G1 X140.412 Y55.587 Z5.392 F1999.800
G1 X130.588 Y55.587 Z5.392 F1999.800
G1 X130.123 Y55.123 Z5.392 F1999.800
G1 X130.588 Y55.587 Z5.392 F1999.800
G1 X130.588 Y55.587 Z4.862 F999.600
G1 X130.588 Y70.412 Z4.862 F1999.800
G1 X130.123 Y70.877 Z4.862 F1999.800
G1 X130.588 Y70.412 Z4.862 F1999.800
G1 X140.412 Y70.412 Z4.862 F1999.800
G1 X140.877 Y70.877 Z4.862 F1999.800
G1 X140.412 Y70.412 Z4.862 F1999.800
G1 X140.412 Y55.587 Z4.862 F1999.800
G1 X140.877 Y55.123 Z4.862 F1999.800
G1 X140.412 Y55.587 Z4.862 F1999.800
G1 X130.588 Y55.587 Z4.862 F1999.800
G1 X130.123 Y55.123 Z4.862 F1999.800
G1 X130.588 Y55.587 Z4.862 F1999.800
G1 X130.588 Y55.587 Z4.333 F999.600
G1 X130.588 Y70.412 Z4.333 F1999.800
G1 X130.123 Y70.877 Z4.333 F1999.800
G1 X130.588 Y70.412 Z4.333 F1999.800
G1 X140.412 Y70.412 Z4.333 F1999.800
G1 X140.877 Y70.877 Z4.333 F1999.800
G1 X140.412 Y70.412 Z4.333 F1999.800
G1 X140.412 Y55.587 Z4.333 F1999.800
G1 X140.877 Y55.123 Z4.333 F1999.800
G1 X140.412 Y55.587 Z4.333 F1999.800
G1 X130.588 Y55.587 Z4.333 F1999.800
G1 X130.123 Y55.123 Z4.333 F1999.800
G1 X130.588 Y55.587 Z4.333 F1999.800
G1 X130.588 Y55.587 Z3.804 F999.600
G1 X130.588 Y70.412 Z3.804 F1999.800
G1 X130.123 Y70.877 Z3.804 F1999.800
G1 X130.588 Y70.412 Z3.804 F1999.800
G1 X140.412 Y70.412 Z3.804 F1999.800
G1 X140.877 Y70.877 Z3.804 F1999.800
G1 X140.412 Y70.412 Z3.804 F1999.800
G1 X140.412 Y55.587 Z3.804 F1999.800
G1 X140.877 Y55.123 Z3.804 F1999.800
G1 X140.412 Y55.587 Z3.804 F1999.800
G1 X130.588 Y55.587 Z3.804 F1999.800
G1 X130.123 Y55.123 Z3.804 F1999.800
G1 X130.588 Y55.587 Z3.804 F1999.800
G1 X130.588 Y55.587 Z3.275 F999.600
G1 X130.588 Y70.412 Z3.275 F1999.800
G1 X130.123 Y70.877 Z3.275 F1999.800
G1 X130.588 Y70.412 Z3.275 F1999.800
G1 X140.412 Y70.412 Z3.275 F1999.800
G1 X140.877 Y70.877 Z3.275 F1999.800
G1 X140.412 Y70.412 Z3.275 F1999.800
G1 X140.412 Y55.587 Z3.275 F1999.800
G1 X140.877 Y55.123 Z3.275 F1999.800
G1 X140.412 Y55.587 Z3.275 F1999.800
G1 X130.588 Y55.587 Z3.275 F1999.800
G1 X130.123 Y55.123 Z3.275 F1999.800
G1 X130.588 Y55.587 Z3.275 F1999.800
G1 X130.588 Y55.587 Z2.746 F999.600
G1 X130.588 Y60.971 Z2.746 F1999.800
G1 X130.588 Y61.002 Z2.800 F1333.000
G1 X130.588 Y64.678 Z2.800 F1999.800
G1 X130.588 Y64.709 Z2.746 F1333.000
G1 X130.588 Y70.412 Z2.746 F1999.800
G1 X130.123 Y70.877 Z2.746 F1999.800
G1 X130.588 Y70.412 Z2.746 F1999.800
G1 X133.361 Y70.412 Z2.746 F1999.800
G1 X133.392 Y70.412 Z2.800 F1333.000
G1 X137.068 Y70.412 Z2.800 F1999.800
G1 X137.099 Y70.412 Z2.746 F1333.000
G1 X140.412 Y70.412 Z2.746 F1999.800
G1 X140.877 Y70.877 Z2.746 F1999.800
G1 X140.412 Y70.412 Z2.746 F1999.800
G1 X140.412 Y65.169 Z2.746 F1999.800
G1 X140.412 Y65.138 Z2.800 F1333.000
G1 X140.412 Y61.462 Z2.800 F1999.800
G1 X140.412 Y61.431 Z2.746 F1333.000
G1 X140.412 Y55.587 Z2.746 F1999.800
G1 X140.877 Y55.123 Z2.746 F1999.800
G1 X140.412 Y55.587 Z2.746 F1999.800
G1 X137.099 Y55.587 Z2.746 F1999.800
G1 X137.068 Y55.587 Z2.800 F1333.000
G1 X133.392 Y55.587 Z2.800 F1999.800
G1 X133.361 Y55.587 Z2.746 F1333.000
G1 X130.588 Y55.587 Z2.746 F1999.800
G1 X130.123 Y55.123 Z2.746 F1999.800
G1 X130.588 Y55.587 Z2.746 F1999.800
G1 X130.588 Y55.587 Z2.217 F999.600
G1 X130.588 Y60.665 Z2.217 F1999.800
G1 X130.588 Y61.002 Z2.800 F1333.000
G1 X130.588 Y64.678 Z2.800 F1999.800
G1 X130.588 Y65.015 Z2.217 F1333.000
G1 X130.588 Y70.412 Z2.217 F1999.800
G1 X130.123 Y70.877 Z2.217 F1999.800
G1 X130.588 Y70.412 Z2.217 F1999.800
G1 X133.055 Y70.412 Z2.217 F1999.800
G1 X133.392 Y70.412 Z2.800 F1333.000
G1 X137.068 Y70.412 Z2.800 F1999.800
G1 X137.405 Y70.412 Z2.217 F1333.000
G1 X140.412 Y70.412 Z2.217 F1999.800
G1 X140.877 Y70.877 Z2.217 F1999.800
G1 X140.412 Y70.412 Z2.217 F1999.800
G1 X140.412 Y65.475 Z2.217 F1999.800
G1 X140.412 Y65.138 Z2.800 F1333.000
G1 X140.412 Y61.462 Z2.800 F1999.800
G1 X140.412 Y61.125 Z2.217 F1333.000
G1 X140.412 Y55.587 Z2.217 F1999.800
G1 X140.877 Y55.123 Z2.217 F1999.800
G1 X140.412 Y55.587 Z2.217 F1999.800
G1 X137.405 Y55.587 Z2.217 F1999.800
G1 X137.068 Y55.587 Z2.800 F1333.000
G1 X133.392 Y55.587 Z2.800 F1999.800
G1 X133.055 Y55.587 Z2.217 F1333.000
G1 X130.588 Y55.587 Z2.217 F1999.800
G1 X130.123 Y55.123 Z2.217 F1999.800
G1 X130.588 Y55.587 Z2.217 F1999.800
G1 X130.588 Y55.587 Z1.688 F999.600
G1 X130.588 Y60.360 Z1.688 F1999.800
G1 X130.588 Y61.002 Z2.800 F1333.000
G1 X130.588 Y64.678 Z2.800 F1999.800
G1 X130.588 Y65.320 Z1.688 F1333.000
G1 X130.588 Y70.412 Z1.688 F1999.800
G1 X130.123 Y70.877 Z1.688 F1999.800
G1 X130.588 Y70.412 Z1.688 F1999.800
G1 X132.750 Y70.412 Z1.688 F1999.800
G1 X133.392 Y70.412 Z2.800 F1333.000
G1 X137.068 Y70.412 Z2.800 F1999.800
G1 X137.710 Y70.412 Z1.688 F1333.000
G1 X140.412 Y70.412 Z1.688 F1999.800
G1 X140.877 Y70.877 Z1.688 F1999.800
G1 X140.412 Y70.412 Z1.688 F1999.800
G1 X140.412 Y65.780 Z1.688 F1999.800
G1 X140.412 Y65.138 Z2.800 F1333.000
G1 X140.412 Y61.462 Z2.800 F1999.800
G1 X140.412 Y60.820 Z1.688 F1333.000
G1 X140.412 Y55.587 Z1.688 F1999.800
G1 X140.877 Y55.123 Z1.688 F1999.800
G1 X140.412 Y55.587 Z1.688 F1999.800
G1 X137.710 Y55.587 Z1.688 F1999.800
G1 X137.068 Y55.587 Z2.800 F1333.000
G1 X133.392 Y55.587 Z2.800 F1999.800
G1 X132.750 Y55.587 Z1.688 F1333.000
G1 X130.588 Y55.587 Z1.688 F1999.800
G1 X130.123 Y55.123 Z1.688 F1999.800
G1 X130.588 Y55.587 Z1.688 F1999.800
G1 X130.588 Y55.587 Z1.158 F999.600
G1 X130.588 Y60.054 Z1.158 F1999.800
G1 X130.588 Y61.002 Z2.800 F1333.000
G1 X130.588 Y64.678 Z2.800 F1999.800
G1 X130.588 Y65.626 Z1.158 F1333.000
G1 X130.588 Y70.412 Z1.158 F1999.800
G1 X130.123 Y70.877 Z1.158 F1999.800
G1 X130.588 Y70.412 Z1.158 F1999.800
G1 X132.444 Y70.412 Z1.158 F1999.800
G1 X133.392 Y70.412 Z2.800 F1333.000
G1 X137.068 Y70.412 Z2.800 F1999.800
G1 X138.016 Y70.412 Z1.158 F1333.000
G1 X140.412 Y70.412 Z1.158 F1999.800
G1 X140.877 Y70.877 Z1.158 F1999.800
G1 X140.412 Y70.412 Z1.158 F1999.800
G1 X140.412 Y66.086 Z1.158 F1999.800
G1 X140.412 Y65.138 Z2.800 F1333.000
G1 X140.412 Y61.462 Z2.800 F1999.800
G1 X140.412 Y60.514 Z1.158 F1333.000
G1 X140.412 Y55.587 Z1.158 F1999.800
G1 X140.877 Y55.123 Z1.158 F1999.800
G1 X140.412 Y55.587 Z1.158 F1999.800
G1 X138.016 Y55.587 Z1.158 F1999.800
G1 X137.068 Y55.587 Z2.800 F1333.000
G1 X133.392 Y55.587 Z2.800 F1999.800
G1 X132.444 Y55.587 Z1.158 F1333.000
G1 X130.588 Y55.587 Z1.158 F1999.800
G1 X130.123 Y55.123 Z1.158 F1999.800
G1 X130.588 Y55.587 Z1.158 F1999.800
G1 X130.588 Y55.587 Z0.629 F999.600
G1 X130.588 Y59.749 Z0.629 F1999.800
G1 X130.588 Y61.002 Z2.800 F1333.000
G1 X130.588 Y64.678 Z2.800 F1999.800
G1 X130.588 Y65.931 Z0.629 F1333.000
G1 X130.588 Y70.412 Z0.629 F1999.800
G1 X130.123 Y70.877 Z0.629 F1999.800
G1 X130.588 Y70.412 Z0.629 F1999.800
G1 X132.139 Y70.412 Z0.629 F1999.800
G1 X133.392 Y70.412 Z2.800 F1333.000
G1 X137.068 Y70.412 Z2.800 F1999.800
G1 X138.321 Y70.412 Z0.629 F1333.000
G1 X140.412 Y70.412 Z0.629 F1999.800
G1 X140.877 Y70.877 Z0.629 F1999.800
G1 X140.412 Y70.412 Z0.629 F1999.800
G1 X140.412 Y66.391 Z0.629 F1999.800
G1 X140.412 Y65.138 Z2.800 F1333.000
G1 X140.412 Y61.462 Z2.800 F1999.800
G1 X140.412 Y60.209 Z0.629 F1333.000
G1 X140.412 Y55.587 Z0.629 F1999.800
G1 X140.877 Y55.123 Z0.629 F1999.800
G1 X140.412 Y55.587 Z0.629 F1999.800
G1 X138.321 Y55.587 Z0.629 F1999.800
G1 X137.068 Y55.587 Z2.800 F1333.000
G1 X133.392 Y55.587 Z2.800 F1999.800
G1 X132.139 Y55.587 Z0.629 F1333.000
G1 X130.588 Y55.587 Z0.629 F1999.800
G1 X130.123 Y55.123 Z0.629 F1999.800
G1 X130.588 Y55.587 Z0.629 F1999.800
G1 X130.588 Y55.587 Z0.100 F999.600
G1 X130.588 Y59.443 Z0.100 F1999.800
G1 X130.588 Y61.002 Z2.800 F1333.000
G1 X130.588 Y64.678 Z2.800 F1999.800
G1 X130.588 Y66.237 Z0.100 F1333.000
G1 X130.588 Y70.412 Z0.100 F1999.800
G1 X130.123 Y70.877 Z0.100 F1999.800
G1 X130.588 Y70.412 Z0.100 F1999.800
G1 X131.833 Y70.412 Z0.100 F1999.800
G1 X133.392 Y70.412 Z2.800 F1333.000
G1 X137.068 Y70.412 Z2.800 F1999.800
G1 X138.627 Y70.412 Z0.100 F1333.000
G1 X140.412 Y70.412 Z0.100 F1999.800
G1 X140.877 Y70.877 Z0.100 F1999.800
G1 X140.412 Y70.412 Z0.100 F1999.800
G1 X140.412 Y66.697 Z0.100 F1999.800
G1 X140.412 Y65.138 Z2.800 F1333.000
G1 X140.412 Y61.462 Z2.800 F1999.800
G1 X140.412 Y59.903 Z0.100 F1333.000
G1 X140.412 Y55.587 Z0.100 F1999.800
G1 X140.877 Y55.123 Z0.100 F1999.800
G1 X140.412 Y55.587 Z0.100 F1999.800
G1 X138.627 Y55.587 Z0.100 F1999.800
G1 X137.068 Y55.587 Z2.800 F1333.000
G1 X133.392 Y55.587 Z2.800 F1999.800
G1 X131.833 Y55.587 Z0.100 F1333.000
G1 X130.588 Y55.587 Z0.100 F1999.800
G1 X130.123 Y55.123 Z0.100 F1999.800
G1 X130.588 Y55.587 Z0.100 F1999.800
G1 X130.588 Y55.587 Z-0.200 F999.600
G1 X130.588 Y59.270 Z-0.200 F1999.800
G1 X130.588 Y61.002 Z2.800 F1333.000
G1 X130.588 Y64.678 Z2.800 F1999.800
G1 X130.588 Y66.410 Z-0.200 F1333.000
G1 X130.588 Y70.412 Z-0.200 F1999.800
G1 X130.123 Y70.877 Z-0.200 F1999.800
G1 X130.588 Y70.412 Z-0.200 F1999.800
G1 X131.660 Y70.412 Z-0.200 F1999.800
G1 X133.392 Y70.412 Z2.800 F1333.000
G1 X137.068 Y70.412 Z2.800 F1999.800
G1 X138.800 Y70.412 Z-0.200 F1333.000
G1 X140.412 Y70.412 Z-0.200 F1999.800
G1 X140.877 Y70.877 Z-0.200 F1999.800
G1 X140.412 Y70.412 Z-0.200 F1999.800
G1 X140.412 Y66.870 Z-0.200 F1999.800
G1 X140.412 Y65.138 Z2.800 F1333.000
G1 X140.412 Y61.462 Z2.800 F1999.800
G1 X140.412 Y59.730 Z-0.200 F1333.000
G1 X140.412 Y55.587 Z-0.200 F1999.800
G1 X140.877 Y55.123 Z-0.200 F1999.800
G1 X140.412 Y55.587 Z-0.200 F1999.800
G1 X138.800 Y55.587 Z-0.200 F1999.800
G1 X137.068 Y55.587 Z2.800 F1333.000
G1 X133.392 Y55.587 Z2.800 F1999.800
G1 X131.660 Y55.587 Z-0.200 F1333.000
G1 X130.588 Y55.587 Z-0.200 F1999.800
G1 X130.123 Y55.123 Z-0.200 F1999.800
G1 X130.588 Y55.587 Z-0.200 F1999.800
G0 X130.588 Y55.587 Z17.800
G0 X130.588 Y25.413 Z17.800
G0 X130.588 Y25.413 Z15.800
G1 X130.588 Y25.413 Z12.271 F999.600
G1 X140.412 Y25.413 Z12.271 F1999.800
G1 X140.877 Y25.877 Z12.271 F1999.800
G1 X140.412 Y25.413 Z12.271 F1999.800
G1 X140.412 Y10.588 Z12.271 F1999.800
G1 X140.877 Y10.123 Z12.271 F1999.800
G1 X140.412 Y10.588 Z12.271 F1999.800
G1 X130.588 Y10.588 Z12.271 F1999.800
G1 X130.123 Y10.123 Z12.271 F1999.800
G1 X130.588 Y10.588 Z12.271 F1999.800
G1 X130.588 Y25.413 Z12.271 F1999.800
G1 X130.123 Y25.877 Z12.271 F1999.800
G1 X130.588 Y25.413 Z12.271 F1999.800
G1 X130.588 Y25.413 Z11.742 F999.600
G1 X140.412 Y25.413 Z11.742 F1999.800
G1 X140.877 Y25.877 Z11.742 F1999.800
G1 X140.412 Y25.413 Z11.742 F1999.800
G1 X140.412 Y10.588 Z11.742 F1999.800
G1 X140.877 Y10.123 Z11.742 F1999.800
G1 X140.412 Y10.588 Z11.742 F1999.800
G1 X130.588 Y10.588 Z11.742 F1999.800
G1 X130.123 Y10.123 Z11.742 F1999.800
G1 X130.588 Y10.588 Z11.742 F1999.800
G1 X130.588 Y25.413 Z11.742 F1999.800
G1 X130.123 Y25.877 Z11.742 F1999.800
G1 X130.588 Y25.413 Z11.742 F1999.800
G1 X130.588 Y25.413 Z11.213 F999.600
G1 X140.412 Y25.413 Z11.213 F1999.800
G1 X140.877 Y25.877 Z11.213 F1999.800
G1 X140.412 Y25.413 Z11.213 F1999.800
G1 X140.412 Y10.588 Z11.213 F1999.800
G1 X140.877 Y10.123 Z11.213 F1999.800
G1 X140.412 Y10.588 Z11.213 F1999.800
G1 X130.588 Y10.588 Z11.213 F1999.800
G1 X130.123 Y10.123 Z11.213 F1999.800
G1 X130.588 Y10.588 Z11.213 F1999.800
G1 X130.588 Y25.413 Z11.213 F1999.800
G1 X130.123 Y25.877 Z11.213 F1999.800
G1 X130.588 Y25.413 Z11.213 F1999.800
G1 X130.588 Y25.413 Z10.683 F999.600
G1 X140.412 Y25.413 Z10.683 F1999.800
G1 X140.877 Y25.877 Z10.683 F1999.800
G1 X140.412 Y25.413 Z10.683 F1999.800
G1 X140.412 Y10.588 Z10.683 F1999.800
G1 X140.877 Y10.123 Z10.683 F1999.800
G1 X140.412 Y10.588 Z10.683 F1999.800
G1 X130.588 Y10.588 Z10.683 F1999.800
G1 X130.123 Y10.123 Z10.683 F1999.800
G1 X130.588 Y10.588 Z10.683 F1999.800
G1 X130.588 Y25.413 Z10.683 F1999.800
G1 X130.123 Y25.877 Z10.683 F1999.800
G1 X130.588 Y25.413 Z10.683 F1999.800
G1 X130.588 Y25.413 Z10.154 F999.600
G1 X140.412 Y25.413 Z10.154 F1999.800
G1 X140.877 Y25.877 Z10.154 F1999.800
G1 X140.412 Y25.413 Z10.154 F1999.800
G1 X140.412 Y10.588 Z10.154 F1999.800
G1 X140.877 Y10.123 Z10.154 F1999.800
G1 X140.412 Y10.588 Z10.154 F1999.800
G1 X130.588 Y10.588 Z10.154 F1999.800
G1 X130.123 Y10.123 Z10.154 F1999.800
G1 X130.588 Y10.588 Z10.154 F1999.800
G1 X130.588 Y25.413 Z10.154 F1999.800
G1 X130.123 Y25.877 Z10.154 F1999.800
G1 X130.588 Y25.413 Z10.154 F1999.800
G1 X130.588 Y25.413 Z9.625 F999.600
G1 X140.412 Y25.413 Z9.625 F1999.800
G1 X140.877 Y25.877 Z9.625 F1999.800
G1 X140.412 Y25.413 Z9.625 F1999.800
G1 X140.412 Y10.588 Z9.625 F1999.800
G1 X140.877 Y10.123 Z9.625 F1999.800
G1 X140.412 Y10.588 Z9.625 F1999.800
G1 X130.588 Y10.588 Z9.625 F1999.800
G1 X130.123 Y10.123 Z9.625 F1999.800
G1 X130.588 Y10.588 Z9.625 F1999.800
G1 X130.588 Y25.413 Z9.625 F1999.800
G1 X130.123 Y25.877 Z9.625 F1999.800
G1 X130.588 Y25.413 Z9.625 F1999.800
G1 X130.588 Y25.413 Z9.096 F999.600
G1 X140.412 Y25.413 Z9.096 F1999.800
G1 X140.877 Y25.877 Z9.096 F1999.800
G1 X140.412 Y25.413 Z9.096 F1999.800
G1 X140.412 Y10.588 Z9.096 F1999.800
G1 X140.877 Y10.123 Z9.096 F1999.800
G1 X140.412 Y10.588 Z9.096 F1999.800
G1 X130.588 Y10.588 Z9.096 F1999.800
G1 X130.123 Y10.123 Z9.096 F1999.800
G1 X130.588 Y10.588 Z9.096 F1999.800
G1 X130.588 Y25.413 Z9.096 F1999.800
G1 X130.123 Y25.877 Z9.096 F1999.800
G1 X130.588 Y25.413 Z9.096 F1999.800
G1 X130.588 Y25.413 Z8.567 F999.600
G1 X140.412 Y25.413 Z8.567 F1999.800
G1 X140.877 Y25.877 Z8.567 F1999.800
G1 X140.412 Y25.413 Z8.567 F1999.800
G1 X140.412 Y10.588 Z8.567 F1999.800
G1 X140.877 Y10.123 Z8.567 F1999.800
G1 X140.412 Y10.588 Z8.567 F1999.800
G1 X130.588 Y10.588 Z8.567 F1999.800
G1 X130.123 Y10.123 Z8.567 F1999.800
G1 X130.588 Y10.588 Z8.567 F1999.800
G1 X130.588 Y25.413 Z8.567 F1999.800
G1 X130.123 Y25.877 Z8.567 F1999.800
G1 X130.588 Y25.413 Z8.567 F1999.800
G1 X130.588 Y25.413 Z8.037 F999.600
G1 X140.412 Y25.413 Z8.037 F1999.800
G1 X140.877 Y25.877 Z8.037 F1999.800
G1 X140.412 Y25.413 Z8.037 F1999.800
G1 X140.412 Y10.588 Z8.037 F1999.800
G1 X140.877 Y10.123 Z8.037 F1999.800
G1 X140.412 Y10.588 Z8.037 F1999.800
G1 X130.588 Y10.588 Z8.037 F1999.800
G1 X130.123 Y10.123 Z8.037 F1999.800
G1 X130.588 Y10.588 Z8.037 F1999.800
G1 X130.588 Y25.413 Z8.037 F1999.800
G1 X130.123 Y25.877 Z8.037 F1999.800
G1 X130.588 Y25.413 Z8.037 F1999.800
G1 X130.588 Y25.413 Z7.508 F999.600
G1 X140.412 Y25.413 Z7.508 F1999.800
G1 X140.877 Y25.877 Z7.508 F1999.800
G1 X140.412 Y25.413 Z7.508 F1999.800
G1 X140.412 Y10.588 Z7.508 F1999.800
G1 X140.877 Y10.123 Z7.508 F1999.800
G1 X140.412 Y10.588 Z7.508 F1999.800
G1 X130.588 Y10.588 Z7.508 F1999.800
G1 X130.123 Y10.123 Z7.508 F1999.800
G1 X130.588 Y10.588 Z7.508 F1999.800
G1 X130.588 Y25.413 Z7.508 F1999.800
G1 X130.123 Y25.877 Z7.508 F1999.800
G1 X130.588 Y25.413 Z7.508 F1999.800
G1 X130.588 Y25.413 Z6.979 F999.600
G1 X140.412 Y25.413 Z6.979 F1999.800
G1 X140.877 Y25.877 Z6.979 F1999.800
G1 X140.412 Y25.413 Z6.979 F1999.800
G1 X140.412 Y10.588 Z6.979 F1999.800
G1 X140.877 Y10.123 Z6.979 F1999.800
G1 X140.412 Y10.588 Z6.979 F1999.800
G1 X130.588 Y10.588 Z6.979 F1999.800
G1 X130.123 Y10.123 Z6.979 F1999.800
G1 X130.588 Y10.588 Z6.979 F1999.800
G1 X130.588 Y25.413 Z6.979 F1999.800
G1 X130.123 Y25.877 Z6.979 F1999.800
G1 X130.588 Y25.413 Z6.979 F1999.800
G1 X130.588 Y25.413 Z6.450 F999.600
G1 X140.412 Y25.413 Z6.450 F1999.800
G1 X140.877 Y25.877 Z6.450 F1999.800
G1 X140.412 Y25.413 Z6.450 F1999.800
G1 X140.412 Y10.588 Z6.450 F1999.800
G1 X140.877 Y10.123 Z6.450 F1999.800
G1 X140.412 Y10.588 Z6.450 F1999.800
G1 X130.588 Y10.588 Z6.450 F1999.800
G1 X130.123 Y10.123 Z6.450 F1999.800
G1 X130.588 Y10.588 Z6.450 F1999.800
G1 X130.588 Y25.413 Z6.450 F1999.800
G1 X130.123 Y25.877 Z6.450 F1999.800
G1 X130.588 Y25.413 Z6.450 F1999.800
G1 X130.588 Y25.413 Z5.921 F999.600
G1 X140.412 Y25.413 Z5.921 F1999.800
G1 X140.877 Y25.877 Z5.921 F1999.800
G1 X140.412 Y25.413 Z5.921 F1999.800
G1 X140.412 Y10.588 Z5.921 F1999.800
G1 X140.877 Y10.123 Z5.921 F1999.800
G1 X140.412 Y10.588 Z5.921 F1999.800
G1 X130.588 Y10.588 Z5.921 F1999.800
G1 X130.123 Y10.123 Z5.921 F1999.800
G1 X130.588 Y10.588 Z5.921 F1999.800
G1 X130.588 Y25.413 Z5.921 F1999.800
G1 X130.123 Y25.877 Z5.921 F1999.800
G1 X130.588 Y25.413 Z5.921 F1999.800
G1 X130.588 Y25.413 Z5.392 F999.600
G1 X140.412 Y25.413 Z5.392 F1999.800
G1 X140.877 Y25.877 Z5.392 F1999.800
G1 X140.412 Y25.413 Z5.392 F1999.800
G1 X140.412 Y10.588 Z5.392 F1999.800
G1 X140.877 Y10.123 Z5.392 F1999.800
G1 X140.412 Y10.588 Z5.392 F1999.800
G1 X130.588 Y10.588 Z5.392 F1999.800
G1 X130.123 Y10.123 Z5.392 F1999.800
G1 X130.588 Y10.588 Z5.392 F1999.800
G1 X130.588 Y25.413 Z5.392 F1999.800
G1 X130.123 Y25.877 Z5.392 F1999.800
G1 X130.588 Y25.413 Z5.392 F1999.800
G1 X130.588 Y25.413 Z4.862 F999.600
G1 X140.412 Y25.413 Z4.862 F1999.800
G1 X140.877 Y25.877 Z4.862 F1999.800
G1 X140.412 Y25.413 Z4.862 F1999.800
G1 X140.412 Y10.588 Z4.862 F1999.800
G1 X140.877 Y10.123 Z4.862 F1999.800
G1 X140.412 Y10.588 Z4.862 F1999.800
G1 X130.588 Y10.588 Z4.862 F1999.800
G1 X130.123 Y10.123 Z4.862 F1999.800
G1 X130.588 Y10.588 Z4.862 F1999.800
G1 X130.588 Y25.413 Z4.862 F1999.800
G1 X130.123 Y25.877 Z4.862 F1999.800
G1 X130.588 Y25.413 Z4.862 F1999.800
G1 X130.588 Y25.413 Z4.333 F999.600
G1 X140.412 Y25.413 Z4.333 F1999.800
G1 X140.877 Y25.877 Z4.333 F1999.800
G1 X140.412 Y25.413 Z4.333 F1999.800
G1 X140.412 Y10.588 Z4.333 F1999.800
G1 X140.877 Y10.123 Z4.333 F1999.800
G1 X140.412 Y10.588 Z4.333 F1999.800
G1 X130.588 Y10.588 Z4.333 F1999.800
G1 X130.123 Y10.123 Z4.333 F1999.800
G1 X130.588 Y10.588 Z4.333 F1999.800
G1 X130.588 Y25.413 Z4.333 F1999.800
G1 X130.123 Y25.877 Z4.333 F1999.800
G1 X130.588 Y25.413 Z4.333 F1999.800
G1 X130.588 Y25.413 Z3.804 F999.600
G1 X140.412 Y25.413 Z3.804 F1999.800
G1 X140.877 Y25.877 Z3.804 F1999.800
G1 X140.412 Y25.413 Z3.804 F1999.800
G1 X140.412 Y10.588 Z3.804 F1999.800
G1 X140.877 Y10.123 Z3.804 F1999.800
G1 X140.412 Y10.588 Z3.804 F1999.800
G1 X130.588 Y10.588 Z3.804 F1999.800
G1 X130.123 Y10.123 Z3.804 F1999.800
G1 X130.588 Y10.588 Z3.804 F1999.800
G1 X130.588 Y25.413 Z3.804 F1999.800
G1 X130.123 Y25.877 Z3.804 F1999.800
G1 X130.588 Y25.413 Z3.804 F1999.800
G1 X130.588 Y25.413 Z3.275 F999.600
G1 X140.412 Y25.413 Z3.275 F1999.800
G1 X140.877 Y25.877 Z3.275 F1999.800
G1 X140.412 Y25.413 Z3.275 F1999.800
G1 X140.412 Y10.588 Z3.275 F1999.800
G1 X140.877 Y10.123 Z3.275 F1999.800
G1 X140.412 Y10.588 Z3.275 F1999.800
G1 X130.588 Y10.588 Z3.275 F1999.800
G1 X130.123 Y10.123 Z3.275 F1999.800
G1 X130.588 Y10.588 Z3.275 F1999.800
G1 X130.588 Y25.413 Z3.275 F1999.800
G1 X130.123 Y25.877 Z3.275 F1999.800
G1 X130.588 Y25.413 Z3.275 F1999.800
G1 X130.588 Y25.413 Z2.746 F999.600
G1 X133.601 Y25.413 Z2.746 F1999.800
G1 X133.632 Y25.413 Z2.800 F1333.000
G1 X137.308 Y25.413 Z2.800 F1999.800
G1 X137.339 Y25.413 Z2.746 F1333.000
G1 X140.412 Y25.413 Z2.746 F1999.800
G1 X140.877 Y25.877 Z2.746 F1999.800
G1 X140.412 Y25.413 Z2.746 F1999.800
G1 X140.412 Y19.429 Z2.746 F1999.800
G1 X140.412 Y19.398 Z2.800 F1333.000
G1 X140.412 Y15.722 Z2.800 F1999.800
G1 X140.412 Y15.691 Z2.746 F1333.000
G1 X140.412 Y10.588 Z2.746 F1999.800
G1 X140.877 Y10.123 Z2.746 F1999.800
G1 X140.412 Y10.588 Z2.746 F1999.800
G1 X137.339 Y10.588 Z2.746 F1999.800
G1 X137.308 Y10.588 Z2.800 F1333.000
G1 X133.632 Y10.588 Z2.800 F1999.800
G1 X133.601 Y10.588 Z2.746 F1333.000
G1 X130.588 Y10.588 Z2.746 F1999.800
G1 X130.123 Y10.123 Z2.746 F1999.800
G1 X130.588 Y10.588 Z2.746 F1999.800
G1 X130.588 Y16.151 Z2.746 F1999.800
G1 X130.588 Y16.182 Z2.800 F1333.000
G1 X130.588 Y19.858 Z2.800 F1999.800
G1 X130.588 Y19.889 Z2.746 F1333.000
G1 X130.588 Y25.413 Z2.746 F1999.800
G1 X130.123 Y25.877 Z2.746 F1999.800
G1 X130.588 Y25.413 Z2.746 F1999.800
G1 X130.588 Y25.413 Z2.217 F999.600
G1 X133.295 Y25.413 Z2.217 F1999.800
G1 X133.632 Y25.413 Z2.800 F1333.000
G1 X137.308 Y25.413 Z2.800 F1999.800
G1 X137.645 Y25.413 Z2.217 F1333.000
G1 X140.412 Y25.413 Z2.217 F1999.800
G1 X140.877 Y25.877 Z2.217 F1999.800
G1 X140.412 Y25.413 Z2.217 F1999.800
G1 X140.412 Y19.735 Z2.217 F1999.800
G1 X140.412 Y19.398 Z2.800 F1333.000
G1 X140.412 Y15.722 Z2.800 F1999.800
G1 X140.412 Y15.385 Z2.217 F1333.000
G1 X140.412 Y10.588 Z2.217 F1999.800
G1 X140.877 Y10.123 Z2.217 F1999.800
G1 X140.412 Y10.588 Z2.217 F1999.800
G1 X137.645 Y10.588 Z2.217 F1999.800
G1 X137.308 Y10.588 Z2.800 F1333.000
G1 X133.632 Y10.588 Z2.800 F1999.800
G1 X133.295 Y10.588 Z2.217 F1333.000
G1 X130.588 Y10.588 Z2.217 F1999.800
G1 X130.123 Y10.123 Z2.217 F1999.800
G1 X130.588 Y10.588 Z2.217 F1999.800
G1 X130.588 Y15.845 Z2.217 F1999.800
G1 X130.588 Y16.182 Z2.800 F1333.000
G1 X130.588 Y19.858 Z2.800 F1999.800
G1 X130.588 Y20.195 Z2.217 F1333.000
G1 X130.588 Y25.413 Z2.217 F1999.800
G1 X130.123 Y25.877 Z2.217 F1999.800
G1 X130.588 Y25.413 Z2.217 F1999.800
G1 X130.588 Y25.413 Z1.688 F999.600
G1 X132.990 Y25.413 Z1.688 F1999.800
G1 X133.632 Y25.413 Z2.800 F1333.000
G1 X137.308 Y25.413 Z2.800 F1999.800
G1 X137.950 Y25.413 Z1.688 F1333.000
G1 X140.412 Y25.413 Z1.688 F1999.800
G1 X140.877 Y25.877 Z1.688 F1999.800
G1 X140.412 Y25.413 Z1.688 F1999.800
G1 X140.412 Y20.040 Z1.688 F1999.800
G1 X140.412 Y19.398 Z2.800 F1333.000
G1 X140.412 Y15.722 Z2.800 F1999.800
G1 X140.412 Y15.080 Z1.688 F1333.000
G1 X140.412 Y10.588 Z1.688 F1999.800
G1 X140.877 Y10.123 Z1.688 F1999.800
G1 X140.412 Y10.588 Z1.688 F1999.800
G1 X137.950 Y10.588 Z1.688 F1999.800
G1 X137.308 Y10.588 Z2.800 F1333.000
G1 X133.632 Y10.588 Z2.800 F1999.800
G1 X132.990 Y10.588 Z1.688 F1333.000
G1 X130.588 Y10.588 Z1.688 F1999.800
G1 X130.123 Y10.123 Z1.688 F1999.800
G1 X130.588 Y10.588 Z1.688 F1999.800
G1 X130.588 Y15.540 Z1.688 F1999.800
G1 X130.588 Y16.182 Z2.800 F1333.000
G1 X130.588 Y19.858 Z2.800 F1999.800
G1 X130.588 Y20.500 Z1.688 F1333.000
G1 X130.588 Y25.413 Z1.688 F1999.800
G1 X130.123 Y25.877 Z1.688 F1999.800
G1 X130.588 Y25.413 Z1.688 F1999.800
G1 X130.588 Y25.413 Z1.158 F999.600
G1 X132.684 Y25.413 Z1.158 F1999.800
G1 X133.632 Y25.413 Z2.800 F1333.000
G1 X137.308 Y25.413 Z2.800 F1999.800
G1 X138.256 Y25.413 Z1.158 F1333.000
G1 X140.412 Y25.413 Z1.158 F1999.800
G1 X140.877 Y25.877 Z1.158 F1999.800
G1 X140.412 Y25.413 Z1.158 F1999.800
G1 X140.412 Y20.346 Z1.158 F1999.800
G1 X140.412 Y19.398 Z2.800 F1333.000
G1 X140.412 Y15.722 Z2.800 F1999.800
G1 X140.412 Y14.774 Z1.158 F1333.000
G1 X140.412 Y10.588 Z1.158 F1999.800
G1 X140.877 Y10.123 Z1.158 F1999.800
G1 X140.412 Y10.588 Z1.158 F1999.800
G1 X138.256 Y10.588 Z1.158 F1999.800
G1 X137.308 Y10.588 Z2.800 F1333.000
G1 X133.632 Y10.588 Z2.800 F1999.800
G1 X132.684 Y10.588 Z1.158 F1333.000
G1 X130.588 Y10.588 Z1.158 F1999.800
G1 X130.123 Y10.123 Z1.158 F1999.800
G1 X130.588 Y10.588 Z1.158 F1999.800
G1 X130.588 Y15.234 Z1.158 F1999.800
G1 X130.588 Y16.182 Z2.800 F1333.000
G1 X130.588 Y19.858 Z2.800 F1999.800
G1 X130.588 Y20.806 Z1.158 F1333.000
G1 X130.588 Y25.413 Z1.158 F1999.800
G1 X130.123 Y25.877 Z1.158 F1999.800
G1 X130.588 Y25.413 Z1.158 F1999.800
G1 X130.588 Y25.413 Z0.629 F999.600
G1 X132.379 Y25.413 Z0.629 F1999.800
G1 X133.632 Y25.413 Z2.800 F1333.000
G1 X137.308 Y25.413 Z2.800 F1999.800
G1 X138.561 Y25.413 Z0.629 F1333.000
G1 X140.412 Y25.413 Z0.629 F1999.800
G1 X140.877 Y25.877 Z0.629 F1999.800
G1 X140.412 Y25.413 Z0.629 F1999.800
G1 X140.412 Y20.651 Z0.629 F1999.800
G1 X140.412 Y19.398 Z2.800 F1333.000
G1 X140.412 Y15.722 Z2.800 F1999.800
G1 X140.412 Y14.469 Z0.629 F1333.000
G1 X140.412 Y10.588 Z0.629 F1999.800
G1 X140.877 Y10.123 Z0.629 F1999.800
G1 X140.412 Y10.588 Z0.629 F1999.800
G1 X138.561 Y10.588 Z0.629 F1999.800
G1 X137.308 Y10.588 Z2.800 F1333.000
G1 X133.632 Y10.588 Z2.800 F1999.800
G1 X132.379 Y10.588 Z0.629 F1333.000
G1 X130.588 Y10.588 Z0.629 F1999.800
G1 X130.123 Y10.123 Z0.629 F1999.800
G1 X130.588 Y10.588 Z0.629 F1999.800
G1 X130.588 Y14.929 Z0.629 F1999.800
G1 X130.588 Y16.182 Z2.800 F1333.000
G1 X130.588 Y19.858 Z2.800 F1999.800
G1 X130.588 Y21.111 Z0.629 F1333.000
G1 X130.588 Y25.413 Z0.629 F1999.800
G1 X130.123 Y25.877 Z0.629 F1999.800
G1 X130.588 Y25.413 Z0.629 F1999.800
G1 X130.588 Y25.413 Z0.100 F999.600
G1 X132.073 Y25.413 Z0.100 F1999.800
G1 X133.632 Y25.413 Z2.800 F1333.000
G1 X137.308 Y25.413 Z2.800 F1999.800
G1 X138.867 Y25.413 Z0.100 F1333.000
G1 X140.412 Y25.413 Z0.100 F1999.800
G1 X140.877 Y25.877 Z0.100 F1999.800
G1 X140.412 Y25.413 Z0.100 F1999.800
G1 X140.412 Y20.957 Z0.100 F1999.800
G1 X140.412 Y19.398 Z2.800 F1333.000
G1 X140.412 Y15.722 Z2.800 F1999.800
G1 X140.412 Y14.163 Z0.100 F1333.000
G1 X140.412 Y10.588 Z0.100 F1999.800
G1 X140.877 Y10.123 Z0.100 F1999.800
G1 X140.412 Y10.588 Z0.100 F1999.800
G1 X138.867 Y10.588 Z0.100 F1999.800
G1 X137.308 Y10.588 Z2.800 F1333.000
G1 X133.632 Y10.588 Z2.800 F1999.800
G1 X132.073 Y10.588 Z0.100 F1333.000
G1 X130.588 Y10.588 Z0.100 F1999.800
G1 X130.123 Y10.123 Z0.100 F1999.800
G1 X130.588 Y10.588 Z0.100 F1999.800
G1 X130.588 Y14.623 Z0.100 F1999.800
G1 X130.588 Y16.182 Z2.800 F1333.000
G1 X130.588 Y19.858 Z2.800 F1999.800
G1 X130.588 Y21.417 Z0.100 F1333.000
G1 X130.588 Y25.413 Z0.100 F1999.800
G1 X130.123 Y25.877 Z0.100 F1999.800
G1 X130.588 Y25.413 Z0.100 F1999.800
G1 X130.588 Y25.413 Z-0.200 F999.600
G1 X131.900 Y25.413 Z-0.200 F1999.800
G1 X133.632 Y25.413 Z2.800 F1333.000
G1 X137.308 Y25.413 Z2.800 F1999.800
G1 X139.040 Y25.413 Z-0.200 F1333.000
G1 X140.412 Y25.413 Z-0.200 F1999.800
G1 X140.877 Y25.877 Z-0.200 F1999.800
G1 X140.412 Y25.413 Z-0.200 F1999.800
G1 X140.412 Y21.130 Z-0.200 F1999.800
G1 X140.412 Y19.398 Z2.800 F1333.000
G1 X140.412 Y15.722 Z2.800 F1999.800
G1 X140.412 Y13.990 Z-0.200 F1333.000
G1 X140.412 Y10.588 Z-0.200 F1999.800
G1 X140.877 Y10.123 Z-0.200 F1999.800
G1 X140.412 Y10.588 Z-0.200 F1999.800
G1 X139.040 Y10.588 Z-0.200 F1999.800
G1 X137.308 Y10.588 Z2.800 F1333.000
G1 X133.632 Y10.588 Z2.800 F1999.800
G1 X131.900 Y10.588 Z-0.200 F1333.000
G1 X130.588 Y10.588 Z-0.200 F1999.800
G1 X130.123 Y10.123 Z-0.200 F1999.800
G1 X130.588 Y10.588 Z-0.200 F1999.800
G1 X130.588 Y14.450 Z-0.200 F1999.800
G1 X130.588 Y16.182 Z2.800 F1333.000
G1 X130.588 Y19.858 Z2.800 F1999.800
G1 X130.588 Y21.590 Z-0.200 F1333.000
G1 X130.588 Y25.413 Z-0.200 F1999.800
G1 X130.123 Y25.877 Z-0.200 F1999.800
G1 X130.588 Y25.413 Z-0.200 F1999.800
G0 X130.588 Y25.413 Z17.800
(Finish operation: Handle_Holes_With_Tags)
(Begin operation: Handle_Profile_With_Tags)
(Path: Handle_Profile_With_Tags)
G0 Z17.800
G0 X156.948 Y80.758 Z17.800
G0 X156.948 Y80.758 Z15.800
G1 X156.948 Y80.758 Z12.271 F999.600
G3 X151.000 Y82.588 Z12.271 I-5.950 J-8.759 K0.000 F1999.800
G1 X130.588 Y82.588 Z12.271 F1999.800
G1 X130.123 Y82.123 Z12.271 F1999.800
G1 X130.588 Y82.588 Z12.271 F1999.800
G1 X130.588 Y86.000 Z12.271 F1999.800
G3 X129.000 Y87.588 Z12.271 I-1.587 J0.000 K0.000 F1999.800
G1 X116.000 Y87.588 Z12.271 F1999.800
G3 X114.612 Y86.771 Z12.271 I-0.000 J-1.587 K0.000 F1999.800
G2 X107.901 Y82.588 Z12.271 I-6.682 J3.246 K0.000 F1999.800
G1 X-107.901 Y82.588 Z12.271 F1999.800
G2 X-114.612 Y86.771 Z12.271 I-0.029 J7.429 K0.000 F1999.800
G3 X-116.000 Y87.588 Z12.271 I-1.388 J-0.771 K0.000 F1999.800
G1 X-129.000 Y87.588 Z12.271 F1999.800
G3 X-130.588 Y86.000 Z12.271 I-0.000 J-1.587 K0.000 F1999.800
G1 X-130.588 Y82.587 Z12.271 F1999.800
G1 X-130.123 Y82.122 Z12.271 F1999.800
G1 X-130.588 Y82.587 Z12.271 F1999.800
G1 X-151.073 Y82.586 Z12.271 F1999.800
G3 X-161.588 Y72.000 Z12.271 I0.074 J-10.588 K0.000 F1999.800
G1 X-161.586 Y8.927 Z12.271 F1999.800
G3 X-151.000 Y-1.587 Z12.271 I10.588 J0.074 K0.000 F1999.800
G1 X-124.927 Y-1.586 Z12.271 F1999.800
G3 X-114.412 Y9.000 Z12.271 I-0.074 J10.588 K0.000 F1999.800
G1 X-114.412 Y44.963 Z12.271 F1999.800
G2 X-106.963 Y52.413 Z12.271 I7.417 J0.032 K0.000 F1999.800
G1 X106.963 Y52.413 Z12.271 F1999.800
G2 X114.413 Y44.963 Z12.271 I0.032 J-7.417 K0.000 F1999.800
G1 X114.414 Y8.927 Z12.271 F1999.800
G3 X125.000 Y-1.587 Z12.271 I10.588 J0.074 K0.000 F1999.800
G1 X151.073 Y-1.586 Z12.271 F1999.800
G3 X161.588 Y9.000 Z12.271 I-0.074 J10.588 K0.000 F1999.800
G1 X161.586 Y72.073 Z12.271 F1999.800
G3 X156.948 Y80.758 Z12.271 I-10.588 J-0.074 K0.000 F1999.800
G1 X156.948 Y80.758 Z11.742 F999.600
G3 X151.000 Y82.588 Z11.742 I-5.950 J-8.759 K0.000 F1999.800
G1 X130.588 Y82.588 Z11.742 F1999.800
G1 X130.123 Y82.123 Z11.742 F1999.800
G1 X130.588 Y82.588 Z11.742 F1999.800
G1 X130.588 Y86.000 Z11.742 F1999.800
G3 X129.000 Y87.588 Z11.742 I-1.587 J0.000 K0.000 F1999.800
G1 X116.000 Y87.588 Z11.742 F1999.800
G3 X114.612 Y86.771 Z11.742 I-0.000 J-1.587 K0.000 F1999.800
G2 X107.901 Y82.588 Z11.742 I-6.682 J3.246 K0.000 F1999.800
G1 X-107.901 Y82.588 Z11.742 F1999.800
G2 X-114.612 Y86.771 Z11.742 I-0.029 J7.429 K0.000 F1999.800
G3 X-116.000 Y87.588 Z11.742 I-1.388 J-0.771 K0.000 F1999.800
G1 X-129.000 Y87.588 Z11.742 F1999.800
G3 X-130.588 Y86.000 Z11.742 I-0.000 J-1.587 K0.000 F1999.800
G1 X-130.588 Y82.587 Z11.742 F1999.800
G1 X-130.123 Y82.122 Z11.742 F1999.800
G1 X-130.588 Y82.587 Z11.742 F1999.800
G1 X-151.073 Y82.586 Z11.742 F1999.800
G3 X-161.588 Y72.000 Z11.742 I0.074 J-10.588 K0.000 F1999.800
G1 X-161.586 Y8.927 Z11.742 F1999.800
G3 X-151.000 Y-1.587 Z11.742 I10.588 J0.074 K0.000 F1999.800
G1 X-124.927 Y-1.586 Z11.742 F1999.800
G3 X-114.412 Y9.000 Z11.742 I-0.074 J10.588 K0.000 F1999.800
G1 X-114.412 Y44.963 Z11.742 F1999.800
G2 X-106.963 Y52.413 Z11.742 I7.417 J0.032 K0.000 F1999.800
G1 X106.963 Y52.413 Z11.742 F1999.800
G2 X114.413 Y44.963 Z11.742 I0.032 J-7.417 K0.000 F1999.800
G1 X114.414 Y8.927 Z11.742 F1999.800
G3 X125.000 Y-1.587 Z11.742 I10.588 J0.074 K0.000 F1999.800
G1 X151.073 Y-1.586 Z11.742 F1999.800
G3 X161.588 Y9.000 Z11.742 I-0.074 J10.588 K0.000 F1999.800
G1 X161.586 Y72.073 Z11.742 F1999.800
G3 X156.948 Y80.758 Z11.742 I-10.588 J-0.074 K0.000 F1999.800
G1 X156.948 Y80.758 Z11.213 F999.600
G3 X151.000 Y82.588 Z11.213 I-5.950 J-8.759 K0.000 F1999.800
G1 X130.588 Y82.588 Z11.213 F1999.800
G1 X130.123 Y82.123 Z11.213 F1999.800
G1 X130.588 Y82.588 Z11.213 F1999.800
G1 X130.588 Y86.000 Z11.213 F1999.800
G3 X129.000 Y87.588 Z11.213 I-1.587 J0.000 K0.000 F1999.800
G1 X116.000 Y87.588 Z11.213 F1999.800
G3 X114.612 Y86.771 Z11.213 I-0.000 J-1.587 K0.000 F1999.800
G2 X107.901 Y82.588 Z11.213 I-6.682 J3.246 K0.000 F1999.800
G1 X-107.901 Y82.588 Z11.213 F1999.800
G2 X-114.612 Y86.771 Z11.213 I-0.029 J7.429 K0.000 F1999.800
G3 X-116.000 Y87.588 Z11.213 I-1.388 J-0.771 K0.000 F1999.800
G1 X-129.000 Y87.588 Z11.213 F1999.800
G3 X-130.588 Y86.000 Z11.213 I-0.000 J-1.587 K0.000 F1999.800
G1 X-130.588 Y82.587 Z11.213 F1999.800
G1 X-130.123 Y82.122 Z11.213 F1999.800
G1 X-130.588 Y82.587 Z11.213 F1999.800
G1 X-151.073 Y82.586 Z11.213 F1999.800
G3 X-161.588 Y72.000 Z11.213 I0.074 J-10.588 K0.000 F1999.800
G1 X-161.586 Y8.927 Z11.213 F1999.800
G3 X-151.000 Y-1.587 Z11.213 I10.588 J0.074 K0.000 F1999.800
G1 X-124.927 Y-1.586 Z11.213 F1999.800
G3 X-114.412 Y9.000 Z11.213 I-0.074 J10.588 K0.000 F1999.800
G1 X-114.412 Y44.963 Z11.213 F1999.800
G2 X-106.963 Y52.413 Z11.213 I7.417 J0.032 K0.000 F1999.800
G1 X106.963 Y52.413 Z11.213 F1999.800
G2 X114.413 Y44.963 Z11.213 I0.032 J-7.417 K0.000 F1999.800
G1 X114.414 Y8.927 Z11.213 F1999.800
G3 X125.000 Y-1.587 Z11.213 I10.588 J0.074 K0.000 F1999.800
G1 X151.073 Y-1.586 Z11.213 F1999.800
G3 X161.588 Y9.000 Z11.213 I-0.074 J10.588 K0.000 F1999.800
G1 X161.586 Y72.073 Z11.213 F1999.800
G3 X156.948 Y80.758 Z11.213 I-10.588 J-0.074 K0.000 F1999.800
G1 X156.948 Y80.758 Z10.683 F999.600
G3 X151.000 Y82.588 Z10.683 I-5.950 J-8.759 K0.000 F1999.800
G1 X130.588 Y82.588 Z10.683 F1999.800
G1 X130.123 Y82.123 Z10.683 F1999.800
G1 X130.588 Y82.588 Z10.683 F1999.800
G1 X130.588 Y86.000 Z10.683 F1999.800
G3 X129.000 Y87.588 Z10.683 I-1.587 J0.000 K0.000 F1999.800
G1 X116.000 Y87.588 Z10.683 F1999.800
G3 X114.612 Y86.771 Z10.683 I-0.000 J-1.587 K0.000 F1999.800
G2 X107.901 Y82.588 Z10.683 I-6.682 J3.246 K0.000 F1999.800
G1 X-107.901 Y82.588 Z10.683 F1999.800
G2 X-114.612 Y86.771 Z10.683 I-0.029 J7.429 K0.000 F1999.800
G3 X-116.000 Y87.588 Z10.683 I-1.388 J-0.771 K0.000 F1999.800
G1 X-129.000 Y87.588 Z10.683 F1999.800
G3 X-130.588 Y86.000 Z10.683 I-0.000 J-1.587 K0.000 F1999.800
G1 X-130.588 Y82.587 Z10.683 F1999.800
G1 X-130.123 Y82.122 Z10.683 F1999.800
G1 X-130.588 Y82.587 Z10.683 F1999.800
G1 X-151.073 Y82.586 Z10.683 F1999.800
G3 X-161.588 Y72.000 Z10.683 I0.074 J-10.588 K0.000 F1999.800
G1 X-161.586 Y8.927 Z10.683 F1999.800
G3 X-151.000 Y-1.587 Z10.683 I10.588 J0.074 K0.000 F1999.800
G1 X-124.927 Y-1.586 Z10.683 F1999.800
G3 X-114.412 Y9.000 Z10.683 I-0.074 J10.588 K0.000 F1999.800
G1 X-114.412 Y44.963 Z10.683 F1999.800
G2 X-106.963 Y52.413 Z10.683 I7.417 J0.032 K0.000 F1999.800
G1 X106.963 Y52.413 Z10.683 F1999.800
G2 X114.413 Y44.963 Z10.683 I0.032 J-7.417 K0.000 F1999.800
G1 X114.414 Y8.927 Z10.683 F1999.800
G3 X125.000 Y-1.587 Z10.683 I10.588 J0.074 K0.000 F1999.800
G1 X151.073 Y-1.586 Z10.683 F1999.800
G3 X161.588 Y9.000 Z10.683 I-0.074 J10.588 K0.000 F1999.800
G1 X161.586 Y72.073 Z10.683 F1999.800
G3 X156.948 Y80.758 Z10.683 I-10.588 J-0.074 K0.000 F1999.800
G1 X156.948 Y80.758 Z10.154 F999.600
G3 X151.000 Y82.588 Z10.154 I-5.950 J-8.759 K0.000 F1999.800
G1 X130.588 Y82.588 Z10.154 F1999.800
G1 X130.123 Y82.123 Z10.154 F1999.800
G1 X130.588 Y82.588 Z10.154 F1999.800
G1 X130.588 Y86.000 Z10.154 F1999.800
G3 X129.000 Y87.588 Z10.154 I-1.587 J0.000 K0.000 F1999.800
G1 X116.000 Y87.588 Z10.154 F1999.800
G3 X114.612 Y86.771 Z10.154 I-0.000 J-1.587 K0.000 F1999.800
G2 X107.901 Y82.588 Z10.154 I-6.682 J3.246 K0.000 F1999.800
G1 X-107.901 Y82.588 Z10.154 F1999.800
G2 X-114.612 Y86.771 Z10.154 I-0.029 J7.429 K0.000 F1999.800
G3 X-116.000 Y87.588 Z10.154 I-1.388 J-0.771 K0.000 F1999.800
G1 X-129.000 Y87.588 Z10.154 F1999.800
G3 X-130.588 Y86.000 Z10.154 I-0.000 J-1.587 K0.000 F1999.800
G1 X-130.588 Y82.587 Z10.154 F1999.800
G1 X-130.123 Y82.122 Z10.154 F1999.800
G1 X-130.588 Y82.587 Z10.154 F1999.800
G1 X-151.073 Y82.586 Z10.154 F1999.800
G3 X-161.588 Y72.000 Z10.154 I0.074 J-10.588 K0.000 F1999.800
G1 X-161.586 Y8.927 Z10.154 F1999.800
G3 X-151.000 Y-1.587 Z10.154 I10.588 J0.074 K0.000 F1999.800
G1 X-124.927 Y-1.586 Z10.154 F1999.800
G3 X-114.412 Y9.000 Z10.154 I-0.074 J10.588 K0.000 F1999.800
G1 X-114.412 Y44.963 Z10.154 F1999.800
G2 X-106.963 Y52.413 Z10.154 I7.417 J0.032 K0.000 F1999.800
G1 X106.963 Y52.413 Z10.154 F1999.800
G2 X114.413 Y44.963 Z10.154 I0.032 J-7.417 K0.000 F1999.800
G1 X114.414 Y8.927 Z10.154 F1999.800
G3 X125.000 Y-1.587 Z10.154 I10.588 J0.074 K0.000 F1999.800
G1 X151.073 Y-1.586 Z10.154 F1999.800
G3 X161.588 Y9.000 Z10.154 I-0.074 J10.588 K0.000 F1999.800
G1 X161.586 Y72.073 Z10.154 F1999.800
G3 X156.948 Y80.758 Z10.154 I-10.588 J-0.074 K0.000 F1999.800
G1 X156.948 Y80.758 Z9.625 F999.600
G3 X151.000 Y82.588 Z9.625 I-5.950 J-8.759 K0.000 F1999.800
G1 X130.588 Y82.588 Z9.625 F1999.800
G1 X130.123 Y82.123 Z9.625 F1999.800
G1 X130.588 Y82.588 Z9.625 F1999.800
G1 X130.588 Y86.000 Z9.625 F1999.800
G3 X129.000 Y87.588 Z9.625 I-1.587 J0.000 K0.000 F1999.800
G1 X116.000 Y87.588 Z9.625 F1999.800
G3 X114.612 Y86.771 Z9.625 I-0.000 J-1.587 K0.000 F1999.800
G2 X107.901 Y82.588 Z9.625 I-6.682 J3.246 K0.000 F1999.800
G1 X-107.901 Y82.588 Z9.625 F1999.800
G2 X-114.612 Y86.771 Z9.625 I-0.029 J7.429 K0.000 F1999.800
G3 X-116.000 Y87.588 Z9.625 I-1.388 J-0.771 K0.000 F1999.800
G1 X-129.000 Y87.588 Z9.625 F1999.800
G3 X-130.588 Y86.000 Z9.625 I-0.000 J-1.587 K0.000 F1999.800
G1 X-130.588 Y82.587 Z9.625 F1999.800
G1 X-130.123 Y82.122 Z9.625 F1999.800
G1 X-130.588 Y82.587 Z9.625 F1999.800
G1 X-151.073 Y82.586 Z9.625 F1999.800
G3 X-161.588 Y72.000 Z9.625 I0.074 J-10.588 K0.000 F1999.800
G1 X-161.586 Y8.927 Z9.625 F1999.800
G3 X-151.000 Y-1.587 Z9.625 I10.588 J0.074 K0.000 F1999.800
G1 X-124.927 Y-1.586 Z9.625 F1999.800
G3 X-114.412 Y9.000 Z9.625 I-0.074 J10.588 K0.000 F1999.800
G1 X-114.412 Y44.963 Z9.625 F1999.800
G2 X-106.963 Y52.413 Z9.625 I7.417 J0.032 K0.000 F1999.800
G1 X106.963 Y52.413 Z9.625 F1999.800
G2 X114.413 Y44.963 Z9.625 I0.032 J-7.417 K0.000 F1999.800
G1 X114.414 Y8.927 Z9.625 F1999.800
G3 X125.000 Y-1.587 Z9.625 I10.588 J0.074 K0.000 F1999.800
G1 X151.073 Y-1.586 Z9.625 F1999.800
G3 X161.588 Y9.000 Z9.625 I-0.074 J10.588 K0.000 F1999.800
G1 X161.586 Y72.073 Z9.625 F1999.800
G3 X156.948 Y80.758 Z9.625 I-10.588 J-0.074 K0.000 F1999.800
G1 X156.948 Y80.758 Z9.096 F999.600
G3 X151.000 Y82.588 Z9.096 I-5.950 J-8.759 K0.000 F1999.800
G1 X130.588 Y82.588 Z9.096 F1999.800
G1 X130.123 Y82.123 Z9.096 F1999.800
G1 X130.588 Y82.588 Z9.096 F1999.800
G1 X130.588 Y86.000 Z9.096 F1999.800
G3 X129.000 Y87.588 Z9.096 I-1.587 J0.000 K0.000 F1999.800
G1 X116.000 Y87.588 Z9.096 F1999.800
G3 X114.612 Y86.771 Z9.096 I-0.000 J-1.587 K0.000 F1999.800
G2 X107.901 Y82.588 Z9.096 I-6.682 J3.246 K0.000 F1999.800
G1 X-107.901 Y82.588 Z9.096 F1999.800
G2 X-114.612 Y86.771 Z9.096 I-0.029 J7.429 K0.000 F1999.800
G3 X-116.000 Y87.588 Z9.096 I-1.388 J-0.771 K0.000 F1999.800
G1 X-129.000 Y87.588 Z9.096 F1999.800
G3 X-130.588 Y86.000 Z9.096 I-0.000 J-1.587 K0.000 F1999.800
G1 X-130.588 Y82.587 Z9.096 F1999.800
G1 X-130.123 Y82.122 Z9.096 F1999.800
G1 X-130.588 Y82.587 Z9.096 F1999.800
G1 X-151.073 Y82.586 Z9.096 F1999.800
G3 X-161.588 Y72.000 Z9.096 I0.074 J-10.588 K0.000 F1999.800
G1 X-161.586 Y8.927 Z9.096 F1999.800
G3 X-151.000 Y-1.587 Z9.096 I10.588 J0.074 K0.000 F1999.800
G1 X-124.927 Y-1.586 Z9.096 F1999.800
G3 X-114.412 Y9.000 Z9.096 I-0.074 J10.588 K0.000 F1999.800
G1 X-114.412 Y44.963 Z9.096 F1999.800
G2 X-106.963 Y52.413 Z9.096 I7.417 J0.032 K0.000 F1999.800
G1 X106.963 Y52.413 Z9.096 F1999.800
G2 X114.413 Y44.963 Z9.096 I0.032 J-7.417 K0.000 F1999.800
G1 X114.414 Y8.927 Z9.096 F1999.800
G3 X125.000 Y-1.587 Z9.096 I10.588 J0.074 K0.000 F1999.800
G1 X151.073 Y-1.586 Z9.096 F1999.800
G3 X161.588 Y9.000 Z9.096 I-0.074 J10.588 K0.000 F1999.800
G1 X161.586 Y72.073 Z9.096 F1999.800
G3 X156.948 Y80.758 Z9.096 I-10.588 J-0.074 K0.000 F1999.800
G1 X156.948 Y80.758 Z8.567 F999.600
G3 X151.000 Y82.588 Z8.567 I-5.950 J-8.759 K0.000 F1999.800
G1 X130.588 Y82.588 Z8.567 F1999.800
G1 X130.123 Y82.123 Z8.567 F1999.800
G1 X130.588 Y82.588 Z8.567 F1999.800
G1 X130.588 Y86.000 Z8.567 F1999.800
G3 X129.000 Y87.588 Z8.567 I-1.587 J0.000 K0.000 F1999.800
G1 X116.000 Y87.588 Z8.567 F1999.800
G3 X114.612 Y86.771 Z8.567 I-0.000 J-1.587 K0.000 F1999.800
G2 X107.901 Y82.588 Z8.567 I-6.682 J3.246 K0.000 F1999.800
G1 X-107.901 Y82.588 Z8.567 F1999.800
G2 X-114.612 Y86.771 Z8.567 I-0.029 J7.429 K0.000 F1999.800
G3 X-116.000 Y87.588 Z8.567 I-1.388 J-0.771 K0.000 F1999.800
G1 X-129.000 Y87.588 Z8.567 F1999.800
G3 X-130.588 Y86.000 Z8.567 I-0.000 J-1.587 K0.000 F1999.800
G1 X-130.588 Y82.587 Z8.567 F1999.800
G1 X-130.123 Y82.122 Z8.567 F1999.800
G1 X-130.588 Y82.587 Z8.567 F1999.800
G1 X-151.073 Y82.586 Z8.567 F1999.800
G3 X-161.588 Y72.000 Z8.567 I0.074 J-10.588 K0.000 F1999.800
G1 X-161.586 Y8.927 Z8.567 F1999.800
G3 X-151.000 Y-1.587 Z8.567 I10.588 J0.074 K0.000 F1999.800
G1 X-124.927 Y-1.586 Z8.567 F1999.800
G3 X-114.412 Y9.000 Z8.567 I-0.074 J10.588 K0.000 F1999.800
G1 X-114.412 Y44.963 Z8.567 F1999.800
G2 X-106.963 Y52.413 Z8.567 I7.417 J0.032 K0.000 F1999.800
G1 X106.963 Y52.413 Z8.567 F1999.800
G2 X114.413 Y44.963 Z8.567 I0.032 J-7.417 K0.000 F1999.800
G1 X114.414 Y8.927 Z8.567 F1999.800
G3 X125.000 Y-1.587 Z8.567 I10.588 J0.074 K0.000 F1999.800
G1 X151.073 Y-1.586 Z8.567 F1999.800
G3 X161.588 Y9.000 Z8.567 I-0.074 J10.588 K0.000 F1999.800
G1 X161.586 Y72.073 Z8.567 F1999.800
G3 X156.948 Y80.758 Z8.567 I-10.588 J-0.074 K0.000 F1999.800
G1 X156.948 Y80.758 Z8.037 F999.600
G3 X151.000 Y82.588 Z8.037 I-5.950 J-8.759 K0.000 F1999.800
G1 X130.588 Y82.588 Z8.037 F1999.800
G1 X130.123 Y82.123 Z8.037 F1999.800
G1 X130.588 Y82.588 Z8.037 F1999.800
G1 X130.588 Y86.000 Z8.037 F1999.800
G3 X129.000 Y87.588 Z8.037 I-1.587 J0.000 K0.000 F1999.800
G1 X116.000 Y87.588 Z8.037 F1999.800
G3 X114.612 Y86.771 Z8.037 I-0.000 J-1.587 K0.000 F1999.800
G2 X107.901 Y82.588 Z8.037 I-6.682 J3.246 K0.000 F1999.800
G1 X-107.901 Y82.588 Z8.037 F1999.800
G2 X-114.612 Y86.771 Z8.037 I-0.029 J7.429 K0.000 F1999.800
G3 X-116.000 Y87.588 Z8.037 I-1.388 J-0.771 K0.000 F1999.800
G1 X-129.000 Y87.588 Z8.037 F1999.800
G3 X-130.588 Y86.000 Z8.037 I-0.000 J-1.587 K0.000 F1999.800
G1 X-130.588 Y82.587 Z8.037 F1999.800
G1 X-130.123 Y82.122 Z8.037 F1999.800
G1 X-130.588 Y82.587 Z8.037 F1999.800
G1 X-151.073 Y82.586 Z8.037 F1999.800
G3 X-161.588 Y72.000 Z8.037 I0.074 J-10.588 K0.000 F1999.800
G1 X-161.586 Y8.927 Z8.037 F1999.800
G3 X-151.000 Y-1.587 Z8.037 I10.588 J0.074 K0.000 F1999.800
G1 X-124.927 Y-1.586 Z8.037 F1999.800
G3 X-114.412 Y9.000 Z8.037 I-0.074 J10.588 K0.000 F1999.800
G1 X-114.412 Y44.963 Z8.037 F1999.800
G2 X-106.963 Y52.413 Z8.037 I7.417 J0.032 K0.000 F1999.800
G1 X106.963 Y52.413 Z8.037 F1999.800
G2 X114.413 Y44.963 Z8.037 I0.032 J-7.417 K0.000 F1999.800
G1 X114.414 Y8.927 Z8.037 F1999.800
G3 X125.000 Y-1.587 Z8.037 I10.588 J0.074 K0.000 F1999.800
G1 X151.073 Y-1.586 Z8.037 F1999.800
G3 X161.588 Y9.000 Z8.037 I-0.074 J10.588 K0.000 F1999.800
G1 X161.586 Y72.073 Z8.037 F1999.800
G3 X156.948 Y80.758 Z8.037 I-10.588 J-0.074 K0.000 F1999.800
G1 X156.948 Y80.758 Z7.508 F999.600
G3 X151.000 Y82.588 Z7.508 I-5.950 J-8.759 K0.000 F1999.800
G1 X130.588 Y82.588 Z7.508 F1999.800
G1 X130.123 Y82.123 Z7.508 F1999.800
G1 X130.588 Y82.588 Z7.508 F1999.800
G1 X130.588 Y86.000 Z7.508 F1999.800
G3 X129.000 Y87.588 Z7.508 I-1.587 J0.000 K0.000 F1999.800
G1 X116.000 Y87.588 Z7.508 F1999.800
G3 X114.612 Y86.771 Z7.508 I-0.000 J-1.587 K0.000 F1999.800
G2 X107.901 Y82.588 Z7.508 I-6.682 J3.246 K0.000 F1999.800
G1 X-107.901 Y82.588 Z7.508 F1999.800
G2 X-114.612 Y86.771 Z7.508 I-0.029 J7.429 K0.000 F1999.800
G3 X-116.000 Y87.588 Z7.508 I-1.388 J-0.771 K0.000 F1999.800
G1 X-129.000 Y87.588 Z7.508 F1999.800
G3 X-130.588 Y86.000 Z7.508 I-0.000 J-1.587 K0.000 F1999.800
G1 X-130.588 Y82.587 Z7.508 F1999.800
G1 X-130.123 Y82.122 Z7.508 F1999.800
G1 X-130.588 Y82.587 Z7.508 F1999.800
G1 X-151.073 Y82.586 Z7.508 F1999.800
G3 X-161.588 Y72.000 Z7.508 I0.074 J-10.588 K0.000 F1999.800
G1 X-161.586 Y8.927 Z7.508 F1999.800
G3 X-151.000 Y-1.587 Z7.508 I10.588 J0.074 K0.000 F1999.800
G1 X-124.927 Y-1.586 Z7.508 F1999.800
G3 X-114.412 Y9.000 Z7.508 I-0.074 J10.588 K0.000 F1999.800
G1 X-114.412 Y44.963 Z7.508 F1999.800
G2 X-106.963 Y52.413 Z7.508 I7.417 J0.032 K0.000 F1999.800
G1 X106.963 Y52.413 Z7.508 F1999.800
G2 X114.413 Y44.963 Z7.508 I0.032 J-7.417 K0.000 F1999.800
G1 X114.414 Y8.927 Z7.508 F1999.800
G3 X125.000 Y-1.587 Z7.508 I10.588 J0.074 K0.000 F1999.800
G1 X151.073 Y-1.586 Z7.508 F1999.800
G3 X161.588 Y9.000 Z7.508 I-0.074 J10.588 K0.000 F1999.800
G1 X161.586 Y72.073 Z7.508 F1999.800
G3 X156.948 Y80.758 Z7.508 I-10.588 J-0.074 K0.000 F1999.800
G1 X156.948 Y80.758 Z6.979 F999.600
G3 X151.000 Y82.588 Z6.979 I-5.950 J-8.759 K0.000 F1999.800
G1 X130.588 Y82.588 Z6.979 F1999.800
G1 X130.123 Y82.123 Z6.979 F1999.800
G1 X130.588 Y82.588 Z6.979 F1999.800
G1 X130.588 Y86.000 Z6.979 F1999.800
G3 X129.000 Y87.588 Z6.979 I-1.587 J0.000 K0.000 F1999.800
G1 X116.000 Y87.588 Z6.979 F1999.800
G3 X114.612 Y86.771 Z6.979 I-0.000 J-1.587 K0.000 F1999.800
G2 X107.901 Y82.588 Z6.979 I-6.682 J3.246 K0.000 F1999.800
G1 X-107.901 Y82.588 Z6.979 F1999.800
G2 X-114.612 Y86.771 Z6.979 I-0.029 J7.429 K0.000 F1999.800
G3 X-116.000 Y87.588 Z6.979 I-1.388 J-0.771 K0.000 F1999.800
G1 X-129.000 Y87.588 Z6.979 F1999.800
G3 X-130.588 Y86.000 Z6.979 I-0.000 J-1.587 K0.000 F1999.800
G1 X-130.588 Y82.587 Z6.979 F1999.800
G1 X-130.123 Y82.122 Z6.979 F1999.800
G1 X-130.588 Y82.587 Z6.979 F1999.800
G1 X-151.073 Y82.586 Z6.979 F1999.800
G3 X-161.588 Y72.000 Z6.979 I0.074 J-10.588 K0.000 F1999.800
G1 X-161.586 Y8.927 Z6.979 F1999.800
G3 X-151.000 Y-1.587 Z6.979 I10.588 J0.074 K0.000 F1999.800
G1 X-124.927 Y-1.586 Z6.979 F1999.800
G3 X-114.412 Y9.000 Z6.979 I-0.074 J10.588 K0.000 F1999.800
G1 X-114.412 Y44.963 Z6.979 F1999.800
G2 X-106.963 Y52.413 Z6.979 I7.417 J0.032 K0.000 F1999.800
G1 X106.963 Y52.413 Z6.979 F1999.800
G2 X114.413 Y44.963 Z6.979 I0.032 J-7.417 K0.000 F1999.800
G1 X114.414 Y8.927 Z6.979 F1999.800
G3 X125.000 Y-1.587 Z6.979 I10.588 J0.074 K0.000 F1999.800
G1 X151.073 Y-1.586 Z6.979 F1999.800
G3 X161.588 Y9.000 Z6.979 I-0.074 J10.588 K0.000 F1999.800
G1 X161.586 Y72.073 Z6.979 F1999.800
G3 X156.948 Y80.758 Z6.979 I-10.588 J-0.074 K0.000 F1999.800
G1 X156.948 Y80.758 Z6.450 F999.600
G3 X151.000 Y82.588 Z6.450 I-5.950 J-8.759 K0.000 F1999.800
G1 X130.588 Y82.588 Z6.450 F1999.800
G1 X130.123 Y82.123 Z6.450 F1999.800
G1 X130.588 Y82.588 Z6.450 F1999.800
G1 X130.588 Y86.000 Z6.450 F1999.800
G3 X129.000 Y87.588 Z6.450 I-1.587 J0.000 K0.000 F1999.800
G1 X116.000 Y87.588 Z6.450 F1999.800
G3 X114.612 Y86.771 Z6.450 I-0.000 J-1.587 K0.000 F1999.800
G2 X107.901 Y82.588 Z6.450 I-6.682 J3.246 K0.000 F1999.800
G1 X-107.901 Y82.588 Z6.450 F1999.800
G2 X-114.612 Y86.771 Z6.450 I-0.029 J7.429 K0.000 F1999.800
G3 X-116.000 Y87.588 Z6.450 I-1.388 J-0.771 K0.000 F1999.800
G1 X-129.000 Y87.588 Z6.450 F1999.800
G3 X-130.588 Y86.000 Z6.450 I-0.000 J-1.587 K0.000 F1999.800
G1 X-130.588 Y82.587 Z6.450 F1999.800
G1 X-130.123 Y82.122 Z6.450 F1999.800
G1 X-130.588 Y82.587 Z6.450 F1999.800
G1 X-151.073 Y82.586 Z6.450 F1999.800
G3 X-161.588 Y72.000 Z6.450 I0.074 J-10.588 K0.000 F1999.800
G1 X-161.586 Y8.927 Z6.450 F1999.800
G3 X-151.000 Y-1.587 Z6.450 I10.588 J0.074 K0.000 F1999.800
G1 X-124.927 Y-1.586 Z6.450 F1999.800
G3 X-114.412 Y9.000 Z6.450 I-0.074 J10.588 K0.000 F1999.800
G1 X-114.412 Y44.963 Z6.450 F1999.800
G2 X-106.963 Y52.413 Z6.450 I7.417 J0.032 K0.000 F1999.800
G1 X106.963 Y52.413 Z6.450 F1999.800
G2 X114.413 Y44.963 Z6.450 I0.032 J-7.417 K0.000 F1999.800
G1 X114.414 Y8.927 Z6.450 F1999.800
G3 X125.000 Y-1.587 Z6.450 I10.588 J0.074 K0.000 F1999.800
G1 X151.073 Y-1.586 Z6.450 F1999.800
G3 X161.588 Y9.000 Z6.450 I-0.074 J10.588 K0.000 F1999.800
G1 X161.586 Y72.073 Z6.450 F1999.800
G3 X156.948 Y80.758 Z6.450 I-10.588 J-0.074 K0.000 F1999.800
G1 X156.948 Y80.758 Z5.921 F999.600
G3 X151.000 Y82.588 Z5.921 I-5.950 J-8.759 K0.000 F1999.800
G1 X130.588 Y82.588 Z5.921 F1999.800
G1 X130.123 Y82.123 Z5.921 F1999.800
G1 X130.588 Y82.588 Z5.921 F1999.800
G1 X130.588 Y86.000 Z5.921 F1999.800
G3 X129.000 Y87.588 Z5.921 I-1.587 J0.000 K0.000 F1999.800
G1 X116.000 Y87.588 Z5.921 F1999.800
G3 X114.612 Y86.771 Z5.921 I-0.000 J-1.587 K0.000 F1999.800
G2 X107.901 Y82.588 Z5.921 I-6.682 J3.246 K0.000 F1999.800
G1 X-107.901 Y82.588 Z5.921 F1999.800
G2 X-114.612 Y86.771 Z5.921 I-0.029 J7.429 K0.000 F1999.800
G3 X-116.000 Y87.588 Z5.921 I-1.388 J-0.771 K0.000 F1999.800
G1 X-129.000 Y87.588 Z5.921 F1999.800
G3 X-130.588 Y86.000 Z5.921 I-0.000 J-1.587 K0.000 F1999.800
G1 X-130.588 Y82.587 Z5.921 F1999.800
G1 X-130.123 Y82.122 Z5.921 F1999.800
G1 X-130.588 Y82.587 Z5.921 F1999.800
G1 X-151.073 Y82.586 Z5.921 F1999.800
G3 X-161.588 Y72.000 Z5.921 I0.074 J-10.588 K0.000 F1999.800
G1 X-161.586 Y8.927 Z5.921 F1999.800
G3 X-151.000 Y-1.587 Z5.921 I10.588 J0.074 K0.000 F1999.800
G1 X-124.927 Y-1.586 Z5.921 F1999.800
G3 X-114.412 Y9.000 Z5.921 I-0.074 J10.588 K0.000 F1999.800
G1 X-114.412 Y44.963 Z5.921 F1999.800
G2 X-106.963 Y52.413 Z5.921 I7.417 J0.032 K0.000 F1999.800
G1 X106.963 Y52.413 Z5.921 F1999.800
G2 X114.413 Y44.963 Z5.921 I0.032 J-7.417 K0.000 F1999.800
G1 X114.414 Y8.927 Z5.921 F1999.800
G3 X125.000 Y-1.587 Z5.921 I10.588 J0.074 K0.000 F1999.800
G1 X151.073 Y-1.586 Z5.921 F1999.800
G3 X161.588 Y9.000 Z5.921 I-0.074 J10.588 K0.000 F1999.800
G1 X161.586 Y72.073 Z5.921 F1999.800
G3 X156.948 Y80.758 Z5.921 I-10.588 J-0.074 K0.000 F1999.800
G1 X156.948 Y80.758 Z5.392 F999.600
G3 X151.000 Y82.588 Z5.392 I-5.950 J-8.759 K0.000 F1999.800
G1 X130.588 Y82.588 Z5.392 F1999.800
G1 X130.123 Y82.123 Z5.392 F1999.800
G1 X130.588 Y82.588 Z5.392 F1999.800
G1 X130.588 Y86.000 Z5.392 F1999.800
G3 X129.000 Y87.588 Z5.392 I-1.587 J0.000 K0.000 F1999.800
G1 X116.000 Y87.588 Z5.392 F1999.800
G3 X114.612 Y86.771 Z5.392 I-0.000 J-1.587 K0.000 F1999.800
G2 X107.901 Y82.588 Z5.392 I-6.682 J3.246 K0.000 F1999.800
G1 X-107.901 Y82.588 Z5.392 F1999.800
G2 X-114.612 Y86.771 Z5.392 I-0.029 J7.429 K0.000 F1999.800
G3 X-116.000 Y87.588 Z5.392 I-1.388 J-0.771 K0.000 F1999.800
G1 X-129.000 Y87.588 Z5.392 F1999.800
G3 X-130.588 Y86.000 Z5.392 I-0.000 J-1.587 K0.000 F1999.800
G1 X-130.588 Y82.587 Z5.392 F1999.800
G1 X-130.123 Y82.122 Z5.392 F1999.800
G1 X-130.588 Y82.587 Z5.392 F1999.800
G1 X-151.073 Y82.586 Z5.392 F1999.800
G3 X-161.588 Y72.000 Z5.392 I0.074 J-10.588 K0.000 F1999.800
G1 X-161.586 Y8.927 Z5.392 F1999.800
G3 X-151.000 Y-1.587 Z5.392 I10.588 J0.074 K0.000 F1999.800
G1 X-124.927 Y-1.586 Z5.392 F1999.800
G3 X-114.412 Y9.000 Z5.392 I-0.074 J10.588 K0.000 F1999.800
G1 X-114.412 Y44.963 Z5.392 F1999.800
G2 X-106.963 Y52.413 Z5.392 I7.417 J0.032 K0.000 F1999.800
G1 X106.963 Y52.413 Z5.392 F1999.800
G2 X114.413 Y44.963 Z5.392 I0.032 J-7.417 K0.000 F1999.800
G1 X114.414 Y8.927 Z5.392 F1999.800
G3 X125.000 Y-1.587 Z5.392 I10.588 J0.074 K0.000 F1999.800
G1 X151.073 Y-1.586 Z5.392 F1999.800
G3 X161.588 Y9.000 Z5.392 I-0.074 J10.588 K0.000 F1999.800
G1 X161.586 Y72.073 Z5.392 F1999.800
G3 X156.948 Y80.758 Z5.392 I-10.588 J-0.074 K0.000 F1999.800
G1 X156.948 Y80.758 Z4.862 F999.600
G3 X151.000 Y82.588 Z4.862 I-5.950 J-8.759 K0.000 F1999.800
G1 X130.588 Y82.588 Z4.862 F1999.800
G1 X130.123 Y82.123 Z4.862 F1999.800
G1 X130.588 Y82.588 Z4.862 F1999.800
G1 X130.588 Y86.000 Z4.862 F1999.800
G3 X129.000 Y87.588 Z4.862 I-1.587 J0.000 K0.000 F1999.800
G1 X116.000 Y87.588 Z4.862 F1999.800
G3 X114.612 Y86.771 Z4.862 I-0.000 J-1.587 K0.000 F1999.800
G2 X107.901 Y82.588 Z4.862 I-6.682 J3.246 K0.000 F1999.800
G1 X-107.901 Y82.588 Z4.862 F1999.800
G2 X-114.612 Y86.771 Z4.862 I-0.029 J7.429 K0.000 F1999.800
G3 X-116.000 Y87.588 Z4.862 I-1.388 J-0.771 K0.000 F1999.800
G1 X-129.000 Y87.588 Z4.862 F1999.800
G3 X-130.588 Y86.000 Z4.862 I-0.000 J-1.587 K0.000 F1999.800
G1 X-130.588 Y82.587 Z4.862 F1999.800
G1 X-130.123 Y82.122 Z4.862 F1999.800
G1 X-130.588 Y82.587 Z4.862 F1999.800
G1 X-151.073 Y82.586 Z4.862 F1999.800
G3 X-161.588 Y72.000 Z4.862 I0.074 J-10.588 K0.000 F1999.800
G1 X-161.586 Y8.927 Z4.862 F1999.800
G3 X-151.000 Y-1.587 Z4.862 I10.588 J0.074 K0.000 F1999.800
G1 X-124.927 Y-1.586 Z4.862 F1999.800
G3 X-114.412 Y9.000 Z4.862 I-0.074 J10.588 K0.000 F1999.800
G1 X-114.412 Y44.963 Z4.862 F1999.800
G2 X-106.963 Y52.413 Z4.862 I7.417 J0.032 K0.000 F1999.800
G1 X106.963 Y52.413 Z4.862 F1999.800
G2 X114.413 Y44.963 Z4.862 I0.032 J-7.417 K0.000 F1999.800
G1 X114.414 Y8.927 Z4.862 F1999.800
G3 X125.000 Y-1.587 Z4.862 I10.588 J0.074 K0.000 F1999.800
G1 X151.073 Y-1.586 Z4.862 F1999.800
G3 X161.588 Y9.000 Z4.862 I-0.074 J10.588 K0.000 F1999.800
G1 X161.586 Y72.073 Z4.862 F1999.800
G3 X156.948 Y80.758 Z4.862 I-10.588 J-0.074 K0.000 F1999.800
G1 X156.948 Y80.758 Z4.333 F999.600
G3 X151.000 Y82.588 Z4.333 I-5.950 J-8.759 K0.000 F1999.800
G1 X130.588 Y82.588 Z4.333 F1999.800
G1 X130.123 Y82.123 Z4.333 F1999.800
G1 X130.588 Y82.588 Z4.333 F1999.800
G1 X130.588 Y86.000 Z4.333 F1999.800
G3 X129.000 Y87.588 Z4.333 I-1.587 J0.000 K0.000 F1999.800
G1 X116.000 Y87.588 Z4.333 F1999.800
G3 X114.612 Y86.771 Z4.333 I-0.000 J-1.587 K0.000 F1999.800
G2 X107.901 Y82.588 Z4.333 I-6.682 J3.246 K0.000 F1999.800
G1 X-107.901 Y82.588 Z4.333 F1999.800
G2 X-114.612 Y86.771 Z4.333 I-0.029 J7.429 K0.000 F1999.800
G3 X-116.000 Y87.588 Z4.333 I-1.388 J-0.771 K0.000 F1999.800
G1 X-129.000 Y87.588 Z4.333 F1999.800
G3 X-130.588 Y86.000 Z4.333 I-0.000 J-1.587 K0.000 F1999.800
G1 X-130.588 Y82.587 Z4.333 F1999.800
G1 X-130.123 Y82.122 Z4.333 F1999.800
G1 X-130.588 Y82.587 Z4.333 F1999.800
G1 X-151.073 Y82.586 Z4.333 F1999.800
G3 X-161.588 Y72.000 Z4.333 I0.074 J-10.588 K0.000 F1999.800
G1 X-161.586 Y8.927 Z4.333 F1999.800
G3 X-151.000 Y-1.587 Z4.333 I10.588 J0.074 K0.000 F1999.800
G1 X-124.927 Y-1.586 Z4.333 F1999.800
G3 X-114.412 Y9.000 Z4.333 I-0.074 J10.588 K0.000 F1999.800
G1 X-114.412 Y44.963 Z4.333 F1999.800
G2 X-106.963 Y52.413 Z4.333 I7.417 J0.032 K0.000 F1999.800
G1 X106.963 Y52.413 Z4.333 F1999.800
G2 X114.413 Y44.963 Z4.333 I0.032 J-7.417 K0.000 F1999.800
G1 X114.414 Y8.927 Z4.333 F1999.800
G3 X125.000 Y-1.587 Z4.333 I10.588 J0.074 K0.000 F1999.800
G1 X151.073 Y-1.586 Z4.333 F1999.800
G3 X161.588 Y9.000 Z4.333 I-0.074 J10.588 K0.000 F1999.800
G1 X161.586 Y72.073 Z4.333 F1999.800
G3 X156.948 Y80.758 Z4.333 I-10.588 J-0.074 K0.000 F1999.800
G1 X156.948 Y80.758 Z3.804 F999.600
G3 X151.000 Y82.588 Z3.804 I-5.950 J-8.759 K0.000 F1999.800
G1 X130.588 Y82.588 Z3.804 F1999.800
G1 X130.123 Y82.123 Z3.804 F1999.800
G1 X130.588 Y82.588 Z3.804 F1999.800
G1 X130.588 Y86.000 Z3.804 F1999.800
G3 X129.000 Y87.588 Z3.804 I-1.587 J0.000 K0.000 F1999.800
G1 X116.000 Y87.588 Z3.804 F1999.800
G3 X114.612 Y86.771 Z3.804 I-0.000 J-1.587 K0.000 F1999.800
G2 X107.901 Y82.588 Z3.804 I-6.682 J3.246 K0.000 F1999.800
G1 X-107.901 Y82.588 Z3.804 F1999.800
G2 X-114.612 Y86.771 Z3.804 I-0.029 J7.429 K0.000 F1999.800
G3 X-116.000 Y87.588 Z3.804 I-1.388 J-0.771 K0.000 F1999.800
G1 X-129.000 Y87.588 Z3.804 F1999.800
G3 X-130.588 Y86.000 Z3.804 I-0.000 J-1.587 K0.000 F1999.800
G1 X-130.588 Y82.587 Z3.804 F1999.800
G1 X-130.123 Y82.122 Z3.804 F1999.800
G1 X-130.588 Y82.587 Z3.804 F1999.800
G1 X-151.073 Y82.586 Z3.804 F1999.800
G3 X-161.588 Y72.000 Z3.804 I0.074 J-10.588 K0.000 F1999.800
G1 X-161.586 Y8.927 Z3.804 F1999.800
G3 X-151.000 Y-1.587 Z3.804 I10.588 J0.074 K0.000 F1999.800
G1 X-124.927 Y-1.586 Z3.804 F1999.800
G3 X-114.412 Y9.000 Z3.804 I-0.074 J10.588 K0.000 F1999.800
G1 X-114.412 Y44.963 Z3.804 F1999.800
G2 X-106.963 Y52.413 Z3.804 I7.417 J0.032 K0.000 F1999.800
G1 X106.963 Y52.413 Z3.804 F1999.800
G2 X114.413 Y44.963 Z3.804 I0.032 J-7.417 K0.000 F1999.800
G1 X114.414 Y8.927 Z3.804 F1999.800
G3 X125.000 Y-1.587 Z3.804 I10.588 J0.074 K0.000 F1999.800
G1 X151.073 Y-1.586 Z3.804 F1999.800
G3 X161.588 Y9.000 Z3.804 I-0.074 J10.588 K0.000 F1999.800
G1 X161.586 Y72.073 Z3.804 F1999.800
G3 X156.948 Y80.758 Z3.804 I-10.588 J-0.074 K0.000 F1999.800
G1 X156.948 Y80.758 Z3.275 F999.600
G3 X151.000 Y82.588 Z3.275 I-5.950 J-8.759 K0.000 F1999.800
G1 X130.588 Y82.588 Z3.275 F1999.800
G1 X130.123 Y82.123 Z3.275 F1999.800
G1 X130.588 Y82.588 Z3.275 F1999.800
G1 X130.588 Y86.000 Z3.275 F1999.800
G3 X129.000 Y87.588 Z3.275 I-1.587 J0.000 K0.000 F1999.800
G1 X116.000 Y87.588 Z3.275 F1999.800
G3 X114.612 Y86.771 Z3.275 I-0.000 J-1.587 K0.000 F1999.800
G2 X107.901 Y82.588 Z3.275 I-6.682 J3.246 K0.000 F1999.800
G1 X-107.901 Y82.588 Z3.275 F1999.800
G2 X-114.612 Y86.771 Z3.275 I-0.029 J7.429 K0.000 F1999.800
G3 X-116.000 Y87.588 Z3.275 I-1.388 J-0.771 K0.000 F1999.800
G1 X-129.000 Y87.588 Z3.275 F1999.800
G3 X-130.588 Y86.000 Z3.275 I-0.000 J-1.587 K0.000 F1999.800
G1 X-130.588 Y82.587 Z3.275 F1999.800
G1 X-130.123 Y82.122 Z3.275 F1999.800
G1 X-130.588 Y82.587 Z3.275 F1999.800
G1 X-151.073 Y82.586 Z3.275 F1999.800
G3 X-161.588 Y72.000 Z3.275 I0.074 J-10.588 K0.000 F1999.800
G1 X-161.586 Y8.927 Z3.275 F1999.800
G3 X-151.000 Y-1.587 Z3.275 I10.588 J0.074 K0.000 F1999.800
G1 X-124.927 Y-1.586 Z3.275 F1999.800
G3 X-114.412 Y9.000 Z3.275 I-0.074 J10.588 K0.000 F1999.800
G1 X-114.412 Y44.963 Z3.275 F1999.800
G2 X-106.963 Y52.413 Z3.275 I7.417 J0.032 K0.000 F1999.800
G1 X106.963 Y52.413 Z3.275 F1999.800
G2 X114.413 Y44.963 Z3.275 I0.032 J-7.417 K0.000 F1999.800
G1 X114.414 Y8.927 Z3.275 F1999.800
G3 X125.000 Y-1.587 Z3.275 I10.588 J0.074 K0.000 F1999.800
G1 X151.073 Y-1.586 Z3.275 F1999.800
G3 X161.588 Y9.000 Z3.275 I-0.074 J10.588 K0.000 F1999.800
G1 X161.586 Y72.073 Z3.275 F1999.800
G3 X156.948 Y80.758 Z3.275 I-10.588 J-0.074 K0.000 F1999.800
G1 X156.948 Y80.758 Z2.746 F999.600
G3 X153.177 Y82.361 Z2.746 I-5.950 J-8.759 K0.000 F1999.800
G1 X153.146 Y82.367 Z2.800
G3 X151.000 Y82.588 Z2.800 I-2.148 J-10.368 K0.000 F1999.800
G1 X149.482 Y82.588 Z2.800 F1999.800
G1 X149.451 Y82.588 Z2.746 F1333.002
G1 X130.588 Y82.588 Z2.746 F1999.800
G1 X130.123 Y82.123 Z2.746 F1999.800
G1 X130.588 Y82.588 Z2.746 F1999.800
G1 X130.588 Y86.000 Z2.746 F1999.800
G3 X129.000 Y87.588 Z2.746 I-1.587 J0.000 K0.000 F1999.800
G1 X116.000 Y87.588 Z2.746 F1999.800
G3 X114.612 Y86.771 Z2.746 I-0.000 J-1.587 K0.000 F1999.800
G2 X107.901 Y82.588 Z2.746 I-6.682 J3.246 K0.000 F1999.800
G1 X73.803 Y82.588 Z2.746 F1999.800
G1 X73.772 Y82.588 Z2.800 F1333.000
G1 X70.096 Y82.588 Z2.800 F1999.800
G1 X70.065 Y82.588 Z2.746 F1333.000
G1 X1.869 Y82.588 Z2.746 F1999.800
G1 X1.838 Y82.588 Z2.800 F1333.000
G1 X-1.838 Y82.588 Z2.800 F1999.800
G1 X-1.869 Y82.588 Z2.746 F1333.000
G1 X-70.065 Y82.588 Z2.746 F1999.800
G1 X-70.096 Y82.588 Z2.800 F1333.000
G1 X-73.772 Y82.588 Z2.800 F1999.800
G1 X-73.803 Y82.588 Z2.746 F1333.000
G1 X-107.901 Y82.588 Z2.746 F1999.800
G2 X-114.612 Y86.771 Z2.746 I-0.029 J7.429 K0.000 F1999.800
G3 X-116.000 Y87.588 Z2.746 I-1.388 J-0.771 K0.000 F1999.800
G1 X-129.000 Y87.588 Z2.746 F1999.800
G3 X-130.588 Y86.000 Z2.746 I-0.000 J-1.587 K0.000 F1999.800
G1 X-130.588 Y82.587 Z2.746 F1999.800
G1 X-130.123 Y82.122 Z2.746 F1999.800
G1 X-130.588 Y82.587 Z2.746 F1999.800
G1 X-146.011 Y82.586 Z2.746 F1999.800
G1 X-146.042 Y82.586 Z2.800 F1333.001
G1 X-149.718 Y82.586 Z2.800 F1999.800
G1 X-149.749 Y82.586 Z2.746 F1333.001
G1 X-151.073 Y82.586 Z2.746 F1999.800
G3 X-161.588 Y72.000 Z2.746 I0.074 J-10.588 K0.000 F1999.800
G1 X-161.587 Y42.333 Z2.746 F1999.800
G1 X-161.587 Y42.301 Z2.800 F1333.000
G1 X-161.587 Y38.625 Z2.800 F1999.800
G1 X-161.587 Y38.594 Z2.746 F1333.000
G1 X-161.586 Y8.927 Z2.746 F1999.800
G3 X-151.000 Y-1.587 Z2.746 I10.588 J0.074 K0.000 F1999.800
G1 X-124.927 Y-1.586 Z2.746 F1999.800
G3 X-114.412 Y9.000 Z2.746 I-0.074 J10.588 K0.000 F1999.800
G1 X-114.412 Y10.251 Z2.746 F1999.800
G1 X-114.412 Y10.282 Z2.800 F1333.000
G1 X-114.412 Y13.958 Z2.800 F1999.800
G1 X-114.412 Y13.989 Z2.746 F1333.000
G1 X-114.412 Y44.963 Z2.746 F1999.800
G2 X-106.963 Y52.413 Z2.746 I7.417 J0.032 K0.000 F1999.800
G1 X-82.092 Y52.413 Z2.746 F1999.800
G1 X-82.061 Y52.413 Z2.800 F1333.000
G1 X-78.384 Y52.413 Z2.800 F1999.800
G1 X-78.353 Y52.413 Z2.746 F1333.000
G1 X-28.610 Y52.413 Z2.746 F1999.800
G1 X-28.579 Y52.413 Z2.800 F1333.000
G1 X-24.903 Y52.413 Z2.800 F1999.800
G1 X-24.871 Y52.413 Z2.746 F1333.000
G1 X24.871 Y52.413 Z2.746 F1999.800
G1 X24.903 Y52.413 Z2.800 F1333.000
G1 X28.579 Y52.413 Z2.800 F1999.800
G1 X28.610 Y52.413 Z2.746 F1333.000
G1 X78.353 Y52.413 Z2.746 F1999.800
G1 X78.384 Y52.413 Z2.800 F1333.000
G1 X82.061 Y52.413 Z2.800 F1999.800
G1 X82.092 Y52.413 Z2.746 F1333.000
G1 X106.963 Y52.413 Z2.746 F1999.800
G2 X114.413 Y44.963 Z2.746 I0.032 J-7.417 K0.000 F1999.800
G1 X114.414 Y15.639 Z2.746 F1999.800
G1 X114.414 Y15.608 Z2.800 F1333.001
G1 X114.414 Y11.932 Z2.800 F1999.800
G1 X114.414 Y11.901 Z2.746 F1333.001
G1 X114.414 Y8.927 Z2.746 F1999.800
G3 X125.000 Y-1.587 Z2.746 I10.588 J0.074 K0.000 F1999.800
G1 X151.073 Y-1.586 Z2.746 F1999.800
G3 X161.588 Y9.000 Z2.746 I-0.074 J10.588 K0.000 F1999.800
G1 X161.587 Y22.899 Z2.746 F1999.800
G1 X161.587 Y22.930 Z2.800 F1333.000
G1 X161.587 Y26.606 Z2.800 F1999.800
G1 X161.587 Y26.638 Z2.746 F1333.000
G1 X161.586 Y54.436 Z2.746 F1999.800
G1 X161.586 Y54.467 Z2.800 F1333.000
G1 X161.586 Y58.143 Z2.800 F1999.800
G1 X161.586 Y58.174 Z2.746 F1333.000
G1 X161.586 Y72.073 Z2.746 F1999.800
G3 X156.948 Y80.758 Z2.746 I-10.588 J-0.074 K0.000 F1999.800
G1 X156.948 Y80.758 Z2.217 F999.600
G3 X153.476 Y82.293 Z2.217 I-5.950 J-8.759 K0.000 F1999.800
G1 X153.146 Y82.367 Z2.800
G3 X151.000 Y82.588 Z2.800 I-2.148 J-10.368 K0.000 F1999.800
G1 X149.482 Y82.588 Z2.800 F1999.800
G1 X149.145 Y82.588 Z2.217 F1333.002
G1 X130.588 Y82.588 Z2.217 F1999.800
G1 X130.123 Y82.123 Z2.217 F1999.800
G1 X130.588 Y82.588 Z2.217 F1999.800
G1 X130.588 Y86.000 Z2.217 F1999.800
