(Exported by FreeCAD)
(Post Processor: grbl_post)
(Output Time:2020-07-19 01:03:32.098547)
(Begin preamble)
G17 G90
G21
(Begin operation: Fixture)
(Path: Fixture)
G54
(Finish operation: Fixture)
(Begin operation: T6: 2FluteWoodMill003)
(Path: T6: 2FluteWoodMill003)
(T6: 2FluteWoodMill003)
(Begin toolchange)
(M6 T6.0)
M3 S14000.0
G4 P5
(Finish operation: T6: 2FluteWoodMill003)
(Begin operation: Sides_Profile_With_Tags)
(Path: Sides_Profile_With_Tags)
G0 Z23.000
G0 X-14.865 Y192.570 Z23.000
G0 X-14.865 Y192.570 Z21.000
G1 X-14.865 Y192.570 Z17.471 F999.600
G3 X-15.100 Y192.587 Z17.471 I-0.235 J-1.570 K0.000 F1999.800
G1 X-26.313 Y192.588 Z17.471 F1999.800
G1 X-26.777 Y192.123 Z17.471 F1999.800
G1 X-26.313 Y192.588 Z17.471 F1999.800
G1 X-26.313 Y200.000 Z17.471 F1999.800
G3 X-27.900 Y201.588 Z17.471 I-1.587 J0.000 K0.000 F1999.800
G1 X-78.532 Y201.587 Z17.471 F1999.800
G3 X-97.144 Y197.451 Z17.471 I0.032 J-44.087 K0.000 F1999.800
G2 X-114.745 Y193.570 Z17.471 I-17.488 J37.458 K0.000 F1999.800
G1 X-116.484 Y193.587 Z17.471 F1999.800
G3 X-118.087 Y192.000 Z17.471 I-0.016 J-1.587 K0.000 F1999.800
G1 X-118.087 Y0.000 Z17.471 F1999.800
G3 X-116.500 Y-1.587 Z17.471 I1.587 J-0.000 K0.000 F1999.800
G3 X-109.223 Y-1.270 Z17.471 I1.396 J51.605 K0.000 F1999.800
G3 X-95.856 Y2.549 Z17.471 I-5.277 J43.770 K0.000 F1999.800
G2 X-78.484 Y6.413 Z17.471 I17.360 J-37.068 K0.000 F1999.800
G1 X-15.100 Y6.413 Z17.471 F1999.800
G3 X-13.513 Y8.000 Z17.471 I0.000 J1.587 K0.000 F1999.800
G1 X-13.513 Y17.000 Z17.471 F1999.800
G3 X-15.100 Y18.587 Z17.471 I-1.587 J0.000 K0.000 F1999.800
G1 X-26.313 Y18.588 Z17.471 F1999.800
G1 X-26.777 Y18.123 Z17.471 F1999.800
G1 X-26.313 Y18.588 Z17.471 F1999.800
G1 X-26.313 Y24.413 Z17.471 F1999.800
G1 X-26.777 Y24.877 Z17.471 F1999.800
G1 X-26.313 Y24.413 Z17.471 F1999.800
G1 X-15.100 Y24.413 Z17.471 F1999.800
G3 X-13.513 Y26.000 Z17.471 I0.000 J1.587 K0.000 F1999.800
G1 X-13.513 Y35.000 Z17.471 F1999.800
G3 X-15.100 Y36.588 Z17.471 I-1.587 J0.000 K0.000 F1999.800
G1 X-87.912 Y36.588 Z17.471 F1999.800
G1 X-88.377 Y36.123 Z17.471 F1999.800
G1 X-87.912 Y36.588 Z17.471 F1999.800
G1 X-87.912 Y46.413 Z17.471 F1999.800
G1 X-88.377 Y46.877 Z17.471 F1999.800
G1 X-87.912 Y46.413 Z17.471 F1999.800
G1 X-27.900 Y46.413 Z17.471 F1999.800
G3 X-26.313 Y48.000 Z17.471 I0.000 J1.587 K0.000 F1999.800
G1 X-26.313 Y55.413 Z17.471 F1999.800
G1 X-26.777 Y55.877 Z17.471 F1999.800
G1 X-26.313 Y55.413 Z17.471 F1999.800
G1 X-15.100 Y55.413 Z17.471 F1999.800
G3 X-13.513 Y57.000 Z17.471 I0.000 J1.587 K0.000 F1999.800
G1 X-13.513 Y66.000 Z17.471 F1999.800
G3 X-15.100 Y67.588 Z17.471 I-1.587 J0.000 K0.000 F1999.800
G1 X-26.313 Y67.588 Z17.471 F1999.800
G1 X-26.777 Y67.123 Z17.471 F1999.800
G1 X-26.313 Y67.588 Z17.471 F1999.800
G1 X-26.313 Y75.000 Z17.471 F1999.800
G3 X-27.900 Y76.588 Z17.471 I-1.587 J0.000 K0.000 F1999.800
G1 X-64.664 Y76.588 Z17.471 F1999.800
G2 X-87.912 Y83.835 Z17.471 I-0.033 J40.808 K0.000 F1999.800
G1 X-87.912 Y110.165 Z17.471 F1999.800
G2 X-64.664 Y117.412 Z17.471 I23.220 J-33.575 K0.000 F1999.800
G1 X-27.900 Y117.412 Z17.471 F1999.800
G3 X-26.313 Y119.000 Z17.471 I0.000 J1.587 K0.000 F1999.800
G1 X-26.313 Y126.412 Z17.471 F1999.800
G1 X-26.777 Y126.877 Z17.471 F1999.800
G1 X-26.313 Y126.412 Z17.471 F1999.800
G1 X-15.100 Y126.413 Z17.471 F1999.800
G3 X-13.513 Y128.000 Z17.471 I0.000 J1.587 K0.000 F1999.800
G1 X-13.513 Y137.000 Z17.471 F1999.800
G3 X-15.100 Y138.587 Z17.471 I-1.587 J0.000 K0.000 F1999.800
G1 X-26.313 Y138.587 Z17.471 F1999.800
G1 X-26.777 Y138.123 Z17.471 F1999.800
G1 X-26.313 Y138.587 Z17.471 F1999.800
G1 X-26.313 Y180.412 Z17.471 F1999.800
G1 X-26.777 Y180.877 Z17.471 F1999.800
G1 X-26.313 Y180.412 Z17.471 F1999.800
G1 X-15.100 Y180.413 Z17.471 F1999.800
G3 X-13.513 Y182.000 Z17.471 I0.000 J1.587 K0.000 F1999.800
G1 X-13.513 Y191.000 Z17.471 F1999.800
G3 X-14.865 Y192.570 Z17.471 I-1.587 J0.000 K0.000 F1999.800
G1 X-14.865 Y192.570 Z16.942 F999.600
G3 X-15.100 Y192.587 Z16.942 I-0.235 J-1.570 K0.000 F1999.800
G1 X-26.313 Y192.588 Z16.942 F1999.800
G1 X-26.777 Y192.123 Z16.942 F1999.800
G1 X-26.313 Y192.588 Z16.942 F1999.800
G1 X-26.313 Y200.000 Z16.942 F1999.800
G3 X-27.900 Y201.588 Z16.942 I-1.587 J0.000 K0.000 F1999.800
G1 X-78.532 Y201.587 Z16.942 F1999.800
G3 X-97.144 Y197.451 Z16.942 I0.032 J-44.087 K0.000 F1999.800
G2 X-114.745 Y193.570 Z16.942 I-17.488 J37.458 K0.000 F1999.800
G1 X-116.484 Y193.587 Z16.942 F1999.800
G3 X-118.087 Y192.000 Z16.942 I-0.016 J-1.587 K0.000 F1999.800
G1 X-118.087 Y0.000 Z16.942 F1999.800
G3 X-116.500 Y-1.587 Z16.942 I1.587 J-0.000 K0.000 F1999.800
G3 X-109.223 Y-1.270 Z16.942 I1.396 J51.605 K0.000 F1999.800
G3 X-95.856 Y2.549 Z16.942 I-5.277 J43.770 K0.000 F1999.800
G2 X-78.484 Y6.413 Z16.942 I17.360 J-37.068 K0.000 F1999.800
G1 X-15.100 Y6.413 Z16.942 F1999.800
G3 X-13.513 Y8.000 Z16.942 I0.000 J1.587 K0.000 F1999.800
G1 X-13.513 Y17.000 Z16.942 F1999.800
G3 X-15.100 Y18.587 Z16.942 I-1.587 J0.000 K0.000 F1999.800
G1 X-26.313 Y18.588 Z16.942 F1999.800
G1 X-26.777 Y18.123 Z16.942 F1999.800
G1 X-26.313 Y18.588 Z16.942 F1999.800
G1 X-26.313 Y24.413 Z16.942 F1999.800
G1 X-26.777 Y24.877 Z16.942 F1999.800
G1 X-26.313 Y24.413 Z16.942 F1999.800
G1 X-15.100 Y24.413 Z16.942 F1999.800
G3 X-13.513 Y26.000 Z16.942 I0.000 J1.587 K0.000 F1999.800
G1 X-13.513 Y35.000 Z16.942 F1999.800
G3 X-15.100 Y36.588 Z16.942 I-1.587 J0.000 K0.000 F1999.800
G1 X-87.912 Y36.588 Z16.942 F1999.800
G1 X-88.377 Y36.123 Z16.942 F1999.800
G1 X-87.912 Y36.588 Z16.942 F1999.800
G1 X-87.912 Y46.413 Z16.942 F1999.800
G1 X-88.377 Y46.877 Z16.942 F1999.800
G1 X-87.912 Y46.413 Z16.942 F1999.800
G1 X-27.900 Y46.413 Z16.942 F1999.800
G3 X-26.313 Y48.000 Z16.942 I0.000 J1.587 K0.000 F1999.800
G1 X-26.313 Y55.413 Z16.942 F1999.800
G1 X-26.777 Y55.877 Z16.942 F1999.800
G1 X-26.313 Y55.413 Z16.942 F1999.800
G1 X-15.100 Y55.413 Z16.942 F1999.800
G3 X-13.513 Y57.000 Z16.942 I0.000 J1.587 K0.000 F1999.800
G1 X-13.513 Y66.000 Z16.942 F1999.800
G3 X-15.100 Y67.588 Z16.942 I-1.587 J0.000 K0.000 F1999.800
G1 X-26.313 Y67.588 Z16.942 F1999.800
G1 X-26.777 Y67.123 Z16.942 F1999.800
G1 X-26.313 Y67.588 Z16.942 F1999.800
G1 X-26.313 Y75.000 Z16.942 F1999.800
G3 X-27.900 Y76.588 Z16.942 I-1.587 J0.000 K0.000 F1999.800
G1 X-64.664 Y76.588 Z16.942 F1999.800
G2 X-87.912 Y83.835 Z16.942 I-0.033 J40.808 K0.000 F1999.800
G1 X-87.912 Y110.165 Z16.942 F1999.800
G2 X-64.664 Y117.412 Z16.942 I23.220 J-33.575 K0.000 F1999.800
G1 X-27.900 Y117.412 Z16.942 F1999.800
G3 X-26.313 Y119.000 Z16.942 I0.000 J1.587 K0.000 F1999.800
G1 X-26.313 Y126.412 Z16.942 F1999.800
G1 X-26.777 Y126.877 Z16.942 F1999.800
G1 X-26.313 Y126.412 Z16.942 F1999.800
G1 X-15.100 Y126.413 Z16.942 F1999.800
G3 X-13.513 Y128.000 Z16.942 I0.000 J1.587 K0.000 F1999.800
G1 X-13.513 Y137.000 Z16.942 F1999.800
G3 X-15.100 Y138.587 Z16.942 I-1.587 J0.000 K0.000 F1999.800
G1 X-26.313 Y138.587 Z16.942 F1999.800
G1 X-26.777 Y138.123 Z16.942 F1999.800
G1 X-26.313 Y138.587 Z16.942 F1999.800
G1 X-26.313 Y180.412 Z16.942 F1999.800
G1 X-26.777 Y180.877 Z16.942 F1999.800
G1 X-26.313 Y180.412 Z16.942 F1999.800
G1 X-15.100 Y180.413 Z16.942 F1999.800
G3 X-13.513 Y182.000 Z16.942 I0.000 J1.587 K0.000 F1999.800
G1 X-13.513 Y191.000 Z16.942 F1999.800
G3 X-14.865 Y192.570 Z16.942 I-1.587 J0.000 K0.000 F1999.800
G1 X-14.865 Y192.570 Z16.413 F999.600
G3 X-15.100 Y192.587 Z16.413 I-0.235 J-1.570 K0.000 F1999.800
G1 X-26.313 Y192.588 Z16.413 F1999.800
G1 X-26.777 Y192.123 Z16.413 F1999.800
G1 X-26.313 Y192.588 Z16.413 F1999.800
G1 X-26.313 Y200.000 Z16.413 F1999.800
G3 X-27.900 Y201.588 Z16.413 I-1.587 J0.000 K0.000 F1999.800
G1 X-78.532 Y201.587 Z16.413 F1999.800
G3 X-97.144 Y197.451 Z16.413 I0.032 J-44.087 K0.000 F1999.800
G2 X-114.745 Y193.570 Z16.413 I-17.488 J37.458 K0.000 F1999.800
G1 X-116.484 Y193.587 Z16.413 F1999.800
G3 X-118.087 Y192.000 Z16.413 I-0.016 J-1.587 K0.000 F1999.800
G1 X-118.087 Y0.000 Z16.413 F1999.800
G3 X-116.500 Y-1.587 Z16.413 I1.587 J-0.000 K0.000 F1999.800
G3 X-109.223 Y-1.270 Z16.413 I1.396 J51.605 K0.000 F1999.800
G3 X-95.856 Y2.549 Z16.413 I-5.277 J43.770 K0.000 F1999.800
G2 X-78.484 Y6.413 Z16.413 I17.360 J-37.068 K0.000 F1999.800
G1 X-15.100 Y6.413 Z16.413 F1999.800
G3 X-13.513 Y8.000 Z16.413 I0.000 J1.587 K0.000 F1999.800
G1 X-13.513 Y17.000 Z16.413 F1999.800
G3 X-15.100 Y18.587 Z16.413 I-1.587 J0.000 K0.000 F1999.800
G1 X-26.313 Y18.588 Z16.413 F1999.800
G1 X-26.777 Y18.123 Z16.413 F1999.800
G1 X-26.313 Y18.588 Z16.413 F1999.800
G1 X-26.313 Y24.413 Z16.413 F1999.800
G1 X-26.777 Y24.877 Z16.413 F1999.800
G1 X-26.313 Y24.413 Z16.413 F1999.800
G1 X-15.100 Y24.413 Z16.413 F1999.800
G3 X-13.513 Y26.000 Z16.413 I0.000 J1.587 K0.000 F1999.800
G1 X-13.513 Y35.000 Z16.413 F1999.800
G3 X-15.100 Y36.588 Z16.413 I-1.587 J0.000 K0.000 F1999.800
G1 X-87.912 Y36.588 Z16.413 F1999.800
G1 X-88.377 Y36.123 Z16.413 F1999.800
G1 X-87.912 Y36.588 Z16.413 F1999.800
G1 X-87.912 Y46.413 Z16.413 F1999.800
G1 X-88.377 Y46.877 Z16.413 F1999.800
G1 X-87.912 Y46.413 Z16.413 F1999.800
G1 X-27.900 Y46.413 Z16.413 F1999.800
G3 X-26.313 Y48.000 Z16.413 I0.000 J1.587 K0.000 F1999.800
G1 X-26.313 Y55.413 Z16.413 F1999.800
G1 X-26.777 Y55.877 Z16.413 F1999.800
G1 X-26.313 Y55.413 Z16.413 F1999.800
G1 X-15.100 Y55.413 Z16.413 F1999.800
G3 X-13.513 Y57.000 Z16.413 I0.000 J1.587 K0.000 F1999.800
G1 X-13.513 Y66.000 Z16.413 F1999.800
G3 X-15.100 Y67.588 Z16.413 I-1.587 J0.000 K0.000 F1999.800
G1 X-26.313 Y67.588 Z16.413 F1999.800
G1 X-26.777 Y67.123 Z16.413 F1999.800
G1 X-26.313 Y67.588 Z16.413 F1999.800
G1 X-26.313 Y75.000 Z16.413 F1999.800
G3 X-27.900 Y76.588 Z16.413 I-1.587 J0.000 K0.000 F1999.800
G1 X-64.664 Y76.588 Z16.413 F1999.800
G2 X-87.912 Y83.835 Z16.413 I-0.033 J40.808 K0.000 F1999.800
G1 X-87.912 Y110.165 Z16.413 F1999.800
G2 X-64.664 Y117.412 Z16.413 I23.220 J-33.575 K0.000 F1999.800
G1 X-27.900 Y117.412 Z16.413 F1999.800
G3 X-26.313 Y119.000 Z16.413 I0.000 J1.587 K0.000 F1999.800
G1 X-26.313 Y126.412 Z16.413 F1999.800
G1 X-26.777 Y126.877 Z16.413 F1999.800
G1 X-26.313 Y126.412 Z16.413 F1999.800
G1 X-15.100 Y126.413 Z16.413 F1999.800
G3 X-13.513 Y128.000 Z16.413 I0.000 J1.587 K0.000 F1999.800
G1 X-13.513 Y137.000 Z16.413 F1999.800
G3 X-15.100 Y138.587 Z16.413 I-1.587 J0.000 K0.000 F1999.800
G1 X-26.313 Y138.587 Z16.413 F1999.800
G1 X-26.777 Y138.123 Z16.413 F1999.800
G1 X-26.313 Y138.587 Z16.413 F1999.800
G1 X-26.313 Y180.412 Z16.413 F1999.800
G1 X-26.777 Y180.877 Z16.413 F1999.800
G1 X-26.313 Y180.412 Z16.413 F1999.800
G1 X-15.100 Y180.413 Z16.413 F1999.800
G3 X-13.513 Y182.000 Z16.413 I0.000 J1.587 K0.000 F1999.800
G1 X-13.513 Y191.000 Z16.413 F1999.800
G3 X-14.865 Y192.570 Z16.413 I-1.587 J0.000 K0.000 F1999.800
G1 X-14.865 Y192.570 Z15.883 F999.600
G3 X-15.100 Y192.587 Z15.883 I-0.235 J-1.570 K0.000 F1999.800
G1 X-26.313 Y192.588 Z15.883 F1999.800
G1 X-26.777 Y192.123 Z15.883 F1999.800
G1 X-26.313 Y192.588 Z15.883 F1999.800
G1 X-26.313 Y200.000 Z15.883 F1999.800
G3 X-27.900 Y201.588 Z15.883 I-1.587 J0.000 K0.000 F1999.800
G1 X-78.532 Y201.587 Z15.883 F1999.800
G3 X-97.144 Y197.451 Z15.883 I0.032 J-44.087 K0.000 F1999.800
G2 X-114.745 Y193.570 Z15.883 I-17.488 J37.458 K0.000 F1999.800
G1 X-116.484 Y193.587 Z15.883 F1999.800
G3 X-118.087 Y192.000 Z15.883 I-0.016 J-1.587 K0.000 F1999.800
G1 X-118.087 Y0.000 Z15.883 F1999.800
G3 X-116.500 Y-1.587 Z15.883 I1.587 J-0.000 K0.000 F1999.800
G3 X-109.223 Y-1.270 Z15.883 I1.396 J51.605 K0.000 F1999.800
G3 X-95.856 Y2.549 Z15.883 I-5.277 J43.770 K0.000 F1999.800
G2 X-78.484 Y6.413 Z15.883 I17.360 J-37.068 K0.000 F1999.800
G1 X-15.100 Y6.413 Z15.883 F1999.800
G3 X-13.513 Y8.000 Z15.883 I0.000 J1.587 K0.000 F1999.800
G1 X-13.513 Y17.000 Z15.883 F1999.800
G3 X-15.100 Y18.587 Z15.883 I-1.587 J0.000 K0.000 F1999.800
G1 X-26.313 Y18.588 Z15.883 F1999.800
G1 X-26.777 Y18.123 Z15.883 F1999.800
G1 X-26.313 Y18.588 Z15.883 F1999.800
G1 X-26.313 Y24.413 Z15.883 F1999.800
G1 X-26.777 Y24.877 Z15.883 F1999.800
G1 X-26.313 Y24.413 Z15.883 F1999.800
G1 X-15.100 Y24.413 Z15.883 F1999.800
G3 X-13.513 Y26.000 Z15.883 I0.000 J1.587 K0.000 F1999.800
G1 X-13.513 Y35.000 Z15.883 F1999.800
G3 X-15.100 Y36.588 Z15.883 I-1.587 J0.000 K0.000 F1999.800
G1 X-87.912 Y36.588 Z15.883 F1999.800
G1 X-88.377 Y36.123 Z15.883 F1999.800
G1 X-87.912 Y36.588 Z15.883 F1999.800
G1 X-87.912 Y46.413 Z15.883 F1999.800
G1 X-88.377 Y46.877 Z15.883 F1999.800
G1 X-87.912 Y46.413 Z15.883 F1999.800
G1 X-27.900 Y46.413 Z15.883 F1999.800
G3 X-26.313 Y48.000 Z15.883 I0.000 J1.587 K0.000 F1999.800
G1 X-26.313 Y55.413 Z15.883 F1999.800
G1 X-26.777 Y55.877 Z15.883 F1999.800
G1 X-26.313 Y55.413 Z15.883 F1999.800
G1 X-15.100 Y55.413 Z15.883 F1999.800
G3 X-13.513 Y57.000 Z15.883 I0.000 J1.587 K0.000 F1999.800
G1 X-13.513 Y66.000 Z15.883 F1999.800
G3 X-15.100 Y67.588 Z15.883 I-1.587 J0.000 K0.000 F1999.800
G1 X-26.313 Y67.588 Z15.883 F1999.800
G1 X-26.777 Y67.123 Z15.883 F1999.800
G1 X-26.313 Y67.588 Z15.883 F1999.800
G1 X-26.313 Y75.000 Z15.883 F1999.800
G3 X-27.900 Y76.588 Z15.883 I-1.587 J0.000 K0.000 F1999.800
G1 X-64.664 Y76.588 Z15.883 F1999.800
G2 X-87.912 Y83.835 Z15.883 I-0.033 J40.808 K0.000 F1999.800
G1 X-87.912 Y110.165 Z15.883 F1999.800
G2 X-64.664 Y117.412 Z15.883 I23.220 J-33.575 K0.000 F1999.800
G1 X-27.900 Y117.412 Z15.883 F1999.800
G3 X-26.313 Y119.000 Z15.883 I0.000 J1.587 K0.000 F1999.800
G1 X-26.313 Y126.412 Z15.883 F1999.800
G1 X-26.777 Y126.877 Z15.883 F1999.800
G1 X-26.313 Y126.412 Z15.883 F1999.800
G1 X-15.100 Y126.413 Z15.883 F1999.800
G3 X-13.513 Y128.000 Z15.883 I0.000 J1.587 K0.000 F1999.800
G1 X-13.513 Y137.000 Z15.883 F1999.800
G3 X-15.100 Y138.587 Z15.883 I-1.587 J0.000 K0.000 F1999.800
G1 X-26.313 Y138.587 Z15.883 F1999.800
G1 X-26.777 Y138.123 Z15.883 F1999.800
G1 X-26.313 Y138.587 Z15.883 F1999.800
G1 X-26.313 Y180.412 Z15.883 F1999.800
G1 X-26.777 Y180.877 Z15.883 F1999.800
G1 X-26.313 Y180.412 Z15.883 F1999.800
G1 X-15.100 Y180.413 Z15.883 F1999.800
G3 X-13.513 Y182.000 Z15.883 I0.000 J1.587 K0.000 F1999.800
G1 X-13.513 Y191.000 Z15.883 F1999.800
G3 X-14.865 Y192.570 Z15.883 I-1.587 J0.000 K0.000 F1999.800
G1 X-14.865 Y192.570 Z15.354 F999.600
G3 X-15.100 Y192.587 Z15.354 I-0.235 J-1.570 K0.000 F1999.800
G1 X-26.313 Y192.588 Z15.354 F1999.800
G1 X-26.777 Y192.123 Z15.354 F1999.800
G1 X-26.313 Y192.588 Z15.354 F1999.800
G1 X-26.313 Y200.000 Z15.354 F1999.800
G3 X-27.900 Y201.588 Z15.354 I-1.587 J0.000 K0.000 F1999.800
G1 X-78.532 Y201.587 Z15.354 F1999.800
G3 X-97.144 Y197.451 Z15.354 I0.032 J-44.087 K0.000 F1999.800
G2 X-114.745 Y193.570 Z15.354 I-17.488 J37.458 K0.000 F1999.800
G1 X-116.484 Y193.587 Z15.354 F1999.800
G3 X-118.087 Y192.000 Z15.354 I-0.016 J-1.587 K0.000 F1999.800
G1 X-118.087 Y0.000 Z15.354 F1999.800
G3 X-116.500 Y-1.587 Z15.354 I1.587 J-0.000 K0.000 F1999.800
G3 X-109.223 Y-1.270 Z15.354 I1.396 J51.605 K0.000 F1999.800
G3 X-95.856 Y2.549 Z15.354 I-5.277 J43.770 K0.000 F1999.800
G2 X-78.484 Y6.413 Z15.354 I17.360 J-37.068 K0.000 F1999.800
G1 X-15.100 Y6.413 Z15.354 F1999.800
G3 X-13.513 Y8.000 Z15.354 I0.000 J1.587 K0.000 F1999.800
G1 X-13.513 Y17.000 Z15.354 F1999.800
G3 X-15.100 Y18.587 Z15.354 I-1.587 J0.000 K0.000 F1999.800
G1 X-26.313 Y18.588 Z15.354 F1999.800
G1 X-26.777 Y18.123 Z15.354 F1999.800
G1 X-26.313 Y18.588 Z15.354 F1999.800
G1 X-26.313 Y24.413 Z15.354 F1999.800
G1 X-26.777 Y24.877 Z15.354 F1999.800
G1 X-26.313 Y24.413 Z15.354 F1999.800
G1 X-15.100 Y24.413 Z15.354 F1999.800
G3 X-13.513 Y26.000 Z15.354 I0.000 J1.587 K0.000 F1999.800
G1 X-13.513 Y35.000 Z15.354 F1999.800
G3 X-15.100 Y36.588 Z15.354 I-1.587 J0.000 K0.000 F1999.800
G1 X-87.912 Y36.588 Z15.354 F1999.800
G1 X-88.377 Y36.123 Z15.354 F1999.800
G1 X-87.912 Y36.588 Z15.354 F1999.800
G1 X-87.912 Y46.413 Z15.354 F1999.800
G1 X-88.377 Y46.877 Z15.354 F1999.800
G1 X-87.912 Y46.413 Z15.354 F1999.800
G1 X-27.900 Y46.413 Z15.354 F1999.800
G3 X-26.313 Y48.000 Z15.354 I0.000 J1.587 K0.000 F1999.800
G1 X-26.313 Y55.413 Z15.354 F1999.800
G1 X-26.777 Y55.877 Z15.354 F1999.800
G1 X-26.313 Y55.413 Z15.354 F1999.800
G1 X-15.100 Y55.413 Z15.354 F1999.800
G3 X-13.513 Y57.000 Z15.354 I0.000 J1.587 K0.000 F1999.800
G1 X-13.513 Y66.000 Z15.354 F1999.800
G3 X-15.100 Y67.588 Z15.354 I-1.587 J0.000 K0.000 F1999.800
G1 X-26.313 Y67.588 Z15.354 F1999.800
G1 X-26.777 Y67.123 Z15.354 F1999.800
G1 X-26.313 Y67.588 Z15.354 F1999.800
G1 X-26.313 Y75.000 Z15.354 F1999.800
G3 X-27.900 Y76.588 Z15.354 I-1.587 J0.000 K0.000 F1999.800
G1 X-64.664 Y76.588 Z15.354 F1999.800
G2 X-87.912 Y83.835 Z15.354 I-0.033 J40.808 K0.000 F1999.800
G1 X-87.912 Y110.165 Z15.354 F1999.800
G2 X-64.664 Y117.412 Z15.354 I23.220 J-33.575 K0.000 F1999.800
G1 X-27.900 Y117.412 Z15.354 F1999.800
G3 X-26.313 Y119.000 Z15.354 I0.000 J1.587 K0.000 F1999.800
G1 X-26.313 Y126.412 Z15.354 F1999.800
G1 X-26.777 Y126.877 Z15.354 F1999.800
G1 X-26.313 Y126.412 Z15.354 F1999.800
G1 X-15.100 Y126.413 Z15.354 F1999.800
G3 X-13.513 Y128.000 Z15.354 I0.000 J1.587 K0.000 F1999.800
G1 X-13.513 Y137.000 Z15.354 F1999.800
G3 X-15.100 Y138.587 Z15.354 I-1.587 J0.000 K0.000 F1999.800
G1 X-26.313 Y138.587 Z15.354 F1999.800
G1 X-26.777 Y138.123 Z15.354 F1999.800
G1 X-26.313 Y138.587 Z15.354 F1999.800
G1 X-26.313 Y180.412 Z15.354 F1999.800
G1 X-26.777 Y180.877 Z15.354 F1999.800
G1 X-26.313 Y180.412 Z15.354 F1999.800
G1 X-15.100 Y180.413 Z15.354 F1999.800
G3 X-13.513 Y182.000 Z15.354 I0.000 J1.587 K0.000 F1999.800
G1 X-13.513 Y191.000 Z15.354 F1999.800
G3 X-14.865 Y192.570 Z15.354 I-1.587 J0.000 K0.000 F1999.800
G1 X-14.865 Y192.570 Z14.825 F999.600
G3 X-15.100 Y192.587 Z14.825 I-0.235 J-1.570 K0.000 F1999.800
G1 X-26.313 Y192.588 Z14.825 F1999.800
G1 X-26.777 Y192.123 Z14.825 F1999.800
G1 X-26.313 Y192.588 Z14.825 F1999.800
G1 X-26.313 Y200.000 Z14.825 F1999.800
G3 X-27.900 Y201.588 Z14.825 I-1.587 J0.000 K0.000 F1999.800
G1 X-78.532 Y201.587 Z14.825 F1999.800
G3 X-97.144 Y197.451 Z14.825 I0.032 J-44.087 K0.000 F1999.800
G2 X-114.745 Y193.570 Z14.825 I-17.488 J37.458 K0.000 F1999.800
G1 X-116.484 Y193.587 Z14.825 F1999.800
G3 X-118.087 Y192.000 Z14.825 I-0.016 J-1.587 K0.000 F1999.800
G1 X-118.087 Y0.000 Z14.825 F1999.800
G3 X-116.500 Y-1.587 Z14.825 I1.587 J-0.000 K0.000 F1999.800
G3 X-109.223 Y-1.270 Z14.825 I1.396 J51.605 K0.000 F1999.800
G3 X-95.856 Y2.549 Z14.825 I-5.277 J43.770 K0.000 F1999.800
G2 X-78.484 Y6.413 Z14.825 I17.360 J-37.068 K0.000 F1999.800
G1 X-15.100 Y6.413 Z14.825 F1999.800
G3 X-13.513 Y8.000 Z14.825 I0.000 J1.587 K0.000 F1999.800
G1 X-13.513 Y17.000 Z14.825 F1999.800
G3 X-15.100 Y18.587 Z14.825 I-1.587 J0.000 K0.000 F1999.800
G1 X-26.313 Y18.588 Z14.825 F1999.800
G1 X-26.777 Y18.123 Z14.825 F1999.800
G1 X-26.313 Y18.588 Z14.825 F1999.800
G1 X-26.313 Y24.413 Z14.825 F1999.800
G1 X-26.777 Y24.877 Z14.825 F1999.800
G1 X-26.313 Y24.413 Z14.825 F1999.800
G1 X-15.100 Y24.413 Z14.825 F1999.800
G3 X-13.513 Y26.000 Z14.825 I0.000 J1.587 K0.000 F1999.800
G1 X-13.513 Y35.000 Z14.825 F1999.800
G3 X-15.100 Y36.588 Z14.825 I-1.587 J0.000 K0.000 F1999.800
G1 X-87.912 Y36.588 Z14.825 F1999.800
G1 X-88.377 Y36.123 Z14.825 F1999.800
G1 X-87.912 Y36.588 Z14.825 F1999.800
G1 X-87.912 Y46.413 Z14.825 F1999.800
G1 X-88.377 Y46.877 Z14.825 F1999.800
G1 X-87.912 Y46.413 Z14.825 F1999.800
G1 X-27.900 Y46.413 Z14.825 F1999.800
G3 X-26.313 Y48.000 Z14.825 I0.000 J1.587 K0.000 F1999.800
G1 X-26.313 Y55.413 Z14.825 F1999.800
G1 X-26.777 Y55.877 Z14.825 F1999.800
G1 X-26.313 Y55.413 Z14.825 F1999.800
G1 X-15.100 Y55.413 Z14.825 F1999.800
G3 X-13.513 Y57.000 Z14.825 I0.000 J1.587 K0.000 F1999.800
G1 X-13.513 Y66.000 Z14.825 F1999.800
G3 X-15.100 Y67.588 Z14.825 I-1.587 J0.000 K0.000 F1999.800
G1 X-26.313 Y67.588 Z14.825 F1999.800
G1 X-26.777 Y67.123 Z14.825 F1999.800
G1 X-26.313 Y67.588 Z14.825 F1999.800
G1 X-26.313 Y75.000 Z14.825 F1999.800
G3 X-27.900 Y76.588 Z14.825 I-1.587 J0.000 K0.000 F1999.800
G1 X-64.664 Y76.588 Z14.825 F1999.800
G2 X-87.912 Y83.835 Z14.825 I-0.033 J40.808 K0.000 F1999.800
G1 X-87.912 Y110.165 Z14.825 F1999.800
G2 X-64.664 Y117.412 Z14.825 I23.220 J-33.575 K0.000 F1999.800
G1 X-27.900 Y117.412 Z14.825 F1999.800
G3 X-26.313 Y119.000 Z14.825 I0.000 J1.587 K0.000 F1999.800
G1 X-26.313 Y126.412 Z14.825 F1999.800
G1 X-26.777 Y126.877 Z14.825 F1999.800
G1 X-26.313 Y126.412 Z14.825 F1999.800
G1 X-15.100 Y126.413 Z14.825 F1999.800
G3 X-13.513 Y128.000 Z14.825 I0.000 J1.587 K0.000 F1999.800
G1 X-13.513 Y137.000 Z14.825 F1999.800
G3 X-15.100 Y138.587 Z14.825 I-1.587 J0.000 K0.000 F1999.800
G1 X-26.313 Y138.587 Z14.825 F1999.800
G1 X-26.777 Y138.123 Z14.825 F1999.800
G1 X-26.313 Y138.587 Z14.825 F1999.800
G1 X-26.313 Y180.412 Z14.825 F1999.800
G1 X-26.777 Y180.877 Z14.825 F1999.800
G1 X-26.313 Y180.412 Z14.825 F1999.800
G1 X-15.100 Y180.413 Z14.825 F1999.800
G3 X-13.513 Y182.000 Z14.825 I0.000 J1.587 K0.000 F1999.800
G1 X-13.513 Y191.000 Z14.825 F1999.800
G3 X-14.865 Y192.570 Z14.825 I-1.587 J0.000 K0.000 F1999.800
G1 X-14.865 Y192.570 Z14.296 F999.600
G3 X-15.100 Y192.587 Z14.296 I-0.235 J-1.570 K0.000 F1999.800
G1 X-26.313 Y192.588 Z14.296 F1999.800
G1 X-26.777 Y192.123 Z14.296 F1999.800
G1 X-26.313 Y192.588 Z14.296 F1999.800
G1 X-26.313 Y200.000 Z14.296 F1999.800
G3 X-27.900 Y201.588 Z14.296 I-1.587 J0.000 K0.000 F1999.800
G1 X-78.532 Y201.587 Z14.296 F1999.800
G3 X-97.144 Y197.451 Z14.296 I0.032 J-44.087 K0.000 F1999.800
G2 X-114.745 Y193.570 Z14.296 I-17.488 J37.458 K0.000 F1999.800
G1 X-116.484 Y193.587 Z14.296 F1999.800
G3 X-118.087 Y192.000 Z14.296 I-0.016 J-1.587 K0.000 F1999.800
G1 X-118.087 Y0.000 Z14.296 F1999.800
G3 X-116.500 Y-1.587 Z14.296 I1.587 J-0.000 K0.000 F1999.800
G3 X-109.223 Y-1.270 Z14.296 I1.396 J51.605 K0.000 F1999.800
G3 X-95.856 Y2.549 Z14.296 I-5.277 J43.770 K0.000 F1999.800
G2 X-78.484 Y6.413 Z14.296 I17.360 J-37.068 K0.000 F1999.800
G1 X-15.100 Y6.413 Z14.296 F1999.800
G3 X-13.513 Y8.000 Z14.296 I0.000 J1.587 K0.000 F1999.800
G1 X-13.513 Y17.000 Z14.296 F1999.800
G3 X-15.100 Y18.587 Z14.296 I-1.587 J0.000 K0.000 F1999.800
G1 X-26.313 Y18.588 Z14.296 F1999.800
G1 X-26.777 Y18.123 Z14.296 F1999.800
G1 X-26.313 Y18.588 Z14.296 F1999.800
G1 X-26.313 Y24.413 Z14.296 F1999.800
G1 X-26.777 Y24.877 Z14.296 F1999.800
G1 X-26.313 Y24.413 Z14.296 F1999.800
G1 X-15.100 Y24.413 Z14.296 F1999.800
G3 X-13.513 Y26.000 Z14.296 I0.000 J1.587 K0.000 F1999.800
G1 X-13.513 Y35.000 Z14.296 F1999.800
G3 X-15.100 Y36.588 Z14.296 I-1.587 J0.000 K0.000 F1999.800
G1 X-87.912 Y36.588 Z14.296 F1999.800
G1 X-88.377 Y36.123 Z14.296 F1999.800
G1 X-87.912 Y36.588 Z14.296 F1999.800
G1 X-87.912 Y46.413 Z14.296 F1999.800
G1 X-88.377 Y46.877 Z14.296 F1999.800
G1 X-87.912 Y46.413 Z14.296 F1999.800
G1 X-27.900 Y46.413 Z14.296 F1999.800
G3 X-26.313 Y48.000 Z14.296 I0.000 J1.587 K0.000 F1999.800
G1 X-26.313 Y55.413 Z14.296 F1999.800
G1 X-26.777 Y55.877 Z14.296 F1999.800
G1 X-26.313 Y55.413 Z14.296 F1999.800
G1 X-15.100 Y55.413 Z14.296 F1999.800
G3 X-13.513 Y57.000 Z14.296 I0.000 J1.587 K0.000 F1999.800
G1 X-13.513 Y66.000 Z14.296 F1999.800
G3 X-15.100 Y67.588 Z14.296 I-1.587 J0.000 K0.000 F1999.800
G1 X-26.313 Y67.588 Z14.296 F1999.800
G1 X-26.777 Y67.123 Z14.296 F1999.800
G1 X-26.313 Y67.588 Z14.296 F1999.800
G1 X-26.313 Y75.000 Z14.296 F1999.800
G3 X-27.900 Y76.588 Z14.296 I-1.587 J0.000 K0.000 F1999.800
G1 X-64.664 Y76.588 Z14.296 F1999.800
G2 X-87.912 Y83.835 Z14.296 I-0.033 J40.808 K0.000 F1999.800
G1 X-87.912 Y110.165 Z14.296 F1999.800
G2 X-64.664 Y117.412 Z14.296 I23.220 J-33.575 K0.000 F1999.800
G1 X-27.900 Y117.412 Z14.296 F1999.800
G3 X-26.313 Y119.000 Z14.296 I0.000 J1.587 K0.000 F1999.800
G1 X-26.313 Y126.412 Z14.296 F1999.800
G1 X-26.777 Y126.877 Z14.296 F1999.800
G1 X-26.313 Y126.412 Z14.296 F1999.800
G1 X-15.100 Y126.413 Z14.296 F1999.800
G3 X-13.513 Y128.000 Z14.296 I0.000 J1.587 K0.000 F1999.800
G1 X-13.513 Y137.000 Z14.296 F1999.800
G3 X-15.100 Y138.587 Z14.296 I-1.587 J0.000 K0.000 F1999.800
G1 X-26.313 Y138.587 Z14.296 F1999.800
G1 X-26.777 Y138.123 Z14.296 F1999.800
G1 X-26.313 Y138.587 Z14.296 F1999.800
G1 X-26.313 Y180.412 Z14.296 F1999.800
G1 X-26.777 Y180.877 Z14.296 F1999.800
G1 X-26.313 Y180.412 Z14.296 F1999.800
G1 X-15.100 Y180.413 Z14.296 F1999.800
G3 X-13.513 Y182.000 Z14.296 I0.000 J1.587 K0.000 F1999.800
G1 X-13.513 Y191.000 Z14.296 F1999.800
G3 X-14.865 Y192.570 Z14.296 I-1.587 J0.000 K0.000 F1999.800
G1 X-14.865 Y192.570 Z13.767 F999.600
G3 X-15.100 Y192.587 Z13.767 I-0.235 J-1.570 K0.000 F1999.800
G1 X-26.313 Y192.588 Z13.767 F1999.800
G1 X-26.777 Y192.123 Z13.767 F1999.800
G1 X-26.313 Y192.588 Z13.767 F1999.800
G1 X-26.313 Y200.000 Z13.767 F1999.800
G3 X-27.900 Y201.588 Z13.767 I-1.587 J0.000 K0.000 F1999.800
G1 X-78.532 Y201.587 Z13.767 F1999.800
G3 X-97.144 Y197.451 Z13.767 I0.032 J-44.087 K0.000 F1999.800
G2 X-114.745 Y193.570 Z13.767 I-17.488 J37.458 K0.000 F1999.800
G1 X-116.484 Y193.587 Z13.767 F1999.800
G3 X-118.087 Y192.000 Z13.767 I-0.016 J-1.587 K0.000 F1999.800
G1 X-118.087 Y0.000 Z13.767 F1999.800
G3 X-116.500 Y-1.587 Z13.767 I1.587 J-0.000 K0.000 F1999.800
G3 X-109.223 Y-1.270 Z13.767 I1.396 J51.605 K0.000 F1999.800
G3 X-95.856 Y2.549 Z13.767 I-5.277 J43.770 K0.000 F1999.800
G2 X-78.484 Y6.413 Z13.767 I17.360 J-37.068 K0.000 F1999.800
G1 X-15.100 Y6.413 Z13.767 F1999.800
G3 X-13.513 Y8.000 Z13.767 I0.000 J1.587 K0.000 F1999.800
G1 X-13.513 Y17.000 Z13.767 F1999.800
G3 X-15.100 Y18.587 Z13.767 I-1.587 J0.000 K0.000 F1999.800
G1 X-26.313 Y18.588 Z13.767 F1999.800
G1 X-26.777 Y18.123 Z13.767 F1999.800
G1 X-26.313 Y18.588 Z13.767 F1999.800
G1 X-26.313 Y24.413 Z13.767 F1999.800
G1 X-26.777 Y24.877 Z13.767 F1999.800
G1 X-26.313 Y24.413 Z13.767 F1999.800
G1 X-15.100 Y24.413 Z13.767 F1999.800
G3 X-13.513 Y26.000 Z13.767 I0.000 J1.587 K0.000 F1999.800
G1 X-13.513 Y35.000 Z13.767 F1999.800
G3 X-15.100 Y36.588 Z13.767 I-1.587 J0.000 K0.000 F1999.800
G1 X-87.912 Y36.588 Z13.767 F1999.800
G1 X-88.377 Y36.123 Z13.767 F1999.800
G1 X-87.912 Y36.588 Z13.767 F1999.800
G1 X-87.912 Y46.413 Z13.767 F1999.800
G1 X-88.377 Y46.877 Z13.767 F1999.800
G1 X-87.912 Y46.413 Z13.767 F1999.800
G1 X-27.900 Y46.413 Z13.767 F1999.800
G3 X-26.313 Y48.000 Z13.767 I0.000 J1.587 K0.000 F1999.800
G1 X-26.313 Y55.413 Z13.767 F1999.800
G1 X-26.777 Y55.877 Z13.767 F1999.800
G1 X-26.313 Y55.413 Z13.767 F1999.800
G1 X-15.100 Y55.413 Z13.767 F1999.800
G3 X-13.513 Y57.000 Z13.767 I0.000 J1.587 K0.000 F1999.800
G1 X-13.513 Y66.000 Z13.767 F1999.800
G3 X-15.100 Y67.588 Z13.767 I-1.587 J0.000 K0.000 F1999.800
G1 X-26.313 Y67.588 Z13.767 F1999.800
G1 X-26.777 Y67.123 Z13.767 F1999.800
G1 X-26.313 Y67.588 Z13.767 F1999.800
G1 X-26.313 Y75.000 Z13.767 F1999.800
G3 X-27.900 Y76.588 Z13.767 I-1.587 J0.000 K0.000 F1999.800
G1 X-64.664 Y76.588 Z13.767 F1999.800
G2 X-87.912 Y83.835 Z13.767 I-0.033 J40.808 K0.000 F1999.800
G1 X-87.912 Y110.165 Z13.767 F1999.800
G2 X-64.664 Y117.412 Z13.767 I23.220 J-33.575 K0.000 F1999.800
G1 X-27.900 Y117.412 Z13.767 F1999.800
G3 X-26.313 Y119.000 Z13.767 I0.000 J1.587 K0.000 F1999.800
G1 X-26.313 Y126.412 Z13.767 F1999.800
G1 X-26.777 Y126.877 Z13.767 F1999.800
G1 X-26.313 Y126.412 Z13.767 F1999.800
G1 X-15.100 Y126.413 Z13.767 F1999.800
G3 X-13.513 Y128.000 Z13.767 I0.000 J1.587 K0.000 F1999.800
G1 X-13.513 Y137.000 Z13.767 F1999.800
G3 X-15.100 Y138.587 Z13.767 I-1.587 J0.000 K0.000 F1999.800
G1 X-26.313 Y138.587 Z13.767 F1999.800
G1 X-26.777 Y138.123 Z13.767 F1999.800
G1 X-26.313 Y138.587 Z13.767 F1999.800
G1 X-26.313 Y180.412 Z13.767 F1999.800
G1 X-26.777 Y180.877 Z13.767 F1999.800
G1 X-26.313 Y180.412 Z13.767 F1999.800
G1 X-15.100 Y180.413 Z13.767 F1999.800
G3 X-13.513 Y182.000 Z13.767 I0.000 J1.587 K0.000 F1999.800
G1 X-13.513 Y191.000 Z13.767 F1999.800
G3 X-14.865 Y192.570 Z13.767 I-1.587 J0.000 K0.000 F1999.800
G1 X-14.865 Y192.570 Z13.237 F999.600
G3 X-15.100 Y192.587 Z13.237 I-0.235 J-1.570 K0.000 F1999.800
G1 X-26.313 Y192.588 Z13.237 F1999.800
G1 X-26.777 Y192.123 Z13.237 F1999.800
G1 X-26.313 Y192.588 Z13.237 F1999.800
G1 X-26.313 Y200.000 Z13.237 F1999.800
G3 X-27.900 Y201.588 Z13.237 I-1.587 J0.000 K0.000 F1999.800
G1 X-78.532 Y201.587 Z13.237 F1999.800
G3 X-97.144 Y197.451 Z13.237 I0.032 J-44.087 K0.000 F1999.800
G2 X-114.745 Y193.570 Z13.237 I-17.488 J37.458 K0.000 F1999.800
G1 X-116.484 Y193.587 Z13.237 F1999.800
G3 X-118.087 Y192.000 Z13.237 I-0.016 J-1.587 K0.000 F1999.800
G1 X-118.087 Y0.000 Z13.237 F1999.800
G3 X-116.500 Y-1.587 Z13.237 I1.587 J-0.000 K0.000 F1999.800
G3 X-109.223 Y-1.270 Z13.237 I1.396 J51.605 K0.000 F1999.800
G3 X-95.856 Y2.549 Z13.237 I-5.277 J43.770 K0.000 F1999.800
G2 X-78.484 Y6.413 Z13.237 I17.360 J-37.068 K0.000 F1999.800
G1 X-15.100 Y6.413 Z13.237 F1999.800
G3 X-13.513 Y8.000 Z13.237 I0.000 J1.587 K0.000 F1999.800
G1 X-13.513 Y17.000 Z13.237 F1999.800
G3 X-15.100 Y18.587 Z13.237 I-1.587 J0.000 K0.000 F1999.800
G1 X-26.313 Y18.588 Z13.237 F1999.800
G1 X-26.777 Y18.123 Z13.237 F1999.800
G1 X-26.313 Y18.588 Z13.237 F1999.800
G1 X-26.313 Y24.413 Z13.237 F1999.800
G1 X-26.777 Y24.877 Z13.237 F1999.800
G1 X-26.313 Y24.413 Z13.237 F1999.800
G1 X-15.100 Y24.413 Z13.237 F1999.800
G3 X-13.513 Y26.000 Z13.237 I0.000 J1.587 K0.000 F1999.800
G1 X-13.513 Y35.000 Z13.237 F1999.800
G3 X-15.100 Y36.588 Z13.237 I-1.587 J0.000 K0.000 F1999.800
G1 X-87.912 Y36.588 Z13.237 F1999.800
G1 X-88.377 Y36.123 Z13.237 F1999.800
G1 X-87.912 Y36.588 Z13.237 F1999.800
G1 X-87.912 Y46.413 Z13.237 F1999.800
G1 X-88.377 Y46.877 Z13.237 F1999.800
G1 X-87.912 Y46.413 Z13.237 F1999.800
G1 X-27.900 Y46.413 Z13.237 F1999.800
G3 X-26.313 Y48.000 Z13.237 I0.000 J1.587 K0.000 F1999.800
G1 X-26.313 Y55.413 Z13.237 F1999.800
G1 X-26.777 Y55.877 Z13.237 F1999.800
G1 X-26.313 Y55.413 Z13.237 F1999.800
G1 X-15.100 Y55.413 Z13.237 F1999.800
G3 X-13.513 Y57.000 Z13.237 I0.000 J1.587 K0.000 F1999.800
G1 X-13.513 Y66.000 Z13.237 F1999.800
G3 X-15.100 Y67.588 Z13.237 I-1.587 J0.000 K0.000 F1999.800
G1 X-26.313 Y67.588 Z13.237 F1999.800
G1 X-26.777 Y67.123 Z13.237 F1999.800
G1 X-26.313 Y67.588 Z13.237 F1999.800
G1 X-26.313 Y75.000 Z13.237 F1999.800
G3 X-27.900 Y76.588 Z13.237 I-1.587 J0.000 K0.000 F1999.800
G1 X-64.664 Y76.588 Z13.237 F1999.800
G2 X-87.912 Y83.835 Z13.237 I-0.033 J40.808 K0.000 F1999.800
G1 X-87.912 Y110.165 Z13.237 F1999.800
G2 X-64.664 Y117.412 Z13.237 I23.220 J-33.575 K0.000 F1999.800
G1 X-27.900 Y117.412 Z13.237 F1999.800
G3 X-26.313 Y119.000 Z13.237 I0.000 J1.587 K0.000 F1999.800
G1 X-26.313 Y126.412 Z13.237 F1999.800
G1 X-26.777 Y126.877 Z13.237 F1999.800
G1 X-26.313 Y126.412 Z13.237 F1999.800
G1 X-15.100 Y126.413 Z13.237 F1999.800
G3 X-13.513 Y128.000 Z13.237 I0.000 J1.587 K0.000 F1999.800
G1 X-13.513 Y137.000 Z13.237 F1999.800
G3 X-15.100 Y138.587 Z13.237 I-1.587 J0.000 K0.000 F1999.800
G1 X-26.313 Y138.587 Z13.237 F1999.800
G1 X-26.777 Y138.123 Z13.237 F1999.800
G1 X-26.313 Y138.587 Z13.237 F1999.800
G1 X-26.313 Y180.412 Z13.237 F1999.800
G1 X-26.777 Y180.877 Z13.237 F1999.800
G1 X-26.313 Y180.412 Z13.237 F1999.800
G1 X-15.100 Y180.413 Z13.237 F1999.800
G3 X-13.513 Y182.000 Z13.237 I0.000 J1.587 K0.000 F1999.800
G1 X-13.513 Y191.000 Z13.237 F1999.800
G3 X-14.865 Y192.570 Z13.237 I-1.587 J0.000 K0.000 F1999.800
G1 X-14.865 Y192.570 Z12.708 F999.600
G3 X-15.100 Y192.587 Z12.708 I-0.235 J-1.570 K0.000 F1999.800
G1 X-26.313 Y192.588 Z12.708 F1999.800
G1 X-26.777 Y192.123 Z12.708 F1999.800
G1 X-26.313 Y192.588 Z12.708 F1999.800
G1 X-26.313 Y200.000 Z12.708 F1999.800
G3 X-27.900 Y201.588 Z12.708 I-1.587 J0.000 K0.000 F1999.800
G1 X-78.532 Y201.587 Z12.708 F1999.800
G3 X-97.144 Y197.451 Z12.708 I0.032 J-44.087 K0.000 F1999.800
G2 X-114.745 Y193.570 Z12.708 I-17.488 J37.458 K0.000 F1999.800
G1 X-116.484 Y193.587 Z12.708 F1999.800
G3 X-118.087 Y192.000 Z12.708 I-0.016 J-1.587 K0.000 F1999.800
G1 X-118.087 Y0.000 Z12.708 F1999.800
G3 X-116.500 Y-1.587 Z12.708 I1.587 J-0.000 K0.000 F1999.800
G3 X-109.223 Y-1.270 Z12.708 I1.396 J51.605 K0.000 F1999.800
G3 X-95.856 Y2.549 Z12.708 I-5.277 J43.770 K0.000 F1999.800
G2 X-78.484 Y6.413 Z12.708 I17.360 J-37.068 K0.000 F1999.800
G1 X-15.100 Y6.413 Z12.708 F1999.800
G3 X-13.513 Y8.000 Z12.708 I0.000 J1.587 K0.000 F1999.800
G1 X-13.513 Y17.000 Z12.708 F1999.800
G3 X-15.100 Y18.587 Z12.708 I-1.587 J0.000 K0.000 F1999.800
G1 X-26.313 Y18.588 Z12.708 F1999.800
G1 X-26.777 Y18.123 Z12.708 F1999.800
G1 X-26.313 Y18.588 Z12.708 F1999.800
G1 X-26.313 Y24.413 Z12.708 F1999.800
G1 X-26.777 Y24.877 Z12.708 F1999.800
G1 X-26.313 Y24.413 Z12.708 F1999.800
G1 X-15.100 Y24.413 Z12.708 F1999.800
G3 X-13.513 Y26.000 Z12.708 I0.000 J1.587 K0.000 F1999.800
G1 X-13.513 Y35.000 Z12.708 F1999.800
G3 X-15.100 Y36.588 Z12.708 I-1.587 J0.000 K0.000 F1999.800
G1 X-87.912 Y36.588 Z12.708 F1999.800
G1 X-88.377 Y36.123 Z12.708 F1999.800
G1 X-87.912 Y36.588 Z12.708 F1999.800
G1 X-87.912 Y46.413 Z12.708 F1999.800
G1 X-88.377 Y46.877 Z12.708 F1999.800
G1 X-87.912 Y46.413 Z12.708 F1999.800
G1 X-27.900 Y46.413 Z12.708 F1999.800
G3 X-26.313 Y48.000 Z12.708 I0.000 J1.587 K0.000 F1999.800
G1 X-26.313 Y55.413 Z12.708 F1999.800
G1 X-26.777 Y55.877 Z12.708 F1999.800
G1 X-26.313 Y55.413 Z12.708 F1999.800
G1 X-15.100 Y55.413 Z12.708 F1999.800
G3 X-13.513 Y57.000 Z12.708 I0.000 J1.587 K0.000 F1999.800
G1 X-13.513 Y66.000 Z12.708 F1999.800
G3 X-15.100 Y67.588 Z12.708 I-1.587 J0.000 K0.000 F1999.800
G1 X-26.313 Y67.588 Z12.708 F1999.800
G1 X-26.777 Y67.123 Z12.708 F1999.800
G1 X-26.313 Y67.588 Z12.708 F1999.800
G1 X-26.313 Y75.000 Z12.708 F1999.800
G3 X-27.900 Y76.588 Z12.708 I-1.587 J0.000 K0.000 F1999.800
G1 X-64.664 Y76.588 Z12.708 F1999.800
G2 X-87.912 Y83.835 Z12.708 I-0.033 J40.808 K0.000 F1999.800
G1 X-87.912 Y110.165 Z12.708 F1999.800
G2 X-64.664 Y117.412 Z12.708 I23.220 J-33.575 K0.000 F1999.800
G1 X-27.900 Y117.412 Z12.708 F1999.800
G3 X-26.313 Y119.000 Z12.708 I0.000 J1.587 K0.000 F1999.800
G1 X-26.313 Y126.412 Z12.708 F1999.800
G1 X-26.777 Y126.877 Z12.708 F1999.800
G1 X-26.313 Y126.412 Z12.708 F1999.800
G1 X-15.100 Y126.413 Z12.708 F1999.800
G3 X-13.513 Y128.000 Z12.708 I0.000 J1.587 K0.000 F1999.800
G1 X-13.513 Y137.000 Z12.708 F1999.800
G3 X-15.100 Y138.587 Z12.708 I-1.587 J0.000 K0.000 F1999.800
G1 X-26.313 Y138.587 Z12.708 F1999.800
G1 X-26.777 Y138.123 Z12.708 F1999.800
G1 X-26.313 Y138.587 Z12.708 F1999.800
G1 X-26.313 Y180.412 Z12.708 F1999.800
G1 X-26.777 Y180.877 Z12.708 F1999.800
G1 X-26.313 Y180.412 Z12.708 F1999.800
G1 X-15.100 Y180.413 Z12.708 F1999.800
G3 X-13.513 Y182.000 Z12.708 I0.000 J1.587 K0.000 F1999.800
G1 X-13.513 Y191.000 Z12.708 F1999.800
G3 X-14.865 Y192.570 Z12.708 I-1.587 J0.000 K0.000 F1999.800
G1 X-14.865 Y192.570 Z12.179 F999.600
G3 X-15.100 Y192.587 Z12.179 I-0.235 J-1.570 K0.000 F1999.800
G1 X-26.313 Y192.588 Z12.179 F1999.800
G1 X-26.777 Y192.123 Z12.179 F1999.800
G1 X-26.313 Y192.588 Z12.179 F1999.800
G1 X-26.313 Y200.000 Z12.179 F1999.800
G3 X-27.900 Y201.588 Z12.179 I-1.587 J0.000 K0.000 F1999.800
G1 X-78.532 Y201.587 Z12.179 F1999.800
G3 X-97.144 Y197.451 Z12.179 I0.032 J-44.087 K0.000 F1999.800
G2 X-114.745 Y193.570 Z12.179 I-17.488 J37.458 K0.000 F1999.800
G1 X-116.484 Y193.587 Z12.179 F1999.800
G3 X-118.087 Y192.000 Z12.179 I-0.016 J-1.587 K0.000 F1999.800
G1 X-118.087 Y0.000 Z12.179 F1999.800
G3 X-116.500 Y-1.587 Z12.179 I1.587 J-0.000 K0.000 F1999.800
G3 X-109.223 Y-1.270 Z12.179 I1.396 J51.605 K0.000 F1999.800
G3 X-95.856 Y2.549 Z12.179 I-5.277 J43.770 K0.000 F1999.800
G2 X-78.484 Y6.413 Z12.179 I17.360 J-37.068 K0.000 F1999.800
G1 X-15.100 Y6.413 Z12.179 F1999.800
G3 X-13.513 Y8.000 Z12.179 I0.000 J1.587 K0.000 F1999.800
G1 X-13.513 Y17.000 Z12.179 F1999.800
G3 X-15.100 Y18.587 Z12.179 I-1.587 J0.000 K0.000 F1999.800
G1 X-26.313 Y18.588 Z12.179 F1999.800
G1 X-26.777 Y18.123 Z12.179 F1999.800
G1 X-26.313 Y18.588 Z12.179 F1999.800
G1 X-26.313 Y24.413 Z12.179 F1999.800
G1 X-26.777 Y24.877 Z12.179 F1999.800
G1 X-26.313 Y24.413 Z12.179 F1999.800
G1 X-15.100 Y24.413 Z12.179 F1999.800
G3 X-13.513 Y26.000 Z12.179 I0.000 J1.587 K0.000 F1999.800
G1 X-13.513 Y35.000 Z12.179 F1999.800
G3 X-15.100 Y36.588 Z12.179 I-1.587 J0.000 K0.000 F1999.800
G1 X-87.912 Y36.588 Z12.179 F1999.800
G1 X-88.377 Y36.123 Z12.179 F1999.800
G1 X-87.912 Y36.588 Z12.179 F1999.800
G1 X-87.912 Y46.413 Z12.179 F1999.800
G1 X-88.377 Y46.877 Z12.179 F1999.800
G1 X-87.912 Y46.413 Z12.179 F1999.800
G1 X-27.900 Y46.413 Z12.179 F1999.800
G3 X-26.313 Y48.000 Z12.179 I0.000 J1.587 K0.000 F1999.800
G1 X-26.313 Y55.413 Z12.179 F1999.800
G1 X-26.777 Y55.877 Z12.179 F1999.800
G1 X-26.313 Y55.413 Z12.179 F1999.800
G1 X-15.100 Y55.413 Z12.179 F1999.800
G3 X-13.513 Y57.000 Z12.179 I0.000 J1.587 K0.000 F1999.800
G1 X-13.513 Y66.000 Z12.179 F1999.800
G3 X-15.100 Y67.588 Z12.179 I-1.587 J0.000 K0.000 F1999.800
G1 X-26.313 Y67.588 Z12.179 F1999.800
G1 X-26.777 Y67.123 Z12.179 F1999.800
G1 X-26.313 Y67.588 Z12.179 F1999.800
G1 X-26.313 Y75.000 Z12.179 F1999.800
G3 X-27.900 Y76.588 Z12.179 I-1.587 J0.000 K0.000 F1999.800
G1 X-64.664 Y76.588 Z12.179 F1999.800
G2 X-87.912 Y83.835 Z12.179 I-0.033 J40.808 K0.000 F1999.800
G1 X-87.912 Y110.165 Z12.179 F1999.800
G2 X-64.664 Y117.412 Z12.179 I23.220 J-33.575 K0.000 F1999.800
G1 X-27.900 Y117.412 Z12.179 F1999.800
G3 X-26.313 Y119.000 Z12.179 I0.000 J1.587 K0.000 F1999.800
G1 X-26.313 Y126.412 Z12.179 F1999.800
G1 X-26.777 Y126.877 Z12.179 F1999.800
G1 X-26.313 Y126.412 Z12.179 F1999.800
G1 X-15.100 Y126.413 Z12.179 F1999.800
G3 X-13.513 Y128.000 Z12.179 I0.000 J1.587 K0.000 F1999.800
G1 X-13.513 Y137.000 Z12.179 F1999.800
G3 X-15.100 Y138.587 Z12.179 I-1.587 J0.000 K0.000 F1999.800
G1 X-26.313 Y138.587 Z12.179 F1999.800
G1 X-26.777 Y138.123 Z12.179 F1999.800
G1 X-26.313 Y138.587 Z12.179 F1999.800
G1 X-26.313 Y180.412 Z12.179 F1999.800
G1 X-26.777 Y180.877 Z12.179 F1999.800
G1 X-26.313 Y180.412 Z12.179 F1999.800
G1 X-15.100 Y180.413 Z12.179 F1999.800
G3 X-13.513 Y182.000 Z12.179 I0.000 J1.587 K0.000 F1999.800
G1 X-13.513 Y191.000 Z12.179 F1999.800
G3 X-14.865 Y192.570 Z12.179 I-1.587 J0.000 K0.000 F1999.800
G1 X-14.865 Y192.570 Z11.650 F999.600
G3 X-15.100 Y192.587 Z11.650 I-0.235 J-1.570 K0.000 F1999.800
G1 X-26.313 Y192.588 Z11.650 F1999.800
G1 X-26.777 Y192.123 Z11.650 F1999.800
G1 X-26.313 Y192.588 Z11.650 F1999.800
G1 X-26.313 Y200.000 Z11.650 F1999.800
G3 X-27.900 Y201.588 Z11.650 I-1.587 J0.000 K0.000 F1999.800
G1 X-78.532 Y201.587 Z11.650 F1999.800
G3 X-97.144 Y197.451 Z11.650 I0.032 J-44.087 K0.000 F1999.800
G2 X-114.745 Y193.570 Z11.650 I-17.488 J37.458 K0.000 F1999.800
G1 X-116.484 Y193.587 Z11.650 F1999.800
G3 X-118.087 Y192.000 Z11.650 I-0.016 J-1.587 K0.000 F1999.800
G1 X-118.087 Y0.000 Z11.650 F1999.800
G3 X-116.500 Y-1.587 Z11.650 I1.587 J-0.000 K0.000 F1999.800
G3 X-109.223 Y-1.270 Z11.650 I1.396 J51.605 K0.000 F1999.800
G3 X-95.856 Y2.549 Z11.650 I-5.277 J43.770 K0.000 F1999.800
G2 X-78.484 Y6.413 Z11.650 I17.360 J-37.068 K0.000 F1999.800
G1 X-15.100 Y6.413 Z11.650 F1999.800
G3 X-13.513 Y8.000 Z11.650 I0.000 J1.587 K0.000 F1999.800
G1 X-13.513 Y17.000 Z11.650 F1999.800
G3 X-15.100 Y18.587 Z11.650 I-1.587 J0.000 K0.000 F1999.800
G1 X-26.313 Y18.588 Z11.650 F1999.800
G1 X-26.777 Y18.123 Z11.650 F1999.800
G1 X-26.313 Y18.588 Z11.650 F1999.800
G1 X-26.313 Y24.413 Z11.650 F1999.800
G1 X-26.777 Y24.877 Z11.650 F1999.800
G1 X-26.313 Y24.413 Z11.650 F1999.800
G1 X-15.100 Y24.413 Z11.650 F1999.800
G3 X-13.513 Y26.000 Z11.650 I0.000 J1.587 K0.000 F1999.800
G1 X-13.513 Y35.000 Z11.650 F1999.800
G3 X-15.100 Y36.588 Z11.650 I-1.587 J0.000 K0.000 F1999.800
G1 X-87.912 Y36.588 Z11.650 F1999.800
G1 X-88.377 Y36.123 Z11.650 F1999.800
G1 X-87.912 Y36.588 Z11.650 F1999.800
G1 X-87.912 Y46.413 Z11.650 F1999.800
G1 X-88.377 Y46.877 Z11.650 F1999.800
G1 X-87.912 Y46.413 Z11.650 F1999.800
G1 X-27.900 Y46.413 Z11.650 F1999.800
G3 X-26.313 Y48.000 Z11.650 I0.000 J1.587 K0.000 F1999.800
G1 X-26.313 Y55.413 Z11.650 F1999.800
G1 X-26.777 Y55.877 Z11.650 F1999.800
G1 X-26.313 Y55.413 Z11.650 F1999.800
G1 X-15.100 Y55.413 Z11.650 F1999.800
G3 X-13.513 Y57.000 Z11.650 I0.000 J1.587 K0.000 F1999.800
G1 X-13.513 Y66.000 Z11.650 F1999.800
G3 X-15.100 Y67.588 Z11.650 I-1.587 J0.000 K0.000 F1999.800
G1 X-26.313 Y67.588 Z11.650 F1999.800
G1 X-26.777 Y67.123 Z11.650 F1999.800
G1 X-26.313 Y67.588 Z11.650 F1999.800
G1 X-26.313 Y75.000 Z11.650 F1999.800
G3 X-27.900 Y76.588 Z11.650 I-1.587 J0.000 K0.000 F1999.800
G1 X-64.664 Y76.588 Z11.650 F1999.800
G2 X-87.912 Y83.835 Z11.650 I-0.033 J40.808 K0.000 F1999.800
G1 X-87.912 Y110.165 Z11.650 F1999.800
G2 X-64.664 Y117.412 Z11.650 I23.220 J-33.575 K0.000 F1999.800
G1 X-27.900 Y117.412 Z11.650 F1999.800
G3 X-26.313 Y119.000 Z11.650 I0.000 J1.587 K0.000 F1999.800
G1 X-26.313 Y126.412 Z11.650 F1999.800
G1 X-26.777 Y126.877 Z11.650 F1999.800
G1 X-26.313 Y126.412 Z11.650 F1999.800
G1 X-15.100 Y126.413 Z11.650 F1999.800
G3 X-13.513 Y128.000 Z11.650 I0.000 J1.587 K0.000 F1999.800
G1 X-13.513 Y137.000 Z11.650 F1999.800
G3 X-15.100 Y138.587 Z11.650 I-1.587 J0.000 K0.000 F1999.800
G1 X-26.313 Y138.587 Z11.650 F1999.800
G1 X-26.777 Y138.123 Z11.650 F1999.800
G1 X-26.313 Y138.587 Z11.650 F1999.800
G1 X-26.313 Y180.412 Z11.650 F1999.800
G1 X-26.777 Y180.877 Z11.650 F1999.800
G1 X-26.313 Y180.412 Z11.650 F1999.800
G1 X-15.100 Y180.413 Z11.650 F1999.800
G3 X-13.513 Y182.000 Z11.650 I0.000 J1.587 K0.000 F1999.800
G1 X-13.513 Y191.000 Z11.650 F1999.800
G3 X-14.865 Y192.570 Z11.650 I-1.587 J0.000 K0.000 F1999.800
G1 X-14.865 Y192.570 Z11.121 F999.600
G3 X-15.100 Y192.587 Z11.121 I-0.235 J-1.570 K0.000 F1999.800
G1 X-26.313 Y192.588 Z11.121 F1999.800
G1 X-26.777 Y192.123 Z11.121 F1999.800
G1 X-26.313 Y192.588 Z11.121 F1999.800
G1 X-26.313 Y200.000 Z11.121 F1999.800
G3 X-27.900 Y201.588 Z11.121 I-1.587 J0.000 K0.000 F1999.800
G1 X-78.532 Y201.587 Z11.121 F1999.800
G3 X-97.144 Y197.451 Z11.121 I0.032 J-44.087 K0.000 F1999.800
G2 X-114.745 Y193.570 Z11.121 I-17.488 J37.458 K0.000 F1999.800
G1 X-116.484 Y193.587 Z11.121 F1999.800
G3 X-118.087 Y192.000 Z11.121 I-0.016 J-1.587 K0.000 F1999.800
G1 X-118.087 Y0.000 Z11.121 F1999.800
G3 X-116.500 Y-1.587 Z11.121 I1.587 J-0.000 K0.000 F1999.800
G3 X-109.223 Y-1.270 Z11.121 I1.396 J51.605 K0.000 F1999.800
G3 X-95.856 Y2.549 Z11.121 I-5.277 J43.770 K0.000 F1999.800
G2 X-78.484 Y6.413 Z11.121 I17.360 J-37.068 K0.000 F1999.800
G1 X-15.100 Y6.413 Z11.121 F1999.800
G3 X-13.513 Y8.000 Z11.121 I0.000 J1.587 K0.000 F1999.800
G1 X-13.513 Y17.000 Z11.121 F1999.800
G3 X-15.100 Y18.587 Z11.121 I-1.587 J0.000 K0.000 F1999.800
G1 X-26.313 Y18.588 Z11.121 F1999.800
G1 X-26.777 Y18.123 Z11.121 F1999.800
G1 X-26.313 Y18.588 Z11.121 F1999.800
G1 X-26.313 Y24.413 Z11.121 F1999.800
G1 X-26.777 Y24.877 Z11.121 F1999.800
G1 X-26.313 Y24.413 Z11.121 F1999.800
G1 X-15.100 Y24.413 Z11.121 F1999.800
G3 X-13.513 Y26.000 Z11.121 I0.000 J1.587 K0.000 F1999.800
G1 X-13.513 Y35.000 Z11.121 F1999.800
G3 X-15.100 Y36.588 Z11.121 I-1.587 J0.000 K0.000 F1999.800
G1 X-87.912 Y36.588 Z11.121 F1999.800
G1 X-88.377 Y36.123 Z11.121 F1999.800
G1 X-87.912 Y36.588 Z11.121 F1999.800
G1 X-87.912 Y46.413 Z11.121 F1999.800
G1 X-88.377 Y46.877 Z11.121 F1999.800
G1 X-87.912 Y46.413 Z11.121 F1999.800
G1 X-27.900 Y46.413 Z11.121 F1999.800
G3 X-26.313 Y48.000 Z11.121 I0.000 J1.587 K0.000 F1999.800
G1 X-26.313 Y55.413 Z11.121 F1999.800
G1 X-26.777 Y55.877 Z11.121 F1999.800
G1 X-26.313 Y55.413 Z11.121 F1999.800
G1 X-15.100 Y55.413 Z11.121 F1999.800
G3 X-13.513 Y57.000 Z11.121 I0.000 J1.587 K0.000 F1999.800
G1 X-13.513 Y66.000 Z11.121 F1999.800
G3 X-15.100 Y67.588 Z11.121 I-1.587 J0.000 K0.000 F1999.800
G1 X-26.313 Y67.588 Z11.121 F1999.800
G1 X-26.777 Y67.123 Z11.121 F1999.800
G1 X-26.313 Y67.588 Z11.121 F1999.800
G1 X-26.313 Y75.000 Z11.121 F1999.800
G3 X-27.900 Y76.588 Z11.121 I-1.587 J0.000 K0.000 F1999.800
G1 X-64.664 Y76.588 Z11.121 F1999.800
G2 X-87.912 Y83.835 Z11.121 I-0.033 J40.808 K0.000 F1999.800
G1 X-87.912 Y110.165 Z11.121 F1999.800
G2 X-64.664 Y117.412 Z11.121 I23.220 J-33.575 K0.000 F1999.800
G1 X-27.900 Y117.412 Z11.121 F1999.800
G3 X-26.313 Y119.000 Z11.121 I0.000 J1.587 K0.000 F1999.800
G1 X-26.313 Y126.412 Z11.121 F1999.800
G1 X-26.777 Y126.877 Z11.121 F1999.800
G1 X-26.313 Y126.412 Z11.121 F1999.800
G1 X-15.100 Y126.413 Z11.121 F1999.800
G3 X-13.513 Y128.000 Z11.121 I0.000 J1.587 K0.000 F1999.800
G1 X-13.513 Y137.000 Z11.121 F1999.800
G3 X-15.100 Y138.587 Z11.121 I-1.587 J0.000 K0.000 F1999.800
G1 X-26.313 Y138.587 Z11.121 F1999.800
G1 X-26.777 Y138.123 Z11.121 F1999.800
G1 X-26.313 Y138.587 Z11.121 F1999.800
G1 X-26.313 Y180.412 Z11.121 F1999.800
G1 X-26.777 Y180.877 Z11.121 F1999.800
G1 X-26.313 Y180.412 Z11.121 F1999.800
G1 X-15.100 Y180.413 Z11.121 F1999.800
G3 X-13.513 Y182.000 Z11.121 I0.000 J1.587 K0.000 F1999.800
G1 X-13.513 Y191.000 Z11.121 F1999.800
G3 X-14.865 Y192.570 Z11.121 I-1.587 J0.000 K0.000 F1999.800
G1 X-14.865 Y192.570 Z10.592 F999.600
G3 X-15.100 Y192.587 Z10.592 I-0.235 J-1.570 K0.000 F1999.800
G1 X-26.313 Y192.588 Z10.592 F1999.800
G1 X-26.777 Y192.123 Z10.592 F1999.800
G1 X-26.313 Y192.588 Z10.592 F1999.800
G1 X-26.313 Y200.000 Z10.592 F1999.800
G3 X-27.900 Y201.588 Z10.592 I-1.587 J0.000 K0.000 F1999.800
G1 X-78.532 Y201.587 Z10.592 F1999.800
G3 X-97.144 Y197.451 Z10.592 I0.032 J-44.087 K0.000 F1999.800
G2 X-114.745 Y193.570 Z10.592 I-17.488 J37.458 K0.000 F1999.800
G1 X-116.484 Y193.587 Z10.592 F1999.800
G3 X-118.087 Y192.000 Z10.592 I-0.016 J-1.587 K0.000 F1999.800
G1 X-118.087 Y0.000 Z10.592 F1999.800
G3 X-116.500 Y-1.587 Z10.592 I1.587 J-0.000 K0.000 F1999.800
G3 X-109.223 Y-1.270 Z10.592 I1.396 J51.605 K0.000 F1999.800
G3 X-95.856 Y2.549 Z10.592 I-5.277 J43.770 K0.000 F1999.800
G2 X-78.484 Y6.413 Z10.592 I17.360 J-37.068 K0.000 F1999.800
G1 X-15.100 Y6.413 Z10.592 F1999.800
G3 X-13.513 Y8.000 Z10.592 I0.000 J1.587 K0.000 F1999.800
G1 X-13.513 Y17.000 Z10.592 F1999.800
G3 X-15.100 Y18.587 Z10.592 I-1.587 J0.000 K0.000 F1999.800
G1 X-26.313 Y18.588 Z10.592 F1999.800
G1 X-26.777 Y18.123 Z10.592 F1999.800
G1 X-26.313 Y18.588 Z10.592 F1999.800
G1 X-26.313 Y24.413 Z10.592 F1999.800
G1 X-26.777 Y24.877 Z10.592 F1999.800
G1 X-26.313 Y24.413 Z10.592 F1999.800
G1 X-15.100 Y24.413 Z10.592 F1999.800
G3 X-13.513 Y26.000 Z10.592 I0.000 J1.587 K0.000 F1999.800
G1 X-13.513 Y35.000 Z10.592 F1999.800
G3 X-15.100 Y36.588 Z10.592 I-1.587 J0.000 K0.000 F1999.800
G1 X-87.912 Y36.588 Z10.592 F1999.800
G1 X-88.377 Y36.123 Z10.592 F1999.800
G1 X-87.912 Y36.588 Z10.592 F1999.800
G1 X-87.912 Y46.413 Z10.592 F1999.800
G1 X-88.377 Y46.877 Z10.592 F1999.800
G1 X-87.912 Y46.413 Z10.592 F1999.800
G1 X-27.900 Y46.413 Z10.592 F1999.800
G3 X-26.313 Y48.000 Z10.592 I0.000 J1.587 K0.000 F1999.800
G1 X-26.313 Y55.413 Z10.592 F1999.800
G1 X-26.777 Y55.877 Z10.592 F1999.800
G1 X-26.313 Y55.413 Z10.592 F1999.800
G1 X-15.100 Y55.413 Z10.592 F1999.800
G3 X-13.513 Y57.000 Z10.592 I0.000 J1.587 K0.000 F1999.800
G1 X-13.513 Y66.000 Z10.592 F1999.800
G3 X-15.100 Y67.588 Z10.592 I-1.587 J0.000 K0.000 F1999.800
G1 X-26.313 Y67.588 Z10.592 F1999.800
G1 X-26.777 Y67.123 Z10.592 F1999.800
G1 X-26.313 Y67.588 Z10.592 F1999.800
G1 X-26.313 Y75.000 Z10.592 F1999.800
G3 X-27.900 Y76.588 Z10.592 I-1.587 J0.000 K0.000 F1999.800
G1 X-64.664 Y76.588 Z10.592 F1999.800
G2 X-87.912 Y83.835 Z10.592 I-0.033 J40.808 K0.000 F1999.800
G1 X-87.912 Y110.165 Z10.592 F1999.800
G2 X-64.664 Y117.412 Z10.592 I23.220 J-33.575 K0.000 F1999.800
G1 X-27.900 Y117.412 Z10.592 F1999.800
G3 X-26.313 Y119.000 Z10.592 I0.000 J1.587 K0.000 F1999.800
G1 X-26.313 Y126.412 Z10.592 F1999.800
G1 X-26.777 Y126.877 Z10.592 F1999.800
G1 X-26.313 Y126.412 Z10.592 F1999.800
G1 X-15.100 Y126.413 Z10.592 F1999.800
G3 X-13.513 Y128.000 Z10.592 I0.000 J1.587 K0.000 F1999.800
G1 X-13.513 Y137.000 Z10.592 F1999.800
G3 X-15.100 Y138.587 Z10.592 I-1.587 J0.000 K0.000 F1999.800
G1 X-26.313 Y138.587 Z10.592 F1999.800
G1 X-26.777 Y138.123 Z10.592 F1999.800
G1 X-26.313 Y138.587 Z10.592 F1999.800
G1 X-26.313 Y180.412 Z10.592 F1999.800
G1 X-26.777 Y180.877 Z10.592 F1999.800
G1 X-26.313 Y180.412 Z10.592 F1999.800
G1 X-15.100 Y180.413 Z10.592 F1999.800
G3 X-13.513 Y182.000 Z10.592 I0.000 J1.587 K0.000 F1999.800
G1 X-13.513 Y191.000 Z10.592 F1999.800
G3 X-14.865 Y192.570 Z10.592 I-1.587 J0.000 K0.000 F1999.800
G1 X-14.865 Y192.570 Z10.062 F999.600
G3 X-15.100 Y192.587 Z10.062 I-0.235 J-1.570 K0.000 F1999.800
G1 X-26.313 Y192.588 Z10.062 F1999.800
G1 X-26.777 Y192.123 Z10.062 F1999.800
G1 X-26.313 Y192.588 Z10.062 F1999.800
G1 X-26.313 Y200.000 Z10.062 F1999.800
G3 X-27.900 Y201.588 Z10.062 I-1.587 J0.000 K0.000 F1999.800
G1 X-78.532 Y201.587 Z10.062 F1999.800
G3 X-97.144 Y197.451 Z10.062 I0.032 J-44.087 K0.000 F1999.800
G2 X-114.745 Y193.570 Z10.062 I-17.488 J37.458 K0.000 F1999.800
G1 X-116.484 Y193.587 Z10.062 F1999.800
G3 X-118.087 Y192.000 Z10.062 I-0.016 J-1.587 K0.000 F1999.800
G1 X-118.087 Y0.000 Z10.062 F1999.800
G3 X-116.500 Y-1.587 Z10.062 I1.587 J-0.000 K0.000 F1999.800
G3 X-109.223 Y-1.270 Z10.062 I1.396 J51.605 K0.000 F1999.800
G3 X-95.856 Y2.549 Z10.062 I-5.277 J43.770 K0.000 F1999.800
G2 X-78.484 Y6.413 Z10.062 I17.360 J-37.068 K0.000 F1999.800
G1 X-15.100 Y6.413 Z10.062 F1999.800
G3 X-13.513 Y8.000 Z10.062 I0.000 J1.587 K0.000 F1999.800
G1 X-13.513 Y17.000 Z10.062 F1999.800
G3 X-15.100 Y18.587 Z10.062 I-1.587 J0.000 K0.000 F1999.800
G1 X-26.313 Y18.588 Z10.062 F1999.800
G1 X-26.777 Y18.123 Z10.062 F1999.800
G1 X-26.313 Y18.588 Z10.062 F1999.800
G1 X-26.313 Y24.413 Z10.062 F1999.800
G1 X-26.777 Y24.877 Z10.062 F1999.800
G1 X-26.313 Y24.413 Z10.062 F1999.800
G1 X-15.100 Y24.413 Z10.062 F1999.800
G3 X-13.513 Y26.000 Z10.062 I0.000 J1.587 K0.000 F1999.800
G1 X-13.513 Y35.000 Z10.062 F1999.800
G3 X-15.100 Y36.588 Z10.062 I-1.587 J0.000 K0.000 F1999.800
G1 X-87.912 Y36.588 Z10.062 F1999.800
G1 X-88.377 Y36.123 Z10.062 F1999.800
G1 X-87.912 Y36.588 Z10.062 F1999.800
G1 X-87.912 Y46.413 Z10.062 F1999.800
G1 X-88.377 Y46.877 Z10.062 F1999.800
G1 X-87.912 Y46.413 Z10.062 F1999.800
G1 X-27.900 Y46.413 Z10.062 F1999.800
G3 X-26.313 Y48.000 Z10.062 I0.000 J1.587 K0.000 F1999.800
G1 X-26.313 Y55.413 Z10.062 F1999.800
G1 X-26.777 Y55.877 Z10.062 F1999.800
G1 X-26.313 Y55.413 Z10.062 F1999.800
G1 X-15.100 Y55.413 Z10.062 F1999.800
G3 X-13.513 Y57.000 Z10.062 I0.000 J1.587 K0.000 F1999.800
G1 X-13.513 Y66.000 Z10.062 F1999.800
G3 X-15.100 Y67.588 Z10.062 I-1.587 J0.000 K0.000 F1999.800
G1 X-26.313 Y67.588 Z10.062 F1999.800
G1 X-26.777 Y67.123 Z10.062 F1999.800
G1 X-26.313 Y67.588 Z10.062 F1999.800
G1 X-26.313 Y75.000 Z10.062 F1999.800
G3 X-27.900 Y76.588 Z10.062 I-1.587 J0.000 K0.000 F1999.800
G1 X-64.664 Y76.588 Z10.062 F1999.800
G2 X-87.912 Y83.835 Z10.062 I-0.033 J40.808 K0.000 F1999.800
G1 X-87.912 Y110.165 Z10.062 F1999.800
G2 X-64.664 Y117.412 Z10.062 I23.220 J-33.575 K0.000 F1999.800
G1 X-27.900 Y117.412 Z10.062 F1999.800
G3 X-26.313 Y119.000 Z10.062 I0.000 J1.587 K0.000 F1999.800
G1 X-26.313 Y126.412 Z10.062 F1999.800
G1 X-26.777 Y126.877 Z10.062 F1999.800
G1 X-26.313 Y126.412 Z10.062 F1999.800
G1 X-15.100 Y126.413 Z10.062 F1999.800
G3 X-13.513 Y128.000 Z10.062 I0.000 J1.587 K0.000 F1999.800
G1 X-13.513 Y137.000 Z10.062 F1999.800
G3 X-15.100 Y138.587 Z10.062 I-1.587 J0.000 K0.000 F1999.800
G1 X-26.313 Y138.587 Z10.062 F1999.800
G1 X-26.777 Y138.123 Z10.062 F1999.800
G1 X-26.313 Y138.587 Z10.062 F1999.800
G1 X-26.313 Y180.412 Z10.062 F1999.800
G1 X-26.777 Y180.877 Z10.062 F1999.800
G1 X-26.313 Y180.412 Z10.062 F1999.800
G1 X-15.100 Y180.413 Z10.062 F1999.800
G3 X-13.513 Y182.000 Z10.062 I0.000 J1.587 K0.000 F1999.800
G1 X-13.513 Y191.000 Z10.062 F1999.800
G3 X-14.865 Y192.570 Z10.062 I-1.587 J0.000 K0.000 F1999.800
G1 X-14.865 Y192.570 Z9.533 F999.600
G3 X-15.100 Y192.587 Z9.533 I-0.235 J-1.570 K0.000 F1999.800
G1 X-26.313 Y192.588 Z9.533 F1999.800
G1 X-26.777 Y192.123 Z9.533 F1999.800
G1 X-26.313 Y192.588 Z9.533 F1999.800
G1 X-26.313 Y200.000 Z9.533 F1999.800
G3 X-27.900 Y201.588 Z9.533 I-1.587 J0.000 K0.000 F1999.800
G1 X-78.532 Y201.587 Z9.533 F1999.800
G3 X-97.144 Y197.451 Z9.533 I0.032 J-44.087 K0.000 F1999.800
G2 X-114.745 Y193.570 Z9.533 I-17.488 J37.458 K0.000 F1999.800
G1 X-116.484 Y193.587 Z9.533 F1999.800
G3 X-118.087 Y192.000 Z9.533 I-0.016 J-1.587 K0.000 F1999.800
G1 X-118.087 Y0.000 Z9.533 F1999.800
G3 X-116.500 Y-1.587 Z9.533 I1.587 J-0.000 K0.000 F1999.800
G3 X-109.223 Y-1.270 Z9.533 I1.396 J51.605 K0.000 F1999.800
G3 X-95.856 Y2.549 Z9.533 I-5.277 J43.770 K0.000 F1999.800
G2 X-78.484 Y6.413 Z9.533 I17.360 J-37.068 K0.000 F1999.800
G1 X-15.100 Y6.413 Z9.533 F1999.800
G3 X-13.513 Y8.000 Z9.533 I0.000 J1.587 K0.000 F1999.800
G1 X-13.513 Y17.000 Z9.533 F1999.800
G3 X-15.100 Y18.587 Z9.533 I-1.587 J0.000 K0.000 F1999.800
G1 X-26.313 Y18.588 Z9.533 F1999.800
G1 X-26.777 Y18.123 Z9.533 F1999.800
G1 X-26.313 Y18.588 Z9.533 F1999.800
G1 X-26.313 Y24.413 Z9.533 F1999.800
G1 X-26.777 Y24.877 Z9.533 F1999.800
G1 X-26.313 Y24.413 Z9.533 F1999.800
G1 X-15.100 Y24.413 Z9.533 F1999.800
G3 X-13.513 Y26.000 Z9.533 I0.000 J1.587 K0.000 F1999.800
G1 X-13.513 Y35.000 Z9.533 F1999.800
G3 X-15.100 Y36.588 Z9.533 I-1.587 J0.000 K0.000 F1999.800
G1 X-87.912 Y36.588 Z9.533 F1999.800
G1 X-88.377 Y36.123 Z9.533 F1999.800
G1 X-87.912 Y36.588 Z9.533 F1999.800
G1 X-87.912 Y46.413 Z9.533 F1999.800
G1 X-88.377 Y46.877 Z9.533 F1999.800
G1 X-87.912 Y46.413 Z9.533 F1999.800
G1 X-27.900 Y46.413 Z9.533 F1999.800
G3 X-26.313 Y48.000 Z9.533 I0.000 J1.587 K0.000 F1999.800
G1 X-26.313 Y55.413 Z9.533 F1999.800
G1 X-26.777 Y55.877 Z9.533 F1999.800
G1 X-26.313 Y55.413 Z9.533 F1999.800
G1 X-15.100 Y55.413 Z9.533 F1999.800
G3 X-13.513 Y57.000 Z9.533 I0.000 J1.587 K0.000 F1999.800
G1 X-13.513 Y66.000 Z9.533 F1999.800
G3 X-15.100 Y67.588 Z9.533 I-1.587 J0.000 K0.000 F1999.800
G1 X-26.313 Y67.588 Z9.533 F1999.800
G1 X-26.777 Y67.123 Z9.533 F1999.800
G1 X-26.313 Y67.588 Z9.533 F1999.800
G1 X-26.313 Y75.000 Z9.533 F1999.800
G3 X-27.900 Y76.588 Z9.533 I-1.587 J0.000 K0.000 F1999.800
G1 X-64.664 Y76.588 Z9.533 F1999.800
G2 X-87.912 Y83.835 Z9.533 I-0.033 J40.808 K0.000 F1999.800
G1 X-87.912 Y110.165 Z9.533 F1999.800
G2 X-64.664 Y117.412 Z9.533 I23.220 J-33.575 K0.000 F1999.800
G1 X-27.900 Y117.412 Z9.533 F1999.800
G3 X-26.313 Y119.000 Z9.533 I0.000 J1.587 K0.000 F1999.800
G1 X-26.313 Y126.412 Z9.533 F1999.800
G1 X-26.777 Y126.877 Z9.533 F1999.800
G1 X-26.313 Y126.412 Z9.533 F1999.800
G1 X-15.100 Y126.413 Z9.533 F1999.800
G3 X-13.513 Y128.000 Z9.533 I0.000 J1.587 K0.000 F1999.800
G1 X-13.513 Y137.000 Z9.533 F1999.800
G3 X-15.100 Y138.587 Z9.533 I-1.587 J0.000 K0.000 F1999.800
G1 X-26.313 Y138.587 Z9.533 F1999.800
G1 X-26.777 Y138.123 Z9.533 F1999.800
G1 X-26.313 Y138.587 Z9.533 F1999.800
G1 X-26.313 Y180.412 Z9.533 F1999.800
G1 X-26.777 Y180.877 Z9.533 F1999.800
G1 X-26.313 Y180.412 Z9.533 F1999.800
G1 X-15.100 Y180.413 Z9.533 F1999.800
G3 X-13.513 Y182.000 Z9.533 I0.000 J1.587 K0.000 F1999.800
G1 X-13.513 Y191.000 Z9.533 F1999.800
G3 X-14.865 Y192.570 Z9.533 I-1.587 J0.000 K0.000 F1999.800
G1 X-14.865 Y192.570 Z9.004 F999.600
G3 X-15.100 Y192.587 Z9.004 I-0.235 J-1.570 K0.000 F1999.800
G1 X-26.313 Y192.588 Z9.004 F1999.800
G1 X-26.777 Y192.123 Z9.004 F1999.800
G1 X-26.313 Y192.588 Z9.004 F1999.800
G1 X-26.313 Y200.000 Z9.004 F1999.800
G3 X-27.900 Y201.588 Z9.004 I-1.587 J0.000 K0.000 F1999.800
G1 X-78.532 Y201.587 Z9.004 F1999.800
G3 X-97.144 Y197.451 Z9.004 I0.032 J-44.087 K0.000 F1999.800
G2 X-114.745 Y193.570 Z9.004 I-17.488 J37.458 K0.000 F1999.800
G1 X-116.484 Y193.587 Z9.004 F1999.800
G3 X-118.087 Y192.000 Z9.004 I-0.016 J-1.587 K0.000 F1999.800
G1 X-118.087 Y0.000 Z9.004 F1999.800
G3 X-116.500 Y-1.587 Z9.004 I1.587 J-0.000 K0.000 F1999.800
G3 X-109.223 Y-1.270 Z9.004 I1.396 J51.605 K0.000 F1999.800
G3 X-95.856 Y2.549 Z9.004 I-5.277 J43.770 K0.000 F1999.800
G2 X-78.484 Y6.413 Z9.004 I17.360 J-37.068 K0.000 F1999.800
G1 X-15.100 Y6.413 Z9.004 F1999.800
G3 X-13.513 Y8.000 Z9.004 I0.000 J1.587 K0.000 F1999.800
G1 X-13.513 Y17.000 Z9.004 F1999.800
G3 X-15.100 Y18.587 Z9.004 I-1.587 J0.000 K0.000 F1999.800
G1 X-26.313 Y18.588 Z9.004 F1999.800
G1 X-26.777 Y18.123 Z9.004 F1999.800
G1 X-26.313 Y18.588 Z9.004 F1999.800
G1 X-26.313 Y24.413 Z9.004 F1999.800
G1 X-26.777 Y24.877 Z9.004 F1999.800
G1 X-26.313 Y24.413 Z9.004 F1999.800
G1 X-15.100 Y24.413 Z9.004 F1999.800
G3 X-13.513 Y26.000 Z9.004 I0.000 J1.587 K0.000 F1999.800
G1 X-13.513 Y35.000 Z9.004 F1999.800
G3 X-15.100 Y36.588 Z9.004 I-1.587 J0.000 K0.000 F1999.800
G1 X-87.912 Y36.588 Z9.004 F1999.800
G1 X-88.377 Y36.123 Z9.004 F1999.800
G1 X-87.912 Y36.588 Z9.004 F1999.800
G1 X-87.912 Y46.413 Z9.004 F1999.800
G1 X-88.377 Y46.877 Z9.004 F1999.800
G1 X-87.912 Y46.413 Z9.004 F1999.800
G1 X-27.900 Y46.413 Z9.004 F1999.800
G3 X-26.313 Y48.000 Z9.004 I0.000 J1.587 K0.000 F1999.800
G1 X-26.313 Y55.413 Z9.004 F1999.800
G1 X-26.777 Y55.877 Z9.004 F1999.800
G1 X-26.313 Y55.413 Z9.004 F1999.800
G1 X-15.100 Y55.413 Z9.004 F1999.800
G3 X-13.513 Y57.000 Z9.004 I0.000 J1.587 K0.000 F1999.800
G1 X-13.513 Y66.000 Z9.004 F1999.800
G3 X-15.100 Y67.588 Z9.004 I-1.587 J0.000 K0.000 F1999.800
G1 X-26.313 Y67.588 Z9.004 F1999.800
G1 X-26.777 Y67.123 Z9.004 F1999.800
G1 X-26.313 Y67.588 Z9.004 F1999.800
G1 X-26.313 Y75.000 Z9.004 F1999.800
G3 X-27.900 Y76.588 Z9.004 I-1.587 J0.000 K0.000 F1999.800
G1 X-64.664 Y76.588 Z9.004 F1999.800
G2 X-87.912 Y83.835 Z9.004 I-0.033 J40.808 K0.000 F1999.800
G1 X-87.912 Y110.165 Z9.004 F1999.800
G2 X-64.664 Y117.412 Z9.004 I23.220 J-33.575 K0.000 F1999.800
G1 X-27.900 Y117.412 Z9.004 F1999.800
G3 X-26.313 Y119.000 Z9.004 I0.000 J1.587 K0.000 F1999.800
G1 X-26.313 Y126.412 Z9.004 F1999.800
G1 X-26.777 Y126.877 Z9.004 F1999.800
G1 X-26.313 Y126.412 Z9.004 F1999.800
G1 X-15.100 Y126.413 Z9.004 F1999.800
G3 X-13.513 Y128.000 Z9.004 I0.000 J1.587 K0.000 F1999.800
G1 X-13.513 Y137.000 Z9.004 F1999.800
G3 X-15.100 Y138.587 Z9.004 I-1.587 J0.000 K0.000 F1999.800
G1 X-26.313 Y138.587 Z9.004 F1999.800
G1 X-26.777 Y138.123 Z9.004 F1999.800
G1 X-26.313 Y138.587 Z9.004 F1999.800
G1 X-26.313 Y180.412 Z9.004 F1999.800
G1 X-26.777 Y180.877 Z9.004 F1999.800
G1 X-26.313 Y180.412 Z9.004 F1999.800
G1 X-15.100 Y180.413 Z9.004 F1999.800
G3 X-13.513 Y182.000 Z9.004 I0.000 J1.587 K0.000 F1999.800
G1 X-13.513 Y191.000 Z9.004 F1999.800
G3 X-14.865 Y192.570 Z9.004 I-1.587 J0.000 K0.000 F1999.800
G1 X-14.865 Y192.570 Z8.475 F999.600
G3 X-15.100 Y192.587 Z8.475 I-0.235 J-1.570 K0.000 F1999.800
G1 X-26.313 Y192.588 Z8.475 F1999.800
G1 X-26.777 Y192.123 Z8.475 F1999.800
G1 X-26.313 Y192.588 Z8.475 F1999.800
G1 X-26.313 Y200.000 Z8.475 F1999.800
G3 X-27.900 Y201.588 Z8.475 I-1.587 J0.000 K0.000 F1999.800
G1 X-78.532 Y201.587 Z8.475 F1999.800
G3 X-97.144 Y197.451 Z8.475 I0.032 J-44.087 K0.000 F1999.800
G2 X-114.745 Y193.570 Z8.475 I-17.488 J37.458 K0.000 F1999.800
G1 X-116.484 Y193.587 Z8.475 F1999.800
G3 X-118.087 Y192.000 Z8.475 I-0.016 J-1.587 K0.000 F1999.800
G1 X-118.087 Y0.000 Z8.475 F1999.800
G3 X-116.500 Y-1.587 Z8.475 I1.587 J-0.000 K0.000 F1999.800
G3 X-109.223 Y-1.270 Z8.475 I1.396 J51.605 K0.000 F1999.800
G3 X-95.856 Y2.549 Z8.475 I-5.277 J43.770 K0.000 F1999.800
G2 X-78.484 Y6.413 Z8.475 I17.360 J-37.068 K0.000 F1999.800
G1 X-15.100 Y6.413 Z8.475 F1999.800
G3 X-13.513 Y8.000 Z8.475 I0.000 J1.587 K0.000 F1999.800
G1 X-13.513 Y17.000 Z8.475 F1999.800
G3 X-15.100 Y18.587 Z8.475 I-1.587 J0.000 K0.000 F1999.800
G1 X-26.313 Y18.588 Z8.475 F1999.800
G1 X-26.777 Y18.123 Z8.475 F1999.800
G1 X-26.313 Y18.588 Z8.475 F1999.800
G1 X-26.313 Y24.413 Z8.475 F1999.800
G1 X-26.777 Y24.877 Z8.475 F1999.800
G1 X-26.313 Y24.413 Z8.475 F1999.800
G1 X-15.100 Y24.413 Z8.475 F1999.800
G3 X-13.513 Y26.000 Z8.475 I0.000 J1.587 K0.000 F1999.800
G1 X-13.513 Y35.000 Z8.475 F1999.800
G3 X-15.100 Y36.588 Z8.475 I-1.587 J0.000 K0.000 F1999.800
G1 X-87.912 Y36.588 Z8.475 F1999.800
G1 X-88.377 Y36.123 Z8.475 F1999.800
G1 X-87.912 Y36.588 Z8.475 F1999.800
G1 X-87.912 Y46.413 Z8.475 F1999.800
G1 X-88.377 Y46.877 Z8.475 F1999.800
G1 X-87.912 Y46.413 Z8.475 F1999.800
G1 X-27.900 Y46.413 Z8.475 F1999.800
G3 X-26.313 Y48.000 Z8.475 I0.000 J1.587 K0.000 F1999.800
G1 X-26.313 Y55.413 Z8.475 F1999.800
G1 X-26.777 Y55.877 Z8.475 F1999.800
G1 X-26.313 Y55.413 Z8.475 F1999.800
G1 X-15.100 Y55.413 Z8.475 F1999.800
G3 X-13.513 Y57.000 Z8.475 I0.000 J1.587 K0.000 F1999.800
G1 X-13.513 Y66.000 Z8.475 F1999.800
G3 X-15.100 Y67.588 Z8.475 I-1.587 J0.000 K0.000 F1999.800
G1 X-26.313 Y67.588 Z8.475 F1999.800
G1 X-26.777 Y67.123 Z8.475 F1999.800
G1 X-26.313 Y67.588 Z8.475 F1999.800
G1 X-26.313 Y75.000 Z8.475 F1999.800
G3 X-27.900 Y76.588 Z8.475 I-1.587 J0.000 K0.000 F1999.800
G1 X-64.664 Y76.588 Z8.475 F1999.800
G2 X-87.912 Y83.835 Z8.475 I-0.033 J40.808 K0.000 F1999.800
G1 X-87.912 Y110.165 Z8.475 F1999.800
G2 X-64.664 Y117.412 Z8.475 I23.220 J-33.575 K0.000 F1999.800
G1 X-27.900 Y117.412 Z8.475 F1999.800
G3 X-26.313 Y119.000 Z8.475 I0.000 J1.587 K0.000 F1999.800
G1 X-26.313 Y126.412 Z8.475 F1999.800
G1 X-26.777 Y126.877 Z8.475 F1999.800
G1 X-26.313 Y126.412 Z8.475 F1999.800
G1 X-15.100 Y126.413 Z8.475 F1999.800
G3 X-13.513 Y128.000 Z8.475 I0.000 J1.587 K0.000 F1999.800
G1 X-13.513 Y137.000 Z8.475 F1999.800
G3 X-15.100 Y138.587 Z8.475 I-1.587 J0.000 K0.000 F1999.800
G1 X-26.313 Y138.587 Z8.475 F1999.800
G1 X-26.777 Y138.123 Z8.475 F1999.800
G1 X-26.313 Y138.587 Z8.475 F1999.800
G1 X-26.313 Y180.412 Z8.475 F1999.800
G1 X-26.777 Y180.877 Z8.475 F1999.800
G1 X-26.313 Y180.412 Z8.475 F1999.800
G1 X-15.100 Y180.413 Z8.475 F1999.800
G3 X-13.513 Y182.000 Z8.475 I0.000 J1.587 K0.000 F1999.800
G1 X-13.513 Y191.000 Z8.475 F1999.800
G3 X-14.865 Y192.570 Z8.475 I-1.587 J0.000 K0.000 F1999.800
G1 X-14.865 Y192.570 Z7.946 F999.600
G3 X-15.100 Y192.587 Z7.946 I-0.235 J-1.570 K0.000 F1999.800
G1 X-26.313 Y192.588 Z7.946 F1999.800
G1 X-26.777 Y192.123 Z7.946 F1999.800
G1 X-26.313 Y192.588 Z7.946 F1999.800
G1 X-26.313 Y200.000 Z7.946 F1999.800
G3 X-27.900 Y201.588 Z7.946 I-1.587 J0.000 K0.000 F1999.800
G1 X-78.532 Y201.587 Z7.946 F1999.800
G3 X-97.144 Y197.451 Z7.946 I0.032 J-44.087 K0.000 F1999.800
G2 X-114.745 Y193.570 Z7.946 I-17.488 J37.458 K0.000 F1999.800
G1 X-116.484 Y193.587 Z7.946 F1999.800
G3 X-118.087 Y192.000 Z7.946 I-0.016 J-1.587 K0.000 F1999.800
G1 X-118.087 Y0.000 Z7.946 F1999.800
G3 X-116.500 Y-1.587 Z7.946 I1.587 J-0.000 K0.000 F1999.800
G3 X-109.223 Y-1.270 Z7.946 I1.396 J51.605 K0.000 F1999.800
G3 X-95.856 Y2.549 Z7.946 I-5.277 J43.770 K0.000 F1999.800
G2 X-78.484 Y6.413 Z7.946 I17.360 J-37.068 K0.000 F1999.800
G1 X-15.100 Y6.413 Z7.946 F1999.800
G3 X-13.513 Y8.000 Z7.946 I0.000 J1.587 K0.000 F1999.800
G1 X-13.513 Y17.000 Z7.946 F1999.800
G3 X-15.100 Y18.587 Z7.946 I-1.587 J0.000 K0.000 F1999.800
G1 X-26.313 Y18.588 Z7.946 F1999.800
G1 X-26.777 Y18.123 Z7.946 F1999.800
G1 X-26.313 Y18.588 Z7.946 F1999.800
G1 X-26.313 Y24.413 Z7.946 F1999.800
G1 X-26.777 Y24.877 Z7.946 F1999.800
G1 X-26.313 Y24.413 Z7.946 F1999.800
G1 X-15.100 Y24.413 Z7.946 F1999.800
G3 X-13.513 Y26.000 Z7.946 I0.000 J1.587 K0.000 F1999.800
G1 X-13.513 Y35.000 Z7.946 F1999.800
G3 X-15.100 Y36.588 Z7.946 I-1.587 J0.000 K0.000 F1999.800
G1 X-87.912 Y36.588 Z7.946 F1999.800
G1 X-88.377 Y36.123 Z7.946 F1999.800
G1 X-87.912 Y36.588 Z7.946 F1999.800
G1 X-87.912 Y46.413 Z7.946 F1999.800
G1 X-88.377 Y46.877 Z7.946 F1999.800
G1 X-87.912 Y46.413 Z7.946 F1999.800
G1 X-27.900 Y46.413 Z7.946 F1999.800
G3 X-26.313 Y48.000 Z7.946 I0.000 J1.587 K0.000 F1999.800
G1 X-26.313 Y55.413 Z7.946 F1999.800
G1 X-26.777 Y55.877 Z7.946 F1999.800
G1 X-26.313 Y55.413 Z7.946 F1999.800
G1 X-15.100 Y55.413 Z7.946 F1999.800
G3 X-13.513 Y57.000 Z7.946 I0.000 J1.587 K0.000 F1999.800
G1 X-13.513 Y66.000 Z7.946 F1999.800
G3 X-15.100 Y67.588 Z7.946 I-1.587 J0.000 K0.000 F1999.800
G1 X-26.313 Y67.588 Z7.946 F1999.800
G1 X-26.777 Y67.123 Z7.946 F1999.800
G1 X-26.313 Y67.588 Z7.946 F1999.800
G1 X-26.313 Y75.000 Z7.946 F1999.800
G3 X-27.900 Y76.588 Z7.946 I-1.587 J0.000 K0.000 F1999.800
G1 X-64.664 Y76.588 Z7.946 F1999.800
G2 X-87.912 Y83.835 Z7.946 I-0.033 J40.808 K0.000 F1999.800
G1 X-87.912 Y110.165 Z7.946 F1999.800
G2 X-64.664 Y117.412 Z7.946 I23.220 J-33.575 K0.000 F1999.800
G1 X-27.900 Y117.412 Z7.946 F1999.800
G3 X-26.313 Y119.000 Z7.946 I0.000 J1.587 K0.000 F1999.800
G1 X-26.313 Y126.412 Z7.946 F1999.800
G1 X-26.777 Y126.877 Z7.946 F1999.800
G1 X-26.313 Y126.412 Z7.946 F1999.800
G1 X-15.100 Y126.413 Z7.946 F1999.800
G3 X-13.513 Y128.000 Z7.946 I0.000 J1.587 K0.000 F1999.800
G1 X-13.513 Y137.000 Z7.946 F1999.800
G3 X-15.100 Y138.587 Z7.946 I-1.587 J0.000 K0.000 F1999.800
G1 X-26.313 Y138.587 Z7.946 F1999.800
G1 X-26.777 Y138.123 Z7.946 F1999.800
G1 X-26.313 Y138.587 Z7.946 F1999.800
G1 X-26.313 Y180.412 Z7.946 F1999.800
G1 X-26.777 Y180.877 Z7.946 F1999.800
G1 X-26.313 Y180.412 Z7.946 F1999.800
G1 X-15.100 Y180.413 Z7.946 F1999.800
G3 X-13.513 Y182.000 Z7.946 I0.000 J1.587 K0.000 F1999.800
G1 X-13.513 Y191.000 Z7.946 F1999.800
G3 X-14.865 Y192.570 Z7.946 I-1.587 J0.000 K0.000 F1999.800
G1 X-14.865 Y192.570 Z7.417 F999.600
G3 X-15.100 Y192.587 Z7.417 I-0.235 J-1.570 K0.000 F1999.800
G1 X-26.313 Y192.588 Z7.417 F1999.800
G1 X-26.777 Y192.123 Z7.417 F1999.800
G1 X-26.313 Y192.588 Z7.417 F1999.800
G1 X-26.313 Y200.000 Z7.417 F1999.800
G3 X-27.900 Y201.588 Z7.417 I-1.587 J0.000 K0.000 F1999.800
G1 X-78.532 Y201.587 Z7.417 F1999.800
G3 X-97.144 Y197.451 Z7.417 I0.032 J-44.087 K0.000 F1999.800
G2 X-114.745 Y193.570 Z7.417 I-17.488 J37.458 K0.000 F1999.800
G1 X-116.484 Y193.587 Z7.417 F1999.800
G3 X-118.087 Y192.000 Z7.417 I-0.016 J-1.587 K0.000 F1999.800
G1 X-118.087 Y0.000 Z7.417 F1999.800
G3 X-116.500 Y-1.587 Z7.417 I1.587 J-0.000 K0.000 F1999.800
G3 X-109.223 Y-1.270 Z7.417 I1.396 J51.605 K0.000 F1999.800
G3 X-95.856 Y2.549 Z7.417 I-5.277 J43.770 K0.000 F1999.800
G2 X-78.484 Y6.413 Z7.417 I17.360 J-37.068 K0.000 F1999.800
G1 X-15.100 Y6.413 Z7.417 F1999.800
G3 X-13.513 Y8.000 Z7.417 I0.000 J1.587 K0.000 F1999.800
G1 X-13.513 Y17.000 Z7.417 F1999.800
G3 X-15.100 Y18.587 Z7.417 I-1.587 J0.000 K0.000 F1999.800
G1 X-26.313 Y18.588 Z7.417 F1999.800
G1 X-26.777 Y18.123 Z7.417 F1999.800
G1 X-26.313 Y18.588 Z7.417 F1999.800
G1 X-26.313 Y24.413 Z7.417 F1999.800
G1 X-26.777 Y24.877 Z7.417 F1999.800
G1 X-26.313 Y24.413 Z7.417 F1999.800
G1 X-15.100 Y24.413 Z7.417 F1999.800
G3 X-13.513 Y26.000 Z7.417 I0.000 J1.587 K0.000 F1999.800
G1 X-13.513 Y35.000 Z7.417 F1999.800
G3 X-15.100 Y36.588 Z7.417 I-1.587 J0.000 K0.000 F1999.800
G1 X-87.912 Y36.588 Z7.417 F1999.800
G1 X-88.377 Y36.123 Z7.417 F1999.800
G1 X-87.912 Y36.588 Z7.417 F1999.800
G1 X-87.912 Y46.413 Z7.417 F1999.800
G1 X-88.377 Y46.877 Z7.417 F1999.800
G1 X-87.912 Y46.413 Z7.417 F1999.800
G1 X-27.900 Y46.413 Z7.417 F1999.800
G3 X-26.313 Y48.000 Z7.417 I0.000 J1.587 K0.000 F1999.800
G1 X-26.313 Y55.413 Z7.417 F1999.800
G1 X-26.777 Y55.877 Z7.417 F1999.800
G1 X-26.313 Y55.413 Z7.417 F1999.800
G1 X-15.100 Y55.413 Z7.417 F1999.800
G3 X-13.513 Y57.000 Z7.417 I0.000 J1.587 K0.000 F1999.800
G1 X-13.513 Y66.000 Z7.417 F1999.800
G3 X-15.100 Y67.588 Z7.417 I-1.587 J0.000 K0.000 F1999.800
G1 X-26.313 Y67.588 Z7.417 F1999.800
G1 X-26.777 Y67.123 Z7.417 F1999.800
G1 X-26.313 Y67.588 Z7.417 F1999.800
G1 X-26.313 Y75.000 Z7.417 F1999.800
G3 X-27.900 Y76.588 Z7.417 I-1.587 J0.000 K0.000 F1999.800
G1 X-64.664 Y76.588 Z7.417 F1999.800
G2 X-87.912 Y83.835 Z7.417 I-0.033 J40.808 K0.000 F1999.800
G1 X-87.912 Y110.165 Z7.417 F1999.800
G2 X-64.664 Y117.412 Z7.417 I23.220 J-33.575 K0.000 F1999.800
G1 X-27.900 Y117.412 Z7.417 F1999.800
G3 X-26.313 Y119.000 Z7.417 I0.000 J1.587 K0.000 F1999.800
G1 X-26.313 Y126.412 Z7.417 F1999.800
G1 X-26.777 Y126.877 Z7.417 F1999.800
G1 X-26.313 Y126.412 Z7.417 F1999.800
G1 X-15.100 Y126.413 Z7.417 F1999.800
G3 X-13.513 Y128.000 Z7.417 I0.000 J1.587 K0.000 F1999.800
G1 X-13.513 Y137.000 Z7.417 F1999.800
G3 X-15.100 Y138.587 Z7.417 I-1.587 J0.000 K0.000 F1999.800
G1 X-26.313 Y138.587 Z7.417 F1999.800
G1 X-26.777 Y138.123 Z7.417 F1999.800
G1 X-26.313 Y138.587 Z7.417 F1999.800
G1 X-26.313 Y180.412 Z7.417 F1999.800
G1 X-26.777 Y180.877 Z7.417 F1999.800
G1 X-26.313 Y180.412 Z7.417 F1999.800
G1 X-15.100 Y180.413 Z7.417 F1999.800
G3 X-13.513 Y182.000 Z7.417 I0.000 J1.587 K0.000 F1999.800
G1 X-13.513 Y191.000 Z7.417 F1999.800
G3 X-14.865 Y192.570 Z7.417 I-1.587 J0.000 K0.000 F1999.800
G1 X-14.865 Y192.570 Z6.887 F999.600
G3 X-15.100 Y192.587 Z6.887 I-0.235 J-1.570 K0.000 F1999.800
G1 X-26.313 Y192.588 Z6.887 F1999.800
G1 X-26.777 Y192.123 Z6.887 F1999.800
G1 X-26.313 Y192.588 Z6.887 F1999.800
G1 X-26.313 Y200.000 Z6.887 F1999.800
G3 X-27.900 Y201.588 Z6.887 I-1.587 J0.000 K0.000 F1999.800
G1 X-78.532 Y201.587 Z6.887 F1999.800
G3 X-97.144 Y197.451 Z6.887 I0.032 J-44.087 K0.000 F1999.800
G2 X-114.745 Y193.570 Z6.887 I-17.488 J37.458 K0.000 F1999.800
G1 X-116.484 Y193.587 Z6.887 F1999.800
G3 X-118.087 Y192.000 Z6.887 I-0.016 J-1.587 K0.000 F1999.800
G1 X-118.087 Y0.000 Z6.887 F1999.800
G3 X-116.500 Y-1.587 Z6.887 I1.587 J-0.000 K0.000 F1999.800
G3 X-109.223 Y-1.270 Z6.887 I1.396 J51.605 K0.000 F1999.800
G3 X-95.856 Y2.549 Z6.887 I-5.277 J43.770 K0.000 F1999.800
G2 X-78.484 Y6.413 Z6.887 I17.360 J-37.068 K0.000 F1999.800
G1 X-15.100 Y6.413 Z6.887 F1999.800
G3 X-13.513 Y8.000 Z6.887 I0.000 J1.587 K0.000 F1999.800
G1 X-13.513 Y17.000 Z6.887 F1999.800
G3 X-15.100 Y18.587 Z6.887 I-1.587 J0.000 K0.000 F1999.800
G1 X-26.313 Y18.588 Z6.887 F1999.800
G1 X-26.777 Y18.123 Z6.887 F1999.800
G1 X-26.313 Y18.588 Z6.887 F1999.800
G1 X-26.313 Y24.413 Z6.887 F1999.800
G1 X-26.777 Y24.877 Z6.887 F1999.800
G1 X-26.313 Y24.413 Z6.887 F1999.800
G1 X-15.100 Y24.413 Z6.887 F1999.800
G3 X-13.513 Y26.000 Z6.887 I0.000 J1.587 K0.000 F1999.800
G1 X-13.513 Y35.000 Z6.887 F1999.800
G3 X-15.100 Y36.588 Z6.887 I-1.587 J0.000 K0.000 F1999.800
G1 X-87.912 Y36.588 Z6.887 F1999.800
G1 X-88.377 Y36.123 Z6.887 F1999.800
G1 X-87.912 Y36.588 Z6.887 F1999.800
G1 X-87.912 Y46.413 Z6.887 F1999.800
G1 X-88.377 Y46.877 Z6.887 F1999.800
G1 X-87.912 Y46.413 Z6.887 F1999.800
G1 X-27.900 Y46.413 Z6.887 F1999.800
G3 X-26.313 Y48.000 Z6.887 I0.000 J1.587 K0.000 F1999.800
G1 X-26.313 Y55.413 Z6.887 F1999.800
G1 X-26.777 Y55.877 Z6.887 F1999.800
G1 X-26.313 Y55.413 Z6.887 F1999.800
G1 X-15.100 Y55.413 Z6.887 F1999.800
G3 X-13.513 Y57.000 Z6.887 I0.000 J1.587 K0.000 F1999.800
G1 X-13.513 Y66.000 Z6.887 F1999.800
G3 X-15.100 Y67.588 Z6.887 I-1.587 J0.000 K0.000 F1999.800
G1 X-26.313 Y67.588 Z6.887 F1999.800
G1 X-26.777 Y67.123 Z6.887 F1999.800
G1 X-26.313 Y67.588 Z6.887 F1999.800
G1 X-26.313 Y75.000 Z6.887 F1999.800
G3 X-27.900 Y76.588 Z6.887 I-1.587 J0.000 K0.000 F1999.800
G1 X-64.664 Y76.588 Z6.887 F1999.800
G2 X-87.912 Y83.835 Z6.887 I-0.033 J40.808 K0.000 F1999.800
G1 X-87.912 Y110.165 Z6.887 F1999.800
G2 X-64.664 Y117.412 Z6.887 I23.220 J-33.575 K0.000 F1999.800
G1 X-27.900 Y117.412 Z6.887 F1999.800
G3 X-26.313 Y119.000 Z6.887 I0.000 J1.587 K0.000 F1999.800
G1 X-26.313 Y126.412 Z6.887 F1999.800
G1 X-26.777 Y126.877 Z6.887 F1999.800
G1 X-26.313 Y126.412 Z6.887 F1999.800
G1 X-15.100 Y126.413 Z6.887 F1999.800
G3 X-13.513 Y128.000 Z6.887 I0.000 J1.587 K0.000 F1999.800
G1 X-13.513 Y137.000 Z6.887 F1999.800
G3 X-15.100 Y138.587 Z6.887 I-1.587 J0.000 K0.000 F1999.800
G1 X-26.313 Y138.587 Z6.887 F1999.800
G1 X-26.777 Y138.123 Z6.887 F1999.800
G1 X-26.313 Y138.587 Z6.887 F1999.800
G1 X-26.313 Y180.412 Z6.887 F1999.800
G1 X-26.777 Y180.877 Z6.887 F1999.800
G1 X-26.313 Y180.412 Z6.887 F1999.800
G1 X-15.100 Y180.413 Z6.887 F1999.800
G3 X-13.513 Y182.000 Z6.887 I0.000 J1.587 K0.000 F1999.800
G1 X-13.513 Y191.000 Z6.887 F1999.800
G3 X-14.865 Y192.570 Z6.887 I-1.587 J0.000 K0.000 F1999.800
G1 X-14.865 Y192.570 Z6.358 F999.600
G3 X-15.100 Y192.587 Z6.358 I-0.235 J-1.570 K0.000 F1999.800
G1 X-26.313 Y192.588 Z6.358 F1999.800
G1 X-26.777 Y192.123 Z6.358 F1999.800
G1 X-26.313 Y192.588 Z6.358 F1999.800
G1 X-26.313 Y200.000 Z6.358 F1999.800
G3 X-27.900 Y201.588 Z6.358 I-1.587 J0.000 K0.000 F1999.800
G1 X-78.532 Y201.587 Z6.358 F1999.800
G3 X-97.144 Y197.451 Z6.358 I0.032 J-44.087 K0.000 F1999.800
G2 X-114.745 Y193.570 Z6.358 I-17.488 J37.458 K0.000 F1999.800
G1 X-116.484 Y193.587 Z6.358 F1999.800
G3 X-118.087 Y192.000 Z6.358 I-0.016 J-1.587 K0.000 F1999.800
G1 X-118.087 Y0.000 Z6.358 F1999.800
G3 X-116.500 Y-1.587 Z6.358 I1.587 J-0.000 K0.000 F1999.800
G3 X-109.223 Y-1.270 Z6.358 I1.396 J51.605 K0.000 F1999.800
G3 X-95.856 Y2.549 Z6.358 I-5.277 J43.770 K0.000 F1999.800
G2 X-78.484 Y6.413 Z6.358 I17.360 J-37.068 K0.000 F1999.800
G1 X-15.100 Y6.413 Z6.358 F1999.800
G3 X-13.513 Y8.000 Z6.358 I0.000 J1.587 K0.000 F1999.800
G1 X-13.513 Y17.000 Z6.358 F1999.800
G3 X-15.100 Y18.587 Z6.358 I-1.587 J0.000 K0.000 F1999.800
G1 X-26.313 Y18.588 Z6.358 F1999.800
G1 X-26.777 Y18.123 Z6.358 F1999.800
G1 X-26.313 Y18.588 Z6.358 F1999.800
G1 X-26.313 Y24.413 Z6.358 F1999.800
G1 X-26.777 Y24.877 Z6.358 F1999.800
G1 X-26.313 Y24.413 Z6.358 F1999.800
G1 X-15.100 Y24.413 Z6.358 F1999.800
G3 X-13.513 Y26.000 Z6.358 I0.000 J1.587 K0.000 F1999.800
G1 X-13.513 Y35.000 Z6.358 F1999.800
G3 X-15.100 Y36.588 Z6.358 I-1.587 J0.000 K0.000 F1999.800
G1 X-87.912 Y36.588 Z6.358 F1999.800
G1 X-88.377 Y36.123 Z6.358 F1999.800
G1 X-87.912 Y36.588 Z6.358 F1999.800
G1 X-87.912 Y46.413 Z6.358 F1999.800
G1 X-88.377 Y46.877 Z6.358 F1999.800
G1 X-87.912 Y46.413 Z6.358 F1999.800
G1 X-27.900 Y46.413 Z6.358 F1999.800
G3 X-26.313 Y48.000 Z6.358 I0.000 J1.587 K0.000 F1999.800
G1 X-26.313 Y55.413 Z6.358 F1999.800
G1 X-26.777 Y55.877 Z6.358 F1999.800
G1 X-26.313 Y55.413 Z6.358 F1999.800
G1 X-15.100 Y55.413 Z6.358 F1999.800
G3 X-13.513 Y57.000 Z6.358 I0.000 J1.587 K0.000 F1999.800
G1 X-13.513 Y66.000 Z6.358 F1999.800
G3 X-15.100 Y67.588 Z6.358 I-1.587 J0.000 K0.000 F1999.800
G1 X-26.313 Y67.588 Z6.358 F1999.800
G1 X-26.777 Y67.123 Z6.358 F1999.800
G1 X-26.313 Y67.588 Z6.358 F1999.800
G1 X-26.313 Y75.000 Z6.358 F1999.800
G3 X-27.900 Y76.588 Z6.358 I-1.587 J0.000 K0.000 F1999.800
G1 X-64.664 Y76.588 Z6.358 F1999.800
G2 X-87.912 Y83.835 Z6.358 I-0.033 J40.808 K0.000 F1999.800
G1 X-87.912 Y110.165 Z6.358 F1999.800
G2 X-64.664 Y117.412 Z6.358 I23.220 J-33.575 K0.000 F1999.800
G1 X-27.900 Y117.412 Z6.358 F1999.800
G3 X-26.313 Y119.000 Z6.358 I0.000 J1.587 K0.000 F1999.800
G1 X-26.313 Y126.412 Z6.358 F1999.800
G1 X-26.777 Y126.877 Z6.358 F1999.800
G1 X-26.313 Y126.412 Z6.358 F1999.800
G1 X-15.100 Y126.413 Z6.358 F1999.800
G3 X-13.513 Y128.000 Z6.358 I0.000 J1.587 K0.000 F1999.800
G1 X-13.513 Y137.000 Z6.358 F1999.800
G3 X-15.100 Y138.587 Z6.358 I-1.587 J0.000 K0.000 F1999.800
G1 X-26.313 Y138.587 Z6.358 F1999.800
G1 X-26.777 Y138.123 Z6.358 F1999.800
G1 X-26.313 Y138.587 Z6.358 F1999.800
G1 X-26.313 Y180.412 Z6.358 F1999.800
G1 X-26.777 Y180.877 Z6.358 F1999.800
G1 X-26.313 Y180.412 Z6.358 F1999.800
G1 X-15.100 Y180.413 Z6.358 F1999.800
G3 X-13.513 Y182.000 Z6.358 I0.000 J1.587 K0.000 F1999.800
G1 X-13.513 Y191.000 Z6.358 F1999.800
G3 X-14.865 Y192.570 Z6.358 I-1.587 J0.000 K0.000 F1999.800
G1 X-14.865 Y192.570 Z5.829 F999.600
G3 X-15.100 Y192.587 Z5.829 I-0.235 J-1.570 K0.000 F1999.800
G1 X-26.313 Y192.588 Z5.829 F1999.800
G1 X-26.777 Y192.123 Z5.829 F1999.800
G1 X-26.313 Y192.588 Z5.829 F1999.800
G1 X-26.313 Y200.000 Z5.829 F1999.800
G3 X-27.900 Y201.588 Z5.829 I-1.587 J0.000 K0.000 F1999.800
G1 X-78.532 Y201.587 Z5.829 F1999.800
G3 X-97.144 Y197.451 Z5.829 I0.032 J-44.087 K0.000 F1999.800
G2 X-114.745 Y193.570 Z5.829 I-17.488 J37.458 K0.000 F1999.800
G1 X-116.484 Y193.587 Z5.829 F1999.800
G3 X-118.087 Y192.000 Z5.829 I-0.016 J-1.587 K0.000 F1999.800
G1 X-118.087 Y0.000 Z5.829 F1999.800
G3 X-116.500 Y-1.587 Z5.829 I1.587 J-0.000 K0.000 F1999.800
G3 X-109.223 Y-1.270 Z5.829 I1.396 J51.605 K0.000 F1999.800
G3 X-95.856 Y2.549 Z5.829 I-5.277 J43.770 K0.000 F1999.800
G2 X-78.484 Y6.413 Z5.829 I17.360 J-37.068 K0.000 F1999.800
G1 X-15.100 Y6.413 Z5.829 F1999.800
G3 X-13.513 Y8.000 Z5.829 I0.000 J1.587 K0.000 F1999.800
G1 X-13.513 Y17.000 Z5.829 F1999.800
G3 X-15.100 Y18.587 Z5.829 I-1.587 J0.000 K0.000 F1999.800
G1 X-26.313 Y18.588 Z5.829 F1999.800
G1 X-26.777 Y18.123 Z5.829 F1999.800
G1 X-26.313 Y18.588 Z5.829 F1999.800
G1 X-26.313 Y24.413 Z5.829 F1999.800
G1 X-26.777 Y24.877 Z5.829 F1999.800
G1 X-26.313 Y24.413 Z5.829 F1999.800
G1 X-15.100 Y24.413 Z5.829 F1999.800
G3 X-13.513 Y26.000 Z5.829 I0.000 J1.587 K0.000 F1999.800
G1 X-13.513 Y35.000 Z5.829 F1999.800
G3 X-15.100 Y36.588 Z5.829 I-1.587 J0.000 K0.000 F1999.800
G1 X-87.912 Y36.588 Z5.829 F1999.800
G1 X-88.377 Y36.123 Z5.829 F1999.800
G1 X-87.912 Y36.588 Z5.829 F1999.800
G1 X-87.912 Y46.413 Z5.829 F1999.800
G1 X-88.377 Y46.877 Z5.829 F1999.800
G1 X-87.912 Y46.413 Z5.829 F1999.800
G1 X-27.900 Y46.413 Z5.829 F1999.800
G3 X-26.313 Y48.000 Z5.829 I0.000 J1.587 K0.000 F1999.800
G1 X-26.313 Y55.413 Z5.829 F1999.800
G1 X-26.777 Y55.877 Z5.829 F1999.800
G1 X-26.313 Y55.413 Z5.829 F1999.800
G1 X-15.100 Y55.413 Z5.829 F1999.800
G3 X-13.513 Y57.000 Z5.829 I0.000 J1.587 K0.000 F1999.800
G1 X-13.513 Y66.000 Z5.829 F1999.800
G3 X-15.100 Y67.588 Z5.829 I-1.587 J0.000 K0.000 F1999.800
G1 X-26.313 Y67.588 Z5.829 F1999.800
G1 X-26.777 Y67.123 Z5.829 F1999.800
G1 X-26.313 Y67.588 Z5.829 F1999.800
G1 X-26.313 Y75.000 Z5.829 F1999.800
G3 X-27.900 Y76.588 Z5.829 I-1.587 J0.000 K0.000 F1999.800
G1 X-64.664 Y76.588 Z5.829 F1999.800
G2 X-87.912 Y83.835 Z5.829 I-0.033 J40.808 K0.000 F1999.800
G1 X-87.912 Y110.165 Z5.829 F1999.800
G2 X-64.664 Y117.412 Z5.829 I23.220 J-33.575 K0.000 F1999.800
G1 X-27.900 Y117.412 Z5.829 F1999.800
G3 X-26.313 Y119.000 Z5.829 I0.000 J1.587 K0.000 F1999.800
G1 X-26.313 Y126.412 Z5.829 F1999.800
G1 X-26.777 Y126.877 Z5.829 F1999.800
G1 X-26.313 Y126.412 Z5.829 F1999.800
G1 X-15.100 Y126.413 Z5.829 F1999.800
G3 X-13.513 Y128.000 Z5.829 I0.000 J1.587 K0.000 F1999.800
G1 X-13.513 Y137.000 Z5.829 F1999.800
G3 X-15.100 Y138.587 Z5.829 I-1.587 J0.000 K0.000 F1999.800
G1 X-26.313 Y138.587 Z5.829 F1999.800
G1 X-26.777 Y138.123 Z5.829 F1999.800
G1 X-26.313 Y138.587 Z5.829 F1999.800
G1 X-26.313 Y180.412 Z5.829 F1999.800
G1 X-26.777 Y180.877 Z5.829 F1999.800
G1 X-26.313 Y180.412 Z5.829 F1999.800
G1 X-15.100 Y180.413 Z5.829 F1999.800
G3 X-13.513 Y182.000 Z5.829 I0.000 J1.587 K0.000 F1999.800
G1 X-13.513 Y191.000 Z5.829 F1999.800
G3 X-14.865 Y192.570 Z5.829 I-1.587 J0.000 K0.000 F1999.800
G1 X-14.865 Y192.570 Z5.300 F999.600
G3 X-15.100 Y192.587 Z5.300 I-0.235 J-1.570 K0.000 F1999.800
G1 X-26.313 Y192.588 Z5.300 F1999.800
G1 X-26.777 Y192.123 Z5.300 F1999.800
G1 X-26.313 Y192.588 Z5.300 F1999.800
G1 X-26.313 Y200.000 Z5.300 F1999.800
G3 X-27.900 Y201.588 Z5.300 I-1.587 J0.000 K0.000 F1999.800
G1 X-78.532 Y201.587 Z5.300 F1999.800
G3 X-97.144 Y197.451 Z5.300 I0.032 J-44.087 K0.000 F1999.800
G2 X-114.745 Y193.570 Z5.300 I-17.488 J37.458 K0.000 F1999.800
G1 X-116.484 Y193.587 Z5.300 F1999.800
G3 X-118.087 Y192.000 Z5.300 I-0.016 J-1.587 K0.000 F1999.800
G1 X-118.087 Y0.000 Z5.300 F1999.800
G3 X-116.500 Y-1.587 Z5.300 I1.587 J-0.000 K0.000 F1999.800
G3 X-109.223 Y-1.270 Z5.300 I1.396 J51.605 K0.000 F1999.800
G3 X-95.856 Y2.549 Z5.300 I-5.277 J43.770 K0.000 F1999.800
G2 X-78.484 Y6.413 Z5.300 I17.360 J-37.068 K0.000 F1999.800
G1 X-15.100 Y6.413 Z5.300 F1999.800
G3 X-13.513 Y8.000 Z5.300 I0.000 J1.587 K0.000 F1999.800
G1 X-13.513 Y17.000 Z5.300 F1999.800
G3 X-15.100 Y18.587 Z5.300 I-1.587 J0.000 K0.000 F1999.800
G1 X-26.313 Y18.588 Z5.300 F1999.800
G1 X-26.777 Y18.123 Z5.300 F1999.800
G1 X-26.313 Y18.588 Z5.300 F1999.800
G1 X-26.313 Y24.413 Z5.300 F1999.800
G1 X-26.777 Y24.877 Z5.300 F1999.800
G1 X-26.313 Y24.413 Z5.300 F1999.800
G1 X-15.100 Y24.413 Z5.300 F1999.800
G3 X-13.513 Y26.000 Z5.300 I0.000 J1.587 K0.000 F1999.800
G1 X-13.513 Y35.000 Z5.300 F1999.800
G3 X-15.100 Y36.588 Z5.300 I-1.587 J0.000 K0.000 F1999.800
G1 X-87.912 Y36.588 Z5.300 F1999.800
G1 X-88.377 Y36.123 Z5.300 F1999.800
G1 X-87.912 Y36.588 Z5.300 F1999.800
G1 X-87.912 Y46.413 Z5.300 F1999.800
G1 X-88.377 Y46.877 Z5.300 F1999.800
G1 X-87.912 Y46.413 Z5.300 F1999.800
G1 X-27.900 Y46.413 Z5.300 F1999.800
G3 X-26.313 Y48.000 Z5.300 I0.000 J1.587 K0.000 F1999.800
G1 X-26.313 Y55.413 Z5.300 F1999.800
G1 X-26.777 Y55.877 Z5.300 F1999.800
G1 X-26.313 Y55.413 Z5.300 F1999.800
G1 X-15.100 Y55.413 Z5.300 F1999.800
G3 X-13.513 Y57.000 Z5.300 I0.000 J1.587 K0.000 F1999.800
G1 X-13.513 Y66.000 Z5.300 F1999.800
G3 X-15.100 Y67.588 Z5.300 I-1.587 J0.000 K0.000 F1999.800
G1 X-26.313 Y67.588 Z5.300 F1999.800
G1 X-26.777 Y67.123 Z5.300 F1999.800
G1 X-26.313 Y67.588 Z5.300 F1999.800
G1 X-26.313 Y75.000 Z5.300 F1999.800
G3 X-27.900 Y76.588 Z5.300 I-1.587 J0.000 K0.000 F1999.800
G1 X-64.664 Y76.588 Z5.300 F1999.800
G2 X-87.912 Y83.835 Z5.300 I-0.033 J40.808 K0.000 F1999.800
G1 X-87.912 Y110.165 Z5.300 F1999.800
G2 X-64.664 Y117.412 Z5.300 I23.220 J-33.575 K0.000 F1999.800
G1 X-27.900 Y117.412 Z5.300 F1999.800
G3 X-26.313 Y119.000 Z5.300 I0.000 J1.587 K0.000 F1999.800
G1 X-26.313 Y126.412 Z5.300 F1999.800
G1 X-26.777 Y126.877 Z5.300 F1999.800
G1 X-26.313 Y126.412 Z5.300 F1999.800
G1 X-15.100 Y126.413 Z5.300 F1999.800
G3 X-13.513 Y128.000 Z5.300 I0.000 J1.587 K0.000 F1999.800
G1 X-13.513 Y137.000 Z5.300 F1999.800
G3 X-15.100 Y138.587 Z5.300 I-1.587 J0.000 K0.000 F1999.800
G1 X-26.313 Y138.587 Z5.300 F1999.800
G1 X-26.777 Y138.123 Z5.300 F1999.800
G1 X-26.313 Y138.587 Z5.300 F1999.800
G1 X-26.313 Y180.412 Z5.300 F1999.800
G1 X-26.777 Y180.877 Z5.300 F1999.800
G1 X-26.313 Y180.412 Z5.300 F1999.800
G1 X-15.100 Y180.413 Z5.300 F1999.800
G3 X-13.513 Y182.000 Z5.300 I0.000 J1.587 K0.000 F1999.800
G1 X-13.513 Y191.000 Z5.300 F1999.800
G3 X-14.865 Y192.570 Z5.300 I-1.587 J0.000 K0.000 F1999.800
G1 X-14.865 Y192.570 Z4.771 F999.600
G3 X-15.100 Y192.587 Z4.771 I-0.235 J-1.570 K0.000 F1999.800
G1 X-26.313 Y192.588 Z4.771 F1999.800
G1 X-26.777 Y192.123 Z4.771 F1999.800
G1 X-26.313 Y192.588 Z4.771 F1999.800
G1 X-26.313 Y200.000 Z4.771 F1999.800
G3 X-27.900 Y201.588 Z4.771 I-1.587 J0.000 K0.000 F1999.800
G1 X-78.532 Y201.587 Z4.771 F1999.800
G3 X-97.144 Y197.451 Z4.771 I0.032 J-44.087 K0.000 F1999.800
G2 X-114.745 Y193.570 Z4.771 I-17.488 J37.458 K0.000 F1999.800
G1 X-116.484 Y193.587 Z4.771 F1999.800
G3 X-118.087 Y192.000 Z4.771 I-0.016 J-1.587 K0.000 F1999.800
G1 X-118.087 Y0.000 Z4.771 F1999.800
G3 X-116.500 Y-1.587 Z4.771 I1.587 J-0.000 K0.000 F1999.800
G3 X-109.223 Y-1.270 Z4.771 I1.396 J51.605 K0.000 F1999.800
G3 X-95.856 Y2.549 Z4.771 I-5.277 J43.770 K0.000 F1999.800
G2 X-78.484 Y6.413 Z4.771 I17.360 J-37.068 K0.000 F1999.800
G1 X-15.100 Y6.413 Z4.771 F1999.800
G3 X-13.513 Y8.000 Z4.771 I0.000 J1.587 K0.000 F1999.800
G1 X-13.513 Y17.000 Z4.771 F1999.800
G3 X-15.100 Y18.587 Z4.771 I-1.587 J0.000 K0.000 F1999.800
G1 X-26.313 Y18.588 Z4.771 F1999.800
G1 X-26.777 Y18.123 Z4.771 F1999.800
G1 X-26.313 Y18.588 Z4.771 F1999.800
G1 X-26.313 Y24.413 Z4.771 F1999.800
G1 X-26.777 Y24.877 Z4.771 F1999.800
G1 X-26.313 Y24.413 Z4.771 F1999.800
G1 X-15.100 Y24.413 Z4.771 F1999.800
G3 X-13.513 Y26.000 Z4.771 I0.000 J1.587 K0.000 F1999.800
G1 X-13.513 Y35.000 Z4.771 F1999.800
G3 X-15.100 Y36.588 Z4.771 I-1.587 J0.000 K0.000 F1999.800
G1 X-87.912 Y36.588 Z4.771 F1999.800
G1 X-88.377 Y36.123 Z4.771 F1999.800
G1 X-87.912 Y36.588 Z4.771 F1999.800
G1 X-87.912 Y46.413 Z4.771 F1999.800
G1 X-88.377 Y46.877 Z4.771 F1999.800
G1 X-87.912 Y46.413 Z4.771 F1999.800
G1 X-27.900 Y46.413 Z4.771 F1999.800
G3 X-26.313 Y48.000 Z4.771 I0.000 J1.587 K0.000 F1999.800
G1 X-26.313 Y55.413 Z4.771 F1999.800
G1 X-26.777 Y55.877 Z4.771 F1999.800
G1 X-26.313 Y55.413 Z4.771 F1999.800
G1 X-15.100 Y55.413 Z4.771 F1999.800
G3 X-13.513 Y57.000 Z4.771 I0.000 J1.587 K0.000 F1999.800
G1 X-13.513 Y66.000 Z4.771 F1999.800
G3 X-15.100 Y67.588 Z4.771 I-1.587 J0.000 K0.000 F1999.800
G1 X-26.313 Y67.588 Z4.771 F1999.800
G1 X-26.777 Y67.123 Z4.771 F1999.800
G1 X-26.313 Y67.588 Z4.771 F1999.800
G1 X-26.313 Y75.000 Z4.771 F1999.800
G3 X-27.900 Y76.588 Z4.771 I-1.587 J0.000 K0.000 F1999.800
G1 X-64.664 Y76.588 Z4.771 F1999.800
G2 X-87.912 Y83.835 Z4.771 I-0.033 J40.808 K0.000 F1999.800
G1 X-87.912 Y110.165 Z4.771 F1999.800
G2 X-64.664 Y117.412 Z4.771 I23.220 J-33.575 K0.000 F1999.800
G1 X-27.900 Y117.412 Z4.771 F1999.800
G3 X-26.313 Y119.000 Z4.771 I0.000 J1.587 K0.000 F1999.800
G1 X-26.313 Y126.412 Z4.771 F1999.800
G1 X-26.777 Y126.877 Z4.771 F1999.800
G1 X-26.313 Y126.412 Z4.771 F1999.800
G1 X-15.100 Y126.413 Z4.771 F1999.800
G3 X-13.513 Y128.000 Z4.771 I0.000 J1.587 K0.000 F1999.800
G1 X-13.513 Y137.000 Z4.771 F1999.800
G3 X-15.100 Y138.587 Z4.771 I-1.587 J0.000 K0.000 F1999.800
G1 X-26.313 Y138.587 Z4.771 F1999.800
G1 X-26.777 Y138.123 Z4.771 F1999.800
G1 X-26.313 Y138.587 Z4.771 F1999.800
G1 X-26.313 Y180.412 Z4.771 F1999.800
G1 X-26.777 Y180.877 Z4.771 F1999.800
G1 X-26.313 Y180.412 Z4.771 F1999.800
G1 X-15.100 Y180.413 Z4.771 F1999.800
G3 X-13.513 Y182.000 Z4.771 I0.000 J1.587 K0.000 F1999.800
G1 X-13.513 Y191.000 Z4.771 F1999.800
G3 X-14.865 Y192.570 Z4.771 I-1.587 J0.000 K0.000 F1999.800
G1 X-14.865 Y192.570 Z4.242 F999.600
G3 X-15.100 Y192.587 Z4.242 I-0.235 J-1.570 K0.000 F1999.800
G1 X-26.313 Y192.588 Z4.242 F1999.800
G1 X-26.777 Y192.123 Z4.242 F1999.800
G1 X-26.313 Y192.588 Z4.242 F1999.800
G1 X-26.313 Y200.000 Z4.242 F1999.800
G3 X-27.900 Y201.588 Z4.242 I-1.587 J0.000 K0.000 F1999.800
G1 X-78.532 Y201.587 Z4.242 F1999.800
G3 X-97.144 Y197.451 Z4.242 I0.032 J-44.087 K0.000 F1999.800
G2 X-114.745 Y193.570 Z4.242 I-17.488 J37.458 K0.000 F1999.800
G1 X-116.484 Y193.587 Z4.242 F1999.800
G3 X-118.087 Y192.000 Z4.242 I-0.016 J-1.587 K0.000 F1999.800
G1 X-118.087 Y0.000 Z4.242 F1999.800
G3 X-116.500 Y-1.587 Z4.242 I1.587 J-0.000 K0.000 F1999.800
G3 X-109.223 Y-1.270 Z4.242 I1.396 J51.605 K0.000 F1999.800
G3 X-95.856 Y2.549 Z4.242 I-5.277 J43.770 K0.000 F1999.800
G2 X-78.484 Y6.413 Z4.242 I17.360 J-37.068 K0.000 F1999.800
G1 X-15.100 Y6.413 Z4.242 F1999.800
G3 X-13.513 Y8.000 Z4.242 I0.000 J1.587 K0.000 F1999.800
G1 X-13.513 Y17.000 Z4.242 F1999.800
G3 X-15.100 Y18.587 Z4.242 I-1.587 J0.000 K0.000 F1999.800
G1 X-26.313 Y18.588 Z4.242 F1999.800
G1 X-26.777 Y18.123 Z4.242 F1999.800
G1 X-26.313 Y18.588 Z4.242 F1999.800
G1 X-26.313 Y24.413 Z4.242 F1999.800
G1 X-26.777 Y24.877 Z4.242 F1999.800
G1 X-26.313 Y24.413 Z4.242 F1999.800
G1 X-15.100 Y24.413 Z4.242 F1999.800
G3 X-13.513 Y26.000 Z4.242 I0.000 J1.587 K0.000 F1999.800
G1 X-13.513 Y35.000 Z4.242 F1999.800
G3 X-15.100 Y36.588 Z4.242 I-1.587 J0.000 K0.000 F1999.800
G1 X-87.912 Y36.588 Z4.242 F1999.800
G1 X-88.377 Y36.123 Z4.242 F1999.800
G1 X-87.912 Y36.588 Z4.242 F1999.800
G1 X-87.912 Y46.413 Z4.242 F1999.800
G1 X-88.377 Y46.877 Z4.242 F1999.800
G1 X-87.912 Y46.413 Z4.242 F1999.800
G1 X-27.900 Y46.413 Z4.242 F1999.800
G3 X-26.313 Y48.000 Z4.242 I0.000 J1.587 K0.000 F1999.800
G1 X-26.313 Y55.413 Z4.242 F1999.800
G1 X-26.777 Y55.877 Z4.242 F1999.800
G1 X-26.313 Y55.413 Z4.242 F1999.800
G1 X-15.100 Y55.413 Z4.242 F1999.800
G3 X-13.513 Y57.000 Z4.242 I0.000 J1.587 K0.000 F1999.800
G1 X-13.513 Y66.000 Z4.242 F1999.800
G3 X-15.100 Y67.588 Z4.242 I-1.587 J0.000 K0.000 F1999.800
G1 X-26.313 Y67.588 Z4.242 F1999.800
G1 X-26.777 Y67.123 Z4.242 F1999.800
G1 X-26.313 Y67.588 Z4.242 F1999.800
G1 X-26.313 Y75.000 Z4.242 F1999.800
G3 X-27.900 Y76.588 Z4.242 I-1.587 J0.000 K0.000 F1999.800
G1 X-64.664 Y76.588 Z4.242 F1999.800
G2 X-87.912 Y83.835 Z4.242 I-0.033 J40.808 K0.000 F1999.800
G1 X-87.912 Y110.165 Z4.242 F1999.800
G2 X-64.664 Y117.412 Z4.242 I23.220 J-33.575 K0.000 F1999.800
G1 X-27.900 Y117.412 Z4.242 F1999.800
G3 X-26.313 Y119.000 Z4.242 I0.000 J1.587 K0.000 F1999.800
G1 X-26.313 Y126.412 Z4.242 F1999.800
G1 X-26.777 Y126.877 Z4.242 F1999.800
G1 X-26.313 Y126.412 Z4.242 F1999.800
G1 X-15.100 Y126.413 Z4.242 F1999.800
G3 X-13.513 Y128.000 Z4.242 I0.000 J1.587 K0.000 F1999.800
G1 X-13.513 Y137.000 Z4.242 F1999.800
G3 X-15.100 Y138.587 Z4.242 I-1.587 J0.000 K0.000 F1999.800
G1 X-26.313 Y138.587 Z4.242 F1999.800
G1 X-26.777 Y138.123 Z4.242 F1999.800
G1 X-26.313 Y138.587 Z4.242 F1999.800
G1 X-26.313 Y180.412 Z4.242 F1999.800
G1 X-26.777 Y180.877 Z4.242 F1999.800
G1 X-26.313 Y180.412 Z4.242 F1999.800
G1 X-15.100 Y180.413 Z4.242 F1999.800
G3 X-13.513 Y182.000 Z4.242 I0.000 J1.587 K0.000 F1999.800
G1 X-13.513 Y191.000 Z4.242 F1999.800
G3 X-14.865 Y192.570 Z4.242 I-1.587 J0.000 K0.000 F1999.800
G1 X-14.865 Y192.570 Z3.712 F999.600
G3 X-15.100 Y192.587 Z3.712 I-0.235 J-1.570 K0.000 F1999.800
G1 X-26.313 Y192.588 Z3.712 F1999.800
G1 X-26.777 Y192.123 Z3.712 F1999.800
G1 X-26.313 Y192.588 Z3.712 F1999.800
G1 X-26.313 Y200.000 Z3.712 F1999.800
G3 X-27.900 Y201.588 Z3.712 I-1.587 J0.000 K0.000 F1999.800
G1 X-78.532 Y201.587 Z3.712 F1999.800
G3 X-97.144 Y197.451 Z3.712 I0.032 J-44.087 K0.000 F1999.800
G2 X-114.745 Y193.570 Z3.712 I-17.488 J37.458 K0.000 F1999.800
G1 X-116.484 Y193.587 Z3.712 F1999.800
G3 X-118.087 Y192.000 Z3.712 I-0.016 J-1.587 K0.000 F1999.800
G1 X-118.087 Y0.000 Z3.712 F1999.800
G3 X-116.500 Y-1.587 Z3.712 I1.587 J-0.000 K0.000 F1999.800
G3 X-109.223 Y-1.270 Z3.712 I1.396 J51.605 K0.000 F1999.800
G3 X-95.856 Y2.549 Z3.712 I-5.277 J43.770 K0.000 F1999.800
G2 X-78.484 Y6.413 Z3.712 I17.360 J-37.068 K0.000 F1999.800
G1 X-15.100 Y6.413 Z3.712 F1999.800
G3 X-13.513 Y8.000 Z3.712 I0.000 J1.587 K0.000 F1999.800
G1 X-13.513 Y17.000 Z3.712 F1999.800
G3 X-15.100 Y18.587 Z3.712 I-1.587 J0.000 K0.000 F1999.800
G1 X-26.313 Y18.588 Z3.712 F1999.800
G1 X-26.777 Y18.123 Z3.712 F1999.800
G1 X-26.313 Y18.588 Z3.712 F1999.800
G1 X-26.313 Y24.413 Z3.712 F1999.800
G1 X-26.777 Y24.877 Z3.712 F1999.800
G1 X-26.313 Y24.413 Z3.712 F1999.800
G1 X-15.100 Y24.413 Z3.712 F1999.800
G3 X-13.513 Y26.000 Z3.712 I0.000 J1.587 K0.000 F1999.800
G1 X-13.513 Y35.000 Z3.712 F1999.800
G3 X-15.100 Y36.588 Z3.712 I-1.587 J0.000 K0.000 F1999.800
G1 X-87.912 Y36.588 Z3.712 F1999.800
G1 X-88.377 Y36.123 Z3.712 F1999.800
G1 X-87.912 Y36.588 Z3.712 F1999.800
G1 X-87.912 Y46.413 Z3.712 F1999.800
G1 X-88.377 Y46.877 Z3.712 F1999.800
G1 X-87.912 Y46.413 Z3.712 F1999.800
G1 X-27.900 Y46.413 Z3.712 F1999.800
G3 X-26.313 Y48.000 Z3.712 I0.000 J1.587 K0.000 F1999.800
G1 X-26.313 Y55.413 Z3.712 F1999.800
G1 X-26.777 Y55.877 Z3.712 F1999.800
G1 X-26.313 Y55.413 Z3.712 F1999.800
G1 X-15.100 Y55.413 Z3.712 F1999.800
G3 X-13.513 Y57.000 Z3.712 I0.000 J1.587 K0.000 F1999.800
G1 X-13.513 Y66.000 Z3.712 F1999.800
G3 X-15.100 Y67.588 Z3.712 I-1.587 J0.000 K0.000 F1999.800
G1 X-26.313 Y67.588 Z3.712 F1999.800
G1 X-26.777 Y67.123 Z3.712 F1999.800
G1 X-26.313 Y67.588 Z3.712 F1999.800
G1 X-26.313 Y75.000 Z3.712 F1999.800
G3 X-27.900 Y76.588 Z3.712 I-1.587 J0.000 K0.000 F1999.800
G1 X-64.664 Y76.588 Z3.712 F1999.800
G2 X-87.912 Y83.835 Z3.712 I-0.033 J40.808 K0.000 F1999.800
G1 X-87.912 Y110.165 Z3.712 F1999.800
G2 X-64.664 Y117.412 Z3.712 I23.220 J-33.575 K0.000 F1999.800
G1 X-27.900 Y117.412 Z3.712 F1999.800
G3 X-26.313 Y119.000 Z3.712 I0.000 J1.587 K0.000 F1999.800
G1 X-26.313 Y126.412 Z3.712 F1999.800
G1 X-26.777 Y126.877 Z3.712 F1999.800
G1 X-26.313 Y126.412 Z3.712 F1999.800
G1 X-15.100 Y126.413 Z3.712 F1999.800
G3 X-13.513 Y128.000 Z3.712 I0.000 J1.587 K0.000 F1999.800
G1 X-13.513 Y137.000 Z3.712 F1999.800
G3 X-15.100 Y138.587 Z3.712 I-1.587 J0.000 K0.000 F1999.800
G1 X-26.313 Y138.587 Z3.712 F1999.800
G1 X-26.777 Y138.123 Z3.712 F1999.800
G1 X-26.313 Y138.587 Z3.712 F1999.800
G1 X-26.313 Y180.412 Z3.712 F1999.800
G1 X-26.777 Y180.877 Z3.712 F1999.800
G1 X-26.313 Y180.412 Z3.712 F1999.800
G1 X-15.100 Y180.413 Z3.712 F1999.800
G3 X-13.513 Y182.000 Z3.712 I0.000 J1.587 K0.000 F1999.800
G1 X-13.513 Y191.000 Z3.712 F1999.800
G3 X-14.865 Y192.570 Z3.712 I-1.587 J0.000 K0.000 F1999.800
G1 X-14.865 Y192.570 Z3.183 F999.600
G3 X-15.100 Y192.587 Z3.183 I-0.235 J-1.570 K0.000 F1999.800
G1 X-26.313 Y192.588 Z3.183 F1999.800
G1 X-26.777 Y192.123 Z3.183 F1999.800
G1 X-26.313 Y192.588 Z3.183 F1999.800
G1 X-26.313 Y200.000 Z3.183 F1999.800
G3 X-27.900 Y201.588 Z3.183 I-1.587 J0.000 K0.000 F1999.800
G1 X-78.532 Y201.587 Z3.183 F1999.800
G3 X-97.144 Y197.451 Z3.183 I0.032 J-44.087 K0.000 F1999.800
G2 X-114.745 Y193.570 Z3.183 I-17.488 J37.458 K0.000 F1999.800
G1 X-116.484 Y193.587 Z3.183 F1999.800
G3 X-118.087 Y192.000 Z3.183 I-0.016 J-1.587 K0.000 F1999.800
G1 X-118.087 Y0.000 Z3.183 F1999.800
G3 X-116.500 Y-1.587 Z3.183 I1.587 J-0.000 K0.000 F1999.800
G3 X-109.223 Y-1.270 Z3.183 I1.396 J51.605 K0.000 F1999.800
G3 X-95.856 Y2.549 Z3.183 I-5.277 J43.770 K0.000 F1999.800
G2 X-78.484 Y6.413 Z3.183 I17.360 J-37.068 K0.000 F1999.800
G1 X-15.100 Y6.413 Z3.183 F1999.800
G3 X-13.513 Y8.000 Z3.183 I0.000 J1.587 K0.000 F1999.800
G1 X-13.513 Y17.000 Z3.183 F1999.800
G3 X-15.100 Y18.587 Z3.183 I-1.587 J0.000 K0.000 F1999.800
G1 X-26.313 Y18.588 Z3.183 F1999.800
G1 X-26.777 Y18.123 Z3.183 F1999.800
G1 X-26.313 Y18.588 Z3.183 F1999.800
G1 X-26.313 Y24.413 Z3.183 F1999.800
G1 X-26.777 Y24.877 Z3.183 F1999.800
G1 X-26.313 Y24.413 Z3.183 F1999.800
G1 X-15.100 Y24.413 Z3.183 F1999.800
G3 X-13.513 Y26.000 Z3.183 I0.000 J1.587 K0.000 F1999.800
G1 X-13.513 Y35.000 Z3.183 F1999.800
G3 X-15.100 Y36.588 Z3.183 I-1.587 J0.000 K0.000 F1999.800
G1 X-87.912 Y36.588 Z3.183 F1999.800
G1 X-88.377 Y36.123 Z3.183 F1999.800
G1 X-87.912 Y36.588 Z3.183 F1999.800
G1 X-87.912 Y46.413 Z3.183 F1999.800
G1 X-88.377 Y46.877 Z3.183 F1999.800
G1 X-87.912 Y46.413 Z3.183 F1999.800
G1 X-27.900 Y46.413 Z3.183 F1999.800
G3 X-26.313 Y48.000 Z3.183 I0.000 J1.587 K0.000 F1999.800
G1 X-26.313 Y55.413 Z3.183 F1999.800
G1 X-26.777 Y55.877 Z3.183 F1999.800
G1 X-26.313 Y55.413 Z3.183 F1999.800
G1 X-15.100 Y55.413 Z3.183 F1999.800
G3 X-13.513 Y57.000 Z3.183 I0.000 J1.587 K0.000 F1999.800
G1 X-13.513 Y66.000 Z3.183 F1999.800
G3 X-15.100 Y67.588 Z3.183 I-1.587 J0.000 K0.000 F1999.800
G1 X-26.313 Y67.588 Z3.183 F1999.800
G1 X-26.777 Y67.123 Z3.183 F1999.800
G1 X-26.313 Y67.588 Z3.183 F1999.800
G1 X-26.313 Y75.000 Z3.183 F1999.800
G3 X-27.900 Y76.588 Z3.183 I-1.587 J0.000 K0.000 F1999.800
G1 X-64.664 Y76.588 Z3.183 F1999.800
G2 X-87.912 Y83.835 Z3.183 I-0.033 J40.808 K0.000 F1999.800
G1 X-87.912 Y110.165 Z3.183 F1999.800
G2 X-64.664 Y117.412 Z3.183 I23.220 J-33.575 K0.000 F1999.800
G1 X-27.900 Y117.412 Z3.183 F1999.800
G3 X-26.313 Y119.000 Z3.183 I0.000 J1.587 K0.000 F1999.800
G1 X-26.313 Y126.412 Z3.183 F1999.800
G1 X-26.777 Y126.877 Z3.183 F1999.800
G1 X-26.313 Y126.412 Z3.183 F1999.800
G1 X-15.100 Y126.413 Z3.183 F1999.800
G3 X-13.513 Y128.000 Z3.183 I0.000 J1.587 K0.000 F1999.800
G1 X-13.513 Y137.000 Z3.183 F1999.800
G3 X-15.100 Y138.587 Z3.183 I-1.587 J0.000 K0.000 F1999.800
G1 X-26.313 Y138.587 Z3.183 F1999.800
G1 X-26.777 Y138.123 Z3.183 F1999.800
G1 X-26.313 Y138.587 Z3.183 F1999.800
G1 X-26.313 Y180.412 Z3.183 F1999.800
G1 X-26.777 Y180.877 Z3.183 F1999.800
G1 X-26.313 Y180.412 Z3.183 F1999.800
G1 X-15.100 Y180.413 Z3.183 F1999.800
G3 X-13.513 Y182.000 Z3.183 I0.000 J1.587 K0.000 F1999.800
G1 X-13.513 Y191.000 Z3.183 F1999.800
G3 X-14.865 Y192.570 Z3.183 I-1.587 J0.000 K0.000 F1999.800
G1 X-14.865 Y192.570 Z2.654 F999.600
G3 X-15.100 Y192.587 Z2.654 I-0.235 J-1.570 K0.000 F1999.800
G1 X-16.788 Y192.587 Z2.654 F1999.800
G1 X-16.872 Y192.587 Z2.800 F1333.000
G1 X-20.548 Y192.588 Z2.800 F1999.800
G1 X-20.632 Y192.588 Z2.654 F1333.000
G1 X-26.313 Y192.588 Z2.654 F1999.800
G1 X-26.777 Y192.123 Z2.654 F1999.800
G1 X-26.313 Y192.588 Z2.654 F1999.800
G1 X-26.313 Y200.000 Z2.654 F1999.800
G3 X-27.900 Y201.588 Z2.654 I-1.587 J0.000 K0.000 F1999.800
G1 X-49.248 Y201.587 Z2.654 F1999.800
G1 X-49.332 Y201.587 Z2.800 F1333.000
G1 X-53.008 Y201.587 Z2.800 F1999.800
G1 X-53.092 Y201.587 Z2.654 F1333.000
G1 X-78.532 Y201.587 Z2.654 F1999.800
G3 X-97.144 Y197.451 Z2.654 I0.032 J-44.087 K0.000 F1999.800
G2 X-114.745 Y193.570 Z2.654 I-17.488 J37.458 K0.000 F1999.800
G1 X-116.484 Y193.587 Z2.654 F1999.800
G3 X-118.087 Y192.000 Z2.654 I-0.016 J-1.587 K0.000 F1999.800
G1 X-118.087 Y163.372 Z2.654 F1999.800
G1 X-118.087 Y163.288 Z2.800 F1333.000
G1 X-118.087 Y159.612 Z2.800 F1999.800
G1 X-118.087 Y159.528 Z2.654 F1333.000
G1 X-118.087 Y40.952 Z2.654 F1999.800
G1 X-118.087 Y40.868 Z2.800 F1333.000
G1 X-118.087 Y37.192 Z2.800 F1999.800
G1 X-118.087 Y37.108 Z2.654 F1333.000
G1 X-118.087 Y0.000 Z2.654 F1999.800
G3 X-116.500 Y-1.587 Z2.654 I1.587 J-0.000 K0.000 F1999.800
G3 X-109.223 Y-1.270 Z2.654 I1.396 J51.605 K0.000 F1999.800
G3 X-95.856 Y2.549 Z2.654 I-5.277 J43.770 K0.000 F1999.800
G2 X-78.484 Y6.413 Z2.654 I17.360 J-37.068 K0.000 F1999.800
G1 X-54.042 Y6.413 Z2.654 F1999.800
G1 X-53.958 Y6.413 Z2.800 F1333.000
G1 X-50.282 Y6.413 Z2.800 F1999.800
G1 X-50.198 Y6.413 Z2.654 F1333.000
G1 X-15.100 Y6.413 Z2.654 F1999.800
G3 X-13.513 Y8.000 Z2.654 I0.000 J1.587 K0.000 F1999.800
G1 X-13.513 Y17.000 Z2.654 F1999.800
G3 X-15.100 Y18.587 Z2.654 I-1.587 J0.000 K0.000 F1999.800
G1 X-18.848 Y18.587 Z2.654 F1999.800
G1 X-18.932 Y18.587 Z2.800 F1333.000
G1 X-22.608 Y18.588 Z2.800 F1999.800
G1 X-22.692 Y18.588 Z2.654 F1333.000
G1 X-26.313 Y18.588 Z2.654 F1999.800
G1 X-26.777 Y18.123 Z2.654 F1999.800
G1 X-26.313 Y18.588 Z2.654 F1999.800
G1 X-26.313 Y24.413 Z2.654 F1999.800
G1 X-26.777 Y24.877 Z2.654 F1999.800
G1 X-26.313 Y24.413 Z2.654 F1999.800
G1 X-15.100 Y24.413 Z2.654 F1999.800
G3 X-13.513 Y26.000 Z2.654 I0.000 J1.587 K0.000 F1999.800
G1 X-13.513 Y35.000 Z2.654 F1999.800
G3 X-15.100 Y36.588 Z2.654 I-1.587 J0.000 K0.000 F1999.800
G1 X-44.518 Y36.588 Z2.654 F1999.800
G1 X-44.602 Y36.588 Z2.800 F1333.000
G1 X-48.278 Y36.588 Z2.800 F1999.800
G1 X-48.362 Y36.588 Z2.654 F1333.000
G1 X-81.378 Y36.588 Z2.654 F1999.800
G1 X-81.462 Y36.588 Z2.800 F1333.000
G1 X-85.138 Y36.588 Z2.800 F1999.800
G1 X-85.222 Y36.588 Z2.654 F1333.000
G1 X-87.912 Y36.588 Z2.654 F1999.800
G1 X-88.377 Y36.123 Z2.654 F1999.800
G1 X-87.912 Y36.588 Z2.654 F1999.800
G1 X-87.912 Y46.413 Z2.654 F1999.800
G1 X-88.377 Y46.877 Z2.654 F1999.800
G1 X-87.912 Y46.413 Z2.654 F1999.800
G1 X-79.982 Y46.413 Z2.654 F1999.800
G1 X-79.898 Y46.413 Z2.800 F1333.000
G1 X-76.222 Y46.413 Z2.800 F1999.800
G1 X-76.138 Y46.413 Z2.654 F1333.000
G1 X-43.672 Y46.413 Z2.654 F1999.800
G1 X-43.588 Y46.413 Z2.800 F1333.000
G1 X-39.912 Y46.413 Z2.800 F1999.800
G1 X-39.828 Y46.413 Z2.654 F1333.000
G1 X-27.900 Y46.413 Z2.654 F1999.800
G3 X-26.313 Y48.000 Z2.654 I0.000 J1.587 K0.000 F1999.800
G1 X-26.313 Y55.413 Z2.654 F1999.800
G1 X-26.777 Y55.877 Z2.654 F1999.800
G1 X-26.313 Y55.413 Z2.654 F1999.800
G1 X-23.082 Y55.413 Z2.654 F1999.800
G1 X-22.998 Y55.413 Z2.800 F1333.000
G1 X-19.322 Y55.413 Z2.800 F1999.800
G1 X-19.238 Y55.413 Z2.654 F1333.000
G1 X-15.100 Y55.413 Z2.654 F1999.800
G3 X-13.513 Y57.000 Z2.654 I0.000 J1.587 K0.000 F1999.800
G1 X-13.513 Y66.000 Z2.654 F1999.800
G3 X-15.100 Y67.588 Z2.654 I-1.587 J0.000 K0.000 F1999.800
G1 X-19.238 Y67.588 Z2.654 F1999.800
G1 X-19.322 Y67.588 Z2.800 F1333.000
G1 X-22.998 Y67.588 Z2.800 F1999.800
G1 X-23.082 Y67.588 Z2.654 F1333.000
G1 X-26.313 Y67.588 Z2.654 F1999.800
G1 X-26.777 Y67.123 Z2.654 F1999.800
G1 X-26.313 Y67.588 Z2.654 F1999.800
G1 X-26.313 Y75.000 Z2.654 F1999.800
G3 X-27.900 Y76.588 Z2.654 I-1.587 J0.000 K0.000 F1999.800
G1 X-55.548 Y76.588 Z2.654 F1999.800
G1 X-55.632 Y76.588 Z2.800 F1333.000
G1 X-59.308 Y76.588 Z2.800 F1999.800
G1 X-59.392 Y76.588 Z2.654 F1333.000
G1 X-64.664 Y76.588 Z2.654 F1999.800
G2 X-87.912 Y83.835 Z2.654 I-0.033 J40.808 K0.000 F1999.800
G1 X-87.912 Y94.498 Z2.654 F1999.800
G1 X-87.912 Y94.582 Z2.800 F1333.000
G1 X-87.912 Y98.258 Z2.800 F1999.800
G1 X-87.912 Y98.342 Z2.654 F1333.000
G1 X-87.912 Y110.165 Z2.654 F1999.800
G2 X-64.664 Y117.412 Z2.654 I23.220 J-33.575 K0.000 F1999.800
G1 X-59.042 Y117.412 Z2.654 F1999.800
G1 X-58.958 Y117.412 Z2.800 F1333.000
G1 X-55.282 Y117.412 Z2.800 F1999.800
G1 X-55.198 Y117.412 Z2.654 F1333.000
G1 X-27.900 Y117.412 Z2.654 F1999.800
G3 X-26.313 Y119.000 Z2.654 I0.000 J1.587 K0.000 F1999.800
G1 X-26.313 Y126.412 Z2.654 F1999.800
G1 X-26.777 Y126.877 Z2.654 F1999.800
G1 X-26.313 Y126.412 Z2.654 F1999.800
G1 X-21.982 Y126.412 Z2.654 F1999.800
G1 X-21.898 Y126.412 Z2.800 F1333.000
G1 X-18.222 Y126.412 Z2.800 F1999.800
G1 X-18.138 Y126.412 Z2.654 F1333.000
G1 X-15.100 Y126.413 Z2.654 F1999.800
G3 X-13.513 Y128.000 Z2.654 I0.000 J1.587 K0.000 F1999.800
G1 X-13.513 Y137.000 Z2.654 F1999.800
G3 X-15.100 Y138.587 Z2.654 I-1.587 J0.000 K0.000 F1999.800
G1 X-17.948 Y138.587 Z2.654 F1999.800
G1 X-18.032 Y138.587 Z2.800 F1333.000
G1 X-21.708 Y138.587 Z2.800 F1999.800
G1 X-21.792 Y138.587 Z2.654 F1333.000
G1 X-26.313 Y138.587 Z2.654 F1999.800
G1 X-26.777 Y138.123 Z2.654 F1999.800
G1 X-26.313 Y138.587 Z2.654 F1999.800
G1 X-26.313 Y180.412 Z2.654 F1999.800
G1 X-26.777 Y180.877 Z2.654 F1999.800
G1 X-26.313 Y180.412 Z2.654 F1999.800
G1 X-21.592 Y180.412 Z2.654 F1999.800
G1 X-21.508 Y180.412 Z2.800 F1333.000
G1 X-17.832 Y180.412 Z2.800 F1999.800
G1 X-17.748 Y180.412 Z2.654 F1333.000
G1 X-15.100 Y180.413 Z2.654 F1999.800
