(Exported by FreeCAD)
(Post Processor: grbl_post)
(Output Time:2020-10-11 19:59:30.000682)
(Begin preamble)
G17 G90
G21
(Begin operation: Fixture)
(Path: Fixture)
G54
(Finish operation: Fixture)
(Begin operation: T6: 2FluteWoodMill003)
(Path: T6: 2FluteWoodMill003)
(T6: 2FluteWoodMill003)
(Begin toolchange)
(M6 T6.0)
M3 S14000.0
G4 P5
(Finish operation: T6: 2FluteWoodMill003)
(Begin operation: Side_Grooves)
(Path: Side_Grooves)
(Side_Grooves)
G0 Z23.000
G0 X-89.500 Y46.413
G0 Z21.000
G1 X-89.500 Y46.413 Z17.471 F999.600
G1 X-116.500 Y46.413 Z17.471 F1999.800
G1 X-116.500 Y36.587 Z17.471 F1999.800
G1 X-89.500 Y36.587 Z17.471 F1999.800
G1 X-89.500 Y46.413 Z17.471 F1999.800
G0 Z23.000
G0 X-92.040 Y43.873 Z23.000
G0 X-92.040 Y43.873 Z21.000
G1 X-92.040 Y43.873 Z17.471 F999.600
G1 X-113.960 Y43.873 Z17.471 F1999.800
G1 X-113.960 Y39.127 Z17.471 F1999.800
G1 X-92.040 Y39.127 Z17.471 F1999.800
G1 X-92.040 Y43.873 Z17.471 F1999.800
G0 Z23.000
G0 X-92.834 Y43.079 Z23.000
G0 X-92.834 Y43.079 Z21.000
G1 X-92.834 Y43.079 Z17.471 F999.600
G1 X-113.166 Y43.079 Z17.471 F1999.800
G1 X-113.166 Y39.921 Z17.471 F1999.800
G1 X-92.834 Y39.921 Z17.471 F1999.800
G1 X-92.834 Y43.079 Z17.471 F1999.800
G0 Z23.000
G0 X-93.627 Y42.285 Z23.000
G0 X-93.627 Y42.285 Z21.000
G1 X-93.627 Y42.285 Z17.471 F999.600
G1 X-112.373 Y42.285 Z17.471 F1999.800
G1 X-112.373 Y40.715 Z17.471 F1999.800
G1 X-93.627 Y40.715 Z17.471 F1999.800
G1 X-93.627 Y42.285 Z17.471 F1999.800
G1 X-93.627 Y42.285 Z16.942 F999.600
G1 X-112.373 Y42.285 Z16.942 F1999.800
G1 X-112.373 Y40.715 Z16.942 F1999.800
G1 X-93.627 Y40.715 Z16.942 F1999.800
G1 X-93.627 Y42.285 Z16.942 F1999.800
G0 Z23.000
G0 Y43.079 Z23.000
G0 Y43.079 Z21.000
G1 X-93.627 Y43.079 Z16.942 F999.600
G1 X-113.166 Y43.079 Z16.942 F1999.800
G1 X-113.166 Y39.921 Z16.942 F1999.800
G1 X-92.834 Y39.921 Z16.942 F1999.800
G1 X-92.834 Y43.079 Z16.942 F1999.800
G1 X-93.627 Y43.079 Z16.942 F1999.800
G0 Z23.000
G0 Y43.873 Z23.000
G0 Y43.873 Z21.000
G1 X-93.627 Y43.873 Z16.942 F999.600
G1 X-113.960 Y43.873 Z16.942 F1999.800
G1 X-113.960 Y39.127 Z16.942 F1999.800
G1 X-92.040 Y39.127 Z16.942 F1999.800
G1 X-92.040 Y43.873 Z16.942 F1999.800
G1 X-93.627 Y43.873 Z16.942 F1999.800
G0 Z23.000
G0 Y46.413 Z23.000
G0 Y46.413 Z21.000
G1 X-93.627 Y46.413 Z16.942 F999.600
G1 X-116.500 Y46.413 Z16.942 F1999.800
G1 X-116.500 Y36.587 Z16.942 F1999.800
G1 X-89.500 Y36.587 Z16.942 F1999.800
G1 X-89.500 Y46.413 Z16.942 F1999.800
G1 X-93.627 Y46.413 Z16.942 F1999.800
G1 X-93.627 Y46.413 Z16.413 F999.600
G1 X-116.500 Y46.413 Z16.413 F1999.800
G1 X-116.500 Y36.587 Z16.413 F1999.800
G1 X-89.500 Y36.587 Z16.413 F1999.800
G1 X-89.500 Y46.413 Z16.413 F1999.800
G1 X-93.627 Y46.413 Z16.413 F1999.800
G0 Z23.000
G0 Y43.873 Z23.000
G0 Y43.873 Z21.000
G1 X-93.627 Y43.873 Z16.413 F999.600
G1 X-113.960 Y43.873 Z16.413 F1999.800
G1 X-113.960 Y39.127 Z16.413 F1999.800
G1 X-92.040 Y39.127 Z16.413 F1999.800
G1 X-92.040 Y43.873 Z16.413 F1999.800
G1 X-93.627 Y43.873 Z16.413 F1999.800
G0 Z23.000
G0 Y43.079 Z23.000
G0 Y43.079 Z21.000
G1 X-93.627 Y43.079 Z16.413 F999.600
G1 X-113.166 Y43.079 Z16.413 F1999.800
G1 X-113.166 Y39.921 Z16.413 F1999.800
G1 X-92.834 Y39.921 Z16.413 F1999.800
G1 X-92.834 Y43.079 Z16.413 F1999.800
G1 X-93.627 Y43.079 Z16.413 F1999.800
G0 Z23.000
G0 Y42.285 Z23.000
G0 Y42.285 Z21.000
G1 X-93.627 Y42.285 Z16.413 F999.600
G1 X-112.373 Y42.285 Z16.413 F1999.800
G1 X-112.373 Y40.715 Z16.413 F1999.800
G1 X-93.627 Y40.715 Z16.413 F1999.800
G1 X-93.627 Y42.285 Z16.413 F1999.800
G1 X-93.627 Y42.285 Z15.883 F999.600
G1 X-112.373 Y42.285 Z15.883 F1999.800
G1 X-112.373 Y40.715 Z15.883 F1999.800
G1 X-93.627 Y40.715 Z15.883 F1999.800
G1 X-93.627 Y42.285 Z15.883 F1999.800
G0 Z23.000
G0 Y43.079 Z23.000
G0 Y43.079 Z21.000
G1 X-93.627 Y43.079 Z15.883 F999.600
G1 X-113.166 Y43.079 Z15.883 F1999.800
G1 X-113.166 Y39.921 Z15.883 F1999.800
G1 X-92.834 Y39.921 Z15.883 F1999.800
G1 X-92.834 Y43.079 Z15.883 F1999.800
G1 X-93.627 Y43.079 Z15.883 F1999.800
G0 Z23.000
G0 Y43.873 Z23.000
G0 Y43.873 Z21.000
G1 X-93.627 Y43.873 Z15.883 F999.600
G1 X-113.960 Y43.873 Z15.883 F1999.800
G1 X-113.960 Y39.127 Z15.883 F1999.800
G1 X-92.040 Y39.127 Z15.883 F1999.800
G1 X-92.040 Y43.873 Z15.883 F1999.800
G1 X-93.627 Y43.873 Z15.883 F1999.800
G0 Z23.000
G0 Y46.413 Z23.000
G0 Y46.413 Z21.000
G1 X-93.627 Y46.413 Z15.883 F999.600
G1 X-116.500 Y46.413 Z15.883 F1999.800
G1 X-116.500 Y36.587 Z15.883 F1999.800
G1 X-89.500 Y36.587 Z15.883 F1999.800
G1 X-89.500 Y46.413 Z15.883 F1999.800
G1 X-93.627 Y46.413 Z15.883 F1999.800
G1 X-93.627 Y46.413 Z15.354 F999.600
G1 X-116.500 Y46.413 Z15.354 F1999.800
G1 X-116.500 Y36.587 Z15.354 F1999.800
G1 X-89.500 Y36.587 Z15.354 F1999.800
G1 X-89.500 Y46.413 Z15.354 F1999.800
G1 X-93.627 Y46.413 Z15.354 F1999.800
G0 Z23.000
G0 Y43.873 Z23.000
G0 Y43.873 Z21.000
G1 X-93.627 Y43.873 Z15.354 F999.600
G1 X-113.960 Y43.873 Z15.354 F1999.800
G1 X-113.960 Y39.127 Z15.354 F1999.800
G1 X-92.040 Y39.127 Z15.354 F1999.800
G1 X-92.040 Y43.873 Z15.354 F1999.800
G1 X-93.627 Y43.873 Z15.354 F1999.800
G0 Z23.000
G0 Y43.079 Z23.000
G0 Y43.079 Z21.000
G1 X-93.627 Y43.079 Z15.354 F999.600
G1 X-113.166 Y43.079 Z15.354 F1999.800
G1 X-113.166 Y39.921 Z15.354 F1999.800
G1 X-92.834 Y39.921 Z15.354 F1999.800
G1 X-92.834 Y43.079 Z15.354 F1999.800
G1 X-93.627 Y43.079 Z15.354 F1999.800
G0 Z23.000
G0 Y42.285 Z23.000
G0 Y42.285 Z21.000
G1 X-93.627 Y42.285 Z15.354 F999.600
G1 X-112.373 Y42.285 Z15.354 F1999.800
G1 X-112.373 Y40.715 Z15.354 F1999.800
G1 X-93.627 Y40.715 Z15.354 F1999.800
G1 X-93.627 Y42.285 Z15.354 F1999.800
G1 X-93.627 Y42.285 Z14.825 F999.600
G1 X-112.373 Y42.285 Z14.825 F1999.800
G1 X-112.373 Y40.715 Z14.825 F1999.800
G1 X-93.627 Y40.715 Z14.825 F1999.800
G1 X-93.627 Y42.285 Z14.825 F1999.800
G0 Z23.000
G0 Y43.079 Z23.000
G0 Y43.079 Z21.000
G1 X-93.627 Y43.079 Z14.825 F999.600
G1 X-113.166 Y43.079 Z14.825 F1999.800
G1 X-113.166 Y39.921 Z14.825 F1999.800
G1 X-92.834 Y39.921 Z14.825 F1999.800
G1 X-92.834 Y43.079 Z14.825 F1999.800
G1 X-93.627 Y43.079 Z14.825 F1999.800
G0 Z23.000
G0 Y43.873 Z23.000
G0 Y43.873 Z21.000
G1 X-93.627 Y43.873 Z14.825 F999.600
G1 X-113.960 Y43.873 Z14.825 F1999.800
G1 X-113.960 Y39.127 Z14.825 F1999.800
G1 X-92.040 Y39.127 Z14.825 F1999.800
G1 X-92.040 Y43.873 Z14.825 F1999.800
G1 X-93.627 Y43.873 Z14.825 F1999.800
G0 Z23.000
G0 Y46.413 Z23.000
G0 Y46.413 Z21.000
G1 X-93.627 Y46.413 Z14.825 F999.600
G1 X-116.500 Y46.413 Z14.825 F1999.800
G1 X-116.500 Y36.587 Z14.825 F1999.800
G1 X-89.500 Y36.587 Z14.825 F1999.800
G1 X-89.500 Y46.413 Z14.825 F1999.800
G1 X-93.627 Y46.413 Z14.825 F1999.800
G1 X-93.627 Y46.413 Z14.296 F999.600
G1 X-116.500 Y46.413 Z14.296 F1999.800
G1 X-116.500 Y36.587 Z14.296 F1999.800
G1 X-89.500 Y36.587 Z14.296 F1999.800
G1 X-89.500 Y46.413 Z14.296 F1999.800
G1 X-93.627 Y46.413 Z14.296 F1999.800
G0 Z23.000
G0 Y43.873 Z23.000
G0 Y43.873 Z21.000
G1 X-93.627 Y43.873 Z14.296 F999.600
G1 X-113.960 Y43.873 Z14.296 F1999.800
G1 X-113.960 Y39.127 Z14.296 F1999.800
G1 X-92.040 Y39.127 Z14.296 F1999.800
G1 X-92.040 Y43.873 Z14.296 F1999.800
G1 X-93.627 Y43.873 Z14.296 F1999.800
G0 Z23.000
G0 Y43.079 Z23.000
G0 Y43.079 Z21.000
G1 X-93.627 Y43.079 Z14.296 F999.600
G1 X-113.166 Y43.079 Z14.296 F1999.800
G1 X-113.166 Y39.921 Z14.296 F1999.800
G1 X-92.834 Y39.921 Z14.296 F1999.800
G1 X-92.834 Y43.079 Z14.296 F1999.800
G1 X-93.627 Y43.079 Z14.296 F1999.800
G0 Z23.000
G0 Y42.285 Z23.000
G0 Y42.285 Z21.000
G1 X-93.627 Y42.285 Z14.296 F999.600
G1 X-112.373 Y42.285 Z14.296 F1999.800
G1 X-112.373 Y40.715 Z14.296 F1999.800
G1 X-93.627 Y40.715 Z14.296 F1999.800
G1 X-93.627 Y42.285 Z14.296 F1999.800
G1 X-93.627 Y42.285 Z13.767 F999.600
G1 X-112.373 Y42.285 Z13.767 F1999.800
G1 X-112.373 Y40.715 Z13.767 F1999.800
G1 X-93.627 Y40.715 Z13.767 F1999.800
G1 X-93.627 Y42.285 Z13.767 F1999.800
G0 Z23.000
G0 Y43.079 Z23.000
G0 Y43.079 Z21.000
G1 X-93.627 Y43.079 Z13.767 F999.600
G1 X-113.166 Y43.079 Z13.767 F1999.800
G1 X-113.166 Y39.921 Z13.767 F1999.800
G1 X-92.834 Y39.921 Z13.767 F1999.800
G1 X-92.834 Y43.079 Z13.767 F1999.800
G1 X-93.627 Y43.079 Z13.767 F1999.800
G0 Z23.000
G0 Y43.873 Z23.000
G0 Y43.873 Z21.000
G1 X-93.627 Y43.873 Z13.767 F999.600
G1 X-113.960 Y43.873 Z13.767 F1999.800
G1 X-113.960 Y39.127 Z13.767 F1999.800
G1 X-92.040 Y39.127 Z13.767 F1999.800
G1 X-92.040 Y43.873 Z13.767 F1999.800
G1 X-93.627 Y43.873 Z13.767 F1999.800
G0 Z23.000
G0 Y46.413 Z23.000
G0 Y46.413 Z21.000
G1 X-93.627 Y46.413 Z13.767 F999.600
G1 X-116.500 Y46.413 Z13.767 F1999.800
G1 X-116.500 Y36.587 Z13.767 F1999.800
G1 X-89.500 Y36.587 Z13.767 F1999.800
G1 X-89.500 Y46.413 Z13.767 F1999.800
G1 X-93.627 Y46.413 Z13.767 F1999.800
G1 X-93.627 Y46.413 Z13.238 F999.600
G1 X-116.500 Y46.413 Z13.238 F1999.800
G1 X-116.500 Y36.587 Z13.238 F1999.800
G1 X-89.500 Y36.587 Z13.238 F1999.800
G1 X-89.500 Y46.413 Z13.238 F1999.800
G1 X-93.627 Y46.413 Z13.238 F1999.800
G0 Z23.000
G0 Y43.873 Z23.000
G0 Y43.873 Z21.000
G1 X-93.627 Y43.873 Z13.238 F999.600
G1 X-113.960 Y43.873 Z13.238 F1999.800
G1 X-113.960 Y39.127 Z13.238 F1999.800
G1 X-92.040 Y39.127 Z13.238 F1999.800
G1 X-92.040 Y43.873 Z13.238 F1999.800
G1 X-93.627 Y43.873 Z13.238 F1999.800
G0 Z23.000
G0 Y43.079 Z23.000
G0 Y43.079 Z21.000
G1 X-93.627 Y43.079 Z13.238 F999.600
G1 X-113.166 Y43.079 Z13.238 F1999.800
G1 X-113.166 Y39.921 Z13.238 F1999.800
G1 X-92.834 Y39.921 Z13.238 F1999.800
G1 X-92.834 Y43.079 Z13.238 F1999.800
G1 X-93.627 Y43.079 Z13.238 F1999.800
G0 Z23.000
G0 Y42.285 Z23.000
G0 Y42.285 Z21.000
G1 X-93.627 Y42.285 Z13.238 F999.600
G1 X-112.373 Y42.285 Z13.238 F1999.800
G1 X-112.373 Y40.715 Z13.238 F1999.800
G1 X-93.627 Y40.715 Z13.238 F1999.800
G1 X-93.627 Y42.285 Z13.238 F1999.800
G1 X-93.627 Y42.285 Z13.000 F999.600
G1 X-112.373 Y42.285 Z13.000 F1999.800
G1 X-112.373 Y40.715 Z13.000 F1999.800
G1 X-93.627 Y40.715 Z13.000 F1999.800
G1 X-93.627 Y42.285 Z13.000 F1999.800
G0 Z23.000
G0 Y43.079 Z23.000
G0 Y43.079 Z21.000
G1 X-93.627 Y43.079 Z13.000 F999.600
G1 X-113.166 Y43.079 Z13.000 F1999.800
G1 X-113.166 Y39.921 Z13.000 F1999.800
G1 X-92.834 Y39.921 Z13.000 F1999.800
G1 X-92.834 Y43.079 Z13.000 F1999.800
G1 X-93.627 Y43.079 Z13.000 F1999.800
G0 Z23.000
G0 Y43.873 Z23.000
G0 Y43.873 Z21.000
G1 X-93.627 Y43.873 Z13.000 F999.600
G1 X-113.960 Y43.873 Z13.000 F1999.800
G1 X-113.960 Y39.127 Z13.000 F1999.800
G1 X-92.040 Y39.127 Z13.000 F1999.800
G1 X-92.040 Y43.873 Z13.000 F1999.800
G1 X-93.627 Y43.873 Z13.000 F1999.800
G0 Z23.000
G0 Y46.413 Z23.000
G0 Y46.413 Z21.000
G1 X-93.627 Y46.413 Z13.000 F999.600
G1 X-116.500 Y46.413 Z13.000 F1999.800
G1 X-116.500 Y36.587 Z13.000 F1999.800
G1 X-89.500 Y36.587 Z13.000 F1999.800
G1 X-89.500 Y46.413 Z13.000 F1999.800
G1 X-93.627 Y46.413 Z13.000 F1999.800
G0 Z23.000
G0 Z23.000
G0 Z23.000
G0 Z23.000
G0 Z23.000
G0 Z23.000
G0 X-15.147 Y127.991
G0 X-15.147 Y127.991 Z21.000
G1 X-15.147 Y127.991 Z17.471 F999.600
G3 X-15.100 Y128.089 Z17.471 I-0.008 J0.064 K0.000 F1999.800
G1 X-15.100 Y136.911 Z17.471 F1999.800
G3 X-15.189 Y137.000 Z17.471 I-0.055 J0.034 K0.000 F1999.800
G1 X-26.312 Y137.000 Z17.471 F1999.800
G1 X-26.312 Y128.000 Z17.471 F1999.800
G1 X-15.189 Y128.000 Z17.471 F1999.800
G3 X-15.147 Y127.991 Z17.471 I0.034 J0.055 K0.000 F1999.800
G0 Z23.000
G0 X-17.640 Y130.540 Z23.000
G0 X-17.640 Y130.540 Z21.000
G1 X-17.640 Y130.540 Z17.471 F999.600
G1 X-17.640 Y134.460 Z17.471 F1999.800
G1 X-23.773 Y134.460 Z17.471 F1999.800
G1 X-23.773 Y130.540 Z17.471 F1999.800
G1 X-17.640 Y130.540 Z17.471 F1999.800
G0 Z23.000
G0 X-18.434 Y131.334 Z23.000
G0 X-18.434 Y131.334 Z21.000
G1 X-18.434 Y131.334 Z17.471 F999.600
G1 X-18.434 Y133.666 Z17.471 F1999.800
G1 X-22.979 Y133.666 Z17.471 F1999.800
G1 X-22.979 Y131.334 Z17.471 F1999.800
G1 X-18.434 Y131.334 Z17.471 F1999.800
G0 Z23.000
G0 X-19.227 Y132.127 Z23.000
G0 X-19.227 Y132.127 Z21.000
G1 X-19.227 Y132.127 Z17.471 F999.600
G1 X-19.227 Y132.873 Z17.471 F1999.800
G1 X-22.185 Y132.873 Z17.471 F1999.800
G1 X-22.185 Y132.127 Z17.471 F1999.800
G1 X-19.227 Y132.127 Z17.471 F1999.800
G1 X-19.227 Y132.127 Z16.942 F999.600
G1 X-19.227 Y132.873 Z16.942 F1999.800
G1 X-22.185 Y132.873 Z16.942 F1999.800
G1 X-22.185 Y132.127 Z16.942 F1999.800
G1 X-19.227 Y132.127 Z16.942 F1999.800
G0 Z23.000
G0 X-18.434 Z23.000
G0 X-18.434 Z21.000
G1 X-18.434 Y132.127 Z16.942 F999.600
G1 X-18.434 Y133.666 Z16.942 F1999.800
G1 X-22.979 Y133.666 Z16.942 F1999.800
G1 X-22.979 Y131.334 Z16.942 F1999.800
G1 X-18.434 Y131.334 Z16.942 F1999.800
G1 X-18.434 Y132.127 Z16.942 F1999.800
G0 Z23.000
G0 X-17.640 Z23.000
G0 X-17.640 Z21.000
G1 X-17.640 Y132.127 Z16.942 F999.600
G1 X-17.640 Y134.460 Z16.942 F1999.800
G1 X-23.773 Y134.460 Z16.942 F1999.800
G1 X-23.773 Y130.540 Z16.942 F1999.800
G1 X-17.640 Y130.540 Z16.942 F1999.800
G1 X-17.640 Y132.127 Z16.942 F1999.800
G0 Z23.000
G0 X-15.100 Z23.000
G0 X-15.100 Z21.000
G1 X-15.100 Y132.127 Z16.942 F999.600
G1 X-15.100 Y136.911 Z16.942 F1999.800
G3 X-15.189 Y137.000 Z16.942 I-0.055 J0.034 K0.000 F1999.800
G1 X-26.312 Y137.000 Z16.942 F1999.800
G1 X-26.312 Y128.000 Z16.942 F1999.800
G1 X-15.189 Y128.000 Z16.942 F1999.800
G3 X-15.100 Y128.089 Z16.942 I0.034 J0.055 K0.000 F1999.800
G1 X-15.100 Y132.127 Z16.942 F1999.800
G1 X-15.100 Y132.127 Z16.413 F999.600
G1 X-15.100 Y136.911 Z16.413 F1999.800
G3 X-15.189 Y137.000 Z16.413 I-0.055 J0.034 K0.000 F1999.800
G1 X-26.312 Y137.000 Z16.413 F1999.800
G1 X-26.312 Y128.000 Z16.413 F1999.800
G1 X-15.189 Y128.000 Z16.413 F1999.800
G3 X-15.100 Y128.089 Z16.413 I0.034 J0.055 K0.000 F1999.800
G1 X-15.100 Y132.127 Z16.413 F1999.800
G0 Z23.000
G0 X-17.640 Z23.000
G0 X-17.640 Z21.000
G1 X-17.640 Y132.127 Z16.413 F999.600
G1 X-17.640 Y134.460 Z16.413 F1999.800
G1 X-23.773 Y134.460 Z16.413 F1999.800
G1 X-23.773 Y130.540 Z16.413 F1999.800
G1 X-17.640 Y130.540 Z16.413 F1999.800
G1 X-17.640 Y132.127 Z16.413 F1999.800
G0 Z23.000
G0 X-18.434 Z23.000
G0 X-18.434 Z21.000
G1 X-18.434 Y132.127 Z16.413 F999.600
G1 X-18.434 Y133.666 Z16.413 F1999.800
G1 X-22.979 Y133.666 Z16.413 F1999.800
G1 X-22.979 Y131.334 Z16.413 F1999.800
G1 X-18.434 Y131.334 Z16.413 F1999.800
G1 X-18.434 Y132.127 Z16.413 F1999.800
G0 Z23.000
G0 X-19.227 Z23.000
G0 X-19.227 Z21.000
G1 X-19.227 Y132.127 Z16.413 F999.600
G1 X-19.227 Y132.873 Z16.413 F1999.800
G1 X-22.185 Y132.873 Z16.413 F1999.800
G1 X-22.185 Y132.127 Z16.413 F1999.800
G1 X-19.227 Y132.127 Z16.413 F1999.800
G1 X-19.227 Y132.127 Z15.883 F999.600
G1 X-19.227 Y132.873 Z15.883 F1999.800
G1 X-22.185 Y132.873 Z15.883 F1999.800
G1 X-22.185 Y132.127 Z15.883 F1999.800
G1 X-19.227 Y132.127 Z15.883 F1999.800
G0 Z23.000
G0 X-18.434 Z23.000
G0 X-18.434 Z21.000
G1 X-18.434 Y132.127 Z15.883 F999.600
G1 X-18.434 Y133.666 Z15.883 F1999.800
G1 X-22.979 Y133.666 Z15.883 F1999.800
G1 X-22.979 Y131.334 Z15.883 F1999.800
G1 X-18.434 Y131.334 Z15.883 F1999.800
G1 X-18.434 Y132.127 Z15.883 F1999.800
G0 Z23.000
G0 X-17.640 Z23.000
G0 X-17.640 Z21.000
G1 X-17.640 Y132.127 Z15.883 F999.600
G1 X-17.640 Y134.460 Z15.883 F1999.800
G1 X-23.773 Y134.460 Z15.883 F1999.800
G1 X-23.773 Y130.540 Z15.883 F1999.800
G1 X-17.640 Y130.540 Z15.883 F1999.800
G1 X-17.640 Y132.127 Z15.883 F1999.800
G0 Z23.000
G0 X-15.100 Z23.000
G0 X-15.100 Z21.000
G1 X-15.100 Y132.127 Z15.883 F999.600
G1 X-15.100 Y136.911 Z15.883 F1999.800
G3 X-15.189 Y137.000 Z15.883 I-0.055 J0.034 K0.000 F1999.800
G1 X-26.312 Y137.000 Z15.883 F1999.800
G1 X-26.312 Y128.000 Z15.883 F1999.800
G1 X-15.189 Y128.000 Z15.883 F1999.800
G3 X-15.100 Y128.089 Z15.883 I0.034 J0.055 K0.000 F1999.800
G1 X-15.100 Y132.127 Z15.883 F1999.800
G1 X-15.100 Y132.127 Z15.354 F999.600
G1 X-15.100 Y136.911 Z15.354 F1999.800
G3 X-15.189 Y137.000 Z15.354 I-0.055 J0.034 K0.000 F1999.800
G1 X-26.312 Y137.000 Z15.354 F1999.800
G1 X-26.312 Y128.000 Z15.354 F1999.800
G1 X-15.189 Y128.000 Z15.354 F1999.800
G3 X-15.100 Y128.089 Z15.354 I0.034 J0.055 K0.000 F1999.800
G1 X-15.100 Y132.127 Z15.354 F1999.800
G0 Z23.000
G0 X-17.640 Z23.000
G0 X-17.640 Z21.000
G1 X-17.640 Y132.127 Z15.354 F999.600
G1 X-17.640 Y134.460 Z15.354 F1999.800
G1 X-23.773 Y134.460 Z15.354 F1999.800
G1 X-23.773 Y130.540 Z15.354 F1999.800
G1 X-17.640 Y130.540 Z15.354 F1999.800
G1 X-17.640 Y132.127 Z15.354 F1999.800
G0 Z23.000
G0 X-18.434 Z23.000
G0 X-18.434 Z21.000
G1 X-18.434 Y132.127 Z15.354 F999.600
G1 X-18.434 Y133.666 Z15.354 F1999.800
G1 X-22.979 Y133.666 Z15.354 F1999.800
G1 X-22.979 Y131.334 Z15.354 F1999.800
G1 X-18.434 Y131.334 Z15.354 F1999.800
G1 X-18.434 Y132.127 Z15.354 F1999.800
G0 Z23.000
G0 X-19.227 Z23.000
G0 X-19.227 Z21.000
G1 X-19.227 Y132.127 Z15.354 F999.600
G1 X-19.227 Y132.873 Z15.354 F1999.800
G1 X-22.185 Y132.873 Z15.354 F1999.800
G1 X-22.185 Y132.127 Z15.354 F1999.800
G1 X-19.227 Y132.127 Z15.354 F1999.800
G1 X-19.227 Y132.127 Z14.825 F999.600
G1 X-19.227 Y132.873 Z14.825 F1999.800
G1 X-22.185 Y132.873 Z14.825 F1999.800
G1 X-22.185 Y132.127 Z14.825 F1999.800
G1 X-19.227 Y132.127 Z14.825 F1999.800
G0 Z23.000
G0 X-18.434 Z23.000
G0 X-18.434 Z21.000
G1 X-18.434 Y132.127 Z14.825 F999.600
G1 X-18.434 Y133.666 Z14.825 F1999.800
G1 X-22.979 Y133.666 Z14.825 F1999.800
G1 X-22.979 Y131.334 Z14.825 F1999.800
G1 X-18.434 Y131.334 Z14.825 F1999.800
G1 X-18.434 Y132.127 Z14.825 F1999.800
G0 Z23.000
G0 X-17.640 Z23.000
G0 X-17.640 Z21.000
G1 X-17.640 Y132.127 Z14.825 F999.600
G1 X-17.640 Y134.460 Z14.825 F1999.800
G1 X-23.773 Y134.460 Z14.825 F1999.800
G1 X-23.773 Y130.540 Z14.825 F1999.800
G1 X-17.640 Y130.540 Z14.825 F1999.800
G1 X-17.640 Y132.127 Z14.825 F1999.800
G0 Z23.000
G0 X-15.100 Z23.000
G0 X-15.100 Z21.000
G1 X-15.100 Y132.127 Z14.825 F999.600
G1 X-15.100 Y136.911 Z14.825 F1999.800
G3 X-15.189 Y137.000 Z14.825 I-0.055 J0.034 K0.000 F1999.800
G1 X-26.312 Y137.000 Z14.825 F1999.800
G1 X-26.312 Y128.000 Z14.825 F1999.800
G1 X-15.189 Y128.000 Z14.825 F1999.800
G3 X-15.100 Y128.089 Z14.825 I0.034 J0.055 K0.000 F1999.800
G1 X-15.100 Y132.127 Z14.825 F1999.800
G1 X-15.100 Y132.127 Z14.296 F999.600
G1 X-15.100 Y136.911 Z14.296 F1999.800
G3 X-15.189 Y137.000 Z14.296 I-0.055 J0.034 K0.000 F1999.800
G1 X-26.312 Y137.000 Z14.296 F1999.800
G1 X-26.312 Y128.000 Z14.296 F1999.800
G1 X-15.189 Y128.000 Z14.296 F1999.800
G3 X-15.100 Y128.089 Z14.296 I0.034 J0.055 K0.000 F1999.800
G1 X-15.100 Y132.127 Z14.296 F1999.800
G0 Z23.000
G0 X-17.640 Z23.000
G0 X-17.640 Z21.000
G1 X-17.640 Y132.127 Z14.296 F999.600
G1 X-17.640 Y134.460 Z14.296 F1999.800
G1 X-23.773 Y134.460 Z14.296 F1999.800
G1 X-23.773 Y130.540 Z14.296 F1999.800
G1 X-17.640 Y130.540 Z14.296 F1999.800
G1 X-17.640 Y132.127 Z14.296 F1999.800
G0 Z23.000
G0 X-18.434 Z23.000
G0 X-18.434 Z21.000
G1 X-18.434 Y132.127 Z14.296 F999.600
G1 X-18.434 Y133.666 Z14.296 F1999.800
G1 X-22.979 Y133.666 Z14.296 F1999.800
G1 X-22.979 Y131.334 Z14.296 F1999.800
G1 X-18.434 Y131.334 Z14.296 F1999.800
G1 X-18.434 Y132.127 Z14.296 F1999.800
G0 Z23.000
G0 X-19.227 Z23.000
G0 X-19.227 Z21.000
G1 X-19.227 Y132.127 Z14.296 F999.600
G1 X-19.227 Y132.873 Z14.296 F1999.800
G1 X-22.185 Y132.873 Z14.296 F1999.800
G1 X-22.185 Y132.127 Z14.296 F1999.800
G1 X-19.227 Y132.127 Z14.296 F1999.800
G1 X-19.227 Y132.127 Z13.767 F999.600
G1 X-19.227 Y132.873 Z13.767 F1999.800
G1 X-22.185 Y132.873 Z13.767 F1999.800
G1 X-22.185 Y132.127 Z13.767 F1999.800
G1 X-19.227 Y132.127 Z13.767 F1999.800
G0 Z23.000
G0 X-18.434 Z23.000
G0 X-18.434 Z21.000
G1 X-18.434 Y132.127 Z13.767 F999.600
G1 X-18.434 Y133.666 Z13.767 F1999.800
G1 X-22.979 Y133.666 Z13.767 F1999.800
G1 X-22.979 Y131.334 Z13.767 F1999.800
G1 X-18.434 Y131.334 Z13.767 F1999.800
G1 X-18.434 Y132.127 Z13.767 F1999.800
G0 Z23.000
G0 X-17.640 Z23.000
G0 X-17.640 Z21.000
G1 X-17.640 Y132.127 Z13.767 F999.600
G1 X-17.640 Y134.460 Z13.767 F1999.800
G1 X-23.773 Y134.460 Z13.767 F1999.800
G1 X-23.773 Y130.540 Z13.767 F1999.800
G1 X-17.640 Y130.540 Z13.767 F1999.800
G1 X-17.640 Y132.127 Z13.767 F1999.800
G0 Z23.000
G0 X-15.100 Z23.000
G0 X-15.100 Z21.000
G1 X-15.100 Y132.127 Z13.767 F999.600
G1 X-15.100 Y136.911 Z13.767 F1999.800
G3 X-15.189 Y137.000 Z13.767 I-0.055 J0.034 K0.000 F1999.800
G1 X-26.312 Y137.000 Z13.767 F1999.800
G1 X-26.312 Y128.000 Z13.767 F1999.800
G1 X-15.189 Y128.000 Z13.767 F1999.800
G3 X-15.100 Y128.089 Z13.767 I0.034 J0.055 K0.000 F1999.800
G1 X-15.100 Y132.127 Z13.767 F1999.800
G1 X-15.100 Y132.127 Z13.238 F999.600
G1 X-15.100 Y136.911 Z13.238 F1999.800
G3 X-15.189 Y137.000 Z13.238 I-0.055 J0.034 K0.000 F1999.800
G1 X-26.312 Y137.000 Z13.238 F1999.800
G1 X-26.312 Y128.000 Z13.238 F1999.800
G1 X-15.189 Y128.000 Z13.238 F1999.800
G3 X-15.100 Y128.089 Z13.238 I0.034 J0.055 K0.000 F1999.800
G1 X-15.100 Y132.127 Z13.238 F1999.800
G0 Z23.000
G0 X-17.640 Z23.000
G0 X-17.640 Z21.000
G1 X-17.640 Y132.127 Z13.238 F999.600
G1 X-17.640 Y134.460 Z13.238 F1999.800
G1 X-23.773 Y134.460 Z13.238 F1999.800
G1 X-23.773 Y130.540 Z13.238 F1999.800
G1 X-17.640 Y130.540 Z13.238 F1999.800
G1 X-17.640 Y132.127 Z13.238 F1999.800
G0 Z23.000
G0 X-18.434 Z23.000
G0 X-18.434 Z21.000
G1 X-18.434 Y132.127 Z13.238 F999.600
G1 X-18.434 Y133.666 Z13.238 F1999.800
G1 X-22.979 Y133.666 Z13.238 F1999.800
G1 X-22.979 Y131.334 Z13.238 F1999.800
G1 X-18.434 Y131.334 Z13.238 F1999.800
G1 X-18.434 Y132.127 Z13.238 F1999.800
G0 Z23.000
G0 X-19.227 Z23.000
G0 X-19.227 Z21.000
G1 X-19.227 Y132.127 Z13.238 F999.600
G1 X-19.227 Y132.873 Z13.238 F1999.800
G1 X-22.185 Y132.873 Z13.238 F1999.800
G1 X-22.185 Y132.127 Z13.238 F1999.800
G1 X-19.227 Y132.127 Z13.238 F1999.800
G1 X-19.227 Y132.127 Z13.000 F999.600
G1 X-19.227 Y132.873 Z13.000 F1999.800
G1 X-22.185 Y132.873 Z13.000 F1999.800
G1 X-22.185 Y132.127 Z13.000 F1999.800
G1 X-19.227 Y132.127 Z13.000 F1999.800
G0 Z23.000
G0 X-18.434 Z23.000
G0 X-18.434 Z21.000
G1 X-18.434 Y132.127 Z13.000 F999.600
G1 X-18.434 Y133.666 Z13.000 F1999.800
G1 X-22.979 Y133.666 Z13.000 F1999.800
G1 X-22.979 Y131.334 Z13.000 F1999.800
G1 X-18.434 Y131.334 Z13.000 F1999.800
G1 X-18.434 Y132.127 Z13.000 F1999.800
G0 Z23.000
G0 X-17.640 Z23.000
G0 X-17.640 Z21.000
G1 X-17.640 Y132.127 Z13.000 F999.600
G1 X-17.640 Y134.460 Z13.000 F1999.800
G1 X-23.773 Y134.460 Z13.000 F1999.800
G1 X-23.773 Y130.540 Z13.000 F1999.800
G1 X-17.640 Y130.540 Z13.000 F1999.800
G1 X-17.640 Y132.127 Z13.000 F1999.800
G0 Z23.000
G0 X-15.100 Z23.000
G0 X-15.100 Z21.000
G1 X-15.100 Y132.127 Z13.000 F999.600
G1 X-15.100 Y136.911 Z13.000 F1999.800
G3 X-15.189 Y137.000 Z13.000 I-0.055 J0.034 K0.000 F1999.800
G1 X-26.312 Y137.000 Z13.000 F1999.800
G1 X-26.312 Y128.000 Z13.000 F1999.800
G1 X-15.189 Y128.000 Z13.000 F1999.800
G3 X-15.100 Y128.089 Z13.000 I0.034 J0.055 K0.000 F1999.800
G1 X-15.100 Y132.127 Z13.000 F1999.800
G0 Z23.000
G0 Z23.000
G0 Z23.000
G0 Z23.000
G0 Z23.000
G0 Z23.000
G0 X15.148 Y136.990
G0 X15.148 Y136.990 Z21.000
G1 X15.148 Y136.990 Z17.471 F999.600
G3 X15.189 Y137.000 Z17.471 I0.007 J0.064 K0.000 F1999.800
G1 X26.312 Y137.000 Z17.471 F1999.800
G1 X26.312 Y146.000 Z17.471 F1999.800
G1 X15.189 Y146.000 Z17.471 F1999.800
G3 X15.100 Y145.911 Z17.471 I-0.034 J-0.055 K0.000 F1999.800
G1 X15.100 Y137.089 Z17.471 F1999.800
G3 X15.148 Y136.990 Z17.471 I0.055 J-0.034 K0.000 F1999.800
G0 Z23.000
G0 X17.640 Y139.540 Z23.000
G0 X17.640 Y139.540 Z21.000
G1 X17.640 Y139.540 Z17.471 F999.600
G1 X23.773 Y139.540 Z17.471 F1999.800
G1 X23.773 Y143.460 Z17.471 F1999.800
G1 X17.640 Y143.460 Z17.471 F1999.800
G1 X17.640 Y139.540 Z17.471 F1999.800
G0 Z23.000
G0 X18.434 Y140.334 Z23.000
G0 X18.434 Y140.334 Z21.000
G1 X18.434 Y140.334 Z17.471 F999.600
G1 X22.979 Y140.334 Z17.471 F1999.800
G1 X22.979 Y142.666 Z17.471 F1999.800
G1 X18.434 Y142.666 Z17.471 F1999.800
G1 X18.434 Y140.334 Z17.471 F1999.800
G0 Z23.000
G0 X19.227 Y141.127 Z23.000
G0 X19.227 Y141.127 Z21.000
G1 X19.227 Y141.127 Z17.471 F999.600
G1 X22.185 Y141.127 Z17.471 F1999.800
G1 X22.185 Y141.873 Z17.471 F1999.800
G1 X19.227 Y141.873 Z17.471 F1999.800
G1 X19.227 Y141.127 Z17.471 F1999.800
G1 X19.227 Y141.127 Z16.942 F999.600
G1 X22.185 Y141.127 Z16.942 F1999.800
G1 X22.185 Y141.873 Z16.942 F1999.800
G1 X19.227 Y141.873 Z16.942 F1999.800
G1 X19.227 Y141.127 Z16.942 F1999.800
G0 Z23.000
G0 X18.434 Z23.000
G0 X18.434 Z21.000
G1 X18.434 Y141.127 Z16.942 F999.600
G1 X18.434 Y140.334 Z16.942 F1999.800
G1 X22.979 Y140.334 Z16.942 F1999.800
G1 X22.979 Y142.666 Z16.942 F1999.800
G1 X18.434 Y142.666 Z16.942 F1999.800
G1 X18.434 Y141.127 Z16.942 F1999.800
G0 Z23.000
G0 X17.640 Z23.000
G0 X17.640 Z21.000
G1 X17.640 Y141.127 Z16.942 F999.600
G1 X17.640 Y139.540 Z16.942 F1999.800
G1 X23.773 Y139.540 Z16.942 F1999.800
G1 X23.773 Y143.460 Z16.942 F1999.800
G1 X17.640 Y143.460 Z16.942 F1999.800
G1 X17.640 Y141.127 Z16.942 F1999.800
G0 Z23.000
G0 X15.100 Z23.000
G0 X15.100 Z21.000
G1 X15.100 Y141.127 Z16.942 F999.600
G1 X15.100 Y137.089 Z16.942 F1999.800
G3 X15.189 Y137.000 Z16.942 I0.055 J-0.034 K0.000 F1999.800
G1 X26.312 Y137.000 Z16.942 F1999.800
G1 X26.312 Y146.000 Z16.942 F1999.800
G1 X15.189 Y146.000 Z16.942 F1999.800
G3 X15.100 Y145.911 Z16.942 I-0.034 J-0.055 K0.000 F1999.800
G1 X15.100 Y141.127 Z16.942 F1999.800
G1 X15.100 Y141.127 Z16.413 F999.600
G1 X15.100 Y137.089 Z16.413 F1999.800
G3 X15.189 Y137.000 Z16.413 I0.055 J-0.034 K0.000 F1999.800
G1 X26.312 Y137.000 Z16.413 F1999.800
G1 X26.312 Y146.000 Z16.413 F1999.800
G1 X15.189 Y146.000 Z16.413 F1999.800
G3 X15.100 Y145.911 Z16.413 I-0.034 J-0.055 K0.000 F1999.800
G1 X15.100 Y141.127 Z16.413 F1999.800
G0 Z23.000
G0 X17.640 Z23.000
G0 X17.640 Z21.000
G1 X17.640 Y141.127 Z16.413 F999.600
G1 X17.640 Y139.540 Z16.413 F1999.800
G1 X23.773 Y139.540 Z16.413 F1999.800
G1 X23.773 Y143.460 Z16.413 F1999.800
G1 X17.640 Y143.460 Z16.413 F1999.800
G1 X17.640 Y141.127 Z16.413 F1999.800
G0 Z23.000
G0 X18.434 Z23.000
G0 X18.434 Z21.000
G1 X18.434 Y141.127 Z16.413 F999.600
G1 X18.434 Y140.334 Z16.413 F1999.800
G1 X22.979 Y140.334 Z16.413 F1999.800
G1 X22.979 Y142.666 Z16.413 F1999.800
G1 X18.434 Y142.666 Z16.413 F1999.800
G1 X18.434 Y141.127 Z16.413 F1999.800
G0 Z23.000
G0 X19.227 Z23.000
G0 X19.227 Z21.000
G1 X19.227 Y141.127 Z16.413 F999.600
G1 X22.185 Y141.127 Z16.413 F1999.800
G1 X22.185 Y141.873 Z16.413 F1999.800
G1 X19.227 Y141.873 Z16.413 F1999.800
G1 X19.227 Y141.127 Z16.413 F1999.800
G1 X19.227 Y141.127 Z15.883 F999.600
G1 X22.185 Y141.127 Z15.883 F1999.800
G1 X22.185 Y141.873 Z15.883 F1999.800
G1 X19.227 Y141.873 Z15.883 F1999.800
G1 X19.227 Y141.127 Z15.883 F1999.800
G0 Z23.000
G0 X18.434 Z23.000
G0 X18.434 Z21.000
G1 X18.434 Y141.127 Z15.883 F999.600
G1 X18.434 Y140.334 Z15.883 F1999.800
G1 X22.979 Y140.334 Z15.883 F1999.800
G1 X22.979 Y142.666 Z15.883 F1999.800
G1 X18.434 Y142.666 Z15.883 F1999.800
G1 X18.434 Y141.127 Z15.883 F1999.800
G0 Z23.000
G0 X17.640 Z23.000
G0 X17.640 Z21.000
G1 X17.640 Y141.127 Z15.883 F999.600
G1 X17.640 Y139.540 Z15.883 F1999.800
G1 X23.773 Y139.540 Z15.883 F1999.800
G1 X23.773 Y143.460 Z15.883 F1999.800
G1 X17.640 Y143.460 Z15.883 F1999.800
G1 X17.640 Y141.127 Z15.883 F1999.800
G0 Z23.000
G0 X15.100 Z23.000
G0 X15.100 Z21.000
G1 X15.100 Y141.127 Z15.883 F999.600
G1 X15.100 Y137.089 Z15.883 F1999.800
G3 X15.189 Y137.000 Z15.883 I0.055 J-0.034 K0.000 F1999.800
G1 X26.312 Y137.000 Z15.883 F1999.800
G1 X26.312 Y146.000 Z15.883 F1999.800
G1 X15.189 Y146.000 Z15.883 F1999.800
G3 X15.100 Y145.911 Z15.883 I-0.034 J-0.055 K0.000 F1999.800
G1 X15.100 Y141.127 Z15.883 F1999.800
G1 X15.100 Y141.127 Z15.354 F999.600
G1 X15.100 Y137.089 Z15.354 F1999.800
G3 X15.189 Y137.000 Z15.354 I0.055 J-0.034 K0.000 F1999.800
G1 X26.312 Y137.000 Z15.354 F1999.800
G1 X26.312 Y146.000 Z15.354 F1999.800
G1 X15.189 Y146.000 Z15.354 F1999.800
G3 X15.100 Y145.911 Z15.354 I-0.034 J-0.055 K0.000 F1999.800
G1 X15.100 Y141.127 Z15.354 F1999.800
G0 Z23.000
G0 X17.640 Z23.000
G0 X17.640 Z21.000
G1 X17.640 Y141.127 Z15.354 F999.600
G1 X17.640 Y139.540 Z15.354 F1999.800
G1 X23.773 Y139.540 Z15.354 F1999.800
G1 X23.773 Y143.460 Z15.354 F1999.800
G1 X17.640 Y143.460 Z15.354 F1999.800
G1 X17.640 Y141.127 Z15.354 F1999.800
G0 Z23.000
G0 X18.434 Z23.000
G0 X18.434 Z21.000
G1 X18.434 Y141.127 Z15.354 F999.600
G1 X18.434 Y140.334 Z15.354 F1999.800
G1 X22.979 Y140.334 Z15.354 F1999.800
G1 X22.979 Y142.666 Z15.354 F1999.800
G1 X18.434 Y142.666 Z15.354 F1999.800
G1 X18.434 Y141.127 Z15.354 F1999.800
G0 Z23.000
G0 X19.227 Z23.000
G0 X19.227 Z21.000
G1 X19.227 Y141.127 Z15.354 F999.600
G1 X22.185 Y141.127 Z15.354 F1999.800
G1 X22.185 Y141.873 Z15.354 F1999.800
G1 X19.227 Y141.873 Z15.354 F1999.800
G1 X19.227 Y141.127 Z15.354 F1999.800
G1 X19.227 Y141.127 Z14.825 F999.600
G1 X22.185 Y141.127 Z14.825 F1999.800
G1 X22.185 Y141.873 Z14.825 F1999.800
G1 X19.227 Y141.873 Z14.825 F1999.800
G1 X19.227 Y141.127 Z14.825 F1999.800
G0 Z23.000
G0 X18.434 Z23.000
G0 X18.434 Z21.000
G1 X18.434 Y141.127 Z14.825 F999.600
G1 X18.434 Y140.334 Z14.825 F1999.800
G1 X22.979 Y140.334 Z14.825 F1999.800
G1 X22.979 Y142.666 Z14.825 F1999.800
G1 X18.434 Y142.666 Z14.825 F1999.800
G1 X18.434 Y141.127 Z14.825 F1999.800
G0 Z23.000
G0 X17.640 Z23.000
G0 X17.640 Z21.000
G1 X17.640 Y141.127 Z14.825 F999.600
G1 X17.640 Y139.540 Z14.825 F1999.800
G1 X23.773 Y139.540 Z14.825 F1999.800
G1 X23.773 Y143.460 Z14.825 F1999.800
G1 X17.640 Y143.460 Z14.825 F1999.800
G1 X17.640 Y141.127 Z14.825 F1999.800
G0 Z23.000
G0 X15.100 Z23.000
G0 X15.100 Z21.000
G1 X15.100 Y141.127 Z14.825 F999.600
G1 X15.100 Y137.089 Z14.825 F1999.800
G3 X15.189 Y137.000 Z14.825 I0.055 J-0.034 K0.000 F1999.800
G1 X26.312 Y137.000 Z14.825 F1999.800
G1 X26.312 Y146.000 Z14.825 F1999.800
G1 X15.189 Y146.000 Z14.825 F1999.800
G3 X15.100 Y145.911 Z14.825 I-0.034 J-0.055 K0.000 F1999.800
G1 X15.100 Y141.127 Z14.825 F1999.800
G1 X15.100 Y141.127 Z14.296 F999.600
G1 X15.100 Y137.089 Z14.296 F1999.800
G3 X15.189 Y137.000 Z14.296 I0.055 J-0.034 K0.000 F1999.800
G1 X26.312 Y137.000 Z14.296 F1999.800
G1 X26.312 Y146.000 Z14.296 F1999.800
G1 X15.189 Y146.000 Z14.296 F1999.800
G3 X15.100 Y145.911 Z14.296 I-0.034 J-0.055 K0.000 F1999.800
G1 X15.100 Y141.127 Z14.296 F1999.800
G0 Z23.000
G0 X17.640 Z23.000
G0 X17.640 Z21.000
G1 X17.640 Y141.127 Z14.296 F999.600
G1 X17.640 Y139.540 Z14.296 F1999.800
G1 X23.773 Y139.540 Z14.296 F1999.800
G1 X23.773 Y143.460 Z14.296 F1999.800
G1 X17.640 Y143.460 Z14.296 F1999.800
G1 X17.640 Y141.127 Z14.296 F1999.800
G0 Z23.000
G0 X18.434 Z23.000
G0 X18.434 Z21.000
G1 X18.434 Y141.127 Z14.296 F999.600
G1 X18.434 Y140.334 Z14.296 F1999.800
G1 X22.979 Y140.334 Z14.296 F1999.800
G1 X22.979 Y142.666 Z14.296 F1999.800
G1 X18.434 Y142.666 Z14.296 F1999.800
G1 X18.434 Y141.127 Z14.296 F1999.800
G0 Z23.000
G0 X19.227 Z23.000
G0 X19.227 Z21.000
G1 X19.227 Y141.127 Z14.296 F999.600
G1 X22.185 Y141.127 Z14.296 F1999.800
G1 X22.185 Y141.873 Z14.296 F1999.800
G1 X19.227 Y141.873 Z14.296 F1999.800
G1 X19.227 Y141.127 Z14.296 F1999.800
G1 X19.227 Y141.127 Z13.767 F999.600
G1 X22.185 Y141.127 Z13.767 F1999.800
G1 X22.185 Y141.873 Z13.767 F1999.800
G1 X19.227 Y141.873 Z13.767 F1999.800
G1 X19.227 Y141.127 Z13.767 F1999.800
G0 Z23.000
G0 X18.434 Z23.000
G0 X18.434 Z21.000
G1 X18.434 Y141.127 Z13.767 F999.600
G1 X18.434 Y140.334 Z13.767 F1999.800
G1 X22.979 Y140.334 Z13.767 F1999.800
G1 X22.979 Y142.666 Z13.767 F1999.800
G1 X18.434 Y142.666 Z13.767 F1999.800
G1 X18.434 Y141.127 Z13.767 F1999.800
G0 Z23.000
G0 X17.640 Z23.000
G0 X17.640 Z21.000
G1 X17.640 Y141.127 Z13.767 F999.600
G1 X17.640 Y139.540 Z13.767 F1999.800
G1 X23.773 Y139.540 Z13.767 F1999.800
G1 X23.773 Y143.460 Z13.767 F1999.800
G1 X17.640 Y143.460 Z13.767 F1999.800
G1 X17.640 Y141.127 Z13.767 F1999.800
G0 Z23.000
G0 X15.100 Z23.000
G0 X15.100 Z21.000
G1 X15.100 Y141.127 Z13.767 F999.600
G1 X15.100 Y137.089 Z13.767 F1999.800
G3 X15.189 Y137.000 Z13.767 I0.055 J-0.034 K0.000 F1999.800
G1 X26.312 Y137.000 Z13.767 F1999.800
G1 X26.312 Y146.000 Z13.767 F1999.800
G1 X15.189 Y146.000 Z13.767 F1999.800
G3 X15.100 Y145.911 Z13.767 I-0.034 J-0.055 K0.000 F1999.800
G1 X15.100 Y141.127 Z13.767 F1999.800
G1 X15.100 Y141.127 Z13.238 F999.600
G1 X15.100 Y137.089 Z13.238 F1999.800
G3 X15.189 Y137.000 Z13.238 I0.055 J-0.034 K0.000 F1999.800
G1 X26.312 Y137.000 Z13.238 F1999.800
G1 X26.312 Y146.000 Z13.238 F1999.800
G1 X15.189 Y146.000 Z13.238 F1999.800
G3 X15.100 Y145.911 Z13.238 I-0.034 J-0.055 K0.000 F1999.800
G1 X15.100 Y141.127 Z13.238 F1999.800
G0 Z23.000
G0 X17.640 Z23.000
G0 X17.640 Z21.000
G1 X17.640 Y141.127 Z13.238 F999.600
G1 X17.640 Y139.540 Z13.238 F1999.800
G1 X23.773 Y139.540 Z13.238 F1999.800
G1 X23.773 Y143.460 Z13.238 F1999.800
G1 X17.640 Y143.460 Z13.238 F1999.800
G1 X17.640 Y141.127 Z13.238 F1999.800
G0 Z23.000
G0 X18.434 Z23.000
G0 X18.434 Z21.000
G1 X18.434 Y141.127 Z13.238 F999.600
G1 X18.434 Y140.334 Z13.238 F1999.800
G1 X22.979 Y140.334 Z13.238 F1999.800
G1 X22.979 Y142.666 Z13.238 F1999.800
G1 X18.434 Y142.666 Z13.238 F1999.800
G1 X18.434 Y141.127 Z13.238 F1999.800
G0 Z23.000
G0 X19.227 Z23.000
G0 X19.227 Z21.000
G1 X19.227 Y141.127 Z13.238 F999.600
G1 X22.185 Y141.127 Z13.238 F1999.800
G1 X22.185 Y141.873 Z13.238 F1999.800
G1 X19.227 Y141.873 Z13.238 F1999.800
G1 X19.227 Y141.127 Z13.238 F1999.800
G1 X19.227 Y141.127 Z13.000 F999.600
G1 X22.185 Y141.127 Z13.000 F1999.800
G1 X22.185 Y141.873 Z13.000 F1999.800
G1 X19.227 Y141.873 Z13.000 F1999.800
G1 X19.227 Y141.127 Z13.000 F1999.800
G0 Z23.000
G0 X18.434 Z23.000
G0 X18.434 Z21.000
G1 X18.434 Y141.127 Z13.000 F999.600
G1 X18.434 Y140.334 Z13.000 F1999.800
G1 X22.979 Y140.334 Z13.000 F1999.800
G1 X22.979 Y142.666 Z13.000 F1999.800
G1 X18.434 Y142.666 Z13.000 F1999.800
G1 X18.434 Y141.127 Z13.000 F1999.800
G0 Z23.000
G0 X17.640 Z23.000
G0 X17.640 Z21.000
G1 X17.640 Y141.127 Z13.000 F999.600
G1 X17.640 Y139.540 Z13.000 F1999.800
G1 X23.773 Y139.540 Z13.000 F1999.800
G1 X23.773 Y143.460 Z13.000 F1999.800
G1 X17.640 Y143.460 Z13.000 F1999.800
G1 X17.640 Y141.127 Z13.000 F1999.800
G0 Z23.000
G0 X15.100 Z23.000
G0 X15.100 Z21.000
G1 X15.100 Y141.127 Z13.000 F999.600
G1 X15.100 Y137.089 Z13.000 F1999.800
G3 X15.189 Y137.000 Z13.000 I0.055 J-0.034 K0.000 F1999.800
G1 X26.312 Y137.000 Z13.000 F1999.800
G1 X26.312 Y146.000 Z13.000 F1999.800
G1 X15.189 Y146.000 Z13.000 F1999.800
G3 X15.100 Y145.911 Z13.000 I-0.034 J-0.055 K0.000 F1999.800
G1 X15.100 Y141.127 Z13.000 F1999.800
G0 Z23.000
G0 Z23.000
G0 Z23.000
G0 Z23.000
G0 X15.149 Y172.990
G0 X15.149 Y172.990 Z21.000
G1 X15.149 Y172.990 Z17.471 F999.600
G3 X15.189 Y173.000 Z17.471 I0.006 J0.064 K0.000 F1999.800
G1 X26.312 Y173.000 Z17.471 F1999.800
G1 X26.312 Y182.000 Z17.471 F1999.800
G1 X15.189 Y182.000 Z17.471 F1999.800
G3 X15.100 Y181.911 Z17.471 I-0.034 J-0.055 K0.000 F1999.800
G1 X15.100 Y173.089 Z17.471 F1999.800
G3 X15.149 Y172.990 Z17.471 I0.055 J-0.034 K0.000 F1999.800
G0 Z23.000
G0 X17.640 Y175.540 Z23.000
G0 X17.640 Y175.540 Z21.000
G1 X17.640 Y175.540 Z17.471 F999.600
G1 X23.773 Y175.540 Z17.471 F1999.800
G1 X23.773 Y179.460 Z17.471 F1999.800
G1 X17.640 Y179.460 Z17.471 F1999.800
G1 X17.640 Y175.540 Z17.471 F1999.800
G0 Z23.000
G0 X18.434 Y176.334 Z23.000
G0 X18.434 Y176.334 Z21.000
G1 X18.434 Y176.334 Z17.471 F999.600
G1 X22.979 Y176.334 Z17.471 F1999.800
G1 X22.979 Y178.666 Z17.471 F1999.800
G1 X18.434 Y178.666 Z17.471 F1999.800
G1 X18.434 Y176.334 Z17.471 F1999.800
G0 Z23.000
G0 X19.227 Y177.127 Z23.000
G0 X19.227 Y177.127 Z21.000
G1 X19.227 Y177.127 Z17.471 F999.600
G1 X22.185 Y177.127 Z17.471 F1999.800
G1 X22.185 Y177.873 Z17.471 F1999.800
G1 X19.227 Y177.873 Z17.471 F1999.800
G1 X19.227 Y177.127 Z17.471 F1999.800
G1 X19.227 Y177.127 Z16.942 F999.600
G1 X22.185 Y177.127 Z16.942 F1999.800
G1 X22.185 Y177.873 Z16.942 F1999.800
G1 X19.227 Y177.873 Z16.942 F1999.800
G1 X19.227 Y177.127 Z16.942 F1999.800
G0 Z23.000
G0 X18.434 Z23.000
G0 X18.434 Z21.000
G1 X18.434 Y177.127 Z16.942 F999.600
G1 X18.434 Y176.334 Z16.942 F1999.800
G1 X22.979 Y176.334 Z16.942 F1999.800
G1 X22.979 Y178.666 Z16.942 F1999.800
G1 X18.434 Y178.666 Z16.942 F1999.800
G1 X18.434 Y177.127 Z16.942 F1999.800
G0 Z23.000
G0 X17.640 Z23.000
G0 X17.640 Z21.000
G1 X17.640 Y177.127 Z16.942 F999.600
G1 X17.640 Y175.540 Z16.942 F1999.800
G1 X23.773 Y175.540 Z16.942 F1999.800
G1 X23.773 Y179.460 Z16.942 F1999.800
G1 X17.640 Y179.460 Z16.942 F1999.800
G1 X17.640 Y177.127 Z16.942 F1999.800
G0 Z23.000
G0 X15.100 Z23.000
G0 X15.100 Z21.000
G1 X15.100 Y177.127 Z16.942 F999.600
G1 X15.100 Y173.089 Z16.942 F1999.800
G3 X15.189 Y173.000 Z16.942 I0.055 J-0.034 K0.000 F1999.800
G1 X26.312 Y173.000 Z16.942 F1999.800
G1 X26.312 Y182.000 Z16.942 F1999.800
G1 X15.189 Y182.000 Z16.942 F1999.800
G3 X15.100 Y181.911 Z16.942 I-0.034 J-0.055 K0.000 F1999.800
G1 X15.100 Y177.127 Z16.942 F1999.800
G1 X15.100 Y177.127 Z16.413 F999.600
G1 X15.100 Y173.089 Z16.413 F1999.800
G3 X15.189 Y173.000 Z16.413 I0.055 J-0.034 K0.000 F1999.800
G1 X26.312 Y173.000 Z16.413 F1999.800
G1 X26.312 Y182.000 Z16.413 F1999.800
G1 X15.189 Y182.000 Z16.413 F1999.800
G3 X15.100 Y181.911 Z16.413 I-0.034 J-0.055 K0.000 F1999.800
G1 X15.100 Y177.127 Z16.413 F1999.800
G0 Z23.000
G0 X17.640 Z23.000
G0 X17.640 Z21.000
G1 X17.640 Y177.127 Z16.413 F999.600
G1 X17.640 Y175.540 Z16.413 F1999.800
G1 X23.773 Y175.540 Z16.413 F1999.800
G1 X23.773 Y179.460 Z16.413 F1999.800
G1 X17.640 Y179.460 Z16.413 F1999.800
G1 X17.640 Y177.127 Z16.413 F1999.800
G0 Z23.000
G0 X18.434 Z23.000
G0 X18.434 Z21.000
G1 X18.434 Y177.127 Z16.413 F999.600
G1 X18.434 Y176.334 Z16.413 F1999.800
G1 X22.979 Y176.334 Z16.413 F1999.800
G1 X22.979 Y178.666 Z16.413 F1999.800
G1 X18.434 Y178.666 Z16.413 F1999.800
G1 X18.434 Y177.127 Z16.413 F1999.800
G0 Z23.000
G0 X19.227 Z23.000
G0 X19.227 Z21.000
G1 X19.227 Y177.127 Z16.413 F999.600
G1 X22.185 Y177.127 Z16.413 F1999.800
G1 X22.185 Y177.873 Z16.413 F1999.800
G1 X19.227 Y177.873 Z16.413 F1999.800
G1 X19.227 Y177.127 Z16.413 F1999.800
G1 X19.227 Y177.127 Z15.883 F999.600
G1 X22.185 Y177.127 Z15.883 F1999.800
G1 X22.185 Y177.873 Z15.883 F1999.800
G1 X19.227 Y177.873 Z15.883 F1999.800
G1 X19.227 Y177.127 Z15.883 F1999.800
G0 Z23.000
G0 X18.434 Z23.000
G0 X18.434 Z21.000
G1 X18.434 Y177.127 Z15.883 F999.600
G1 X18.434 Y176.334 Z15.883 F1999.800
G1 X22.979 Y176.334 Z15.883 F1999.800
G1 X22.979 Y178.666 Z15.883 F1999.800
G1 X18.434 Y178.666 Z15.883 F1999.800
G1 X18.434 Y177.127 Z15.883 F1999.800
G0 Z23.000
G0 X17.640 Z23.000
G0 X17.640 Z21.000
G1 X17.640 Y177.127 Z15.883 F999.600
G1 X17.640 Y175.540 Z15.883 F1999.800
G1 X23.773 Y175.540 Z15.883 F1999.800
G1 X23.773 Y179.460 Z15.883 F1999.800
G1 X17.640 Y179.460 Z15.883 F1999.800
G1 X17.640 Y177.127 Z15.883 F1999.800
G0 Z23.000
G0 X15.100 Z23.000
G0 X15.100 Z21.000
G1 X15.100 Y177.127 Z15.883 F999.600
G1 X15.100 Y173.089 Z15.883 F1999.800
G3 X15.189 Y173.000 Z15.883 I0.055 J-0.034 K0.000 F1999.800
G1 X26.312 Y173.000 Z15.883 F1999.800
G1 X26.312 Y182.000 Z15.883 F1999.800
G1 X15.189 Y182.000 Z15.883 F1999.800
G3 X15.100 Y181.911 Z15.883 I-0.034 J-0.055 K0.000 F1999.800
G1 X15.100 Y177.127 Z15.883 F1999.800
G1 X15.100 Y177.127 Z15.354 F999.600
G1 X15.100 Y173.089 Z15.354 F1999.800
G3 X15.189 Y173.000 Z15.354 I0.055 J-0.034 K0.000 F1999.800
G1 X26.312 Y173.000 Z15.354 F1999.800
G1 X26.312 Y182.000 Z15.354 F1999.800
G1 X15.189 Y182.000 Z15.354 F1999.800
G3 X15.100 Y181.911 Z15.354 I-0.034 J-0.055 K0.000 F1999.800
G1 X15.100 Y177.127 Z15.354 F1999.800
G0 Z23.000
G0 X17.640 Z23.000
G0 X17.640 Z21.000
G1 X17.640 Y177.127 Z15.354 F999.600
G1 X17.640 Y175.540 Z15.354 F1999.800
G1 X23.773 Y175.540 Z15.354 F1999.800
G1 X23.773 Y179.460 Z15.354 F1999.800
G1 X17.640 Y179.460 Z15.354 F1999.800
G1 X17.640 Y177.127 Z15.354 F1999.800
G0 Z23.000
G0 X18.434 Z23.000
G0 X18.434 Z21.000
G1 X18.434 Y177.127 Z15.354 F999.600
G1 X18.434 Y176.334 Z15.354 F1999.800
G1 X22.979 Y176.334 Z15.354 F1999.800
G1 X22.979 Y178.666 Z15.354 F1999.800
G1 X18.434 Y178.666 Z15.354 F1999.800
G1 X18.434 Y177.127 Z15.354 F1999.800
G0 Z23.000
G0 X19.227 Z23.000
G0 X19.227 Z21.000
G1 X19.227 Y177.127 Z15.354 F999.600
G1 X22.185 Y177.127 Z15.354 F1999.800
G1 X22.185 Y177.873 Z15.354 F1999.800
G1 X19.227 Y177.873 Z15.354 F1999.800
G1 X19.227 Y177.127 Z15.354 F1999.800
G1 X19.227 Y177.127 Z14.825 F999.600
G1 X22.185 Y177.127 Z14.825 F1999.800
G1 X22.185 Y177.873 Z14.825 F1999.800
G1 X19.227 Y177.873 Z14.825 F1999.800
G1 X19.227 Y177.127 Z14.825 F1999.800
G0 Z23.000
G0 X18.434 Z23.000
G0 X18.434 Z21.000
G1 X18.434 Y177.127 Z14.825 F999.600
G1 X18.434 Y176.334 Z14.825 F1999.800
G1 X22.979 Y176.334 Z14.825 F1999.800
G1 X22.979 Y178.666 Z14.825 F1999.800
G1 X18.434 Y178.666 Z14.825 F1999.800
G1 X18.434 Y177.127 Z14.825 F1999.800
G0 Z23.000
G0 X17.640 Z23.000
G0 X17.640 Z21.000
G1 X17.640 Y177.127 Z14.825 F999.600
G1 X17.640 Y175.540 Z14.825 F1999.800
G1 X23.773 Y175.540 Z14.825 F1999.800
G1 X23.773 Y179.460 Z14.825 F1999.800
G1 X17.640 Y179.460 Z14.825 F1999.800
G1 X17.640 Y177.127 Z14.825 F1999.800
G0 Z23.000
G0 X15.100 Z23.000
G0 X15.100 Z21.000
G1 X15.100 Y177.127 Z14.825 F999.600
G1 X15.100 Y173.089 Z14.825 F1999.800
G3 X15.189 Y173.000 Z14.825 I0.055 J-0.034 K0.000 F1999.800
G1 X26.312 Y173.000 Z14.825 F1999.800
G1 X26.312 Y182.000 Z14.825 F1999.800
G1 X15.189 Y182.000 Z14.825 F1999.800
G3 X15.100 Y181.911 Z14.825 I-0.034 J-0.055 K0.000 F1999.800
G1 X15.100 Y177.127 Z14.825 F1999.800
G1 X15.100 Y177.127 Z14.296 F999.600
G1 X15.100 Y173.089 Z14.296 F1999.800
G3 X15.189 Y173.000 Z14.296 I0.055 J-0.034 K0.000 F1999.800
G1 X26.312 Y173.000 Z14.296 F1999.800
G1 X26.312 Y182.000 Z14.296 F1999.800
G1 X15.189 Y182.000 Z14.296 F1999.800
G3 X15.100 Y181.911 Z14.296 I-0.034 J-0.055 K0.000 F1999.800
G1 X15.100 Y177.127 Z14.296 F1999.800
G0 Z23.000
G0 X17.640 Z23.000
G0 X17.640 Z21.000
G1 X17.640 Y177.127 Z14.296 F999.600
G1 X17.640 Y175.540 Z14.296 F1999.800
G1 X23.773 Y175.540 Z14.296 F1999.800
G1 X23.773 Y179.460 Z14.296 F1999.800
G1 X17.640 Y179.460 Z14.296 F1999.800
G1 X17.640 Y177.127 Z14.296 F1999.800
G0 Z23.000
G0 X18.434 Z23.000
G0 X18.434 Z21.000
G1 X18.434 Y177.127 Z14.296 F999.600
G1 X18.434 Y176.334 Z14.296 F1999.800
G1 X22.979 Y176.334 Z14.296 F1999.800
G1 X22.979 Y178.666 Z14.296 F1999.800
G1 X18.434 Y178.666 Z14.296 F1999.800
G1 X18.434 Y177.127 Z14.296 F1999.800
G0 Z23.000
G0 X19.227 Z23.000
G0 X19.227 Z21.000
G1 X19.227 Y177.127 Z14.296 F999.600
G1 X22.185 Y177.127 Z14.296 F1999.800
G1 X22.185 Y177.873 Z14.296 F1999.800
G1 X19.227 Y177.873 Z14.296 F1999.800
G1 X19.227 Y177.127 Z14.296 F1999.800
G1 X19.227 Y177.127 Z13.767 F999.600
G1 X22.185 Y177.127 Z13.767 F1999.800
G1 X22.185 Y177.873 Z13.767 F1999.800
G1 X19.227 Y177.873 Z13.767 F1999.800
G1 X19.227 Y177.127 Z13.767 F1999.800
G0 Z23.000
G0 X18.434 Z23.000
G0 X18.434 Z21.000
G1 X18.434 Y177.127 Z13.767 F999.600
G1 X18.434 Y176.334 Z13.767 F1999.800
G1 X22.979 Y176.334 Z13.767 F1999.800
G1 X22.979 Y178.666 Z13.767 F1999.800
G1 X18.434 Y178.666 Z13.767 F1999.800
G1 X18.434 Y177.127 Z13.767 F1999.800
G0 Z23.000
G0 X17.640 Z23.000
G0 X17.640 Z21.000
G1 X17.640 Y177.127 Z13.767 F999.600
G1 X17.640 Y175.540 Z13.767 F1999.800
G1 X23.773 Y175.540 Z13.767 F1999.800
G1 X23.773 Y179.460 Z13.767 F1999.800
G1 X17.640 Y179.460 Z13.767 F1999.800
G1 X17.640 Y177.127 Z13.767 F1999.800
G0 Z23.000
G0 X15.100 Z23.000
G0 X15.100 Z21.000
G1 X15.100 Y177.127 Z13.767 F999.600
G1 X15.100 Y173.089 Z13.767 F1999.800
G3 X15.189 Y173.000 Z13.767 I0.055 J-0.034 K0.000 F1999.800
G1 X26.312 Y173.000 Z13.767 F1999.800
G1 X26.312 Y182.000 Z13.767 F1999.800
G1 X15.189 Y182.000 Z13.767 F1999.800
G3 X15.100 Y181.911 Z13.767 I-0.034 J-0.055 K0.000 F1999.800
G1 X15.100 Y177.127 Z13.767 F1999.800
G1 X15.100 Y177.127 Z13.238 F999.600
G1 X15.100 Y173.089 Z13.238 F1999.800
G3 X15.189 Y173.000 Z13.238 I0.055 J-0.034 K0.000 F1999.800
G1 X26.312 Y173.000 Z13.238 F1999.800
G1 X26.312 Y182.000 Z13.238 F1999.800
G1 X15.189 Y182.000 Z13.238 F1999.800
G3 X15.100 Y181.911 Z13.238 I-0.034 J-0.055 K0.000 F1999.800
G1 X15.100 Y177.127 Z13.238 F1999.800
G0 Z23.000
G0 X17.640 Z23.000
G0 X17.640 Z21.000
G1 X17.640 Y177.127 Z13.238 F999.600
G1 X17.640 Y175.540 Z13.238 F1999.800
G1 X23.773 Y175.540 Z13.238 F1999.800
G1 X23.773 Y179.460 Z13.238 F1999.800
G1 X17.640 Y179.460 Z13.238 F1999.800
G1 X17.640 Y177.127 Z13.238 F1999.800
G0 Z23.000
G0 X18.434 Z23.000
G0 X18.434 Z21.000
G1 X18.434 Y177.127 Z13.238 F999.600
G1 X18.434 Y176.334 Z13.238 F1999.800
G1 X22.979 Y176.334 Z13.238 F1999.800
G1 X22.979 Y178.666 Z13.238 F1999.800
G1 X18.434 Y178.666 Z13.238 F1999.800
G1 X18.434 Y177.127 Z13.238 F1999.800
G0 Z23.000
G0 X19.227 Z23.000
G0 X19.227 Z21.000
G1 X19.227 Y177.127 Z13.238 F999.600
G1 X22.185 Y177.127 Z13.238 F1999.800
G1 X22.185 Y177.873 Z13.238 F1999.800
G1 X19.227 Y177.873 Z13.238 F1999.800
G1 X19.227 Y177.127 Z13.238 F1999.800
G1 X19.227 Y177.127 Z13.000 F999.600
G1 X22.185 Y177.127 Z13.000 F1999.800
G1 X22.185 Y177.873 Z13.000 F1999.800
G1 X19.227 Y177.873 Z13.000 F1999.800
G1 X19.227 Y177.127 Z13.000 F1999.800
G0 Z23.000
G0 X18.434 Z23.000
G0 X18.434 Z21.000
G1 X18.434 Y177.127 Z13.000 F999.600
G1 X18.434 Y176.334 Z13.000 F1999.800
G1 X22.979 Y176.334 Z13.000 F1999.800
G1 X22.979 Y178.666 Z13.000 F1999.800
G1 X18.434 Y178.666 Z13.000 F1999.800
G1 X18.434 Y177.127 Z13.000 F1999.800
G0 Z23.000
G0 X17.640 Z23.000
G0 X17.640 Z21.000
G1 X17.640 Y177.127 Z13.000 F999.600
G1 X17.640 Y175.540 Z13.000 F1999.800
G1 X23.773 Y175.540 Z13.000 F1999.800
G1 X23.773 Y179.460 Z13.000 F1999.800
G1 X17.640 Y179.460 Z13.000 F1999.800
G1 X17.640 Y177.127 Z13.000 F1999.800
G0 Z23.000
G0 X15.100 Z23.000
G0 X15.100 Z21.000
G1 X15.100 Y177.127 Z13.000 F999.600
G1 X15.100 Y173.089 Z13.000 F1999.800
G3 X15.189 Y173.000 Z13.000 I0.055 J-0.034 K0.000 F1999.800
G1 X26.312 Y173.000 Z13.000 F1999.800
G1 X26.312 Y182.000 Z13.000 F1999.800
G1 X15.189 Y182.000 Z13.000 F1999.800
G3 X15.100 Y181.911 Z13.000 I-0.034 J-0.055 K0.000 F1999.800
G1 X15.100 Y177.127 Z13.000 F1999.800
G0 Z23.000
G0 Z23.000
G0 X-15.091 Y182.044
G0 X-15.091 Y182.044 Z21.000
G1 X-15.091 Y182.044 Z17.471 F999.600
G3 X-15.100 Y182.089 Z17.471 I-0.064 J0.010 K0.000 F1999.800
G1 X-15.100 Y190.911 Z17.471 F1999.800
G3 X-15.189 Y191.000 Z17.471 I-0.055 J0.034 K0.000 F1999.800
G1 X-26.312 Y191.000 Z17.471 F1999.800
G1 X-26.312 Y182.000 Z17.471 F1999.800
G1 X-15.189 Y182.000 Z17.471 F1999.800
G3 X-15.091 Y182.044 Z17.471 I0.034 J0.055 K0.000 F1999.800
G0 Z23.000
G0 X-17.640 Y184.540 Z23.000
G0 X-17.640 Y184.540 Z21.000
G1 X-17.640 Y184.540 Z17.471 F999.600
G1 X-17.640 Y188.460 Z17.471 F1999.800
G1 X-23.773 Y188.460 Z17.471 F1999.800
G1 X-23.773 Y184.540 Z17.471 F1999.800
G1 X-17.640 Y184.540 Z17.471 F1999.800
G0 Z23.000
G0 X-18.434 Y185.334 Z23.000
G0 X-18.434 Y185.334 Z21.000
G1 X-18.434 Y185.334 Z17.471 F999.600
G1 X-18.434 Y187.666 Z17.471 F1999.800
G1 X-22.979 Y187.666 Z17.471 F1999.800
G1 X-22.979 Y185.334 Z17.471 F1999.800
G1 X-18.434 Y185.334 Z17.471 F1999.800
G0 Z23.000
G0 X-19.227 Y186.127 Z23.000
G0 X-19.227 Y186.127 Z21.000
G1 X-19.227 Y186.127 Z17.471 F999.600
G1 X-19.227 Y186.873 Z17.471 F1999.800
G1 X-22.185 Y186.873 Z17.471 F1999.800
G1 X-22.185 Y186.127 Z17.471 F1999.800
G1 X-19.227 Y186.127 Z17.471 F1999.800
G1 X-19.227 Y186.127 Z16.942 F999.600
G1 X-19.227 Y186.873 Z16.942 F1999.800
G1 X-22.185 Y186.873 Z16.942 F1999.800
G1 X-22.185 Y186.127 Z16.942 F1999.800
G1 X-19.227 Y186.127 Z16.942 F1999.800
G0 Z23.000
G0 X-18.434 Z23.000
G0 X-18.434 Z21.000
G1 X-18.434 Y186.127 Z16.942 F999.600
G1 X-18.434 Y187.666 Z16.942 F1999.800
G1 X-22.979 Y187.666 Z16.942 F1999.800
G1 X-22.979 Y185.334 Z16.942 F1999.800
G1 X-18.434 Y185.334 Z16.942 F1999.800
G1 X-18.434 Y186.127 Z16.942 F1999.800
G0 Z23.000
G0 X-17.640 Z23.000
G0 X-17.640 Z21.000
G1 X-17.640 Y186.127 Z16.942 F999.600
G1 X-17.640 Y188.460 Z16.942 F1999.800
G1 X-23.773 Y188.460 Z16.942 F1999.800
G1 X-23.773 Y184.540 Z16.942 F1999.800
G1 X-17.640 Y184.540 Z16.942 F1999.800
G1 X-17.640 Y186.127 Z16.942 F1999.800
G0 Z23.000
G0 X-15.100 Z23.000
G0 X-15.100 Z21.000
G1 X-15.100 Y186.127 Z16.942 F999.600
G1 X-15.100 Y190.911 Z16.942 F1999.800
G3 X-15.189 Y191.000 Z16.942 I-0.055 J0.034 K0.000 F1999.800
G1 X-26.312 Y191.000 Z16.942 F1999.800
G1 X-26.312 Y182.000 Z16.942 F1999.800
G1 X-15.189 Y182.000 Z16.942 F1999.800
G3 X-15.100 Y182.089 Z16.942 I0.034 J0.055 K0.000 F1999.800
G1 X-15.100 Y186.127 Z16.942 F1999.800
G1 X-15.100 Y186.127 Z16.413 F999.600
G1 X-15.100 Y190.911 Z16.413 F1999.800
G3 X-15.189 Y191.000 Z16.413 I-0.055 J0.034 K0.000 F1999.800
G1 X-26.312 Y191.000 Z16.413 F1999.800
G1 X-26.312 Y182.000 Z16.413 F1999.800
G1 X-15.189 Y182.000 Z16.413 F1999.800
G3 X-15.100 Y182.089 Z16.413 I0.034 J0.055 K0.000 F1999.800
G1 X-15.100 Y186.127 Z16.413 F1999.800
G0 Z23.000
G0 X-17.640 Z23.000
G0 X-17.640 Z21.000
G1 X-17.640 Y186.127 Z16.413 F999.600
G1 X-17.640 Y188.460 Z16.413 F1999.800
G1 X-23.773 Y188.460 Z16.413 F1999.800
G1 X-23.773 Y184.540 Z16.413 F1999.800
G1 X-17.640 Y184.540 Z16.413 F1999.800
G1 X-17.640 Y186.127 Z16.413 F1999.800
G0 Z23.000
G0 X-18.434 Z23.000
G0 X-18.434 Z21.000
G1 X-18.434 Y186.127 Z16.413 F999.600
G1 X-18.434 Y187.666 Z16.413 F1999.800
G1 X-22.979 Y187.666 Z16.413 F1999.800
G1 X-22.979 Y185.334 Z16.413 F1999.800
G1 X-18.434 Y185.334 Z16.413 F1999.800
G1 X-18.434 Y186.127 Z16.413 F1999.800
G0 Z23.000
G0 X-19.227 Z23.000
G0 X-19.227 Z21.000
G1 X-19.227 Y186.127 Z16.413 F999.600
G1 X-19.227 Y186.873 Z16.413 F1999.800
G1 X-22.185 Y186.873 Z16.413 F1999.800
G1 X-22.185 Y186.127 Z16.413 F1999.800
G1 X-19.227 Y186.127 Z16.413 F1999.800
G1 X-19.227 Y186.127 Z15.883 F999.600
G1 X-19.227 Y186.873 Z15.883 F1999.800
G1 X-22.185 Y186.873 Z15.883 F1999.800
G1 X-22.185 Y186.127 Z15.883 F1999.800
G1 X-19.227 Y186.127 Z15.883 F1999.800
G0 Z23.000
G0 X-18.434 Z23.000
G0 X-18.434 Z21.000
G1 X-18.434 Y186.127 Z15.883 F999.600
G1 X-18.434 Y187.666 Z15.883 F1999.800
G1 X-22.979 Y187.666 Z15.883 F1999.800
G1 X-22.979 Y185.334 Z15.883 F1999.800
G1 X-18.434 Y185.334 Z15.883 F1999.800
G1 X-18.434 Y186.127 Z15.883 F1999.800
G0 Z23.000
G0 X-17.640 Z23.000
G0 X-17.640 Z21.000
G1 X-17.640 Y186.127 Z15.883 F999.600
G1 X-17.640 Y188.460 Z15.883 F1999.800
G1 X-23.773 Y188.460 Z15.883 F1999.800
G1 X-23.773 Y184.540 Z15.883 F1999.800
G1 X-17.640 Y184.540 Z15.883 F1999.800
G1 X-17.640 Y186.127 Z15.883 F1999.800
G0 Z23.000
G0 X-15.100 Z23.000
G0 X-15.100 Z21.000
G1 X-15.100 Y186.127 Z15.883 F999.600
G1 X-15.100 Y190.911 Z15.883 F1999.800
G3 X-15.189 Y191.000 Z15.883 I-0.055 J0.034 K0.000 F1999.800
G1 X-26.312 Y191.000 Z15.883 F1999.800
G1 X-26.312 Y182.000 Z15.883 F1999.800
G1 X-15.189 Y182.000 Z15.883 F1999.800
G3 X-15.100 Y182.089 Z15.883 I0.034 J0.055 K0.000 F1999.800
G1 X-15.100 Y186.127 Z15.883 F1999.800
G1 X-15.100 Y186.127 Z15.354 F999.600
G1 X-15.100 Y190.911 Z15.354 F1999.800
G3 X-15.189 Y191.000 Z15.354 I-0.055 J0.034 K0.000 F1999.800
G1 X-26.312 Y191.000 Z15.354 F1999.800
G1 X-26.312 Y182.000 Z15.354 F1999.800
G1 X-15.189 Y182.000 Z15.354 F1999.800
G3 X-15.100 Y182.089 Z15.354 I0.034 J0.055 K0.000 F1999.800
G1 X-15.100 Y186.127 Z15.354 F1999.800
G0 Z23.000
G0 X-17.640 Z23.000
G0 X-17.640 Z21.000
G1 X-17.640 Y186.127 Z15.354 F999.600
G1 X-17.640 Y188.460 Z15.354 F1999.800
G1 X-23.773 Y188.460 Z15.354 F1999.800
G1 X-23.773 Y184.540 Z15.354 F1999.800
G1 X-17.640 Y184.540 Z15.354 F1999.800
G1 X-17.640 Y186.127 Z15.354 F1999.800
G0 Z23.000
G0 X-18.434 Z23.000
G0 X-18.434 Z21.000
G1 X-18.434 Y186.127 Z15.354 F999.600
G1 X-18.434 Y187.666 Z15.354 F1999.800
G1 X-22.979 Y187.666 Z15.354 F1999.800
G1 X-22.979 Y185.334 Z15.354 F1999.800
G1 X-18.434 Y185.334 Z15.354 F1999.800
G1 X-18.434 Y186.127 Z15.354 F1999.800
G0 Z23.000
G0 X-19.227 Z23.000
G0 X-19.227 Z21.000
G1 X-19.227 Y186.127 Z15.354 F999.600
G1 X-19.227 Y186.873 Z15.354 F1999.800
G1 X-22.185 Y186.873 Z15.354 F1999.800
G1 X-22.185 Y186.127 Z15.354 F1999.800
G1 X-19.227 Y186.127 Z15.354 F1999.800
G1 X-19.227 Y186.127 Z14.825 F999.600
G1 X-19.227 Y186.873 Z14.825 F1999.800
G1 X-22.185 Y186.873 Z14.825 F1999.800
G1 X-22.185 Y186.127 Z14.825 F1999.800
G1 X-19.227 Y186.127 Z14.825 F1999.800
G0 Z23.000
G0 X-18.434 Z23.000
G0 X-18.434 Z21.000
G1 X-18.434 Y186.127 Z14.825 F999.600
G1 X-18.434 Y187.666 Z14.825 F1999.800
G1 X-22.979 Y187.666 Z14.825 F1999.800
G1 X-22.979 Y185.334 Z14.825 F1999.800
G1 X-18.434 Y185.334 Z14.825 F1999.800
G1 X-18.434 Y186.127 Z14.825 F1999.800
G0 Z23.000
G0 X-17.640 Z23.000
G0 X-17.640 Z21.000
G1 X-17.640 Y186.127 Z14.825 F999.600
G1 X-17.640 Y188.460 Z14.825 F1999.800
G1 X-23.773 Y188.460 Z14.825 F1999.800
G1 X-23.773 Y184.540 Z14.825 F1999.800
G1 X-17.640 Y184.540 Z14.825 F1999.800
G1 X-17.640 Y186.127 Z14.825 F1999.800
G0 Z23.000
G0 X-15.100 Z23.000
G0 X-15.100 Z21.000
G1 X-15.100 Y186.127 Z14.825 F999.600
G1 X-15.100 Y190.911 Z14.825 F1999.800
G3 X-15.189 Y191.000 Z14.825 I-0.055 J0.034 K0.000 F1999.800
G1 X-26.312 Y191.000 Z14.825 F1999.800
G1 X-26.312 Y182.000 Z14.825 F1999.800
G1 X-15.189 Y182.000 Z14.825 F1999.800
G3 X-15.100 Y182.089 Z14.825 I0.034 J0.055 K0.000 F1999.800
G1 X-15.100 Y186.127 Z14.825 F1999.800
G1 X-15.100 Y186.127 Z14.296 F999.600
G1 X-15.100 Y190.911 Z14.296 F1999.800
G3 X-15.189 Y191.000 Z14.296 I-0.055 J0.034 K0.000 F1999.800
G1 X-26.312 Y191.000 Z14.296 F1999.800
G1 X-26.312 Y182.000 Z14.296 F1999.800
G1 X-15.189 Y182.000 Z14.296 F1999.800
G3 X-15.100 Y182.089 Z14.296 I0.034 J0.055 K0.000 F1999.800
G1 X-15.100 Y186.127 Z14.296 F1999.800
G0 Z23.000
G0 X-17.640 Z23.000
G0 X-17.640 Z21.000
G1 X-17.640 Y186.127 Z14.296 F999.600
G1 X-17.640 Y188.460 Z14.296 F1999.800
G1 X-23.773 Y188.460 Z14.296 F1999.800
G1 X-23.773 Y184.540 Z14.296 F1999.800
G1 X-17.640 Y184.540 Z14.296 F1999.800
G1 X-17.640 Y186.127 Z14.296 F1999.800
G0 Z23.000
G0 X-18.434 Z23.000
G0 X-18.434 Z21.000
G1 X-18.434 Y186.127 Z14.296 F999.600
G1 X-18.434 Y187.666 Z14.296 F1999.800
G1 X-22.979 Y187.666 Z14.296 F1999.800
G1 X-22.979 Y185.334 Z14.296 F1999.800
G1 X-18.434 Y185.334 Z14.296 F1999.800
G1 X-18.434 Y186.127 Z14.296 F1999.800
G0 Z23.000
G0 X-19.227 Z23.000
G0 X-19.227 Z21.000
G1 X-19.227 Y186.127 Z14.296 F999.600
G1 X-19.227 Y186.873 Z14.296 F1999.800
G1 X-22.185 Y186.873 Z14.296 F1999.800
G1 X-22.185 Y186.127 Z14.296 F1999.800
G1 X-19.227 Y186.127 Z14.296 F1999.800
G1 X-19.227 Y186.127 Z13.767 F999.600
G1 X-19.227 Y186.873 Z13.767 F1999.800
G1 X-22.185 Y186.873 Z13.767 F1999.800
G1 X-22.185 Y186.127 Z13.767 F1999.800
G1 X-19.227 Y186.127 Z13.767 F1999.800
G0 Z23.000
G0 X-18.434 Z23.000
G0 X-18.434 Z21.000
G1 X-18.434 Y186.127 Z13.767 F999.600
G1 X-18.434 Y187.666 Z13.767 F1999.800
G1 X-22.979 Y187.666 Z13.767 F1999.800
G1 X-22.979 Y185.334 Z13.767 F1999.800
G1 X-18.434 Y185.334 Z13.767 F1999.800
G1 X-18.434 Y186.127 Z13.767 F1999.800
G0 Z23.000
G0 X-17.640 Z23.000
G0 X-17.640 Z21.000
G1 X-17.640 Y186.127 Z13.767 F999.600
G1 X-17.640 Y188.460 Z13.767 F1999.800
G1 X-23.773 Y188.460 Z13.767 F1999.800
G1 X-23.773 Y184.540 Z13.767 F1999.800
G1 X-17.640 Y184.540 Z13.767 F1999.800
G1 X-17.640 Y186.127 Z13.767 F1999.800
G0 Z23.000
G0 X-15.100 Z23.000
G0 X-15.100 Z21.000
G1 X-15.100 Y186.127 Z13.767 F999.600
G1 X-15.100 Y190.911 Z13.767 F1999.800
G3 X-15.189 Y191.000 Z13.767 I-0.055 J0.034 K0.000 F1999.800
G1 X-26.312 Y191.000 Z13.767 F1999.800
G1 X-26.312 Y182.000 Z13.767 F1999.800
G1 X-15.189 Y182.000 Z13.767 F1999.800
G3 X-15.100 Y182.089 Z13.767 I0.034 J0.055 K0.000 F1999.800
G1 X-15.100 Y186.127 Z13.767 F1999.800
G1 X-15.100 Y186.127 Z13.238 F999.600
G1 X-15.100 Y190.911 Z13.238 F1999.800
G3 X-15.189 Y191.000 Z13.238 I-0.055 J0.034 K0.000 F1999.800
G1 X-26.312 Y191.000 Z13.238 F1999.800
G1 X-26.312 Y182.000 Z13.238 F1999.800
G1 X-15.189 Y182.000 Z13.238 F1999.800
G3 X-15.100 Y182.089 Z13.238 I0.034 J0.055 K0.000 F1999.800
G1 X-15.100 Y186.127 Z13.238 F1999.800
G0 Z23.000
G0 X-17.640 Z23.000
G0 X-17.640 Z21.000
G1 X-17.640 Y186.127 Z13.238 F999.600
G1 X-17.640 Y188.460 Z13.238 F1999.800
G1 X-23.773 Y188.460 Z13.238 F1999.800
G1 X-23.773 Y184.540 Z13.238 F1999.800
G1 X-17.640 Y184.540 Z13.238 F1999.800
G1 X-17.640 Y186.127 Z13.238 F1999.800
G0 Z23.000
G0 X-18.434 Z23.000
G0 X-18.434 Z21.000
G1 X-18.434 Y186.127 Z13.238 F999.600
G1 X-18.434 Y187.666 Z13.238 F1999.800
G1 X-22.979 Y187.666 Z13.238 F1999.800
G1 X-22.979 Y185.334 Z13.238 F1999.800
G1 X-18.434 Y185.334 Z13.238 F1999.800
G1 X-18.434 Y186.127 Z13.238 F1999.800
G0 Z23.000
G0 X-19.227 Z23.000
G0 X-19.227 Z21.000
G1 X-19.227 Y186.127 Z13.238 F999.600
G1 X-19.227 Y186.873 Z13.238 F1999.800
G1 X-22.185 Y186.873 Z13.238 F1999.800
G1 X-22.185 Y186.127 Z13.238 F1999.800
G1 X-19.227 Y186.127 Z13.238 F1999.800
G1 X-19.227 Y186.127 Z13.000 F999.600
G1 X-19.227 Y186.873 Z13.000 F1999.800
G1 X-22.185 Y186.873 Z13.000 F1999.800
G1 X-22.185 Y186.127 Z13.000 F1999.800
G1 X-19.227 Y186.127 Z13.000 F1999.800
G0 Z23.000
G0 X-18.434 Z23.000
G0 X-18.434 Z21.000
G1 X-18.434 Y186.127 Z13.000 F999.600
G1 X-18.434 Y187.666 Z13.000 F1999.800
G1 X-22.979 Y187.666 Z13.000 F1999.800
G1 X-22.979 Y185.334 Z13.000 F1999.800
G1 X-18.434 Y185.334 Z13.000 F1999.800
G1 X-18.434 Y186.127 Z13.000 F1999.800
G0 Z23.000
G0 X-17.640 Z23.000
G0 X-17.640 Z21.000
G1 X-17.640 Y186.127 Z13.000 F999.600
G1 X-17.640 Y188.460 Z13.000 F1999.800
G1 X-23.773 Y188.460 Z13.000 F1999.800
G1 X-23.773 Y184.540 Z13.000 F1999.800
G1 X-17.640 Y184.540 Z13.000 F1999.800
G1 X-17.640 Y186.127 Z13.000 F1999.800
G0 Z23.000
G0 X-15.100 Z23.000
G0 X-15.100 Z21.000
G1 X-15.100 Y186.127 Z13.000 F999.600
G1 X-15.100 Y190.911 Z13.000 F1999.800
G3 X-15.189 Y191.000 Z13.000 I-0.055 J0.034 K0.000 F1999.800
G1 X-26.312 Y191.000 Z13.000 F1999.800
G1 X-26.312 Y182.000 Z13.000 F1999.800
G1 X-15.189 Y182.000 Z13.000 F1999.800
G3 X-15.100 Y182.089 Z13.000 I0.034 J0.055 K0.000 F1999.800
G1 X-15.100 Y186.127 Z13.000 F1999.800
G0 Z23.000
G0 Z23.000
G0 Z23.000
G0 Z23.000
G0 Z23.000
G0 Z23.000
G0 Z23.000
G0 Z23.000
G0 X89.500 Y36.587
G0 X89.500 Y36.587 Z21.000
G1 X89.500 Y36.587 Z17.471 F999.600
G1 X116.500 Y36.587 Z17.471 F1999.800
G1 X116.500 Y46.413 Z17.471 F1999.800
G1 X89.500 Y46.413 Z17.471 F1999.800
G1 X89.500 Y36.587 Z17.471 F1999.800
G0 Z23.000
G0 X92.040 Y39.127 Z23.000
G0 X92.040 Y39.127 Z21.000
G1 X92.040 Y39.127 Z17.471 F999.600
G1 X113.960 Y39.127 Z17.471 F1999.800
G1 X113.960 Y43.873 Z17.471 F1999.800
G1 X92.040 Y43.873 Z17.471 F1999.800
G1 X92.040 Y39.127 Z17.471 F1999.800
G0 Z23.000
G0 X92.834 Y39.921 Z23.000
G0 X92.834 Y39.921 Z21.000
G1 X92.834 Y39.921 Z17.471 F999.600
G1 X113.166 Y39.921 Z17.471 F1999.800
G1 X113.166 Y43.079 Z17.471 F1999.800
G1 X92.834 Y43.079 Z17.471 F1999.800
G1 X92.834 Y39.921 Z17.471 F1999.800
G0 Z23.000
G0 X93.627 Y40.715 Z23.000
G0 X93.627 Y40.715 Z21.000
G1 X93.627 Y40.715 Z17.471 F999.600
G1 X112.373 Y40.715 Z17.471 F1999.800
G1 X112.373 Y42.285 Z17.471 F1999.800
G1 X93.627 Y42.285 Z17.471 F1999.800
G1 X93.627 Y40.715 Z17.471 F1999.800
G1 X93.627 Y40.715 Z16.942 F999.600
G1 X112.373 Y40.715 Z16.942 F1999.800
G1 X112.373 Y42.285 Z16.942 F1999.800
G1 X93.627 Y42.285 Z16.942 F1999.800
G1 X93.627 Y40.715 Z16.942 F1999.800
G0 Z23.000
G0 Y39.921 Z23.000
G0 Y39.921 Z21.000
G1 X93.627 Y39.921 Z16.942 F999.600
G1 X113.166 Y39.921 Z16.942 F1999.800
G1 X113.166 Y43.079 Z16.942 F1999.800
G1 X92.834 Y43.079 Z16.942 F1999.800
G1 X92.834 Y39.921 Z16.942 F1999.800
G1 X93.627 Y39.921 Z16.942 F1999.800
G0 Z23.000
G0 Y39.127 Z23.000
G0 Y39.127 Z21.000
G1 X93.627 Y39.127 Z16.942 F999.600
G1 X113.960 Y39.127 Z16.942 F1999.800
G1 X113.960 Y43.873 Z16.942 F1999.800
G1 X92.040 Y43.873 Z16.942 F1999.800
G1 X92.040 Y39.127 Z16.942 F1999.800
G1 X93.627 Y39.127 Z16.942 F1999.800
G0 Z23.000
G0 Y36.587 Z23.000
G0 Y36.587 Z21.000
G1 X93.627 Y36.587 Z16.942 F999.600
G1 X116.500 Y36.587 Z16.942 F1999.800
G1 X116.500 Y46.413 Z16.942 F1999.800
G1 X89.500 Y46.413 Z16.942 F1999.800
G1 X89.500 Y36.587 Z16.942 F1999.800
G1 X93.627 Y36.587 Z16.942 F1999.800
G1 X93.627 Y36.587 Z16.413 F999.600
G1 X116.500 Y36.587 Z16.413 F1999.800
G1 X116.500 Y46.413 Z16.413 F1999.800
G1 X89.500 Y46.413 Z16.413 F1999.800
G1 X89.500 Y36.587 Z16.413 F1999.800
G1 X93.627 Y36.587 Z16.413 F1999.800
G0 Z23.000
G0 Y39.127 Z23.000
G0 Y39.127 Z21.000
G1 X93.627 Y39.127 Z16.413 F999.600
G1 X113.960 Y39.127 Z16.413 F1999.800
G1 X113.960 Y43.873 Z16.413 F1999.800
G1 X92.040 Y43.873 Z16.413 F1999.800
G1 X92.040 Y39.127 Z16.413 F1999.800
G1 X93.627 Y39.127 Z16.413 F1999.800
G0 Z23.000
G0 Y39.921 Z23.000
G0 Y39.921 Z21.000
G1 X93.627 Y39.921 Z16.413 F999.600
G1 X113.166 Y39.921 Z16.413 F1999.800
G1 X113.166 Y43.079 Z16.413 F1999.800
G1 X92.834 Y43.079 Z16.413 F1999.800
G1 X92.834 Y39.921 Z16.413 F1999.800
G1 X93.627 Y39.921 Z16.413 F1999.800
G0 Z23.000
G0 Y40.715 Z23.000
G0 Y40.715 Z21.000
G1 X93.627 Y40.715 Z16.413 F999.600
G1 X112.373 Y40.715 Z16.413 F1999.800
G1 X112.373 Y42.285 Z16.413 F1999.800
G1 X93.627 Y42.285 Z16.413 F1999.800
G1 X93.627 Y40.715 Z16.413 F1999.800
G1 X93.627 Y40.715 Z15.883 F999.600
G1 X112.373 Y40.715 Z15.883 F1999.800
G1 X112.373 Y42.285 Z15.883 F1999.800
G1 X93.627 Y42.285 Z15.883 F1999.800
G1 X93.627 Y40.715 Z15.883 F1999.800
G0 Z23.000
G0 Y39.921 Z23.000
G0 Y39.921 Z21.000
G1 X93.627 Y39.921 Z15.883 F999.600
G1 X113.166 Y39.921 Z15.883 F1999.800
G1 X113.166 Y43.079 Z15.883 F1999.800
G1 X92.834 Y43.079 Z15.883 F1999.800
G1 X92.834 Y39.921 Z15.883 F1999.800
G1 X93.627 Y39.921 Z15.883 F1999.800
G0 Z23.000
G0 Y39.127 Z23.000
G0 Y39.127 Z21.000
G1 X93.627 Y39.127 Z15.883 F999.600
G1 X113.960 Y39.127 Z15.883 F1999.800
G1 X113.960 Y43.873 Z15.883 F1999.800
G1 X92.040 Y43.873 Z15.883 F1999.800
G1 X92.040 Y39.127 Z15.883 F1999.800
G1 X93.627 Y39.127 Z15.883 F1999.800
G0 Z23.000
G0 Y36.587 Z23.000
G0 Y36.587 Z21.000
G1 X93.627 Y36.587 Z15.883 F999.600
G1 X116.500 Y36.587 Z15.883 F1999.800
G1 X116.500 Y46.413 Z15.883 F1999.800
G1 X89.500 Y46.413 Z15.883 F1999.800
G1 X89.500 Y36.587 Z15.883 F1999.800
G1 X93.627 Y36.587 Z15.883 F1999.800
G1 X93.627 Y36.587 Z15.354 F999.600
G1 X116.500 Y36.587 Z15.354 F1999.800
G1 X116.500 Y46.413 Z15.354 F1999.800
G1 X89.500 Y46.413 Z15.354 F1999.800
G1 X89.500 Y36.587 Z15.354 F1999.800
G1 X93.627 Y36.587 Z15.354 F1999.800
G0 Z23.000
G0 Y39.127 Z23.000
G0 Y39.127 Z21.000
G1 X93.627 Y39.127 Z15.354 F999.600
G1 X113.960 Y39.127 Z15.354 F1999.800
G1 X113.960 Y43.873 Z15.354 F1999.800
G1 X92.040 Y43.873 Z15.354 F1999.800
G1 X92.040 Y39.127 Z15.354 F1999.800
G1 X93.627 Y39.127 Z15.354 F1999.800
G0 Z23.000
G0 Y39.921 Z23.000
G0 Y39.921 Z21.000
G1 X93.627 Y39.921 Z15.354 F999.600
G1 X113.166 Y39.921 Z15.354 F1999.800
G1 X113.166 Y43.079 Z15.354 F1999.800
G1 X92.834 Y43.079 Z15.354 F1999.800
G1 X92.834 Y39.921 Z15.354 F1999.800
G1 X93.627 Y39.921 Z15.354 F1999.800
G0 Z23.000
G0 Y40.715 Z23.000
G0 Y40.715 Z21.000
G1 X93.627 Y40.715 Z15.354 F999.600
G1 X112.373 Y40.715 Z15.354 F1999.800
G1 X112.373 Y42.285 Z15.354 F1999.800
G1 X93.627 Y42.285 Z15.354 F1999.800
G1 X93.627 Y40.715 Z15.354 F1999.800
G1 X93.627 Y40.715 Z14.825 F999.600
G1 X112.373 Y40.715 Z14.825 F1999.800
G1 X112.373 Y42.285 Z14.825 F1999.800
G1 X93.627 Y42.285 Z14.825 F1999.800
G1 X93.627 Y40.715 Z14.825 F1999.800
G0 Z23.000
G0 Y39.921 Z23.000
G0 Y39.921 Z21.000
G1 X93.627 Y39.921 Z14.825 F999.600
G1 X113.166 Y39.921 Z14.825 F1999.800
G1 X113.166 Y43.079 Z14.825 F1999.800
G1 X92.834 Y43.079 Z14.825 F1999.800
G1 X92.834 Y39.921 Z14.825 F1999.800
G1 X93.627 Y39.921 Z14.825 F1999.800
G0 Z23.000
G0 Y39.127 Z23.000
G0 Y39.127 Z21.000
G1 X93.627 Y39.127 Z14.825 F999.600
G1 X113.960 Y39.127 Z14.825 F1999.800
G1 X113.960 Y43.873 Z14.825 F1999.800
G1 X92.040 Y43.873 Z14.825 F1999.800
G1 X92.040 Y39.127 Z14.825 F1999.800
G1 X93.627 Y39.127 Z14.825 F1999.800
G0 Z23.000
G0 Y36.587 Z23.000
G0 Y36.587 Z21.000
G1 X93.627 Y36.587 Z14.825 F999.600
G1 X116.500 Y36.587 Z14.825 F1999.800
G1 X116.500 Y46.413 Z14.825 F1999.800
G1 X89.500 Y46.413 Z14.825 F1999.800
G1 X89.500 Y36.587 Z14.825 F1999.800
G1 X93.627 Y36.587 Z14.825 F1999.800
G1 X93.627 Y36.587 Z14.296 F999.600
G1 X116.500 Y36.587 Z14.296 F1999.800
G1 X116.500 Y46.413 Z14.296 F1999.800
G1 X89.500 Y46.413 Z14.296 F1999.800
G1 X89.500 Y36.587 Z14.296 F1999.800
G1 X93.627 Y36.587 Z14.296 F1999.800
G0 Z23.000
G0 Y39.127 Z23.000
G0 Y39.127 Z21.000
G1 X93.627 Y39.127 Z14.296 F999.600
G1 X113.960 Y39.127 Z14.296 F1999.800
G1 X113.960 Y43.873 Z14.296 F1999.800
G1 X92.040 Y43.873 Z14.296 F1999.800
G1 X92.040 Y39.127 Z14.296 F1999.800
G1 X93.627 Y39.127 Z14.296 F1999.800
G0 Z23.000
G0 Y39.921 Z23.000
G0 Y39.921 Z21.000
G1 X93.627 Y39.921 Z14.296 F999.600
G1 X113.166 Y39.921 Z14.296 F1999.800
G1 X113.166 Y43.079 Z14.296 F1999.800
G1 X92.834 Y43.079 Z14.296 F1999.800
G1 X92.834 Y39.921 Z14.296 F1999.800
G1 X93.627 Y39.921 Z14.296 F1999.800
G0 Z23.000
G0 Y40.715 Z23.000
G0 Y40.715 Z21.000
G1 X93.627 Y40.715 Z14.296 F999.600
G1 X112.373 Y40.715 Z14.296 F1999.800
G1 X112.373 Y42.285 Z14.296 F1999.800
G1 X93.627 Y42.285 Z14.296 F1999.800
G1 X93.627 Y40.715 Z14.296 F1999.800
G1 X93.627 Y40.715 Z13.767 F999.600
G1 X112.373 Y40.715 Z13.767 F1999.800
G1 X112.373 Y42.285 Z13.767 F1999.800
G1 X93.627 Y42.285 Z13.767 F1999.800
G1 X93.627 Y40.715 Z13.767 F1999.800
G0 Z23.000
G0 Y39.921 Z23.000
G0 Y39.921 Z21.000
G1 X93.627 Y39.921 Z13.767 F999.600
G1 X113.166 Y39.921 Z13.767 F1999.800
G1 X113.166 Y43.079 Z13.767 F1999.800
G1 X92.834 Y43.079 Z13.767 F1999.800
G1 X92.834 Y39.921 Z13.767 F1999.800
G1 X93.627 Y39.921 Z13.767 F1999.800
G0 Z23.000
G0 Y39.127 Z23.000
G0 Y39.127 Z21.000
G1 X93.627 Y39.127 Z13.767 F999.600
G1 X113.960 Y39.127 Z13.767 F1999.800
G1 X113.960 Y43.873 Z13.767 F1999.800
G1 X92.040 Y43.873 Z13.767 F1999.800
G1 X92.040 Y39.127 Z13.767 F1999.800
G1 X93.627 Y39.127 Z13.767 F1999.800
G0 Z23.000
G0 Y36.587 Z23.000
G0 Y36.587 Z21.000
G1 X93.627 Y36.587 Z13.767 F999.600
G1 X116.500 Y36.587 Z13.767 F1999.800
G1 X116.500 Y46.413 Z13.767 F1999.800
G1 X89.500 Y46.413 Z13.767 F1999.800
G1 X89.500 Y36.587 Z13.767 F1999.800
G1 X93.627 Y36.587 Z13.767 F1999.800
G1 X93.627 Y36.587 Z13.238 F999.600
G1 X116.500 Y36.587 Z13.238 F1999.800
G1 X116.500 Y46.413 Z13.238 F1999.800
G1 X89.500 Y46.413 Z13.238 F1999.800
G1 X89.500 Y36.587 Z13.238 F1999.800
G1 X93.627 Y36.587 Z13.238 F1999.800
G0 Z23.000
G0 Y39.127 Z23.000
G0 Y39.127 Z21.000
G1 X93.627 Y39.127 Z13.238 F999.600
G1 X113.960 Y39.127 Z13.238 F1999.800
G1 X113.960 Y43.873 Z13.238 F1999.800
G1 X92.040 Y43.873 Z13.238 F1999.800
G1 X92.040 Y39.127 Z13.238 F1999.800
G1 X93.627 Y39.127 Z13.238 F1999.800
G0 Z23.000
G0 Y39.921 Z23.000
G0 Y39.921 Z21.000
G1 X93.627 Y39.921 Z13.238 F999.600
G1 X113.166 Y39.921 Z13.238 F1999.800
G1 X113.166 Y43.079 Z13.238 F1999.800
G1 X92.834 Y43.079 Z13.238 F1999.800
G1 X92.834 Y39.921 Z13.238 F1999.800
G1 X93.627 Y39.921 Z13.238 F1999.800
G0 Z23.000
G0 Y40.715 Z23.000
G0 Y40.715 Z21.000
G1 X93.627 Y40.715 Z13.238 F999.600
G1 X112.373 Y40.715 Z13.238 F1999.800
G1 X112.373 Y42.285 Z13.238 F1999.800
G1 X93.627 Y42.285 Z13.238 F1999.800
G1 X93.627 Y40.715 Z13.238 F1999.800
G1 X93.627 Y40.715 Z13.000 F999.600
G1 X112.373 Y40.715 Z13.000 F1999.800
G1 X112.373 Y42.285 Z13.000 F1999.800
G1 X93.627 Y42.285 Z13.000 F1999.800
G1 X93.627 Y40.715 Z13.000 F1999.800
G0 Z23.000
G0 Y39.921 Z23.000
G0 Y39.921 Z21.000
G1 X93.627 Y39.921 Z13.000 F999.600
G1 X113.166 Y39.921 Z13.000 F1999.800
G1 X113.166 Y43.079 Z13.000 F1999.800
G1 X92.834 Y43.079 Z13.000 F1999.800
G1 X92.834 Y39.921 Z13.000 F1999.800
G1 X93.627 Y39.921 Z13.000 F1999.800
G0 Z23.000
G0 Y39.127 Z23.000
G0 Y39.127 Z21.000
G1 X93.627 Y39.127 Z13.000 F999.600
G1 X113.960 Y39.127 Z13.000 F1999.800
G1 X113.960 Y43.873 Z13.000 F1999.800
G1 X92.040 Y43.873 Z13.000 F1999.800
G1 X92.040 Y39.127 Z13.000 F1999.800
G1 X93.627 Y39.127 Z13.000 F1999.800
G0 Z23.000
G0 Y36.587 Z23.000
G0 Y36.587 Z21.000
G1 X93.627 Y36.587 Z13.000 F999.600
G1 X116.500 Y36.587 Z13.000 F1999.800
G1 X116.500 Y46.413 Z13.000 F1999.800
G1 X89.500 Y46.413 Z13.000 F1999.800
G1 X89.500 Y36.587 Z13.000 F1999.800
G1 X93.627 Y36.587 Z13.000 F1999.800
G0 Z23.000
G0 Z23.000
(Finish operation: Side_Grooves)
(Begin postamble)
M5
G17 G90
M2
