(Exported by FreeCAD)
(Post Processor: grbl_post)
(Output Time:2020-10-04 15:41:32.887978)
(Begin preamble)
G17 G90
G21
(Begin operation: Fixture)
(Path: Fixture)
G54
(Finish operation: Fixture)
(Begin operation: T6: 2FluteWoodMill002)
(Path: T6: 2FluteWoodMill002)
(T6: 2FluteWoodMill002)
(Begin toolchange)
(M6 T6.0)
M3 S18000.0
G4 P5
(Finish operation: T6: 2FluteWoodMill002)
(Begin operation: Tray_Body_Groove)
(Path: Tray_Body_Groove)
(Tray_Body_Groove)
G0 Z23.500
G0 X-141.990 Y189.946
G0 Z21.500
G1 X-141.990 Y189.946 Z18.104 F999.600
G3 X-142.089 Y190.000 Z18.104 I-0.065 J-0.000 K0.000 F1200.000
G1 X-145.415 Y190.000 Z18.104 F1200.000
G1 X-145.415 Y0.000 Z18.104 F1200.000
G1 X-142.089 Y0.000 Z18.104 F1200.000
G3 X-142.000 Y0.089 Z18.104 I0.034 J0.055 K0.000 F1200.000
G1 X-142.000 Y25.415 Z18.104 F1200.000
G2 X-140.415 Y27.000 Z18.104 I1.585 J-0.000 K0.000 F1200.000
G1 X-130.585 Y27.000 Z18.104 F1200.000
G1 X-130.585 Y163.000 Z18.104 F1200.000
G1 X-140.415 Y163.000 Z18.104 F1200.000
G2 X-142.000 Y164.585 Z18.104 I0.000 J1.585 K0.000 F1200.000
G1 X-142.000 Y189.911 Z18.104 F1200.000
G3 X-141.990 Y189.946 Z18.104 I-0.055 J0.034 K0.000 F1200.000
G0 Z23.500
G0 X-143.037 Y161.622 Z23.500
G0 X-143.037 Y161.622 Z21.500
G1 X-143.037 Y161.622 Z18.104 F999.600
G1 X-143.037 Y28.382 Z18.104 F1200.000
G2 X-140.415 Y29.378 Z18.104 I2.620 J-2.951 K0.000 F1200.000
G1 X-132.963 Y29.378 Z18.104 F1200.000
G1 X-132.963 Y160.622 Z18.104 F1200.000
G1 X-140.415 Y160.622 Z18.104 F1200.000
G2 X-143.037 Y161.622 Z18.104 I-0.011 J3.909 K0.000 F1200.000
G0 Z23.500
G0 X-140.660 Y158.259 Z23.500
G0 X-140.660 Y158.259 Z21.500
G1 X-140.660 Y158.259 Z18.104 F999.600
G1 X-140.660 Y31.741 Z18.104 F1200.000
G1 X-140.415 Y31.755 Z18.104 F1200.000
G1 X-135.340 Y31.755 Z18.104 F1200.000
G1 X-135.340 Y158.245 Z18.104 F1200.000
G1 X-140.415 Y158.245 Z18.104 F1200.000
G1 X-140.660 Y158.259 Z18.104 F1200.000
G0 Z23.500
G0 X-138.282 Y155.867 Z23.500
G0 X-138.282 Y155.867 Z21.500
G1 X-138.282 Y155.867 Z18.104 F999.600
G1 X-138.282 Y34.133 Z18.104 F1200.000
G1 X-137.718 Y34.133 Z18.104 F1200.000
G1 X-137.718 Y155.867 Z18.104 F1200.000
G1 X-138.282 Y155.867 Z18.104 F1200.000
G1 X-138.282 Y155.867 Z17.707 F999.600
G1 X-138.282 Y34.133 Z17.707 F1200.000
G1 X-137.718 Y34.133 Z17.707 F1200.000
G1 X-137.718 Y155.867 Z17.707 F1200.000
G1 X-138.282 Y155.867 Z17.707 F1200.000
G0 Z23.500
G0 X-140.660 Z23.500
G0 X-140.660 Z21.500
G1 X-140.660 Y155.867 Z17.707 F999.600
G1 X-140.660 Y31.741 Z17.707 F1200.000
G1 X-140.415 Y31.755 Z17.707 F1200.000
G1 X-135.340 Y31.755 Z17.707 F1200.000
G1 X-135.340 Y158.245 Z17.707 F1200.000
G1 X-140.415 Y158.245 Z17.707 F1200.000
G1 X-140.660 Y158.259 Z17.707 F1200.000
G1 X-140.660 Y155.867 Z17.707 F1200.000
G0 Z23.500
G0 X-143.037 Z23.500
G0 X-143.037 Z21.500
G1 X-143.037 Y155.867 Z17.707 F999.600
G1 X-143.037 Y28.382 Z17.707 F1200.000
G2 X-140.415 Y29.378 Z17.707 I2.620 J-2.951 K0.000 F1200.000
G1 X-132.963 Y29.378 Z17.707 F1200.000
G1 X-132.963 Y160.622 Z17.707 F1200.000
G1 X-140.415 Y160.622 Z17.707 F1200.000
G2 X-143.037 Y161.622 Z17.707 I-0.011 J3.909 K0.000 F1200.000
G1 X-143.037 Y155.867 Z17.707 F1200.000
G0 Z23.500
G0 X-145.415 Z23.500
G0 X-145.415 Z21.500
G1 X-145.415 Y155.867 Z17.707 F999.600
G1 X-145.415 Y0.000 Z17.707 F1200.000
G1 X-142.089 Y0.000 Z17.707 F1200.000
G3 X-142.000 Y0.089 Z17.707 I0.034 J0.055 K0.000 F1200.000
G1 X-142.000 Y25.415 Z17.707 F1200.000
G2 X-140.415 Y27.000 Z17.707 I1.585 J-0.000 K0.000 F1200.000
G1 X-130.585 Y27.000 Z17.707 F1200.000
G1 X-130.585 Y163.000 Z17.707 F1200.000
G1 X-140.415 Y163.000 Z17.707 F1200.000
G2 X-142.000 Y164.585 Z17.707 I0.000 J1.585 K0.000 F1200.000
G1 X-142.000 Y189.911 Z17.707 F1200.000
G3 X-142.089 Y190.000 Z17.707 I-0.055 J0.034 K0.000 F1200.000
G1 X-145.415 Y190.000 Z17.707 F1200.000
G1 X-145.415 Y155.867 Z17.707 F1200.000
G1 X-145.415 Y155.867 Z17.311 F999.600
G1 X-145.415 Y0.000 Z17.311 F1200.000
G1 X-142.089 Y0.000 Z17.311 F1200.000
G3 X-142.000 Y0.089 Z17.311 I0.034 J0.055 K0.000 F1200.000
G1 X-142.000 Y25.415 Z17.311 F1200.000
G2 X-140.415 Y27.000 Z17.311 I1.585 J-0.000 K0.000 F1200.000
G1 X-130.585 Y27.000 Z17.311 F1200.000
G1 X-130.585 Y163.000 Z17.311 F1200.000
G1 X-140.415 Y163.000 Z17.311 F1200.000
G2 X-142.000 Y164.585 Z17.311 I0.000 J1.585 K0.000 F1200.000
G1 X-142.000 Y189.911 Z17.311 F1200.000
G3 X-142.089 Y190.000 Z17.311 I-0.055 J0.034 K0.000 F1200.000
G1 X-145.415 Y190.000 Z17.311 F1200.000
G1 X-145.415 Y155.867 Z17.311 F1200.000
G0 Z23.500
G0 X-143.037 Z23.500
G0 X-143.037 Z21.500
G1 X-143.037 Y155.867 Z17.311 F999.600
G1 X-143.037 Y28.382 Z17.311 F1200.000
G2 X-140.415 Y29.378 Z17.311 I2.620 J-2.951 K0.000 F1200.000
G1 X-132.963 Y29.378 Z17.311 F1200.000
G1 X-132.963 Y160.622 Z17.311 F1200.000
G1 X-140.415 Y160.622 Z17.311 F1200.000
G2 X-143.037 Y161.622 Z17.311 I-0.011 J3.909 K0.000 F1200.000
G1 X-143.037 Y155.867 Z17.311 F1200.000
G0 Z23.500
G0 X-140.660 Z23.500
G0 X-140.660 Z21.500
G1 X-140.660 Y155.867 Z17.311 F999.600
G1 X-140.660 Y31.741 Z17.311 F1200.000
G1 X-140.415 Y31.755 Z17.311 F1200.000
G1 X-135.340 Y31.755 Z17.311 F1200.000
G1 X-135.340 Y158.245 Z17.311 F1200.000
G1 X-140.415 Y158.245 Z17.311 F1200.000
G1 X-140.660 Y158.259 Z17.311 F1200.000
G1 X-140.660 Y155.867 Z17.311 F1200.000
G0 Z23.500
G0 X-138.282 Z23.500
G0 X-138.282 Z21.500
G1 X-138.282 Y155.867 Z17.311 F999.600
G1 X-138.282 Y34.133 Z17.311 F1200.000
G1 X-137.718 Y34.133 Z17.311 F1200.000
G1 X-137.718 Y155.867 Z17.311 F1200.000
G1 X-138.282 Y155.867 Z17.311 F1200.000
G1 X-138.282 Y155.867 Z16.915 F999.600
G1 X-138.282 Y34.133 Z16.915 F1200.000
G1 X-137.718 Y34.133 Z16.915 F1200.000
G1 X-137.718 Y155.867 Z16.915 F1200.000
G1 X-138.282 Y155.867 Z16.915 F1200.000
G0 Z23.500
G0 X-140.660 Z23.500
G0 X-140.660 Z21.500
G1 X-140.660 Y155.867 Z16.915 F999.600
G1 X-140.660 Y31.741 Z16.915 F1200.000
G1 X-140.415 Y31.755 Z16.915 F1200.000
G1 X-135.340 Y31.755 Z16.915 F1200.000
G1 X-135.340 Y158.245 Z16.915 F1200.000
G1 X-140.415 Y158.245 Z16.915 F1200.000
G1 X-140.660 Y158.259 Z16.915 F1200.000
G1 X-140.660 Y155.867 Z16.915 F1200.000
G0 Z23.500
G0 X-143.037 Z23.500
G0 X-143.037 Z21.500
G1 X-143.037 Y155.867 Z16.915 F999.600
G1 X-143.037 Y28.382 Z16.915 F1200.000
G2 X-140.415 Y29.378 Z16.915 I2.620 J-2.951 K0.000 F1200.000
G1 X-132.963 Y29.378 Z16.915 F1200.000
G1 X-132.963 Y160.622 Z16.915 F1200.000
G1 X-140.415 Y160.622 Z16.915 F1200.000
G2 X-143.037 Y161.622 Z16.915 I-0.011 J3.909 K0.000 F1200.000
G1 X-143.037 Y155.867 Z16.915 F1200.000
G0 Z23.500
G0 X-145.415 Z23.500
G0 X-145.415 Z21.500
G1 X-145.415 Y155.867 Z16.915 F999.600
G1 X-145.415 Y0.000 Z16.915 F1200.000
G1 X-142.089 Y0.000 Z16.915 F1200.000
G3 X-142.000 Y0.089 Z16.915 I0.034 J0.055 K0.000 F1200.000
G1 X-142.000 Y25.415 Z16.915 F1200.000
G2 X-140.415 Y27.000 Z16.915 I1.585 J-0.000 K0.000 F1200.000
G1 X-130.585 Y27.000 Z16.915 F1200.000
G1 X-130.585 Y163.000 Z16.915 F1200.000
G1 X-140.415 Y163.000 Z16.915 F1200.000
G2 X-142.000 Y164.585 Z16.915 I0.000 J1.585 K0.000 F1200.000
G1 X-142.000 Y189.911 Z16.915 F1200.000
G3 X-142.089 Y190.000 Z16.915 I-0.055 J0.034 K0.000 F1200.000
G1 X-145.415 Y190.000 Z16.915 F1200.000
G1 X-145.415 Y155.867 Z16.915 F1200.000
G1 X-145.415 Y155.867 Z16.519 F999.600
G1 X-145.415 Y0.000 Z16.519 F1200.000
G1 X-142.089 Y0.000 Z16.519 F1200.000
G3 X-142.000 Y0.089 Z16.519 I0.034 J0.055 K0.000 F1200.000
G1 X-142.000 Y25.415 Z16.519 F1200.000
G2 X-140.415 Y27.000 Z16.519 I1.585 J-0.000 K0.000 F1200.000
G1 X-130.585 Y27.000 Z16.519 F1200.000
G1 X-130.585 Y163.000 Z16.519 F1200.000
G1 X-140.415 Y163.000 Z16.519 F1200.000
G2 X-142.000 Y164.585 Z16.519 I0.000 J1.585 K0.000 F1200.000
G1 X-142.000 Y189.911 Z16.519 F1200.000
G3 X-142.089 Y190.000 Z16.519 I-0.055 J0.034 K0.000 F1200.000
G1 X-145.415 Y190.000 Z16.519 F1200.000
G1 X-145.415 Y155.867 Z16.519 F1200.000
G0 Z23.500
G0 X-143.037 Z23.500
G0 X-143.037 Z21.500
G1 X-143.037 Y155.867 Z16.519 F999.600
G1 X-143.037 Y28.382 Z16.519 F1200.000
G2 X-140.415 Y29.378 Z16.519 I2.620 J-2.951 K0.000 F1200.000
G1 X-132.963 Y29.378 Z16.519 F1200.000
G1 X-132.963 Y160.622 Z16.519 F1200.000
G1 X-140.415 Y160.622 Z16.519 F1200.000
G2 X-143.037 Y161.622 Z16.519 I-0.011 J3.909 K0.000 F1200.000
G1 X-143.037 Y155.867 Z16.519 F1200.000
G0 Z23.500
G0 X-140.660 Z23.500
G0 X-140.660 Z21.500
G1 X-140.660 Y155.867 Z16.519 F999.600
G1 X-140.660 Y31.741 Z16.519 F1200.000
G1 X-140.415 Y31.755 Z16.519 F1200.000
G1 X-135.340 Y31.755 Z16.519 F1200.000
G1 X-135.340 Y158.245 Z16.519 F1200.000
G1 X-140.415 Y158.245 Z16.519 F1200.000
G1 X-140.660 Y158.259 Z16.519 F1200.000
G1 X-140.660 Y155.867 Z16.519 F1200.000
G0 Z23.500
G0 X-138.282 Z23.500
G0 X-138.282 Z21.500
G1 X-138.282 Y155.867 Z16.519 F999.600
G1 X-138.282 Y34.133 Z16.519 F1200.000
G1 X-137.718 Y34.133 Z16.519 F1200.000
G1 X-137.718 Y155.867 Z16.519 F1200.000
G1 X-138.282 Y155.867 Z16.519 F1200.000
G1 X-138.282 Y155.867 Z16.122 F999.600
G1 X-138.282 Y34.133 Z16.122 F1200.000
G1 X-137.718 Y34.133 Z16.122 F1200.000
G1 X-137.718 Y155.867 Z16.122 F1200.000
G1 X-138.282 Y155.867 Z16.122 F1200.000
G0 Z23.500
G0 X-140.660 Z23.500
G0 X-140.660 Z21.500
G1 X-140.660 Y155.867 Z16.122 F999.600
G1 X-140.660 Y31.741 Z16.122 F1200.000
G1 X-140.415 Y31.755 Z16.122 F1200.000
G1 X-135.340 Y31.755 Z16.122 F1200.000
G1 X-135.340 Y158.245 Z16.122 F1200.000
G1 X-140.415 Y158.245 Z16.122 F1200.000
G1 X-140.660 Y158.259 Z16.122 F1200.000
G1 X-140.660 Y155.867 Z16.122 F1200.000
G0 Z23.500
G0 X-143.037 Z23.500
G0 X-143.037 Z21.500
G1 X-143.037 Y155.867 Z16.122 F999.600
G1 X-143.037 Y28.382 Z16.122 F1200.000
G2 X-140.415 Y29.378 Z16.122 I2.620 J-2.951 K0.000 F1200.000
G1 X-132.963 Y29.378 Z16.122 F1200.000
G1 X-132.963 Y160.622 Z16.122 F1200.000
G1 X-140.415 Y160.622 Z16.122 F1200.000
G2 X-143.037 Y161.622 Z16.122 I-0.011 J3.909 K0.000 F1200.000
G1 X-143.037 Y155.867 Z16.122 F1200.000
G0 Z23.500
G0 X-145.415 Z23.500
G0 X-145.415 Z21.500
G1 X-145.415 Y155.867 Z16.122 F999.600
G1 X-145.415 Y0.000 Z16.122 F1200.000
G1 X-142.089 Y0.000 Z16.122 F1200.000
G3 X-142.000 Y0.089 Z16.122 I0.034 J0.055 K0.000 F1200.000
G1 X-142.000 Y25.415 Z16.122 F1200.000
G2 X-140.415 Y27.000 Z16.122 I1.585 J-0.000 K0.000 F1200.000
G1 X-130.585 Y27.000 Z16.122 F1200.000
G1 X-130.585 Y163.000 Z16.122 F1200.000
G1 X-140.415 Y163.000 Z16.122 F1200.000
G2 X-142.000 Y164.585 Z16.122 I0.000 J1.585 K0.000 F1200.000
G1 X-142.000 Y189.911 Z16.122 F1200.000
G3 X-142.089 Y190.000 Z16.122 I-0.055 J0.034 K0.000 F1200.000
G1 X-145.415 Y190.000 Z16.122 F1200.000
G1 X-145.415 Y155.867 Z16.122 F1200.000
G1 X-145.415 Y155.867 Z15.726 F999.600
G1 X-145.415 Y0.000 Z15.726 F1200.000
G1 X-142.089 Y0.000 Z15.726 F1200.000
G3 X-142.000 Y0.089 Z15.726 I0.034 J0.055 K0.000 F1200.000
G1 X-142.000 Y25.415 Z15.726 F1200.000
G2 X-140.415 Y27.000 Z15.726 I1.585 J-0.000 K0.000 F1200.000
G1 X-130.585 Y27.000 Z15.726 F1200.000
G1 X-130.585 Y163.000 Z15.726 F1200.000
G1 X-140.415 Y163.000 Z15.726 F1200.000
G2 X-142.000 Y164.585 Z15.726 I0.000 J1.585 K0.000 F1200.000
G1 X-142.000 Y189.911 Z15.726 F1200.000
G3 X-142.089 Y190.000 Z15.726 I-0.055 J0.034 K0.000 F1200.000
G1 X-145.415 Y190.000 Z15.726 F1200.000
G1 X-145.415 Y155.867 Z15.726 F1200.000
G0 Z23.500
G0 X-143.037 Z23.500
G0 X-143.037 Z21.500
G1 X-143.037 Y155.867 Z15.726 F999.600
G1 X-143.037 Y28.382 Z15.726 F1200.000
G2 X-140.415 Y29.378 Z15.726 I2.620 J-2.951 K0.000 F1200.000
G1 X-132.963 Y29.378 Z15.726 F1200.000
G1 X-132.963 Y160.622 Z15.726 F1200.000
G1 X-140.415 Y160.622 Z15.726 F1200.000
G2 X-143.037 Y161.622 Z15.726 I-0.011 J3.909 K0.000 F1200.000
G1 X-143.037 Y155.867 Z15.726 F1200.000
G0 Z23.500
G0 X-140.660 Z23.500
G0 X-140.660 Z21.500
G1 X-140.660 Y155.867 Z15.726 F999.600
G1 X-140.660 Y31.741 Z15.726 F1200.000
G1 X-140.415 Y31.755 Z15.726 F1200.000
G1 X-135.340 Y31.755 Z15.726 F1200.000
G1 X-135.340 Y158.245 Z15.726 F1200.000
G1 X-140.415 Y158.245 Z15.726 F1200.000
G1 X-140.660 Y158.259 Z15.726 F1200.000
G1 X-140.660 Y155.867 Z15.726 F1200.000
G0 Z23.500
G0 X-138.282 Z23.500
G0 X-138.282 Z21.500
G1 X-138.282 Y155.867 Z15.726 F999.600
G1 X-138.282 Y34.133 Z15.726 F1200.000
G1 X-137.718 Y34.133 Z15.726 F1200.000
G1 X-137.718 Y155.867 Z15.726 F1200.000
G1 X-138.282 Y155.867 Z15.726 F1200.000
G1 X-138.282 Y155.867 Z15.330 F999.600
G1 X-138.282 Y34.133 Z15.330 F1200.000
G1 X-137.718 Y34.133 Z15.330 F1200.000
G1 X-137.718 Y155.867 Z15.330 F1200.000
G1 X-138.282 Y155.867 Z15.330 F1200.000
G0 Z23.500
G0 X-140.660 Z23.500
G0 X-140.660 Z21.500
G1 X-140.660 Y155.867 Z15.330 F999.600
G1 X-140.660 Y31.741 Z15.330 F1200.000
G1 X-140.415 Y31.755 Z15.330 F1200.000
G1 X-135.340 Y31.755 Z15.330 F1200.000
G1 X-135.340 Y158.245 Z15.330 F1200.000
G1 X-140.415 Y158.245 Z15.330 F1200.000
G1 X-140.660 Y158.259 Z15.330 F1200.000
G1 X-140.660 Y155.867 Z15.330 F1200.000
G0 Z23.500
G0 X-143.037 Z23.500
G0 X-143.037 Z21.500
G1 X-143.037 Y155.867 Z15.330 F999.600
G1 X-143.037 Y28.382 Z15.330 F1200.000
G2 X-140.415 Y29.378 Z15.330 I2.620 J-2.951 K0.000 F1200.000
G1 X-132.963 Y29.378 Z15.330 F1200.000
G1 X-132.963 Y160.622 Z15.330 F1200.000
G1 X-140.415 Y160.622 Z15.330 F1200.000
G2 X-143.037 Y161.622 Z15.330 I-0.011 J3.909 K0.000 F1200.000
G1 X-143.037 Y155.867 Z15.330 F1200.000
G0 Z23.500
G0 X-145.415 Z23.500
G0 X-145.415 Z21.500
G1 X-145.415 Y155.867 Z15.330 F999.600
G1 X-145.415 Y0.000 Z15.330 F1200.000
G1 X-142.089 Y0.000 Z15.330 F1200.000
G3 X-142.000 Y0.089 Z15.330 I0.034 J0.055 K0.000 F1200.000
G1 X-142.000 Y25.415 Z15.330 F1200.000
G2 X-140.415 Y27.000 Z15.330 I1.585 J-0.000 K0.000 F1200.000
G1 X-130.585 Y27.000 Z15.330 F1200.000
G1 X-130.585 Y163.000 Z15.330 F1200.000
G1 X-140.415 Y163.000 Z15.330 F1200.000
G2 X-142.000 Y164.585 Z15.330 I0.000 J1.585 K0.000 F1200.000
G1 X-142.000 Y189.911 Z15.330 F1200.000
G3 X-142.089 Y190.000 Z15.330 I-0.055 J0.034 K0.000 F1200.000
G1 X-145.415 Y190.000 Z15.330 F1200.000
G1 X-145.415 Y155.867 Z15.330 F1200.000
G1 X-145.415 Y155.867 Z14.934 F999.600
G1 X-145.415 Y0.000 Z14.934 F1200.000
G1 X-142.089 Y0.000 Z14.934 F1200.000
G3 X-142.000 Y0.089 Z14.934 I0.034 J0.055 K0.000 F1200.000
G1 X-142.000 Y25.415 Z14.934 F1200.000
G2 X-140.415 Y27.000 Z14.934 I1.585 J-0.000 K0.000 F1200.000
G1 X-130.585 Y27.000 Z14.934 F1200.000
G1 X-130.585 Y163.000 Z14.934 F1200.000
G1 X-140.415 Y163.000 Z14.934 F1200.000
G2 X-142.000 Y164.585 Z14.934 I0.000 J1.585 K0.000 F1200.000
G1 X-142.000 Y189.911 Z14.934 F1200.000
G3 X-142.089 Y190.000 Z14.934 I-0.055 J0.034 K0.000 F1200.000
G1 X-145.415 Y190.000 Z14.934 F1200.000
G1 X-145.415 Y155.867 Z14.934 F1200.000
G0 Z23.500
G0 X-143.037 Z23.500
G0 X-143.037 Z21.500
G1 X-143.037 Y155.867 Z14.934 F999.600
G1 X-143.037 Y28.382 Z14.934 F1200.000
G2 X-140.415 Y29.378 Z14.934 I2.620 J-2.951 K0.000 F1200.000
G1 X-132.963 Y29.378 Z14.934 F1200.000
G1 X-132.963 Y160.622 Z14.934 F1200.000
G1 X-140.415 Y160.622 Z14.934 F1200.000
G2 X-143.037 Y161.622 Z14.934 I-0.011 J3.909 K0.000 F1200.000
G1 X-143.037 Y155.867 Z14.934 F1200.000
G0 Z23.500
G0 X-140.660 Z23.500
G0 X-140.660 Z21.500
G1 X-140.660 Y155.867 Z14.934 F999.600
G1 X-140.660 Y31.741 Z14.934 F1200.000
G1 X-140.415 Y31.755 Z14.934 F1200.000
G1 X-135.340 Y31.755 Z14.934 F1200.000
G1 X-135.340 Y158.245 Z14.934 F1200.000
G1 X-140.415 Y158.245 Z14.934 F1200.000
G1 X-140.660 Y158.259 Z14.934 F1200.000
G1 X-140.660 Y155.867 Z14.934 F1200.000
G0 Z23.500
G0 X-138.282 Z23.500
G0 X-138.282 Z21.500
G1 X-138.282 Y155.867 Z14.934 F999.600
G1 X-138.282 Y34.133 Z14.934 F1200.000
G1 X-137.718 Y34.133 Z14.934 F1200.000
G1 X-137.718 Y155.867 Z14.934 F1200.000
G1 X-138.282 Y155.867 Z14.934 F1200.000
G1 X-138.282 Y155.867 Z14.537 F999.600
G1 X-138.282 Y34.133 Z14.537 F1200.000
G1 X-137.718 Y34.133 Z14.537 F1200.000
G1 X-137.718 Y155.867 Z14.537 F1200.000
G1 X-138.282 Y155.867 Z14.537 F1200.000
G0 Z23.500
G0 X-140.660 Z23.500
G0 X-140.660 Z21.500
G1 X-140.660 Y155.867 Z14.537 F999.600
G1 X-140.660 Y31.741 Z14.537 F1200.000
G1 X-140.415 Y31.755 Z14.537 F1200.000
G1 X-135.340 Y31.755 Z14.537 F1200.000
G1 X-135.340 Y158.245 Z14.537 F1200.000
G1 X-140.415 Y158.245 Z14.537 F1200.000
G1 X-140.660 Y158.259 Z14.537 F1200.000
G1 X-140.660 Y155.867 Z14.537 F1200.000
G0 Z23.500
G0 X-143.037 Z23.500
G0 X-143.037 Z21.500
G1 X-143.037 Y155.867 Z14.537 F999.600
G1 X-143.037 Y28.382 Z14.537 F1200.000
G2 X-140.415 Y29.378 Z14.537 I2.620 J-2.951 K0.000 F1200.000
G1 X-132.963 Y29.378 Z14.537 F1200.000
G1 X-132.963 Y160.622 Z14.537 F1200.000
G1 X-140.415 Y160.622 Z14.537 F1200.000
G2 X-143.037 Y161.622 Z14.537 I-0.011 J3.909 K0.000 F1200.000
G1 X-143.037 Y155.867 Z14.537 F1200.000
G0 Z23.500
G0 X-145.415 Z23.500
G0 X-145.415 Z21.500
G1 X-145.415 Y155.867 Z14.537 F999.600
G1 X-145.415 Y0.000 Z14.537 F1200.000
G1 X-142.089 Y0.000 Z14.537 F1200.000
G3 X-142.000 Y0.089 Z14.537 I0.034 J0.055 K0.000 F1200.000
G1 X-142.000 Y25.415 Z14.537 F1200.000
G2 X-140.415 Y27.000 Z14.537 I1.585 J-0.000 K0.000 F1200.000
G1 X-130.585 Y27.000 Z14.537 F1200.000
G1 X-130.585 Y163.000 Z14.537 F1200.000
G1 X-140.415 Y163.000 Z14.537 F1200.000
G2 X-142.000 Y164.585 Z14.537 I0.000 J1.585 K0.000 F1200.000
G1 X-142.000 Y189.911 Z14.537 F1200.000
G3 X-142.089 Y190.000 Z14.537 I-0.055 J0.034 K0.000 F1200.000
G1 X-145.415 Y190.000 Z14.537 F1200.000
G1 X-145.415 Y155.867 Z14.537 F1200.000
G1 X-145.415 Y155.867 Z14.141 F999.600
G1 X-145.415 Y0.000 Z14.141 F1200.000
G1 X-142.089 Y0.000 Z14.141 F1200.000
G3 X-142.000 Y0.089 Z14.141 I0.034 J0.055 K0.000 F1200.000
G1 X-142.000 Y25.415 Z14.141 F1200.000
G2 X-140.415 Y27.000 Z14.141 I1.585 J-0.000 K0.000 F1200.000
G1 X-130.585 Y27.000 Z14.141 F1200.000
G1 X-130.585 Y163.000 Z14.141 F1200.000
G1 X-140.415 Y163.000 Z14.141 F1200.000
G2 X-142.000 Y164.585 Z14.141 I0.000 J1.585 K0.000 F1200.000
G1 X-142.000 Y189.911 Z14.141 F1200.000
G3 X-142.089 Y190.000 Z14.141 I-0.055 J0.034 K0.000 F1200.000
G1 X-145.415 Y190.000 Z14.141 F1200.000
G1 X-145.415 Y155.867 Z14.141 F1200.000
G0 Z23.500
G0 X-143.037 Z23.500
G0 X-143.037 Z21.500
G1 X-143.037 Y155.867 Z14.141 F999.600
G1 X-143.037 Y28.382 Z14.141 F1200.000
G2 X-140.415 Y29.378 Z14.141 I2.620 J-2.951 K0.000 F1200.000
G1 X-132.963 Y29.378 Z14.141 F1200.000
G1 X-132.963 Y160.622 Z14.141 F1200.000
G1 X-140.415 Y160.622 Z14.141 F1200.000
G2 X-143.037 Y161.622 Z14.141 I-0.011 J3.909 K0.000 F1200.000
G1 X-143.037 Y155.867 Z14.141 F1200.000
G0 Z23.500
G0 X-140.660 Z23.500
G0 X-140.660 Z21.500
G1 X-140.660 Y155.867 Z14.141 F999.600
G1 X-140.660 Y31.741 Z14.141 F1200.000
G1 X-140.415 Y31.755 Z14.141 F1200.000
G1 X-135.340 Y31.755 Z14.141 F1200.000
G1 X-135.340 Y158.245 Z14.141 F1200.000
G1 X-140.415 Y158.245 Z14.141 F1200.000
G1 X-140.660 Y158.259 Z14.141 F1200.000
G1 X-140.660 Y155.867 Z14.141 F1200.000
G0 Z23.500
G0 X-138.282 Z23.500
G0 X-138.282 Z21.500
G1 X-138.282 Y155.867 Z14.141 F999.600
G1 X-138.282 Y34.133 Z14.141 F1200.000
G1 X-137.718 Y34.133 Z14.141 F1200.000
G1 X-137.718 Y155.867 Z14.141 F1200.000
G1 X-138.282 Y155.867 Z14.141 F1200.000
G1 X-138.282 Y155.867 Z13.745 F999.600
G1 X-138.282 Y34.133 Z13.745 F1200.000
G1 X-137.718 Y34.133 Z13.745 F1200.000
G1 X-137.718 Y155.867 Z13.745 F1200.000
G1 X-138.282 Y155.867 Z13.745 F1200.000
G0 Z23.500
G0 X-140.660 Z23.500
G0 X-140.660 Z21.500
G1 X-140.660 Y155.867 Z13.745 F999.600
G1 X-140.660 Y31.741 Z13.745 F1200.000
G1 X-140.415 Y31.755 Z13.745 F1200.000
G1 X-135.340 Y31.755 Z13.745 F1200.000
G1 X-135.340 Y158.245 Z13.745 F1200.000
G1 X-140.415 Y158.245 Z13.745 F1200.000
G1 X-140.660 Y158.259 Z13.745 F1200.000
G1 X-140.660 Y155.867 Z13.745 F1200.000
G0 Z23.500
G0 X-143.037 Z23.500
G0 X-143.037 Z21.500
G1 X-143.037 Y155.867 Z13.745 F999.600
G1 X-143.037 Y28.382 Z13.745 F1200.000
G2 X-140.415 Y29.378 Z13.745 I2.620 J-2.951 K0.000 F1200.000
G1 X-132.963 Y29.378 Z13.745 F1200.000
G1 X-132.963 Y160.622 Z13.745 F1200.000
G1 X-140.415 Y160.622 Z13.745 F1200.000
G2 X-143.037 Y161.622 Z13.745 I-0.011 J3.909 K0.000 F1200.000
G1 X-143.037 Y155.867 Z13.745 F1200.000
G0 Z23.500
G0 X-145.415 Z23.500
G0 X-145.415 Z21.500
G1 X-145.415 Y155.867 Z13.745 F999.600
G1 X-145.415 Y0.000 Z13.745 F1200.000
G1 X-142.089 Y0.000 Z13.745 F1200.000
G3 X-142.000 Y0.089 Z13.745 I0.034 J0.055 K0.000 F1200.000
G1 X-142.000 Y25.415 Z13.745 F1200.000
G2 X-140.415 Y27.000 Z13.745 I1.585 J-0.000 K0.000 F1200.000
G1 X-130.585 Y27.000 Z13.745 F1200.000
G1 X-130.585 Y163.000 Z13.745 F1200.000
G1 X-140.415 Y163.000 Z13.745 F1200.000
G2 X-142.000 Y164.585 Z13.745 I0.000 J1.585 K0.000 F1200.000
G1 X-142.000 Y189.911 Z13.745 F1200.000
G3 X-142.089 Y190.000 Z13.745 I-0.055 J0.034 K0.000 F1200.000
G1 X-145.415 Y190.000 Z13.745 F1200.000
G1 X-145.415 Y155.867 Z13.745 F1200.000
G1 X-145.415 Y155.867 Z13.349 F999.600
G1 X-145.415 Y0.000 Z13.349 F1200.000
G1 X-142.089 Y0.000 Z13.349 F1200.000
G3 X-142.000 Y0.089 Z13.349 I0.034 J0.055 K0.000 F1200.000
G1 X-142.000 Y25.415 Z13.349 F1200.000
G2 X-140.415 Y27.000 Z13.349 I1.585 J-0.000 K0.000 F1200.000
G1 X-130.585 Y27.000 Z13.349 F1200.000
G1 X-130.585 Y163.000 Z13.349 F1200.000
G1 X-140.415 Y163.000 Z13.349 F1200.000
G2 X-142.000 Y164.585 Z13.349 I0.000 J1.585 K0.000 F1200.000
G1 X-142.000 Y189.911 Z13.349 F1200.000
G3 X-142.089 Y190.000 Z13.349 I-0.055 J0.034 K0.000 F1200.000
G1 X-145.415 Y190.000 Z13.349 F1200.000
G1 X-145.415 Y155.867 Z13.349 F1200.000
G0 Z23.500
G0 X-143.037 Z23.500
G0 X-143.037 Z21.500
G1 X-143.037 Y155.867 Z13.349 F999.600
G1 X-143.037 Y28.382 Z13.349 F1200.000
G2 X-140.415 Y29.378 Z13.349 I2.620 J-2.951 K0.000 F1200.000
G1 X-132.963 Y29.378 Z13.349 F1200.000
G1 X-132.963 Y160.622 Z13.349 F1200.000
G1 X-140.415 Y160.622 Z13.349 F1200.000
G2 X-143.037 Y161.622 Z13.349 I-0.011 J3.909 K0.000 F1200.000
G1 X-143.037 Y155.867 Z13.349 F1200.000
G0 Z23.500
G0 X-140.660 Z23.500
G0 X-140.660 Z21.500
G1 X-140.660 Y155.867 Z13.349 F999.600
G1 X-140.660 Y31.741 Z13.349 F1200.000
G1 X-140.415 Y31.755 Z13.349 F1200.000
G1 X-135.340 Y31.755 Z13.349 F1200.000
G1 X-135.340 Y158.245 Z13.349 F1200.000
G1 X-140.415 Y158.245 Z13.349 F1200.000
G1 X-140.660 Y158.259 Z13.349 F1200.000
G1 X-140.660 Y155.867 Z13.349 F1200.000
G0 Z23.500
G0 X-138.282 Z23.500
G0 X-138.282 Z21.500
G1 X-138.282 Y155.867 Z13.349 F999.600
G1 X-138.282 Y34.133 Z13.349 F1200.000
G1 X-137.718 Y34.133 Z13.349 F1200.000
G1 X-137.718 Y155.867 Z13.349 F1200.000
G1 X-138.282 Y155.867 Z13.349 F1200.000
G1 X-138.282 Y155.867 Z13.000 F999.600
G1 X-138.282 Y34.133 Z13.000 F1200.000
G1 X-137.718 Y34.133 Z13.000 F1200.000
G1 X-137.718 Y155.867 Z13.000 F1200.000
G1 X-138.282 Y155.867 Z13.000 F1200.000
G0 Z23.500
G0 X-140.660 Z23.500
G0 X-140.660 Z21.500
G1 X-140.660 Y155.867 Z13.000 F999.600
G1 X-140.660 Y31.741 Z13.000 F1200.000
G1 X-140.415 Y31.755 Z13.000 F1200.000
G1 X-135.340 Y31.755 Z13.000 F1200.000
G1 X-135.340 Y158.245 Z13.000 F1200.000
G1 X-140.415 Y158.245 Z13.000 F1200.000
G1 X-140.660 Y158.259 Z13.000 F1200.000
G1 X-140.660 Y155.867 Z13.000 F1200.000
G0 Z23.500
G0 X-143.037 Z23.500
G0 X-143.037 Z21.500
G1 X-143.037 Y155.867 Z13.000 F999.600
G1 X-143.037 Y28.382 Z13.000 F1200.000
G2 X-140.415 Y29.378 Z13.000 I2.620 J-2.951 K0.000 F1200.000
G1 X-132.963 Y29.378 Z13.000 F1200.000
G1 X-132.963 Y160.622 Z13.000 F1200.000
G1 X-140.415 Y160.622 Z13.000 F1200.000
G2 X-143.037 Y161.622 Z13.000 I-0.011 J3.909 K0.000 F1200.000
G1 X-143.037 Y155.867 Z13.000 F1200.000
G0 Z23.500
G0 X-145.415 Z23.500
G0 X-145.415 Z21.500
G1 X-145.415 Y155.867 Z13.000 F999.600
G1 X-145.415 Y0.000 Z13.000 F1200.000
G1 X-142.089 Y0.000 Z13.000 F1200.000
G3 X-142.000 Y0.089 Z13.000 I0.034 J0.055 K0.000 F1200.000
G1 X-142.000 Y25.415 Z13.000 F1200.000
G2 X-140.415 Y27.000 Z13.000 I1.585 J-0.000 K0.000 F1200.000
G1 X-130.585 Y27.000 Z13.000 F1200.000
G1 X-130.585 Y163.000 Z13.000 F1200.000
G1 X-140.415 Y163.000 Z13.000 F1200.000
G2 X-142.000 Y164.585 Z13.000 I0.000 J1.585 K0.000 F1200.000
G1 X-142.000 Y189.911 Z13.000 F1200.000
G3 X-142.089 Y190.000 Z13.000 I-0.055 J0.034 K0.000 F1200.000
G1 X-145.415 Y190.000 Z13.000 F1200.000
G1 X-145.415 Y155.867 Z13.000 F1200.000
G0 Z23.500
G0 Z23.500
G0 X130.585
G0 X130.585 Z21.500
G1 X130.585 Y155.867 Z18.104 F999.600
G1 X130.585 Y27.000 Z18.104 F1200.000
G1 X140.415 Y27.000 Z18.104 F1200.000
G2 X142.000 Y25.415 Z18.104 I-0.000 J-1.585 K0.000 F1200.000
G1 X142.000 Y0.089 Z18.104 F1200.000
G3 X142.089 Y0.000 Z18.104 I0.055 J-0.034 K0.000 F1200.000
G1 X145.415 Y0.000 Z18.104 F1200.000
G1 X145.415 Y190.000 Z18.104 F1200.000
G1 X142.089 Y190.000 Z18.104 F1200.000
G3 X142.000 Y189.911 Z18.104 I-0.034 J-0.055 K0.000 F1200.000
G1 X142.000 Y164.585 Z18.104 F1200.000
G2 X140.415 Y163.000 Z18.104 I-1.585 J0.000 K0.000 F1200.000
G1 X130.585 Y163.000 Z18.104 F1200.000
G1 X130.585 Y155.867 Z18.104 F1200.000
G0 Z23.500
G0 X132.963 Z23.500
G0 X132.963 Z21.500
G1 X132.963 Y155.867 Z18.104 F999.600
G1 X132.963 Y29.378 Z18.104 F1200.000
G1 X140.415 Y29.378 Z18.104 F1200.000
G2 X143.037 Y28.378 Z18.104 I0.011 J-3.909 K0.000 F1200.000
G1 X143.037 Y161.618 Z18.104 F1200.000
G2 X140.415 Y160.622 Z18.104 I-2.620 J2.951 K0.000 F1200.000
G1 X132.963 Y160.622 Z18.104 F1200.000
G1 X132.963 Y155.867 Z18.104 F1200.000
G0 Z23.500
G0 X135.340 Z23.500
G0 X135.340 Z21.500
G1 X135.340 Y155.867 Z18.104 F999.600
G1 X135.340 Y31.755 Z18.104 F1200.000
G1 X140.415 Y31.755 Z18.104 F1200.000
G1 X140.660 Y31.741 Z18.104 F1200.000
G1 X140.660 Y158.259 Z18.104 F1200.000
G1 X140.415 Y158.245 Z18.104 F1200.000
G1 X135.340 Y158.245 Z18.104 F1200.000
G1 X135.340 Y155.867 Z18.104 F1200.000
G0 Z23.500
G0 X137.718 Z23.500
G0 X137.718 Z21.500
G1 X137.718 Y155.867 Z18.104 F999.600
G1 X137.718 Y34.133 Z18.104 F1200.000
G1 X138.282 Y34.133 Z18.104 F1200.000
G1 X138.282 Y155.867 Z18.104 F1200.000
G1 X137.718 Y155.867 Z18.104 F1200.000
G1 X137.718 Y155.867 Z17.707 F999.600
G1 X137.718 Y34.133 Z17.707 F1200.000
G1 X138.282 Y34.133 Z17.707 F1200.000
G1 X138.282 Y155.867 Z17.707 F1200.000
G1 X137.718 Y155.867 Z17.707 F1200.000
G0 Z23.500
G0 X135.340 Z23.500
G0 X135.340 Z21.500
G1 X135.340 Y155.867 Z17.707 F999.600
G1 X135.340 Y31.755 Z17.707 F1200.000
G1 X140.415 Y31.755 Z17.707 F1200.000
G1 X140.660 Y31.741 Z17.707 F1200.000
G1 X140.660 Y158.259 Z17.707 F1200.000
G1 X140.415 Y158.245 Z17.707 F1200.000
G1 X135.340 Y158.245 Z17.707 F1200.000
G1 X135.340 Y155.867 Z17.707 F1200.000
G0 Z23.500
G0 X132.963 Z23.500
G0 X132.963 Z21.500
G1 X132.963 Y155.867 Z17.707 F999.600
G1 X132.963 Y29.378 Z17.707 F1200.000
G1 X140.415 Y29.378 Z17.707 F1200.000
G2 X143.037 Y28.378 Z17.707 I0.011 J-3.909 K0.000 F1200.000
G1 X143.037 Y161.618 Z17.707 F1200.000
G2 X140.415 Y160.622 Z17.707 I-2.620 J2.951 K0.000 F1200.000
G1 X132.963 Y160.622 Z17.707 F1200.000
G1 X132.963 Y155.867 Z17.707 F1200.000
G0 Z23.500
G0 X130.585 Z23.500
G0 X130.585 Z21.500
G1 X130.585 Y155.867 Z17.707 F999.600
G1 X130.585 Y27.000 Z17.707 F1200.000
G1 X140.415 Y27.000 Z17.707 F1200.000
G2 X142.000 Y25.415 Z17.707 I-0.000 J-1.585 K0.000 F1200.000
G1 X142.000 Y0.089 Z17.707 F1200.000
G3 X142.089 Y0.000 Z17.707 I0.055 J-0.034 K0.000 F1200.000
G1 X145.415 Y0.000 Z17.707 F1200.000
G1 X145.415 Y190.000 Z17.707 F1200.000
G1 X142.089 Y190.000 Z17.707 F1200.000
G3 X142.000 Y189.911 Z17.707 I-0.034 J-0.055 K0.000 F1200.000
G1 X142.000 Y164.585 Z17.707 F1200.000
G2 X140.415 Y163.000 Z17.707 I-1.585 J0.000 K0.000 F1200.000
G1 X130.585 Y163.000 Z17.707 F1200.000
G1 X130.585 Y155.867 Z17.707 F1200.000
G1 X130.585 Y155.867 Z17.311 F999.600
G1 X130.585 Y27.000 Z17.311 F1200.000
G1 X140.415 Y27.000 Z17.311 F1200.000
G2 X142.000 Y25.415 Z17.311 I-0.000 J-1.585 K0.000 F1200.000
G1 X142.000 Y0.089 Z17.311 F1200.000
G3 X142.089 Y0.000 Z17.311 I0.055 J-0.034 K0.000 F1200.000
G1 X145.415 Y0.000 Z17.311 F1200.000
G1 X145.415 Y190.000 Z17.311 F1200.000
G1 X142.089 Y190.000 Z17.311 F1200.000
G3 X142.000 Y189.911 Z17.311 I-0.034 J-0.055 K0.000 F1200.000
G1 X142.000 Y164.585 Z17.311 F1200.000
G2 X140.415 Y163.000 Z17.311 I-1.585 J0.000 K0.000 F1200.000
G1 X130.585 Y163.000 Z17.311 F1200.000
G1 X130.585 Y155.867 Z17.311 F1200.000
G0 Z23.500
G0 X132.963 Z23.500
G0 X132.963 Z21.500
G1 X132.963 Y155.867 Z17.311 F999.600
G1 X132.963 Y29.378 Z17.311 F1200.000
G1 X140.415 Y29.378 Z17.311 F1200.000
G2 X143.037 Y28.378 Z17.311 I0.011 J-3.909 K0.000 F1200.000
G1 X143.037 Y161.618 Z17.311 F1200.000
G2 X140.415 Y160.622 Z17.311 I-2.620 J2.951 K0.000 F1200.000
G1 X132.963 Y160.622 Z17.311 F1200.000
G1 X132.963 Y155.867 Z17.311 F1200.000
G0 Z23.500
G0 X135.340 Z23.500
G0 X135.340 Z21.500
G1 X135.340 Y155.867 Z17.311 F999.600
G1 X135.340 Y31.755 Z17.311 F1200.000
G1 X140.415 Y31.755 Z17.311 F1200.000
G1 X140.660 Y31.741 Z17.311 F1200.000
G1 X140.660 Y158.259 Z17.311 F1200.000
G1 X140.415 Y158.245 Z17.311 F1200.000
G1 X135.340 Y158.245 Z17.311 F1200.000
G1 X135.340 Y155.867 Z17.311 F1200.000
G0 Z23.500
G0 X137.718 Z23.500
G0 X137.718 Z21.500
G1 X137.718 Y155.867 Z17.311 F999.600
G1 X137.718 Y34.133 Z17.311 F1200.000
G1 X138.282 Y34.133 Z17.311 F1200.000
G1 X138.282 Y155.867 Z17.311 F1200.000
G1 X137.718 Y155.867 Z17.311 F1200.000
G1 X137.718 Y155.867 Z16.915 F999.600
G1 X137.718 Y34.133 Z16.915 F1200.000
G1 X138.282 Y34.133 Z16.915 F1200.000
G1 X138.282 Y155.867 Z16.915 F1200.000
G1 X137.718 Y155.867 Z16.915 F1200.000
G0 Z23.500
G0 X135.340 Z23.500
G0 X135.340 Z21.500
G1 X135.340 Y155.867 Z16.915 F999.600
G1 X135.340 Y31.755 Z16.915 F1200.000
G1 X140.415 Y31.755 Z16.915 F1200.000
G1 X140.660 Y31.741 Z16.915 F1200.000
G1 X140.660 Y158.259 Z16.915 F1200.000
G1 X140.415 Y158.245 Z16.915 F1200.000
G1 X135.340 Y158.245 Z16.915 F1200.000
G1 X135.340 Y155.867 Z16.915 F1200.000
G0 Z23.500
G0 X132.963 Z23.500
G0 X132.963 Z21.500
G1 X132.963 Y155.867 Z16.915 F999.600
G1 X132.963 Y29.378 Z16.915 F1200.000
G1 X140.415 Y29.378 Z16.915 F1200.000
G2 X143.037 Y28.378 Z16.915 I0.011 J-3.909 K0.000 F1200.000
G1 X143.037 Y161.618 Z16.915 F1200.000
G2 X140.415 Y160.622 Z16.915 I-2.620 J2.951 K0.000 F1200.000
G1 X132.963 Y160.622 Z16.915 F1200.000
G1 X132.963 Y155.867 Z16.915 F1200.000
G0 Z23.500
G0 X130.585 Z23.500
G0 X130.585 Z21.500
G1 X130.585 Y155.867 Z16.915 F999.600
G1 X130.585 Y27.000 Z16.915 F1200.000
G1 X140.415 Y27.000 Z16.915 F1200.000
G2 X142.000 Y25.415 Z16.915 I-0.000 J-1.585 K0.000 F1200.000
G1 X142.000 Y0.089 Z16.915 F1200.000
G3 X142.089 Y0.000 Z16.915 I0.055 J-0.034 K0.000 F1200.000
G1 X145.415 Y0.000 Z16.915 F1200.000
G1 X145.415 Y190.000 Z16.915 F1200.000
G1 X142.089 Y190.000 Z16.915 F1200.000
G3 X142.000 Y189.911 Z16.915 I-0.034 J-0.055 K0.000 F1200.000
G1 X142.000 Y164.585 Z16.915 F1200.000
G2 X140.415 Y163.000 Z16.915 I-1.585 J0.000 K0.000 F1200.000
G1 X130.585 Y163.000 Z16.915 F1200.000
G1 X130.585 Y155.867 Z16.915 F1200.000
G1 X130.585 Y155.867 Z16.519 F999.600
G1 X130.585 Y27.000 Z16.519 F1200.000
G1 X140.415 Y27.000 Z16.519 F1200.000
G2 X142.000 Y25.415 Z16.519 I-0.000 J-1.585 K0.000 F1200.000
G1 X142.000 Y0.089 Z16.519 F1200.000
G3 X142.089 Y0.000 Z16.519 I0.055 J-0.034 K0.000 F1200.000
G1 X145.415 Y0.000 Z16.519 F1200.000
G1 X145.415 Y190.000 Z16.519 F1200.000
G1 X142.089 Y190.000 Z16.519 F1200.000
G3 X142.000 Y189.911 Z16.519 I-0.034 J-0.055 K0.000 F1200.000
G1 X142.000 Y164.585 Z16.519 F1200.000
G2 X140.415 Y163.000 Z16.519 I-1.585 J0.000 K0.000 F1200.000
G1 X130.585 Y163.000 Z16.519 F1200.000
G1 X130.585 Y155.867 Z16.519 F1200.000
G0 Z23.500
G0 X132.963 Z23.500
G0 X132.963 Z21.500
G1 X132.963 Y155.867 Z16.519 F999.600
G1 X132.963 Y29.378 Z16.519 F1200.000
G1 X140.415 Y29.378 Z16.519 F1200.000
G2 X143.037 Y28.378 Z16.519 I0.011 J-3.909 K0.000 F1200.000
G1 X143.037 Y161.618 Z16.519 F1200.000
G2 X140.415 Y160.622 Z16.519 I-2.620 J2.951 K0.000 F1200.000
G1 X132.963 Y160.622 Z16.519 F1200.000
G1 X132.963 Y155.867 Z16.519 F1200.000
G0 Z23.500
G0 X135.340 Z23.500
G0 X135.340 Z21.500
G1 X135.340 Y155.867 Z16.519 F999.600
G1 X135.340 Y31.755 Z16.519 F1200.000
G1 X140.415 Y31.755 Z16.519 F1200.000
G1 X140.660 Y31.741 Z16.519 F1200.000
G1 X140.660 Y158.259 Z16.519 F1200.000
G1 X140.415 Y158.245 Z16.519 F1200.000
G1 X135.340 Y158.245 Z16.519 F1200.000
G1 X135.340 Y155.867 Z16.519 F1200.000
G0 Z23.500
G0 X137.718 Z23.500
G0 X137.718 Z21.500
G1 X137.718 Y155.867 Z16.519 F999.600
G1 X137.718 Y34.133 Z16.519 F1200.000
G1 X138.282 Y34.133 Z16.519 F1200.000
G1 X138.282 Y155.867 Z16.519 F1200.000
G1 X137.718 Y155.867 Z16.519 F1200.000
G1 X137.718 Y155.867 Z16.122 F999.600
G1 X137.718 Y34.133 Z16.122 F1200.000
G1 X138.282 Y34.133 Z16.122 F1200.000
G1 X138.282 Y155.867 Z16.122 F1200.000
G1 X137.718 Y155.867 Z16.122 F1200.000
G0 Z23.500
G0 X135.340 Z23.500
G0 X135.340 Z21.500
G1 X135.340 Y155.867 Z16.122 F999.600
G1 X135.340 Y31.755 Z16.122 F1200.000
G1 X140.415 Y31.755 Z16.122 F1200.000
G1 X140.660 Y31.741 Z16.122 F1200.000
G1 X140.660 Y158.259 Z16.122 F1200.000
G1 X140.415 Y158.245 Z16.122 F1200.000
G1 X135.340 Y158.245 Z16.122 F1200.000
G1 X135.340 Y155.867 Z16.122 F1200.000
G0 Z23.500
G0 X132.963 Z23.500
G0 X132.963 Z21.500
G1 X132.963 Y155.867 Z16.122 F999.600
G1 X132.963 Y29.378 Z16.122 F1200.000
G1 X140.415 Y29.378 Z16.122 F1200.000
G2 X143.037 Y28.378 Z16.122 I0.011 J-3.909 K0.000 F1200.000
G1 X143.037 Y161.618 Z16.122 F1200.000
G2 X140.415 Y160.622 Z16.122 I-2.620 J2.951 K0.000 F1200.000
G1 X132.963 Y160.622 Z16.122 F1200.000
G1 X132.963 Y155.867 Z16.122 F1200.000
G0 Z23.500
G0 X130.585 Z23.500
G0 X130.585 Z21.500
G1 X130.585 Y155.867 Z16.122 F999.600
G1 X130.585 Y27.000 Z16.122 F1200.000
G1 X140.415 Y27.000 Z16.122 F1200.000
G2 X142.000 Y25.415 Z16.122 I-0.000 J-1.585 K0.000 F1200.000
G1 X142.000 Y0.089 Z16.122 F1200.000
G3 X142.089 Y0.000 Z16.122 I0.055 J-0.034 K0.000 F1200.000
G1 X145.415 Y0.000 Z16.122 F1200.000
G1 X145.415 Y190.000 Z16.122 F1200.000
G1 X142.089 Y190.000 Z16.122 F1200.000
G3 X142.000 Y189.911 Z16.122 I-0.034 J-0.055 K0.000 F1200.000
G1 X142.000 Y164.585 Z16.122 F1200.000
G2 X140.415 Y163.000 Z16.122 I-1.585 J0.000 K0.000 F1200.000
G1 X130.585 Y163.000 Z16.122 F1200.000
G1 X130.585 Y155.867 Z16.122 F1200.000
G1 X130.585 Y155.867 Z15.726 F999.600
G1 X130.585 Y27.000 Z15.726 F1200.000
G1 X140.415 Y27.000 Z15.726 F1200.000
G2 X142.000 Y25.415 Z15.726 I-0.000 J-1.585 K0.000 F1200.000
G1 X142.000 Y0.089 Z15.726 F1200.000
G3 X142.089 Y0.000 Z15.726 I0.055 J-0.034 K0.000 F1200.000
G1 X145.415 Y0.000 Z15.726 F1200.000
G1 X145.415 Y190.000 Z15.726 F1200.000
G1 X142.089 Y190.000 Z15.726 F1200.000
G3 X142.000 Y189.911 Z15.726 I-0.034 J-0.055 K0.000 F1200.000
G1 X142.000 Y164.585 Z15.726 F1200.000
G2 X140.415 Y163.000 Z15.726 I-1.585 J0.000 K0.000 F1200.000
G1 X130.585 Y163.000 Z15.726 F1200.000
G1 X130.585 Y155.867 Z15.726 F1200.000
G0 Z23.500
G0 X132.963 Z23.500
G0 X132.963 Z21.500
G1 X132.963 Y155.867 Z15.726 F999.600
G1 X132.963 Y29.378 Z15.726 F1200.000
G1 X140.415 Y29.378 Z15.726 F1200.000
G2 X143.037 Y28.378 Z15.726 I0.011 J-3.909 K0.000 F1200.000
G1 X143.037 Y161.618 Z15.726 F1200.000
G2 X140.415 Y160.622 Z15.726 I-2.620 J2.951 K0.000 F1200.000
G1 X132.963 Y160.622 Z15.726 F1200.000
G1 X132.963 Y155.867 Z15.726 F1200.000
G0 Z23.500
G0 X135.340 Z23.500
G0 X135.340 Z21.500
G1 X135.340 Y155.867 Z15.726 F999.600
G1 X135.340 Y31.755 Z15.726 F1200.000
G1 X140.415 Y31.755 Z15.726 F1200.000
G1 X140.660 Y31.741 Z15.726 F1200.000
G1 X140.660 Y158.259 Z15.726 F1200.000
G1 X140.415 Y158.245 Z15.726 F1200.000
G1 X135.340 Y158.245 Z15.726 F1200.000
G1 X135.340 Y155.867 Z15.726 F1200.000
G0 Z23.500
G0 X137.718 Z23.500
G0 X137.718 Z21.500
G1 X137.718 Y155.867 Z15.726 F999.600
G1 X137.718 Y34.133 Z15.726 F1200.000
G1 X138.282 Y34.133 Z15.726 F1200.000
G1 X138.282 Y155.867 Z15.726 F1200.000
G1 X137.718 Y155.867 Z15.726 F1200.000
G1 X137.718 Y155.867 Z15.330 F999.600
G1 X137.718 Y34.133 Z15.330 F1200.000
G1 X138.282 Y34.133 Z15.330 F1200.000
G1 X138.282 Y155.867 Z15.330 F1200.000
G1 X137.718 Y155.867 Z15.330 F1200.000
G0 Z23.500
G0 X135.340 Z23.500
G0 X135.340 Z21.500
G1 X135.340 Y155.867 Z15.330 F999.600
G1 X135.340 Y31.755 Z15.330 F1200.000
G1 X140.415 Y31.755 Z15.330 F1200.000
G1 X140.660 Y31.741 Z15.330 F1200.000
G1 X140.660 Y158.259 Z15.330 F1200.000
G1 X140.415 Y158.245 Z15.330 F1200.000
G1 X135.340 Y158.245 Z15.330 F1200.000
G1 X135.340 Y155.867 Z15.330 F1200.000
G0 Z23.500
G0 X132.963 Z23.500
G0 X132.963 Z21.500
G1 X132.963 Y155.867 Z15.330 F999.600
G1 X132.963 Y29.378 Z15.330 F1200.000
G1 X140.415 Y29.378 Z15.330 F1200.000
G2 X143.037 Y28.378 Z15.330 I0.011 J-3.909 K0.000 F1200.000
G1 X143.037 Y161.618 Z15.330 F1200.000
G2 X140.415 Y160.622 Z15.330 I-2.620 J2.951 K0.000 F1200.000
G1 X132.963 Y160.622 Z15.330 F1200.000
G1 X132.963 Y155.867 Z15.330 F1200.000
G0 Z23.500
G0 X130.585 Z23.500
G0 X130.585 Z21.500
G1 X130.585 Y155.867 Z15.330 F999.600
G1 X130.585 Y27.000 Z15.330 F1200.000
G1 X140.415 Y27.000 Z15.330 F1200.000
G2 X142.000 Y25.415 Z15.330 I-0.000 J-1.585 K0.000 F1200.000
G1 X142.000 Y0.089 Z15.330 F1200.000
G3 X142.089 Y0.000 Z15.330 I0.055 J-0.034 K0.000 F1200.000
G1 X145.415 Y0.000 Z15.330 F1200.000
G1 X145.415 Y190.000 Z15.330 F1200.000
G1 X142.089 Y190.000 Z15.330 F1200.000
G3 X142.000 Y189.911 Z15.330 I-0.034 J-0.055 K0.000 F1200.000
G1 X142.000 Y164.585 Z15.330 F1200.000
G2 X140.415 Y163.000 Z15.330 I-1.585 J0.000 K0.000 F1200.000
G1 X130.585 Y163.000 Z15.330 F1200.000
G1 X130.585 Y155.867 Z15.330 F1200.000
G1 X130.585 Y155.867 Z14.934 F999.600
G1 X130.585 Y27.000 Z14.934 F1200.000
G1 X140.415 Y27.000 Z14.934 F1200.000
G2 X142.000 Y25.415 Z14.934 I-0.000 J-1.585 K0.000 F1200.000
G1 X142.000 Y0.089 Z14.934 F1200.000
G3 X142.089 Y0.000 Z14.934 I0.055 J-0.034 K0.000 F1200.000
G1 X145.415 Y0.000 Z14.934 F1200.000
G1 X145.415 Y190.000 Z14.934 F1200.000
G1 X142.089 Y190.000 Z14.934 F1200.000
G3 X142.000 Y189.911 Z14.934 I-0.034 J-0.055 K0.000 F1200.000
G1 X142.000 Y164.585 Z14.934 F1200.000
G2 X140.415 Y163.000 Z14.934 I-1.585 J0.000 K0.000 F1200.000
G1 X130.585 Y163.000 Z14.934 F1200.000
G1 X130.585 Y155.867 Z14.934 F1200.000
G0 Z23.500
G0 X132.963 Z23.500
G0 X132.963 Z21.500
G1 X132.963 Y155.867 Z14.934 F999.600
G1 X132.963 Y29.378 Z14.934 F1200.000
G1 X140.415 Y29.378 Z14.934 F1200.000
G2 X143.037 Y28.378 Z14.934 I0.011 J-3.909 K0.000 F1200.000
G1 X143.037 Y161.618 Z14.934 F1200.000
G2 X140.415 Y160.622 Z14.934 I-2.620 J2.951 K0.000 F1200.000
G1 X132.963 Y160.622 Z14.934 F1200.000
G1 X132.963 Y155.867 Z14.934 F1200.000
G0 Z23.500
G0 X135.340 Z23.500
G0 X135.340 Z21.500
G1 X135.340 Y155.867 Z14.934 F999.600
G1 X135.340 Y31.755 Z14.934 F1200.000
G1 X140.415 Y31.755 Z14.934 F1200.000
G1 X140.660 Y31.741 Z14.934 F1200.000
G1 X140.660 Y158.259 Z14.934 F1200.000
G1 X140.415 Y158.245 Z14.934 F1200.000
G1 X135.340 Y158.245 Z14.934 F1200.000
G1 X135.340 Y155.867 Z14.934 F1200.000
G0 Z23.500
G0 X137.718 Z23.500
G0 X137.718 Z21.500
G1 X137.718 Y155.867 Z14.934 F999.600
G1 X137.718 Y34.133 Z14.934 F1200.000
G1 X138.282 Y34.133 Z14.934 F1200.000
G1 X138.282 Y155.867 Z14.934 F1200.000
G1 X137.718 Y155.867 Z14.934 F1200.000
G1 X137.718 Y155.867 Z14.537 F999.600
G1 X137.718 Y34.133 Z14.537 F1200.000
G1 X138.282 Y34.133 Z14.537 F1200.000
G1 X138.282 Y155.867 Z14.537 F1200.000
G1 X137.718 Y155.867 Z14.537 F1200.000
G0 Z23.500
G0 X135.340 Z23.500
G0 X135.340 Z21.500
G1 X135.340 Y155.867 Z14.537 F999.600
G1 X135.340 Y31.755 Z14.537 F1200.000
G1 X140.415 Y31.755 Z14.537 F1200.000
G1 X140.660 Y31.741 Z14.537 F1200.000
G1 X140.660 Y158.259 Z14.537 F1200.000
G1 X140.415 Y158.245 Z14.537 F1200.000
G1 X135.340 Y158.245 Z14.537 F1200.000
G1 X135.340 Y155.867 Z14.537 F1200.000
G0 Z23.500
G0 X132.963 Z23.500
G0 X132.963 Z21.500
G1 X132.963 Y155.867 Z14.537 F999.600
G1 X132.963 Y29.378 Z14.537 F1200.000
G1 X140.415 Y29.378 Z14.537 F1200.000
G2 X143.037 Y28.378 Z14.537 I0.011 J-3.909 K0.000 F1200.000
G1 X143.037 Y161.618 Z14.537 F1200.000
G2 X140.415 Y160.622 Z14.537 I-2.620 J2.951 K0.000 F1200.000
G1 X132.963 Y160.622 Z14.537 F1200.000
G1 X132.963 Y155.867 Z14.537 F1200.000
G0 Z23.500
G0 X130.585 Z23.500
G0 X130.585 Z21.500
G1 X130.585 Y155.867 Z14.537 F999.600
G1 X130.585 Y27.000 Z14.537 F1200.000
G1 X140.415 Y27.000 Z14.537 F1200.000
G2 X142.000 Y25.415 Z14.537 I-0.000 J-1.585 K0.000 F1200.000
G1 X142.000 Y0.089 Z14.537 F1200.000
G3 X142.089 Y0.000 Z14.537 I0.055 J-0.034 K0.000 F1200.000
G1 X145.415 Y0.000 Z14.537 F1200.000
G1 X145.415 Y190.000 Z14.537 F1200.000
G1 X142.089 Y190.000 Z14.537 F1200.000
G3 X142.000 Y189.911 Z14.537 I-0.034 J-0.055 K0.000 F1200.000
G1 X142.000 Y164.585 Z14.537 F1200.000
G2 X140.415 Y163.000 Z14.537 I-1.585 J0.000 K0.000 F1200.000
G1 X130.585 Y163.000 Z14.537 F1200.000
G1 X130.585 Y155.867 Z14.537 F1200.000
G1 X130.585 Y155.867 Z14.141 F999.600
G1 X130.585 Y27.000 Z14.141 F1200.000
G1 X140.415 Y27.000 Z14.141 F1200.000
G2 X142.000 Y25.415 Z14.141 I-0.000 J-1.585 K0.000 F1200.000
G1 X142.000 Y0.089 Z14.141 F1200.000
G3 X142.089 Y0.000 Z14.141 I0.055 J-0.034 K0.000 F1200.000
G1 X145.415 Y0.000 Z14.141 F1200.000
G1 X145.415 Y190.000 Z14.141 F1200.000
G1 X142.089 Y190.000 Z14.141 F1200.000
G3 X142.000 Y189.911 Z14.141 I-0.034 J-0.055 K0.000 F1200.000
G1 X142.000 Y164.585 Z14.141 F1200.000
G2 X140.415 Y163.000 Z14.141 I-1.585 J0.000 K0.000 F1200.000
G1 X130.585 Y163.000 Z14.141 F1200.000
G1 X130.585 Y155.867 Z14.141 F1200.000
G0 Z23.500
G0 X132.963 Z23.500
G0 X132.963 Z21.500
G1 X132.963 Y155.867 Z14.141 F999.600
G1 X132.963 Y29.378 Z14.141 F1200.000
G1 X140.415 Y29.378 Z14.141 F1200.000
G2 X143.037 Y28.378 Z14.141 I0.011 J-3.909 K0.000 F1200.000
G1 X143.037 Y161.618 Z14.141 F1200.000
G2 X140.415 Y160.622 Z14.141 I-2.620 J2.951 K0.000 F1200.000
G1 X132.963 Y160.622 Z14.141 F1200.000
G1 X132.963 Y155.867 Z14.141 F1200.000
G0 Z23.500
G0 X135.340 Z23.500
G0 X135.340 Z21.500
G1 X135.340 Y155.867 Z14.141 F999.600
G1 X135.340 Y31.755 Z14.141 F1200.000
G1 X140.415 Y31.755 Z14.141 F1200.000
G1 X140.660 Y31.741 Z14.141 F1200.000
G1 X140.660 Y158.259 Z14.141 F1200.000
G1 X140.415 Y158.245 Z14.141 F1200.000
G1 X135.340 Y158.245 Z14.141 F1200.000
G1 X135.340 Y155.867 Z14.141 F1200.000
G0 Z23.500
G0 X137.718 Z23.500
G0 X137.718 Z21.500
G1 X137.718 Y155.867 Z14.141 F999.600
G1 X137.718 Y34.133 Z14.141 F1200.000
G1 X138.282 Y34.133 Z14.141 F1200.000
G1 X138.282 Y155.867 Z14.141 F1200.000
G1 X137.718 Y155.867 Z14.141 F1200.000
G1 X137.718 Y155.867 Z13.745 F999.600
G1 X137.718 Y34.133 Z13.745 F1200.000
G1 X138.282 Y34.133 Z13.745 F1200.000
G1 X138.282 Y155.867 Z13.745 F1200.000
G1 X137.718 Y155.867 Z13.745 F1200.000
G0 Z23.500
G0 X135.340 Z23.500
G0 X135.340 Z21.500
G1 X135.340 Y155.867 Z13.745 F999.600
G1 X135.340 Y31.755 Z13.745 F1200.000
G1 X140.415 Y31.755 Z13.745 F1200.000
G1 X140.660 Y31.741 Z13.745 F1200.000
G1 X140.660 Y158.259 Z13.745 F1200.000
G1 X140.415 Y158.245 Z13.745 F1200.000
G1 X135.340 Y158.245 Z13.745 F1200.000
G1 X135.340 Y155.867 Z13.745 F1200.000
G0 Z23.500
G0 X132.963 Z23.500
G0 X132.963 Z21.500
G1 X132.963 Y155.867 Z13.745 F999.600
G1 X132.963 Y29.378 Z13.745 F1200.000
G1 X140.415 Y29.378 Z13.745 F1200.000
G2 X143.037 Y28.378 Z13.745 I0.011 J-3.909 K0.000 F1200.000
G1 X143.037 Y161.618 Z13.745 F1200.000
G2 X140.415 Y160.622 Z13.745 I-2.620 J2.951 K0.000 F1200.000
G1 X132.963 Y160.622 Z13.745 F1200.000
G1 X132.963 Y155.867 Z13.745 F1200.000
G0 Z23.500
G0 X130.585 Z23.500
G0 X130.585 Z21.500
G1 X130.585 Y155.867 Z13.745 F999.600
G1 X130.585 Y27.000 Z13.745 F1200.000
G1 X140.415 Y27.000 Z13.745 F1200.000
G2 X142.000 Y25.415 Z13.745 I-0.000 J-1.585 K0.000 F1200.000
G1 X142.000 Y0.089 Z13.745 F1200.000
G3 X142.089 Y0.000 Z13.745 I0.055 J-0.034 K0.000 F1200.000
G1 X145.415 Y0.000 Z13.745 F1200.000
G1 X145.415 Y190.000 Z13.745 F1200.000
G1 X142.089 Y190.000 Z13.745 F1200.000
G3 X142.000 Y189.911 Z13.745 I-0.034 J-0.055 K0.000 F1200.000
G1 X142.000 Y164.585 Z13.745 F1200.000
G2 X140.415 Y163.000 Z13.745 I-1.585 J0.000 K0.000 F1200.000
G1 X130.585 Y163.000 Z13.745 F1200.000
G1 X130.585 Y155.867 Z13.745 F1200.000
G1 X130.585 Y155.867 Z13.349 F999.600
G1 X130.585 Y27.000 Z13.349 F1200.000
G1 X140.415 Y27.000 Z13.349 F1200.000
G2 X142.000 Y25.415 Z13.349 I-0.000 J-1.585 K0.000 F1200.000
G1 X142.000 Y0.089 Z13.349 F1200.000
G3 X142.089 Y0.000 Z13.349 I0.055 J-0.034 K0.000 F1200.000
G1 X145.415 Y0.000 Z13.349 F1200.000
G1 X145.415 Y190.000 Z13.349 F1200.000
G1 X142.089 Y190.000 Z13.349 F1200.000
G3 X142.000 Y189.911 Z13.349 I-0.034 J-0.055 K0.000 F1200.000
G1 X142.000 Y164.585 Z13.349 F1200.000
G2 X140.415 Y163.000 Z13.349 I-1.585 J0.000 K0.000 F1200.000
G1 X130.585 Y163.000 Z13.349 F1200.000
G1 X130.585 Y155.867 Z13.349 F1200.000
G0 Z23.500
G0 X132.963 Z23.500
G0 X132.963 Z21.500
G1 X132.963 Y155.867 Z13.349 F999.600
G1 X132.963 Y29.378 Z13.349 F1200.000
G1 X140.415 Y29.378 Z13.349 F1200.000
G2 X143.037 Y28.378 Z13.349 I0.011 J-3.909 K0.000 F1200.000
G1 X143.037 Y161.618 Z13.349 F1200.000
G2 X140.415 Y160.622 Z13.349 I-2.620 J2.951 K0.000 F1200.000
G1 X132.963 Y160.622 Z13.349 F1200.000
G1 X132.963 Y155.867 Z13.349 F1200.000
G0 Z23.500
G0 X135.340 Z23.500
G0 X135.340 Z21.500
G1 X135.340 Y155.867 Z13.349 F999.600
G1 X135.340 Y31.755 Z13.349 F1200.000
G1 X140.415 Y31.755 Z13.349 F1200.000
G1 X140.660 Y31.741 Z13.349 F1200.000
G1 X140.660 Y158.259 Z13.349 F1200.000
G1 X140.415 Y158.245 Z13.349 F1200.000
G1 X135.340 Y158.245 Z13.349 F1200.000
G1 X135.340 Y155.867 Z13.349 F1200.000
G0 Z23.500
G0 X137.718 Z23.500
G0 X137.718 Z21.500
G1 X137.718 Y155.867 Z13.349 F999.600
G1 X137.718 Y34.133 Z13.349 F1200.000
G1 X138.282 Y34.133 Z13.349 F1200.000
G1 X138.282 Y155.867 Z13.349 F1200.000
G1 X137.718 Y155.867 Z13.349 F1200.000
G1 X137.718 Y155.867 Z13.000 F999.600
G1 X137.718 Y34.133 Z13.000 F1200.000
G1 X138.282 Y34.133 Z13.000 F1200.000
G1 X138.282 Y155.867 Z13.000 F1200.000
G1 X137.718 Y155.867 Z13.000 F1200.000
G0 Z23.500
G0 X135.340 Z23.500
G0 X135.340 Z21.500
G1 X135.340 Y155.867 Z13.000 F999.600
G1 X135.340 Y31.755 Z13.000 F1200.000
G1 X140.415 Y31.755 Z13.000 F1200.000
G1 X140.660 Y31.741 Z13.000 F1200.000
G1 X140.660 Y158.259 Z13.000 F1200.000
G1 X140.415 Y158.245 Z13.000 F1200.000
G1 X135.340 Y158.245 Z13.000 F1200.000
G1 X135.340 Y155.867 Z13.000 F1200.000
G0 Z23.500
G0 X132.963 Z23.500
G0 X132.963 Z21.500
G1 X132.963 Y155.867 Z13.000 F999.600
G1 X132.963 Y29.378 Z13.000 F1200.000
G1 X140.415 Y29.378 Z13.000 F1200.000
G2 X143.037 Y28.378 Z13.000 I0.011 J-3.909 K0.000 F1200.000
G1 X143.037 Y161.618 Z13.000 F1200.000
G2 X140.415 Y160.622 Z13.000 I-2.620 J2.951 K0.000 F1200.000
G1 X132.963 Y160.622 Z13.000 F1200.000
G1 X132.963 Y155.867 Z13.000 F1200.000
G0 Z23.500
G0 X130.585 Z23.500
G0 X130.585 Z21.500
G1 X130.585 Y155.867 Z13.000 F999.600
G1 X130.585 Y27.000 Z13.000 F1200.000
G1 X140.415 Y27.000 Z13.000 F1200.000
G2 X142.000 Y25.415 Z13.000 I-0.000 J-1.585 K0.000 F1200.000
G1 X142.000 Y0.089 Z13.000 F1200.000
G3 X142.089 Y0.000 Z13.000 I0.055 J-0.034 K0.000 F1200.000
G1 X145.415 Y0.000 Z13.000 F1200.000
G1 X145.415 Y190.000 Z13.000 F1200.000
G1 X142.089 Y190.000 Z13.000 F1200.000
G3 X142.000 Y189.911 Z13.000 I-0.034 J-0.055 K0.000 F1200.000
G1 X142.000 Y164.585 Z13.000 F1200.000
G2 X140.415 Y163.000 Z13.000 I-1.585 J0.000 K0.000 F1200.000
G1 X130.585 Y163.000 Z13.000 F1200.000
G1 X130.585 Y155.867 Z13.000 F1200.000
G0 Z23.500
G0 Z23.500
(Finish operation: Tray_Body_Groove)
(Begin operation: Tray_Body_Bottom_Raw)
(Path: Tray_Body_Bottom_Raw)
(Tray_Body_Bottom_Raw)
(Helix to depth: 16.500000)
G0 X-0.250 Y94.020 Z23.500
G0 X-0.250 Y94.020 Z21.500
G1 X-0.250 Y94.020 Z18.500 F999.600
G1 X-0.250 Y94.020 Z18.500 F999.600
G1 X-0.047 Y93.910 Z18.480 F999.600
G1 X0.173 Y93.841 Z18.459 F999.600
G1 X0.403 Y93.816 Z18.439 F999.600
G1 X0.633 Y93.837 Z18.418 F999.600
G1 X0.854 Y93.902 Z18.398 F999.600
G1 X1.058 Y94.009 Z18.378 F999.600
G1 X1.238 Y94.154 Z18.357 F999.600
G1 X1.386 Y94.331 Z18.337 F999.600
G1 X1.497 Y94.534 Z18.316 F999.600
G1 X1.565 Y94.754 Z18.296 F999.600
G1 X1.590 Y94.984 Z18.276 F999.600
G1 X1.569 Y95.214 Z18.255 F999.600
G1 X1.504 Y95.435 Z18.235 F999.600
G1 X1.397 Y95.640 Z18.214 F999.600
G1 X1.252 Y95.819 Z18.194 F999.600
G1 X1.075 Y95.967 Z18.174 F999.600
G1 X0.872 Y96.078 Z18.153 F999.600
G1 X0.652 Y96.147 Z18.133 F999.600
G1 X0.422 Y96.171 Z18.112 F999.600
G1 X0.192 Y96.151 Z18.092 F999.600
G1 X-0.029 Y96.085 Z18.072 F999.600
G1 X-0.233 Y95.978 Z18.051 F999.600
G1 X-0.413 Y95.833 Z18.031 F999.600
G1 X-0.561 Y95.656 Z18.010 F999.600
G1 X-0.672 Y95.453 Z17.990 F999.600
G1 X-0.740 Y95.233 Z17.970 F999.600
G1 X-0.765 Y95.004 Z17.949 F999.600
G1 X-0.744 Y94.774 Z17.929 F999.600
G1 X-0.679 Y94.552 Z17.908 F999.600
G1 X-0.572 Y94.348 Z17.888 F999.600
G1 X-0.427 Y94.168 Z17.868 F999.600
G1 X-0.250 Y94.020 Z17.847 F999.600
G1 X-0.047 Y93.910 Z17.827 F999.600
G1 X0.173 Y93.841 Z17.806 F999.600
G1 X0.403 Y93.816 Z17.786 F999.600
G1 X0.633 Y93.837 Z17.766 F999.600
G1 X0.854 Y93.902 Z17.745 F999.600
G1 X1.058 Y94.009 Z17.725 F999.600
G1 X1.238 Y94.154 Z17.704 F999.600
G1 X1.386 Y94.331 Z17.684 F999.600
G1 X1.497 Y94.534 Z17.664 F999.600
G1 X1.565 Y94.754 Z17.643 F999.600
G1 X1.590 Y94.984 Z17.623 F999.600
G1 X1.569 Y95.214 Z17.602 F999.600
G1 X1.504 Y95.435 Z17.582 F999.600
G1 X1.397 Y95.640 Z17.562 F999.600
G1 X1.252 Y95.819 Z17.541 F999.600
G1 X1.075 Y95.967 Z17.521 F999.600
G1 X0.872 Y96.078 Z17.500 F999.600
G1 X0.652 Y96.147 Z17.480 F999.600
G1 X0.422 Y96.171 Z17.460 F999.600
G1 X0.192 Y96.151 Z17.439 F999.600
G1 X-0.029 Y96.085 Z17.419 F999.600
G1 X-0.233 Y95.978 Z17.398 F999.600
G1 X-0.413 Y95.833 Z17.378 F999.600
G1 X-0.561 Y95.656 Z17.358 F999.600
G1 X-0.672 Y95.453 Z17.337 F999.600
G1 X-0.740 Y95.233 Z17.317 F999.600
G1 X-0.765 Y95.004 Z17.296 F999.600
G1 X-0.744 Y94.774 Z17.276 F999.600
G1 X-0.679 Y94.552 Z17.256 F999.600
G1 X-0.572 Y94.348 Z17.235 F999.600
G1 X-0.427 Y94.168 Z17.215 F999.600
G1 X-0.250 Y94.020 Z17.194 F999.600
G1 X-0.047 Y93.910 Z17.174 F999.600
G1 X0.173 Y93.841 Z17.154 F999.600
G1 X0.403 Y93.816 Z17.133 F999.600
G1 X0.633 Y93.837 Z17.113 F999.600
G1 X0.854 Y93.902 Z17.092 F999.600
G1 X1.058 Y94.009 Z17.072 F999.600
G1 X1.238 Y94.154 Z17.052 F999.600
G1 X1.386 Y94.331 Z17.031 F999.600
G1 X1.497 Y94.534 Z17.011 F999.600
G1 X1.565 Y94.754 Z16.990 F999.600
G1 X1.590 Y94.984 Z16.970 F999.600
G1 X1.569 Y95.214 Z16.950 F999.600
G1 X1.504 Y95.435 Z16.929 F999.600
G1 X1.397 Y95.640 Z16.909 F999.600
G1 X1.252 Y95.819 Z16.888 F999.600
G1 X1.075 Y95.967 Z16.868 F999.600
G1 X0.872 Y96.078 Z16.848 F999.600
G1 X0.652 Y96.147 Z16.827 F999.600
G1 X0.422 Y96.171 Z16.807 F999.600
G1 X0.192 Y96.151 Z16.786 F999.600
G1 X-0.029 Y96.085 Z16.766 F999.600
G1 X-0.233 Y95.978 Z16.746 F999.600
G1 X-0.413 Y95.833 Z16.725 F999.600
G1 X-0.561 Y95.656 Z16.705 F999.600
G1 X-0.672 Y95.453 Z16.684 F999.600
G1 X-0.740 Y95.233 Z16.664 F999.600
G1 X-0.765 Y95.004 Z16.644 F999.600
G1 X-0.744 Y94.774 Z16.623 F999.600
G1 X-0.679 Y94.552 Z16.603 F999.600
G1 X-0.572 Y94.348 Z16.582 F999.600
G1 X-0.427 Y94.168 Z16.562 F999.600
G1 X-0.250 Y94.020 Z16.542 F999.600
G1 X-0.047 Y93.910 Z16.521 F999.600
G1 X0.173 Y93.841 Z16.501 F999.600
G1 X0.403 Y93.816 Z16.500 F1200.000
G1 X0.633 Y93.837 Z16.500 F1200.000
G1 X0.854 Y93.902 Z16.500 F1200.000
G1 X1.058 Y94.009 Z16.500 F1200.000
G1 X1.238 Y94.154 Z16.500 F1200.000
G1 X1.386 Y94.331 Z16.500 F1200.000
G1 X1.497 Y94.534 Z16.500 F1200.000
G1 X1.565 Y94.754 Z16.500 F1200.000
G1 X1.590 Y94.984 Z16.500 F1200.000
G1 X1.569 Y95.214 Z16.500 F1200.000
G1 X1.504 Y95.435 Z16.500 F1200.000
G1 X1.397 Y95.640 Z16.500 F1200.000
G1 X1.252 Y95.819 Z16.500 F1200.000
G1 X1.075 Y95.967 Z16.500 F1200.000
G1 X0.872 Y96.078 Z16.500 F1200.000
G1 X0.652 Y96.147 Z16.500 F1200.000
G1 X0.422 Y96.171 Z16.500 F1200.000
G1 X0.192 Y96.151 Z16.500 F1200.000
G1 X-0.029 Y96.085 Z16.500 F1200.000
G1 X-0.233 Y95.978 Z16.500 F1200.000
G1 X-0.413 Y95.833 Z16.500 F1200.000
G1 X-0.561 Y95.656 Z16.500 F1200.000
G1 X-0.672 Y95.453 Z16.500 F1200.000
G1 X-0.740 Y95.233 Z16.500 F1200.000
G1 X-0.765 Y95.004 Z16.500 F1200.000
G1 X-0.744 Y94.774 Z16.500 F1200.000
G1 X-0.679 Y94.552 Z16.500 F1200.000
G1 X-0.572 Y94.348 Z16.500 F1200.000
G1 X-0.427 Y94.168 Z16.500 F1200.000
G1 X-0.250 Y94.020 Z16.500 F1200.000
G1 X-0.047 Y93.910 Z16.500 F1200.000
G1 X0.173 Y93.841 Z16.500 F1200.000
(Adaptive - depth: 16.500000)
G1 X0.412 Y93.806 F1200.000
G1 X0.481 Y93.731 F1200.000
G1 X0.531 Y93.644 F1200.000
G1 X0.688 Y93.519 F1200.000
G1 X0.963 Y93.419 F1200.000
G1 X1.150 Y93.406 F1200.000
G1 X1.531 Y93.487 F1200.000
G1 X1.806 Y93.625 F1200.000
G1 X1.988 Y93.763 F1200.000
G1 X2.144 Y93.919 F1200.000
G1 X2.319 Y94.156 F1200.000
G1 X2.444 Y94.450 F1200.000
G1 X2.519 Y94.713 F1200.000
G1 X2.550 Y95.006 F1200.000
G1 X2.550 Y95.300 F1200.000
G1 X2.481 Y95.675 F1200.000
G1 X2.362 Y95.975 F1200.000
G1 X2.225 Y96.219 F1200.000
G1 X2.019 Y96.469 F1200.000
G1 X1.800 Y96.681 F1200.000
G1 X1.494 Y96.900 F1200.000
G1 X1.194 Y97.050 F1200.000
G1 X0.869 Y97.144 F1200.000
G1 X0.588 Y97.181 F1200.000
G1 X0.275 Y97.175 F1200.000
G1 X-0.025 Y97.138 F1200.000
G1 X-0.400 Y97.019 F1200.000
G1 X-0.700 Y96.875 F1200.000
G1 X-0.988 Y96.688 F1200.000
G1 X-1.244 Y96.438 F1200.000
G1 X-1.425 Y96.206 F1200.000
G1 X-1.587 Y95.925 F1200.000
G1 X-1.700 Y95.619 F1200.000
G1 X-1.762 Y95.312 F1200.000
G1 X-1.775 Y94.994 F1200.000
G1 X-1.756 Y94.675 F1200.000
G1 X-1.669 Y94.287 F1200.000
G1 X-1.531 Y93.969 F1200.000
G1 X-1.369 Y93.719 F1200.000
G1 X-1.194 Y93.487 F1200.000
G1 X-0.938 Y93.188 F1200.000
G1 X-0.650 Y92.912 F1200.000
G1 X-0.325 Y92.688 F1200.000
G1 X0.025 Y92.506 F1200.000
G1 X0.369 Y92.381 F1200.000
G1 X0.706 Y92.306 F1200.000
G1 X1.075 Y92.281 F1200.000
G1 X1.431 Y92.306 F1200.000
G1 X1.781 Y92.381 F1200.000
G1 X2.119 Y92.500 F1200.000
G1 X2.438 Y92.669 F1200.000
G1 X2.731 Y92.875 F1200.000
G1 X2.994 Y93.119 F1200.000
G1 X3.219 Y93.400 F1200.000
G1 X3.400 Y93.706 F1200.000
G1 X3.538 Y94.037 F1200.000
G1 X3.631 Y94.381 F1200.000
G1 X3.700 Y94.731 F1200.000
G1 X3.712 Y95.119 F1200.000
G1 X3.681 Y95.506 F1200.000
G1 X3.612 Y95.894 F1200.000
G1 X3.494 Y96.269 F1200.000
G1 X3.331 Y96.625 F1200.000
G1 X3.131 Y96.963 F1200.000
G1 X2.888 Y97.275 F1200.000
G1 X2.612 Y97.556 F1200.000
G1 X2.306 Y97.800 F1200.000
G1 X1.969 Y98.006 F1200.000
G1 X1.606 Y98.156 F1200.000
G1 X1.269 Y98.256 F1200.000
G1 X0.875 Y98.319 F1200.000
G1 X0.487 Y98.350 F1200.000
G1 X0.094 Y98.325 F1200.000
G1 X-0.294 Y98.256 F1200.000
G1 X-0.669 Y98.144 F1200.000
G1 X-1.031 Y97.987 F1200.000
G1 X-1.375 Y97.794 F1200.000
G1 X-1.694 Y97.562 F1200.000
G1 X-1.981 Y97.294 F1200.000
G1 X-2.237 Y96.994 F1200.000
G1 X-2.456 Y96.669 F1200.000
G1 X-2.638 Y96.319 F1200.000
G1 X-2.775 Y95.950 F1200.000
G1 X-2.869 Y95.569 F1200.000
G1 X-2.919 Y95.175 F1200.000
G1 X-2.925 Y94.781 F1200.000
G1 X-2.888 Y94.388 F1200.000
G1 X-2.806 Y94.000 F1200.000
G1 X-2.681 Y93.625 F1200.000
G1 X-2.513 Y93.263 F1200.000
G1 X-2.300 Y92.925 F1200.000
G1 X-1.806 Y92.306 F1200.000
G1 X-1.512 Y92.037 F1200.000
G1 X-1.194 Y91.794 F1200.000
G1 X-0.863 Y91.575 F1200.000
G1 X-0.506 Y91.394 F1200.000
G1 X-0.138 Y91.244 F1200.000
G1 X0.237 Y91.125 F1200.000
G1 X0.619 Y91.044 F1200.000
G1 X1.006 Y91.019 F1200.000
G1 X1.394 Y91.025 F1200.000
G1 X1.781 Y91.075 F1200.000
G1 X2.156 Y91.169 F1200.000
G1 X2.525 Y91.300 F1200.000
G1 X2.875 Y91.469 F1200.000
G1 X3.206 Y91.681 F1200.000
G1 X3.806 Y92.175 F1200.000
G1 X4.069 Y92.463 F1200.000
G1 X4.306 Y92.775 F1200.000
G1 X4.500 Y93.112 F1200.000
G1 X4.662 Y93.469 F1200.000
G1 X4.787 Y93.838 F1200.000
G1 X4.875 Y94.219 F1200.000
G1 X4.963 Y94.994 F1200.000
G1 X4.950 Y95.381 F1200.000
G1 X4.906 Y95.769 F1200.000
G1 X4.838 Y96.156 F1200.000
G1 X4.725 Y96.531 F1200.000
G1 X4.588 Y96.900 F1200.000
G1 X4.419 Y97.256 F1200.000
G1 X4.219 Y97.594 F1200.000
G1 X3.994 Y97.912 F1200.000
G1 X3.737 Y98.213 F1200.000
G1 X3.456 Y98.487 F1200.000
G1 X3.156 Y98.744 F1200.000
G1 X2.831 Y98.969 F1200.000
G1 X2.475 Y99.144 F1200.000
G1 X2.112 Y99.300 F1200.000
G1 X1.350 Y99.513 F1200.000
G1 X0.956 Y99.569 F1200.000
G1 X0.562 Y99.594 F1200.000
G1 X0.169 Y99.594 F1200.000
G1 X-0.219 Y99.556 F1200.000
G1 X-0.606 Y99.487 F1200.000
G1 X-0.988 Y99.394 F1200.000
G1 X-1.356 Y99.269 F1200.000
G1 X-1.712 Y99.112 F1200.000
G1 X-2.050 Y98.906 F1200.000
G1 X-2.375 Y98.681 F1200.000
G1 X-2.675 Y98.425 F1200.000
G1 X-2.944 Y98.138 F1200.000
G1 X-3.188 Y97.831 F1200.000
G1 X-3.619 Y97.169 F1200.000
G1 X-3.788 Y96.812 F1200.000
G1 X-3.931 Y96.444 F1200.000
G1 X-4.056 Y96.069 F1200.000
G1 X-4.144 Y95.681 F1200.000
G1 X-4.188 Y95.287 F1200.000
G1 X-4.206 Y94.894 F1200.000
G1 X-4.188 Y94.500 F1200.000
G1 X-4.131 Y94.106 F1200.000
G1 X-4.044 Y93.719 F1200.000
G1 X-3.919 Y93.338 F1200.000
G1 X-3.600 Y92.606 F1200.000
G1 X-3.394 Y92.263 F1200.000
G1 X-3.169 Y91.938 F1200.000
G1 X-2.925 Y91.625 F1200.000
G1 X-2.650 Y91.338 F1200.000
G1 X-2.356 Y91.069 F1200.000
G1 X-2.044 Y90.819 F1200.000
G1 X-1.712 Y90.594 F1200.000
G1 X-1.369 Y90.394 F1200.000
G1 X-1.012 Y90.219 F1200.000
G1 X-0.644 Y90.069 F1200.000
G1 X-0.263 Y89.950 F1200.000
G1 X0.500 Y89.769 F1200.000
G1 X0.887 Y89.719 F1200.000
G1 X1.275 Y89.694 F1200.000
G1 X1.663 Y89.719 F1200.000
G1 X2.050 Y89.763 F1200.000
G1 X2.431 Y89.838 F1200.000
G1 X2.806 Y89.950 F1200.000
G1 X3.169 Y90.088 F1200.000
G1 X3.519 Y90.256 F1200.000
G1 X3.856 Y90.450 F1200.000
G1 X4.175 Y90.669 F1200.000
G1 X4.475 Y90.912 F1200.000
G1 X4.756 Y91.181 F1200.000
G1 X5.013 Y91.475 F1200.000
G1 X5.244 Y91.787 F1200.000
G1 X5.450 Y92.119 F1200.000
G1 X5.806 Y92.806 F1200.000
G1 X5.944 Y93.169 F1200.000
G1 X6.062 Y93.537 F1200.000
G1 X6.162 Y93.912 F1200.000
G1 X6.237 Y94.294 F1200.000
G1 X6.287 Y94.681 F1200.000
G1 X6.294 Y95.069 F1200.000
G1 X6.281 Y95.456 F1200.000
G1 X6.237 Y95.844 F1200.000
G1 X6.162 Y96.225 F1200.000
G1 X5.956 Y96.981 F1200.000
G1 X5.812 Y97.344 F1200.000
G1 X5.475 Y98.050 F1200.000
G1 X5.275 Y98.388 F1200.000
G1 X5.056 Y98.713 F1200.000
G1 X4.800 Y99.013 F1200.000
G1 X4.531 Y99.300 F1200.000
G1 X4.244 Y99.569 F1200.000
G1 X3.931 Y99.812 F1200.000
G1 X3.606 Y100.037 F1200.000
G1 X3.263 Y100.237 F1200.000
G1 X2.906 Y100.412 F1200.000
G1 X2.538 Y100.562 F1200.000
G1 X2.163 Y100.681 F1200.000
G1 X1.775 Y100.775 F1200.000
G1 X1.381 Y100.844 F1200.000
G1 X0.988 Y100.881 F1200.000
G1 X0.200 Y100.912 F1200.000
G1 X-0.575 Y100.850 F1200.000
G1 X-0.956 Y100.775 F1200.000
G1 X-1.337 Y100.681 F1200.000
G1 X-1.712 Y100.562 F1200.000
G1 X-2.075 Y100.412 F1200.000
G1 X-2.431 Y100.244 F1200.000
G1 X-2.763 Y100.037 F1200.000
G1 X-3.081 Y99.812 F1200.000
G1 X-3.381 Y99.562 F1200.000
G1 X-3.663 Y99.287 F1200.000
G1 X-4.181 Y98.694 F1200.000
G1 X-4.406 Y98.369 F1200.000
G1 X-4.612 Y98.031 F1200.000
G1 X-4.800 Y97.681 F1200.000
G1 X-5.125 Y96.956 F1200.000
G1 X-5.256 Y96.581 F1200.000
G1 X-5.369 Y96.200 F1200.000
G1 X-5.444 Y95.812 F1200.000
G1 X-5.500 Y95.419 F1200.000
G1 X-5.531 Y95.025 F1200.000
G1 X-5.531 Y94.631 F1200.000
G1 X-5.506 Y94.237 F1200.000
G1 X-5.438 Y93.844 F1200.000
G1 X-5.344 Y93.456 F1200.000
G1 X-5.094 Y92.700 F1200.000
G1 X-4.931 Y92.338 F1200.000
G1 X-4.556 Y91.631 F1200.000
G1 X-4.338 Y91.300 F1200.000
G1 X-3.850 Y90.675 F1200.000
G1 X-3.581 Y90.381 F1200.000
G1 X-3.294 Y90.106 F1200.000
G1 X-2.994 Y89.850 F1200.000
G1 X-2.675 Y89.606 F1200.000
G1 X-2.344 Y89.381 F1200.000
G1 X-2.000 Y89.181 F1200.000
G1 X-1.644 Y89.000 F1200.000
G1 X-1.281 Y88.838 F1200.000
G1 X-0.906 Y88.694 F1200.000
G1 X-0.525 Y88.575 F1200.000
G1 X-0.138 Y88.475 F1200.000
G1 X0.244 Y88.400 F1200.000
G1 X0.631 Y88.350 F1200.000
G1 X1.019 Y88.319 F1200.000
G1 X1.406 Y88.312 F1200.000
G1 X1.794 Y88.331 F1200.000
G1 X2.181 Y88.369 F1200.000
G1 X2.569 Y88.431 F1200.000
G1 X2.944 Y88.531 F1200.000
G1 X3.312 Y88.650 F1200.000
G1 X3.675 Y88.794 F1200.000
G1 X4.025 Y88.969 F1200.000
G1 X4.700 Y89.362 F1200.000
G1 X5.319 Y89.838 F1200.000
G1 X5.612 Y90.094 F1200.000
G1 X5.888 Y90.369 F1200.000
G1 X6.362 Y90.987 F1200.000
G1 X6.769 Y91.650 F1200.000
G1 X6.944 Y92.000 F1200.000
G1 X7.100 Y92.356 F1200.000
G1 X7.237 Y92.719 F1200.000
G1 X7.350 Y93.094 F1200.000
G1 X7.444 Y93.475 F1200.000
G1 X7.519 Y93.856 F1200.000
G1 X7.569 Y94.244 F1200.000
G1 X7.600 Y94.631 F1200.000
G1 X7.612 Y95.019 F1200.000
G1 X7.600 Y95.406 F1200.000
G1 X7.569 Y95.794 F1200.000
G1 X7.513 Y96.181 F1200.000
G1 X7.438 Y96.562 F1200.000
G1 X7.338 Y96.944 F1200.000
G1 X7.100 Y97.694 F1200.000
G1 X6.956 Y98.056 F1200.000
G1 X6.794 Y98.412 F1200.000
G1 X6.406 Y99.094 F1200.000
G1 X6.188 Y99.419 F1200.000
G1 X5.950 Y99.731 F1200.000
G1 X5.694 Y100.031 F1200.000
G1 X5.425 Y100.319 F1200.000
G1 X5.138 Y100.588 F1200.000
G1 X4.506 Y101.062 F1200.000
G1 X4.169 Y101.269 F1200.000
G1 X3.819 Y101.450 F1200.000
G1 X3.094 Y101.769 F1200.000
G1 X2.337 Y102.006 F1200.000
G1 X1.956 Y102.100 F1200.000
G1 X1.175 Y102.225 F1200.000
G1 X0.781 Y102.263 F1200.000
G1 X0.388 Y102.275 F1200.000
G1 X0.000 Y102.269 F1200.000
G1 X-0.388 Y102.244 F1200.000
G1 X-0.775 Y102.200 F1200.000
G1 X-1.163 Y102.138 F1200.000
G1 X-1.544 Y102.056 F1200.000
G1 X-1.919 Y101.956 F1200.000
G1 X-2.650 Y101.662 F1200.000
G1 X-3.000 Y101.487 F1200.000
G1 X-3.663 Y101.062 F1200.000
G1 X-3.975 Y100.819 F1200.000
G1 X-4.562 Y100.294 F1200.000
G1 X-4.831 Y100.006 F1200.000
G1 X-5.331 Y99.400 F1200.000
G1 X-5.769 Y98.744 F1200.000
G1 X-5.963 Y98.400 F1200.000
G1 X-6.138 Y98.044 F1200.000
G1 X-6.294 Y97.681 F1200.000
G1 X-6.431 Y97.312 F1200.000
G1 X-6.550 Y96.938 F1200.000
G1 X-6.650 Y96.556 F1200.000
G1 X-6.731 Y96.169 F1200.000
G1 X-6.794 Y95.775 F1200.000
G1 X-6.838 Y95.381 F1200.000
G1 X-6.862 Y94.987 F1200.000
G1 X-6.869 Y94.594 F1200.000
G1 X-6.856 Y94.200 F1200.000
G1 X-6.731 Y93.412 F1200.000
G1 X-6.638 Y93.025 F1200.000
G1 X-6.519 Y92.644 F1200.000
G1 X-6.381 Y92.269 F1200.000
G1 X-6.056 Y91.544 F1200.000
G1 X-5.656 Y90.850 F1200.000
G1 X-5.444 Y90.513 F1200.000
G1 X-4.956 Y89.881 F1200.000
G1 X-4.694 Y89.581 F1200.000
G1 X-4.419 Y89.294 F1200.000
G1 X-4.131 Y89.019 F1200.000
G1 X-3.519 Y88.506 F1200.000
G1 X-2.869 Y88.044 F1200.000
G1 X-2.531 Y87.838 F1200.000
G1 X-1.806 Y87.506 F1200.000
G1 X-1.431 Y87.369 F1200.000
G1 X-1.050 Y87.263 F1200.000
G1 X-0.275 Y87.088 F1200.000
G1 X0.500 Y86.987 F1200.000
G1 X1.275 Y86.925 F1200.000
G1 X1.663 Y86.919 F1200.000
G1 X2.050 Y86.944 F1200.000
G1 X2.438 Y86.994 F1200.000
G1 X2.825 Y87.062 F1200.000
G1 X3.206 Y87.156 F1200.000
G1 X3.575 Y87.275 F1200.000
G1 X4.300 Y87.550 F1200.000
G1 X4.994 Y87.900 F1200.000
G1 X5.331 Y88.094 F1200.000
G1 X5.975 Y88.531 F1200.000
G1 X6.281 Y88.775 F1200.000
G1 X6.838 Y89.325 F1200.000
G1 X7.094 Y89.619 F1200.000
G1 X7.763 Y90.581 F1200.000
G1 X8.131 Y91.263 F1200.000
G1 X8.300 Y91.612 F1200.000
G1 X8.450 Y91.975 F1200.000
G1 X8.700 Y92.713 F1200.000
G1 X8.887 Y93.469 F1200.000
G1 X8.956 Y93.850 F1200.000
G1 X9.006 Y94.237 F1200.000
G1 X9.025 Y95.013 F1200.000
G1 X8.981 Y95.787 F1200.000
G1 X8.931 Y96.175 F1200.000
G1 X8.787 Y96.944 F1200.000
G1 X8.575 Y97.700 F1200.000
G1 X8.450 Y98.069 F1200.000
G1 X8.306 Y98.431 F1200.000
G1 X7.969 Y99.138 F1200.000
G1 X7.781 Y99.481 F1200.000
G1 X7.356 Y100.144 F1200.000
G1 X6.881 Y100.769 F1200.000
G1 X6.625 Y101.062 F1200.000
G1 X6.344 Y101.338 F1200.000
G1 X5.744 Y101.850 F1200.000
G1 X5.088 Y102.287 F1200.000
G1 X4.744 Y102.481 F1200.000
G1 X4.037 Y102.838 F1200.000
G1 X3.306 Y103.125 F1200.000
G1 X2.931 Y103.256 F1200.000
G1 X2.169 Y103.469 F1200.000
G1 X1.381 Y103.588 F1200.000
G1 X0.594 Y103.656 F1200.000
G1 X0.200 Y103.669 F1200.000
G1 X-0.575 Y103.650 F1200.000
G1 X-1.350 Y103.544 F1200.000
G1 X-1.731 Y103.469 F1200.000
G1 X-2.487 Y103.256 F1200.000
G1 X-2.856 Y103.125 F1200.000
G1 X-3.556 Y102.775 F1200.000
G1 X-4.225 Y102.356 F1200.000
G1 X-4.544 Y102.125 F1200.000
G1 X-5.144 Y101.619 F1200.000
G1 X-5.425 Y101.344 F1200.000
G1 X-5.694 Y101.056 F1200.000
G1 X-6.213 Y100.463 F1200.000
G1 X-6.906 Y99.506 F1200.000
G1 X-7.287 Y98.819 F1200.000
G1 X-7.463 Y98.463 F1200.000
G1 X-7.763 Y97.731 F1200.000
G1 X-7.888 Y97.356 F1200.000
G1 X-8.088 Y96.588 F1200.000
G1 X-8.162 Y96.200 F1200.000
G1 X-8.219 Y95.806 F1200.000
G1 X-8.256 Y95.412 F1200.000
G1 X-8.281 Y94.625 F1200.000
G1 X-8.269 Y94.231 F1200.000
G1 X-8.238 Y93.838 F1200.000
G1 X-8.081 Y93.062 F1200.000
G1 X-7.862 Y92.300 F1200.000
G1 X-7.575 Y91.556 F1200.000
G1 X-7.412 Y91.194 F1200.000
G1 X-7.231 Y90.844 F1200.000
G1 X-6.838 Y90.150 F1200.000
G1 X-6.400 Y89.481 F1200.000
G1 X-6.169 Y89.156 F1200.000
G1 X-5.650 Y88.556 F1200.000
G1 X-5.375 Y88.269 F1200.000
G1 X-5.088 Y87.994 F1200.000
G1 X-4.475 Y87.481 F1200.000
G1 X-3.500 Y86.794 F1200.000
G1 X-3.156 Y86.588 F1200.000
G1 X-2.444 Y86.237 F1200.000
G1 X-2.069 Y86.100 F1200.000
G1 X-1.306 Y85.875 F1200.000
G1 X-0.919 Y85.775 F1200.000
G1 X-0.138 Y85.638 F1200.000
G1 X0.637 Y85.531 F1200.000
G1 X1.413 Y85.475 F1200.000
G1 X2.188 Y85.506 F1200.000
G1 X2.575 Y85.544 F1200.000
G1 X3.337 Y85.700 F1200.000
G1 X3.712 Y85.806 F1200.000
G1 X4.450 Y86.062 F1200.000
G1 X5.156 Y86.388 F1200.000
G1 X5.850 Y86.744 F1200.000
G1 X6.188 Y86.938 F1200.000
G1 X6.513 Y87.156 F1200.000
G1 X7.119 Y87.644 F1200.000
G1 X7.400 Y87.912 F1200.000
G1 X7.669 Y88.194 F1200.000
G1 X7.925 Y88.487 F1200.000
G1 X8.194 Y88.769 F1200.000
G1 X8.906 Y89.700 F1200.000
G1 X9.294 Y90.375 F1200.000
G1 X9.469 Y90.719 F1200.000
G1 X9.769 Y91.438 F1200.000
G1 X10.119 Y92.550 F1200.000
G1 X10.287 Y93.312 F1200.000
G1 X10.387 Y94.088 F1200.000
G1 X10.412 Y94.475 F1200.000
G1 X10.412 Y95.250 F1200.000
G1 X10.387 Y95.638 F1200.000
G1 X10.231 Y96.800 F1200.000
G1 X10.069 Y97.562 F1200.000
G1 X9.844 Y98.312 F1200.000
G1 X9.713 Y98.681 F1200.000
G1 X9.400 Y99.400 F1200.000
G1 X9.225 Y99.750 F1200.000
G1 X8.825 Y100.431 F1200.000
G1 X8.375 Y101.075 F1200.000
G1 X7.875 Y101.681 F1200.000
G1 X7.325 Y102.250 F1200.000
G1 X7.037 Y102.519 F1200.000
G1 X6.425 Y103.019 F1200.000
G1 X5.775 Y103.469 F1200.000
G1 X5.094 Y103.869 F1200.000
G1 X4.744 Y104.050 F1200.000
G1 X4.025 Y104.362 F1200.000
G1 X3.656 Y104.500 F1200.000
G1 X2.900 Y104.725 F1200.000
G1 X2.513 Y104.819 F1200.000
G1 X1.731 Y104.956 F1200.000
G1 X0.944 Y105.031 F1200.000
G1 X-0.231 Y105.050 F1200.000
G1 X-1.006 Y105.006 F1200.000
G1 X-1.781 Y104.888 F1200.000
G1 X-2.163 Y104.806 F1200.000
G1 X-2.919 Y104.594 F1200.000
G1 X-3.650 Y104.319 F1200.000
G1 X-4.006 Y104.156 F1200.000
G1 X-4.681 Y103.756 F1200.000
G1 X-5.006 Y103.531 F1200.000
G1 X-5.625 Y103.050 F1200.000
G1 X-5.919 Y102.787 F1200.000
G1 X-6.756 Y101.956 F1200.000
G1 X-7.281 Y101.369 F1200.000
G1 X-7.763 Y100.737 F1200.000
G1 X-8.200 Y100.081 F1200.000
G1 X-8.588 Y99.394 F1200.000
G1 X-8.925 Y98.681 F1200.000
G1 X-9.213 Y97.950 F1200.000
G1 X-9.412 Y97.188 F1200.000
G1 X-9.488 Y96.800 F1200.000
G1 X-9.594 Y96.013 F1200.000
G1 X-9.644 Y95.225 F1200.000
G1 X-9.650 Y94.831 F1200.000
G1 X-9.613 Y94.044 F1200.000
G1 X-9.575 Y93.650 F1200.000
G1 X-9.450 Y92.862 F1200.000
G1 X-9.369 Y92.475 F1200.000
G1 X-9.137 Y91.713 F1200.000
G1 X-8.994 Y91.344 F1200.000
G1 X-8.675 Y90.612 F1200.000
G1 X-8.106 Y89.562 F1200.000
G1 X-7.669 Y88.894 F1200.000
G1 X-7.194 Y88.256 F1200.000
G1 X-6.675 Y87.650 F1200.000
G1 X-6.119 Y87.081 F1200.000
G1 X-5.525 Y86.550 F1200.000
G1 X-4.900 Y86.056 F1200.000
G1 X-4.244 Y85.606 F1200.000
G1 X-3.562 Y85.200 F1200.000
G1 X-2.837 Y84.875 F1200.000
G1 X-2.462 Y84.737 F1200.000
G1 X-2.081 Y84.619 F1200.000
G1 X-1.319 Y84.412 F1200.000
G1 X0.244 Y84.131 F1200.000
G1 X0.631 Y84.081 F1200.000
G1 X1.406 Y84.031 F1200.000
G1 X2.181 Y84.031 F1200.000
G1 X2.956 Y84.131 F1200.000
G1 X3.337 Y84.206 F1200.000
G1 X4.463 Y84.525 F1200.000
G1 X5.544 Y84.956 F1200.000
G1 X6.237 Y85.306 F1200.000
G1 X6.906 Y85.694 F1200.000
G1 X7.550 Y86.131 F1200.000
G1 X8.144 Y86.638 F1200.000
G1 X8.706 Y87.175 F1200.000
G1 X8.975 Y87.456 F1200.000
G1 X9.481 Y88.044 F1200.000
G1 X9.950 Y88.662 F1200.000
G1 X10.356 Y89.325 F1200.000
G1 X10.544 Y89.669 F1200.000
G1 X11.025 Y90.731 F1200.000
G1 X11.400 Y91.838 F1200.000
G1 X11.594 Y92.594 F1200.000
G1 X11.744 Y93.356 F1200.000
G1 X11.800 Y93.744 F1200.000
G1 X11.844 Y94.519 F1200.000
G1 X11.844 Y94.906 F1200.000
G1 X11.762 Y96.069 F1200.000
G1 X11.575 Y97.231 F1200.000
G1 X11.394 Y97.994 F1200.000
G1 X11.169 Y98.744 F1200.000
G1 X10.744 Y99.838 F1200.000
G1 X10.406 Y100.544 F1200.000
G1 X10.225 Y100.888 F1200.000
G1 X9.787 Y101.537 F1200.000
G1 X9.550 Y101.850 F1200.000
G1 X9.050 Y102.456 F1200.000
G1 X8.231 Y103.306 F1200.000
G1 X7.650 Y103.838 F1200.000
G1 X7.037 Y104.338 F1200.000
G1 X6.375 Y104.763 F1200.000
G1 X5.688 Y105.150 F1200.000
G1 X4.606 Y105.644 F1200.000
G1 X3.862 Y105.919 F1200.000
G1 X3.106 Y106.144 F1200.000
G1 X2.331 Y106.294 F1200.000
G1 X1.544 Y106.412 F1200.000
G1 X0.362 Y106.506 F1200.000
G1 X-0.025 Y106.519 F1200.000
G1 X-0.800 Y106.469 F1200.000
G1 X-1.188 Y106.425 F1200.000
G1 X-1.956 Y106.287 F1200.000
G1 X-2.719 Y106.112 F1200.000
G1 X-3.469 Y105.894 F1200.000
G1 X-4.200 Y105.612 F1200.000
G1 X-4.562 Y105.456 F1200.000
G1 X-4.912 Y105.281 F1200.000
G1 X-5.581 Y104.869 F1200.000
G1 X-5.900 Y104.638 F1200.000
G1 X-6.800 Y103.875 F1200.000
G1 X-7.081 Y103.600 F1200.000
G1 X-7.375 Y103.338 F1200.000
G1 X-7.931 Y102.781 F1200.000
G1 X-8.700 Y101.881 F1200.000
G1 X-9.169 Y101.244 F1200.000
G1 X-9.594 Y100.581 F1200.000
G1 X-9.950 Y99.881 F1200.000
G1 X-10.113 Y99.519 F1200.000
G1 X-10.387 Y98.775 F1200.000
G1 X-10.619 Y98.019 F1200.000
G1 X-10.894 Y96.862 F1200.000
G1 X-10.963 Y96.475 F1200.000
G1 X-11.031 Y95.688 F1200.000
G1 X-11.044 Y95.294 F1200.000
G1 X-11.037 Y94.506 F1200.000
G1 X-10.931 Y93.325 F1200.000
G1 X-10.806 Y92.537 F1200.000
G1 X-10.631 Y91.763 F1200.000
G1 X-10.387 Y91.006 F1200.000
G1 X-10.244 Y90.638 F1200.000
G1 X-9.906 Y89.919 F1200.000
G1 X-9.531 Y89.219 F1200.000
G1 X-8.894 Y88.206 F1200.000
G1 X-8.425 Y87.562 F1200.000
G1 X-7.919 Y86.944 F1200.000
G1 X-7.375 Y86.362 F1200.000
G1 X-6.806 Y85.806 F1200.000
G1 X-5.888 Y85.037 F1200.000
G1 X-5.244 Y84.569 F1200.000
G1 X-4.575 Y84.138 F1200.000
G1 X-4.231 Y83.938 F1200.000
G1 X-3.506 Y83.606 F1200.000
G1 X-3.138 Y83.463 F1200.000
G1 X-1.994 Y83.112 F1200.000
G1 X-1.606 Y83.025 F1200.000
G1 X-1.225 Y82.919 F1200.000
G1 X-0.450 Y82.750 F1200.000
G1 X0.331 Y82.644 F1200.000
G1 X0.719 Y82.606 F1200.000
G1 X1.494 Y82.575 F1200.000
G1 X1.881 Y82.575 F1200.000
G1 X2.656 Y82.619 F1200.000
G1 X3.431 Y82.719 F1200.000
G1 X3.812 Y82.787 F1200.000
G1 X4.562 Y82.994 F1200.000
G1 X4.931 Y83.119 F1200.000
G1 X5.656 Y83.406 F1200.000
G1 X6.362 Y83.744 F1200.000
G1 X7.056 Y84.100 F1200.000
G1 X7.731 Y84.487 F1200.000
G1 X8.369 Y84.938 F1200.000
G1 X8.675 Y85.175 F1200.000
G1 X9.256 Y85.694 F1200.000
G1 X10.075 Y86.531 F1200.000
G1 X10.831 Y87.425 F1200.000
G1 X11.069 Y87.731 F1200.000
G1 X11.494 Y88.381 F1200.000
G1 X11.881 Y89.056 F1200.000
G1 X12.219 Y89.763 F1200.000
G1 X12.506 Y90.487 F1200.000
G1 X12.744 Y91.231 F1200.000
G1 X13.019 Y92.362 F1200.000
G1 X13.162 Y93.125 F1200.000
G1 X13.256 Y93.900 F1200.000
G1 X13.287 Y94.287 F1200.000
G1 X13.306 Y95.062 F1200.000
G1 X13.238 Y96.225 F1200.000
G1 X13.194 Y96.612 F1200.000
G1 X12.950 Y97.756 F1200.000
G1 X12.494 Y99.256 F1200.000
G1 X12.088 Y100.362 F1200.000
G1 X11.750 Y101.075 F1200.000
G1 X11.350 Y101.750 F1200.000
G1 X11.131 Y102.075 F1200.000
G1 X10.412 Y103.006 F1200.000
G1 X9.631 Y103.888 F1200.000
G1 X9.075 Y104.444 F1200.000
G1 X8.494 Y104.975 F1200.000
G1 X7.888 Y105.475 F1200.000
G1 X7.231 Y105.912 F1200.000
G1 X6.894 Y106.119 F1200.000
G1 X6.194 Y106.481 F1200.000
G1 X5.100 Y106.950 F1200.000
G1 X3.981 Y107.344 F1200.000
G1 X3.219 Y107.562 F1200.000
G1 X2.837 Y107.656 F1200.000
G1 X2.050 Y107.781 F1200.000
G1 X0.869 Y107.919 F1200.000
G1 X0.081 Y107.931 F1200.000
G1 X-0.306 Y107.919 F1200.000
G1 X-1.469 Y107.800 F1200.000
G1 X-2.631 Y107.600 F1200.000
G1 X-3.394 Y107.419 F1200.000
G1 X-4.144 Y107.181 F1200.000
G1 X-4.875 Y106.894 F1200.000
G1 X-5.581 Y106.556 F1200.000
G1 X-6.250 Y106.138 F1200.000
G1 X-6.569 Y105.912 F1200.000
G1 X-7.175 Y105.412 F1200.000
G1 X-7.487 Y105.175 F1200.000
G1 X-8.350 Y104.369 F1200.000
G1 X-9.169 Y103.519 F1200.000
G1 X-9.938 Y102.619 F1200.000
G1 X-10.181 Y102.306 F1200.000
G1 X-10.606 Y101.644 F1200.000
G1 X-10.806 Y101.300 F1200.000
G1 X-11.150 Y100.594 F1200.000
G1 X-11.469 Y99.869 F1200.000
G1 X-11.881 Y98.750 F1200.000
G1 X-12.113 Y97.994 F1200.000
G1 X-12.269 Y97.219 F1200.000
G1 X-12.331 Y96.825 F1200.000
G1 X-12.444 Y95.644 F1200.000
G1 X-12.463 Y94.463 F1200.000
G1 X-12.394 Y93.281 F1200.000
G1 X-12.350 Y92.888 F1200.000
G1 X-12.188 Y92.112 F1200.000
G1 X-12.088 Y91.725 F1200.000
G1 X-11.719 Y90.588 F1200.000
G1 X-11.262 Y89.481 F1200.000
G1 X-10.919 Y88.769 F1200.000
G1 X-10.537 Y88.069 F1200.000
G1 X-10.100 Y87.406 F1200.000
G1 X-9.369 Y86.456 F1200.000
G1 X-8.569 Y85.569 F1200.000
G1 X-7.713 Y84.731 F1200.000
G1 X-6.800 Y83.963 F1200.000
G1 X-5.844 Y83.250 F1200.000
G1 X-5.175 Y82.819 F1200.000
G1 X-4.463 Y82.469 F1200.000
G1 X-4.100 Y82.306 F1200.000
G1 X-2.987 Y81.881 F1200.000
G1 X-2.237 Y81.631 F1200.000
G1 X-1.075 Y81.350 F1200.000
G1 X-0.287 Y81.219 F1200.000
G1 X0.487 Y81.131 F1200.000
G1 X1.262 Y81.094 F1200.000
G1 X2.425 Y81.125 F1200.000
G1 X3.200 Y81.200 F1200.000
G1 X3.969 Y81.325 F1200.000
G1 X4.731 Y81.500 F1200.000
G1 X5.106 Y81.600 F1200.000
G1 X5.831 Y81.875 F1200.000
G1 X6.550 Y82.181 F1200.000
G1 X7.588 Y82.706 F1200.000
G1 X8.594 Y83.306 F1200.000
G1 X9.238 Y83.744 F1200.000
G1 X9.550 Y83.975 F1200.000
G1 X10.137 Y84.487 F1200.000
G1 X10.419 Y84.756 F1200.000
G1 X11.225 Y85.606 F1200.000
G1 X11.981 Y86.500 F1200.000
G1 X12.219 Y86.806 F1200.000
G1 X12.650 Y87.456 F1200.000
G1 X13.037 Y88.131 F1200.000
G1 X13.219 Y88.475 F1200.000
G1 X13.531 Y89.181 F1200.000
G1 X13.938 Y90.275 F1200.000
G1 X14.281 Y91.394 F1200.000
G1 X14.475 Y92.144 F1200.000
G1 X14.650 Y93.306 F1200.000
G1 X14.725 Y94.469 F1200.000
G1 X14.725 Y95.631 F1200.000
G1 X14.706 Y96.019 F1200.000
G1 X14.613 Y96.794 F1200.000
G1 X14.550 Y97.181 F1200.000
G1 X14.375 Y97.944 F1200.000
G1 X14.169 Y98.700 F1200.000
G1 X13.800 Y99.812 F1200.000
G1 X13.369 Y100.906 F1200.000
G1 X12.863 Y101.969 F1200.000
G1 X12.450 Y102.644 F1200.000
G1 X12.000 Y103.281 F1200.000
G1 X11.250 Y104.200 F1200.000
G1 X10.450 Y105.069 F1200.000
G1 X9.881 Y105.612 F1200.000
G1 X8.981 Y106.381 F1200.000
G1 X8.363 Y106.862 F1200.000
G1 X7.700 Y107.287 F1200.000
G1 X7.356 Y107.487 F1200.000
G1 X6.650 Y107.838 F1200.000
G1 X4.825 Y108.594 F1200.000
G1 X3.688 Y108.919 F1200.000
G1 X2.906 Y109.069 F1200.000
G1 X2.513 Y109.125 F1200.000
G1 X2.125 Y109.213 F1200.000
G1 X1.337 Y109.325 F1200.000
G1 X0.550 Y109.375 F1200.000
G1 X0.156 Y109.369 F1200.000
G1 X-0.231 Y109.344 F1200.000
G1 X-0.619 Y109.338 F1200.000
G1 X-1.781 Y109.200 F1200.000
G1 X-2.169 Y109.131 F1200.000
G1 X-2.556 Y109.081 F1200.000
G1 X-3.325 Y108.938 F1200.000
G1 X-4.088 Y108.737 F1200.000
G1 X-4.831 Y108.500 F1200.000
G1 X-5.550 Y108.188 F1200.000
G1 X-5.900 Y108.013 F1200.000
G1 X-6.581 Y107.612 F1200.000
G1 X-7.237 Y107.181 F1200.000
G1 X-8.181 Y106.469 F1200.000
G1 X-8.775 Y105.950 F1200.000
G1 X-9.344 Y105.406 F1200.000
G1 X-9.887 Y104.838 F1200.000
G1 X-10.406 Y104.244 F1200.000
G1 X-10.675 Y103.956 F1200.000
G1 X-11.175 Y103.344 F1200.000
G1 X-11.831 Y102.362 F1200.000
G1 X-12.213 Y101.669 F1200.000
G1 X-12.550 Y100.950 F1200.000
G1 X-12.863 Y100.225 F1200.000
G1 X-13.269 Y99.112 F1200.000
G1 X-13.387 Y98.737 F1200.000
G1 X-13.575 Y97.975 F1200.000
G1 X-13.656 Y97.588 F1200.000
G1 X-13.775 Y96.800 F1200.000
G1 X-13.850 Y96.013 F1200.000
G1 X-13.894 Y94.831 F1200.000
G1 X-13.875 Y93.650 F1200.000
G1 X-13.731 Y92.469 F1200.000
G1 X-13.575 Y91.694 F1200.000
G1 X-13.244 Y90.544 F1200.000
G1 X-12.956 Y89.800 F1200.000
G1 X-12.469 Y88.713 F1200.000
G1 X-11.719 Y87.312 F1200.000
G1 X-11.312 Y86.631 F1200.000
G1 X-10.838 Y85.994 F1200.000
G1 X-10.325 Y85.381 F1200.000
G1 X-10.056 Y85.088 F1200.000
G1 X-9.800 Y84.781 F1200.000
G1 X-8.975 Y83.919 F1200.000
G1 X-8.106 Y83.100 F1200.000
G1 X-7.481 Y82.600 F1200.000
G1 X-6.838 Y82.138 F1200.000
G1 X-6.169 Y81.713 F1200.000
G1 X-5.475 Y81.325 F1200.000
G1 X-4.756 Y80.975 F1200.000
G1 X-4.025 Y80.675 F1200.000
G1 X-3.275 Y80.412 F1200.000
G1 X-2.513 Y80.200 F1200.000
G1 X-1.738 Y80.006 F1200.000
G1 X-0.575 Y79.775 F1200.000
G1 X-0.181 Y79.713 F1200.000
G1 X0.981 Y79.612 F1200.000
G1 X1.756 Y79.606 F1200.000
G1 X2.144 Y79.619 F1200.000
G1 X2.919 Y79.688 F1200.000
G1 X4.081 Y79.856 F1200.000
G1 X4.844 Y80.013 F1200.000
G1 X5.594 Y80.225 F1200.000
G1 X5.963 Y80.344 F1200.000
G1 X6.688 Y80.625 F1200.000
G1 X7.750 Y81.112 F1200.000
G1 X8.781 Y81.669 F1200.000
G1 X9.450 Y82.069 F1200.000
G1 X10.088 Y82.519 F1200.000
G1 X10.688 Y83.006 F1200.000
G1 X11.544 Y83.794 F1200.000
G1 X12.356 Y84.631 F1200.000
G1 X13.113 Y85.519 F1200.000
G1 X13.356 Y85.825 F1200.000
G1 X13.781 Y86.475 F1200.000
G1 X13.981 Y86.806 F1200.000
G1 X14.519 Y87.844 F1200.000
G1 X14.981 Y88.919 F1200.000
G1 X15.250 Y89.650 F1200.000
G1 X15.606 Y90.763 F1200.000
G1 X15.819 Y91.513 F1200.000
G1 X15.969 Y92.275 F1200.000
G1 X16.031 Y92.662 F1200.000
G1 X16.113 Y93.438 F1200.000
G1 X16.169 Y94.213 F1200.000
G1 X16.194 Y95.375 F1200.000
G1 X16.188 Y95.763 F1200.000
G1 X16.081 Y96.925 F1200.000
G1 X15.950 Y97.700 F1200.000
G1 X15.775 Y98.463 F1200.000
G1 X15.550 Y99.213 F1200.000
G1 X15.162 Y100.325 F1200.000
G1 X14.875 Y101.050 F1200.000
G1 X14.387 Y102.119 F1200.000
G1 X14.031 Y102.819 F1200.000
G1 X13.619 Y103.481 F1200.000
G1 X13.169 Y104.125 F1200.000
G1 X12.681 Y104.737 F1200.000
G1 X12.162 Y105.331 F1200.000
G1 X11.344 Y106.181 F1200.000
G1 X10.475 Y106.981 F1200.000
G1 X9.556 Y107.731 F1200.000
G1 X8.925 Y108.200 F1200.000
G1 X8.250 Y108.612 F1200.000
G1 X7.906 Y108.806 F1200.000
G1 X7.194 Y109.150 F1200.000
G1 X6.475 Y109.475 F1200.000
G1 X5.369 Y109.912 F1200.000
G1 X4.994 Y110.044 F1200.000
G1 X4.231 Y110.256 F1200.000
G1 X3.456 Y110.431 F1200.000
G1 X2.681 Y110.575 F1200.000
G1 X1.500 Y110.737 F1200.000
G1 X0.713 Y110.781 F1200.000
G1 X0.319 Y110.787 F1200.000
G1 X-0.844 Y110.750 F1200.000
G1 X-2.394 Y110.625 F1200.000
G1 X-3.169 Y110.487 F1200.000
G1 X-3.550 Y110.406 F1200.000
G1 X-4.306 Y110.200 F1200.000
G1 X-4.681 Y110.081 F1200.000
G1 X-5.412 Y109.800 F1200.000
G1 X-6.125 Y109.475 F1200.000
G1 X-6.819 Y109.100 F1200.000
G1 X-7.487 Y108.688 F1200.000
G1 X-7.812 Y108.463 F1200.000
G1 X-8.144 Y108.256 F1200.000
G1 X-8.781 Y107.800 F1200.000
G1 X-9.694 Y107.050 F1200.000
G1 X-10.275 Y106.519 F1200.000
G1 X-10.831 Y105.956 F1200.000
G1 X-11.356 Y105.362 F1200.000
G1 X-12.338 Y104.119 F1200.000
G1 X-12.800 Y103.481 F1200.000
G1 X-13.400 Y102.463 F1200.000
G1 X-13.744 Y101.750 F1200.000
G1 X-14.069 Y101.031 F1200.000
G1 X-14.644 Y99.556 F1200.000
G1 X-14.963 Y98.412 F1200.000
G1 X-15.119 Y97.638 F1200.000
G1 X-15.231 Y96.850 F1200.000
G1 X-15.294 Y96.062 F1200.000
G1 X-15.331 Y94.881 F1200.000
G1 X-15.319 Y93.700 F1200.000
G1 X-15.206 Y92.519 F1200.000
G1 X-15.075 Y91.731 F1200.000
G1 X-14.994 Y91.344 F1200.000
G1 X-14.769 Y90.581 F1200.000
G1 X-14.637 Y90.206 F1200.000
G1 X-14.488 Y89.838 F1200.000
G1 X-14.356 Y89.463 F1200.000
G1 X-13.875 Y88.375 F1200.000
G1 X-12.969 Y86.606 F1200.000
G1 X-12.331 Y85.600 F1200.000
G1 X-11.600 Y84.662 F1200.000
G1 X-11.081 Y84.056 F1200.000
G1 X-10.262 Y83.188 F1200.000
G1 X-9.412 Y82.350 F1200.000
G1 X-8.525 Y81.550 F1200.000
G1 X-7.562 Y80.844 F1200.000
G1 X-6.544 Y80.225 F1200.000
G1 X-5.838 Y79.862 F1200.000
G1 X-5.106 Y79.544 F1200.000
G1 X-3.994 Y79.125 F1200.000
G1 X-2.856 Y78.763 F1200.000
G1 X-1.706 Y78.463 F1200.000
G1 X-1.319 Y78.375 F1200.000
G1 X-0.531 Y78.256 F1200.000
G1 X0.250 Y78.181 F1200.000
G1 X1.413 Y78.138 F1200.000
G1 X2.575 Y78.150 F1200.000
G1 X2.962 Y78.169 F1200.000
G1 X4.125 Y78.312 F1200.000
G1 X4.888 Y78.469 F1200.000
G1 X5.644 Y78.669 F1200.000
G1 X6.388 Y78.919 F1200.000
G1 X7.112 Y79.206 F1200.000
G1 X7.825 Y79.519 F1200.000
G1 X9.219 Y80.219 F1200.000
G1 X10.238 Y80.800 F1200.000
G1 X11.188 Y81.475 F1200.000
G1 X11.781 Y81.975 F1200.000
G1 X12.069 Y82.237 F1200.000
G1 X12.344 Y82.513 F1200.000
G1 X12.631 Y82.775 F1200.000
G1 X13.444 Y83.612 F1200.000
G1 X13.963 Y84.194 F1200.000
G1 X14.438 Y84.806 F1200.000
G1 X14.875 Y85.450 F1200.000
G1 X15.275 Y86.119 F1200.000
G1 X15.631 Y86.812 F1200.000
G1 X16.438 Y88.588 F1200.000
G1 X16.725 Y89.312 F1200.000
G1 X16.962 Y90.050 F1200.000
G1 X17.250 Y91.188 F1200.000
G1 X17.387 Y91.956 F1200.000
G1 X17.631 Y93.894 F1200.000
G1 X17.663 Y94.281 F1200.000
G1 X17.681 Y95.056 F1200.000
G1 X17.631 Y96.219 F1200.000
G1 X17.488 Y97.381 F1200.000
G1 X17.337 Y98.150 F1200.000
G1 X17.144 Y98.906 F1200.000
G1 X16.794 Y100.025 F1200.000
G1 X16.400 Y101.131 F1200.000
G1 X15.963 Y102.219 F1200.000
G1 X15.613 Y102.919 F1200.000
G1 X15.019 Y103.938 F1200.000
G1 X14.581 Y104.594 F1200.000
G1 X14.113 Y105.225 F1200.000
G1 X13.094 Y106.425 F1200.000
G1 X12.012 Y107.569 F1200.000
G1 X11.119 Y108.338 F1200.000
G1 X9.844 Y109.263 F1200.000
G1 X9.181 Y109.694 F1200.000
G1 X8.494 Y110.081 F1200.000
G1 X7.794 Y110.444 F1200.000
G1 X6.713 Y110.938 F1200.000
G1 X5.612 Y111.369 F1200.000
G1 X4.850 Y111.588 F1200.000
G1 X3.306 Y111.963 F1200.000
G1 X2.125 Y112.138 F1200.000
G1 X1.337 Y112.194 F1200.000
G1 X0.156 Y112.225 F1200.000
G1 X-1.006 Y112.206 F1200.000
G1 X-2.169 Y112.144 F1200.000
G1 X-3.331 Y111.963 F1200.000
G1 X-4.094 Y111.781 F1200.000
G1 X-4.844 Y111.556 F1200.000
G1 X-5.581 Y111.294 F1200.000
G1 X-6.300 Y110.981 F1200.000
G1 X-7.000 Y110.631 F1200.000
G1 X-8.025 Y110.044 F1200.000
G1 X-9.019 Y109.406 F1200.000
G1 X-9.981 Y108.719 F1200.000
G1 X-10.875 Y107.944 F1200.000
G1 X-11.431 Y107.388 F1200.000
G1 X-11.975 Y106.819 F1200.000
G1 X-13.000 Y105.619 F1200.000
G1 X-13.950 Y104.362 F1200.000
G1 X-14.363 Y103.688 F1200.000
G1 X-14.738 Y102.994 F1200.000
G1 X-15.244 Y101.919 F1200.000
G1 X-15.681 Y100.812 F1200.000
G1 X-16.056 Y99.688 F1200.000
G1 X-16.375 Y98.544 F1200.000
G1 X-16.469 Y98.156 F1200.000
G1 X-16.644 Y96.975 F1200.000
G1 X-16.738 Y95.794 F1200.000
G1 X-16.775 Y94.612 F1200.000
G1 X-16.775 Y93.825 F1200.000
G1 X-16.688 Y92.644 F1200.000
G1 X-16.581 Y91.856 F1200.000
G1 X-16.400 Y91.081 F1200.000
G1 X-16.181 Y90.319 F1200.000
G1 X-15.787 Y89.194 F1200.000
G1 X-15.150 Y87.737 F1200.000
G1 X-14.444 Y86.312 F1200.000
G1 X-14.069 Y85.612 F1200.000
G1 X-13.412 Y84.612 F1200.000
G1 X-12.925 Y83.981 F1200.000
G1 X-12.156 Y83.062 F1200.000
G1 X-11.356 Y82.175 F1200.000
G1 X-10.531 Y81.312 F1200.000
G1 X-9.944 Y80.781 F1200.000
G1 X-8.662 Y79.838 F1200.000
G1 X-7.656 Y79.200 F1200.000
G1 X-6.612 Y78.619 F1200.000
G1 X-5.531 Y78.112 F1200.000
G1 X-4.794 Y77.806 F1200.000
G1 X-3.669 Y77.412 F1200.000
G1 X-2.906 Y77.188 F1200.000
G1 X-2.131 Y76.994 F1200.000
G1 X-0.950 Y76.819 F1200.000
G1 X0.225 Y76.719 F1200.000
G1 X1.775 Y76.644 F1200.000
G1 X2.938 Y76.650 F1200.000
G1 X3.712 Y76.719 F1200.000
G1 X4.100 Y76.769 F1200.000
G1 X4.869 Y76.906 F1200.000
G1 X6.000 Y77.200 F1200.000
G1 X6.737 Y77.450 F1200.000
G1 X7.825 Y77.881 F1200.000
G1 X8.537 Y78.194 F1200.000
G1 X9.581 Y78.719 F1200.000
G1 X10.600 Y79.300 F1200.000
G1 X11.588 Y79.925 F1200.000
G1 X11.906 Y80.144 F1200.000
G1 X12.512 Y80.631 F1200.000
G1 X12.806 Y80.888 F1200.000
G1 X13.375 Y81.419 F1200.000
G1 X14.731 Y82.812 F1200.000
G1 X15.481 Y83.706 F1200.000
G1 X15.719 Y84.013 F1200.000
G1 X16.144 Y84.669 F1200.000
G1 X16.531 Y85.344 F1200.000
G1 X17.231 Y86.731 F1200.000
G1 X17.731 Y87.787 F1200.000
G1 X18.163 Y88.875 F1200.000
G1 X18.288 Y89.244 F1200.000
G1 X18.488 Y89.994 F1200.000
G1 X18.725 Y91.138 F1200.000
G1 X19.038 Y93.069 F1200.000
G1 X19.137 Y94.231 F1200.000
G1 X19.169 Y95.006 F1200.000
G1 X19.100 Y96.169 F1200.000
G1 X19.012 Y96.944 F1200.000
G1 X18.812 Y98.106 F1200.000
G1 X18.550 Y99.250 F1200.000
G1 X18.212 Y100.375 F1200.000
G1 X17.819 Y101.481 F1200.000
G1 X17.350 Y102.562 F1200.000
G1 X16.825 Y103.619 F1200.000
G1 X16.244 Y104.638 F1200.000
G1 X15.588 Y105.619 F1200.000
G1 X14.875 Y106.562 F1200.000
G1 X14.106 Y107.463 F1200.000
G1 X13.300 Y108.319 F1200.000
G1 X12.731 Y108.862 F1200.000
G1 X11.831 Y109.631 F1200.000
G1 X10.894 Y110.344 F1200.000
G1 X10.244 Y110.787 F1200.000
G1 X8.863 Y111.550 F1200.000
G1 X7.431 Y112.225 F1200.000
G1 X6.706 Y112.531 F1200.000
G1 X5.956 Y112.781 F1200.000
G1 X5.575 Y112.894 F1200.000
G1 X4.806 Y113.075 F1200.000
G1 X4.425 Y113.194 F1200.000
G1 X3.650 Y113.381 F1200.000
G1 X2.481 Y113.581 F1200.000
G1 X1.300 Y113.694 F1200.000
G1 X0.119 Y113.719 F1200.000
G1 X-0.656 Y113.688 F1200.000
G1 X-1.044 Y113.694 F1200.000
G1 X-1.819 Y113.662 F1200.000
G1 X-2.981 Y113.531 F1200.000
G1 X-3.369 Y113.469 F1200.000
G1 X-4.131 Y113.281 F1200.000
G1 X-4.888 Y113.069 F1200.000
G1 X-6.000 Y112.694 F1200.000
G1 X-6.731 Y112.412 F1200.000
G1 X-7.431 Y112.062 F1200.000
G1 X-8.119 Y111.688 F1200.000
G1 X-9.119 Y111.069 F1200.000
G1 X-10.425 Y110.188 F1200.000
G1 X-11.356 Y109.450 F1200.000
G1 X-12.231 Y108.662 F1200.000
G1 X-12.787 Y108.106 F1200.000
G1 X-13.319 Y107.525 F1200.000
G1 X-14.069 Y106.606 F1200.000
G1 X-15.012 Y105.338 F1200.000
G1 X-15.644 Y104.338 F1200.000
G1 X-16.031 Y103.650 F1200.000
G1 X-16.556 Y102.588 F1200.000
G1 X-16.869 Y101.862 F1200.000
G1 X-17.281 Y100.750 F1200.000
G1 X-17.619 Y99.612 F1200.000
G1 X-17.881 Y98.456 F1200.000
G1 X-18.075 Y97.281 F1200.000
G1 X-18.194 Y96.100 F1200.000
G1 X-18.231 Y94.919 F1200.000
G1 X-18.194 Y93.737 F1200.000
G1 X-18.081 Y92.556 F1200.000
G1 X-17.894 Y91.375 F1200.000
G1 X-17.631 Y90.213 F1200.000
G1 X-17.294 Y89.069 F1200.000
G1 X-16.881 Y87.950 F1200.000
G1 X-16.400 Y86.856 F1200.000
G1 X-15.856 Y85.794 F1200.000
G1 X-15.238 Y84.769 F1200.000
G1 X-14.562 Y83.787 F1200.000
G1 X-12.594 Y81.287 F1200.000
G1 X-11.775 Y80.412 F1200.000
G1 X-11.488 Y80.138 F1200.000
G1 X-10.569 Y79.381 F1200.000
G1 X-9.269 Y78.463 F1200.000
G1 X-8.275 Y77.806 F1200.000
G1 X-7.231 Y77.237 F1200.000
G1 X-6.506 Y76.900 F1200.000
G1 X-5.025 Y76.312 F1200.000
G1 X-3.900 Y75.919 F1200.000
G1 X-3.519 Y75.800 F1200.000
G1 X-2.356 Y75.537 F1200.000
G1 X-1.569 Y75.419 F1200.000
G1 X-0.388 Y75.281 F1200.000
G1 X0.775 Y75.200 F1200.000
G1 X2.325 Y75.138 F1200.000
G1 X3.487 Y75.188 F1200.000
G1 X4.650 Y75.350 F1200.000
G1 X5.412 Y75.519 F1200.000
G1 X6.537 Y75.831 F1200.000
G1 X8.012 Y76.325 F1200.000
G1 X8.375 Y76.463 F1200.000
G1 X9.088 Y76.775 F1200.000
G1 X10.469 Y77.494 F1200.000
G1 X11.481 Y78.075 F1200.000
G1 X12.469 Y78.700 F1200.000
G1 X13.394 Y79.412 F1200.000
G1 X13.975 Y79.931 F1200.000
G1 X14.544 Y80.463 F1200.000
G1 X15.637 Y81.569 F1200.000
G1 X16.163 Y82.144 F1200.000
G1 X16.650 Y82.756 F1200.000
G1 X17.319 Y83.713 F1200.000
G1 X17.725 Y84.381 F1200.000
G1 X18.094 Y85.062 F1200.000
G1 X18.425 Y85.769 F1200.000
G1 X18.613 Y86.112 F1200.000
G1 X18.950 Y86.812 F1200.000
G1 X19.394 Y87.888 F1200.000
G1 X19.656 Y88.625 F1200.000
G1 X19.856 Y89.375 F1200.000
G1 X19.944 Y89.756 F1200.000
G1 X20.012 Y90.144 F1200.000
G1 X20.106 Y90.525 F1200.000
G1 X20.363 Y92.069 F1200.000
G1 X20.544 Y93.619 F1200.000
G1 X20.631 Y94.781 F1200.000
G1 X20.600 Y95.944 F1200.000
G1 X20.519 Y96.719 F1200.000
G1 X20.337 Y97.881 F1200.000
G1 X20.100 Y99.025 F1200.000
G1 X19.800 Y100.162 F1200.000
G1 X19.444 Y101.281 F1200.000
G1 X19.031 Y102.381 F1200.000
G1 X18.562 Y103.463 F1200.000
G1 X18.219 Y104.169 F1200.000
G1 X17.831 Y104.844 F1200.000
G1 X17.194 Y105.831 F1200.000
G1 X16.506 Y106.787 F1200.000
G1 X15.769 Y107.706 F1200.000
G1 X14.475 Y109.194 F1200.000
G1 X13.625 Y110.013 F1200.000
G1 X13.025 Y110.525 F1200.000
G1 X12.088 Y111.237 F1200.000
G1 X11.113 Y111.906 F1200.000
G1 X10.113 Y112.537 F1200.000
G1 X9.069 Y113.081 F1200.000
G1 X8.000 Y113.588 F1200.000
G1 X7.275 Y113.894 F1200.000
G1 X6.525 Y114.144 F1200.000
G1 X4.612 Y114.669 F1200.000
G1 X3.450 Y114.931 F1200.000
G1 X2.269 Y115.088 F1200.000
G1 X1.481 Y115.144 F1200.000
G1 X-0.863 Y115.175 F1200.000
G1 X-2.025 Y115.144 F1200.000
G1 X-3.188 Y114.981 F1200.000
G1 X-4.331 Y114.725 F1200.000
G1 X-5.081 Y114.519 F1200.000
G1 X-6.194 Y114.144 F1200.000
G1 X-7.287 Y113.694 F1200.000
G1 X-8.344 Y113.175 F1200.000
G1 X-9.369 Y112.594 F1200.000
G1 X-10.706 Y111.775 F1200.000
G1 X-11.656 Y111.075 F1200.000
G1 X-12.850 Y110.050 F1200.000
G1 X-13.713 Y109.244 F1200.000
G1 X-14.512 Y108.375 F1200.000
G1 X-15.256 Y107.456 F1200.000
G1 X-16.819 Y105.175 F1200.000
G1 X-17.031 Y104.844 F1200.000
G1 X-17.600 Y103.806 F1200.000
G1 X-17.938 Y103.094 F1200.000
G1 X-18.387 Y101.994 F1200.000
G1 X-18.644 Y101.244 F1200.000
G1 X-18.863 Y100.481 F1200.000
G1 X-19.062 Y99.719 F1200.000
G1 X-19.481 Y97.781 F1200.000
G1 X-19.613 Y96.600 F1200.000
G1 X-19.663 Y95.419 F1200.000
G1 X-19.650 Y94.237 F1200.000
G1 X-19.587 Y93.056 F1200.000
G1 X-19.469 Y91.875 F1200.000
G1 X-19.150 Y90.325 F1200.000
G1 X-18.850 Y89.175 F1200.000
G1 X-18.494 Y88.037 F1200.000
G1 X-18.363 Y87.662 F1200.000
G1 X-17.719 Y86.206 F1200.000
G1 X-17.181 Y85.138 F1200.000
G1 X-16.594 Y84.100 F1200.000
G1 X-15.912 Y83.112 F1200.000
G1 X-15.662 Y82.800 F1200.000
G1 X-15.431 Y82.475 F1200.000
G1 X-14.225 Y80.888 F1200.000
G1 X-13.719 Y80.281 F1200.000
G1 X-12.887 Y79.425 F1200.000
G1 X-12.294 Y78.894 F1200.000
G1 X-11.669 Y78.406 F1200.000
G1 X-11.369 Y78.144 F1200.000
G1 X-10.100 Y77.175 F1200.000
G1 X-9.094 Y76.537 F1200.000
G1 X-8.394 Y76.150 F1200.000
G1 X-7.681 Y75.800 F1200.000
G1 X-5.481 Y74.869 F1200.000
G1 X-4.362 Y74.463 F1200.000
G1 X-3.594 Y74.256 F1200.000
G1 X-2.806 Y74.119 F1200.000
G1 X-2.031 Y73.956 F1200.000
G1 X-0.456 Y73.750 F1200.000
G1 X0.713 Y73.675 F1200.000
G1 X1.488 Y73.656 F1200.000
G1 X1.875 Y73.631 F1200.000
G1 X2.650 Y73.619 F1200.000
G1 X3.812 Y73.681 F1200.000
G1 X4.200 Y73.725 F1200.000
G1 X4.963 Y73.875 F1200.000
G1 X5.725 Y74.056 F1200.000
G1 X6.475 Y74.275 F1200.000
G1 X6.856 Y74.362 F1200.000
G1 X7.981 Y74.694 F1200.000
G1 X9.075 Y75.100 F1200.000
G1 X9.787 Y75.412 F1200.000
G1 X10.831 Y75.938 F1200.000
G1 X12.838 Y77.138 F1200.000
G1 X13.787 Y77.819 F1200.000
G1 X14.700 Y78.550 F1200.000
G1 X15.281 Y79.069 F1200.000
G1 X15.838 Y79.612 F1200.000
G1 X16.637 Y80.469 F1200.000
G1 X17.387 Y81.369 F1200.000
G1 X18.094 Y82.300 F1200.000
G1 X18.769 Y83.256 F1200.000
G1 X19.369 Y84.263 F1200.000
G1 X19.894 Y85.300 F1200.000
G1 X20.669 Y87.088 F1200.000
G1 X20.950 Y87.812 F1200.000
G1 X21.250 Y88.944 F1200.000
G1 X21.363 Y89.319 F1200.000
G1 X21.544 Y90.081 F1200.000
G1 X21.863 Y92.000 F1200.000
G1 X22.087 Y93.938 F1200.000
G1 X22.125 Y95.100 F1200.000
G1 X22.075 Y96.263 F1200.000
G1 X21.944 Y97.425 F1200.000
G1 X21.812 Y98.200 F1200.000
G1 X21.644 Y98.963 F1200.000
G1 X21.438 Y99.719 F1200.000
G1 X21.350 Y100.100 F1200.000
G1 X20.900 Y101.600 F1200.000
G1 X20.500 Y102.706 F1200.000
G1 X20.050 Y103.787 F1200.000
G1 X19.719 Y104.500 F1200.000
G1 X18.931 Y105.850 F1200.000
G1 X18.294 Y106.844 F1200.000
G1 X17.619 Y107.812 F1200.000
G1 X16.869 Y108.731 F1200.000
G1 X15.812 Y109.900 F1200.000
G1 X14.694 Y111.013 F1200.000
G1 X14.406 Y111.281 F1200.000
G1 X13.794 Y111.781 F1200.000
G1 X12.831 Y112.469 F1200.000
G1 X12.519 Y112.713 F1200.000
G1 X11.869 Y113.162 F1200.000
G1 X10.863 Y113.787 F1200.000
G1 X9.825 Y114.350 F1200.000
G1 X8.750 Y114.856 F1200.000
G1 X8.019 Y115.162 F1200.000
G1 X6.900 Y115.556 F1200.000
G1 X5.763 Y115.894 F1200.000
G1 X4.606 Y116.162 F1200.000
G1 X3.438 Y116.369 F1200.000
G1 X2.256 Y116.500 F1200.000
G1 X1.469 Y116.556 F1200.000
G1 X1.075 Y116.569 F1200.000
G1 X0.681 Y116.600 F1200.000
G1 X-1.262 Y116.656 F1200.000
G1 X-2.038 Y116.625 F1200.000
G1 X-3.587 Y116.394 F1200.000
G1 X-4.731 Y116.131 F1200.000
G1 X-5.856 Y115.794 F1200.000
G1 X-6.956 Y115.381 F1200.000
G1 X-8.750 Y114.612 F1200.000
G1 X-9.787 Y114.050 F1200.000
G1 X-10.787 Y113.431 F1200.000
G1 X-12.719 Y112.094 F1200.000
G1 X-13.031 Y111.856 F1200.000
G1 X-13.625 Y111.338 F1200.000
G1 X-13.912 Y111.069 F1200.000
G1 X-14.463 Y110.506 F1200.000
G1 X-14.750 Y110.237 F1200.000
G1 X-15.819 Y109.081 F1200.000
G1 X-16.550 Y108.156 F1200.000
G1 X-17.450 Y106.856 F1200.000
G1 X-18.500 Y105.181 F1200.000
G1 X-18.700 Y104.838 F1200.000
G1 X-19.225 Y103.775 F1200.000
G1 X-19.675 Y102.681 F1200.000
G1 X-19.931 Y101.931 F1200.000
G1 X-20.269 Y100.794 F1200.000
G1 X-20.663 Y99.263 F1200.000
G1 X-20.750 Y98.875 F1200.000
G1 X-20.950 Y97.706 F1200.000
G1 X-21.044 Y96.919 F1200.000
G1 X-21.100 Y96.131 F1200.000
G1 X-21.119 Y94.950 F1200.000
G1 X-21.019 Y92.588 F1200.000
G1 X-20.869 Y91.406 F1200.000
G1 X-20.731 Y90.619 F1200.000
G1 X-20.456 Y89.456 F1200.000
G1 X-20.238 Y88.694 F1200.000
G1 X-19.844 Y87.562 F1200.000
G1 X-18.931 Y85.356 F1200.000
G1 X-18.606 Y84.631 F1200.000
G1 X-18.025 Y83.588 F1200.000
G1 X-17.600 Y82.912 F1200.000
G1 X-16.669 Y81.625 F1200.000
G1 X-16.425 Y81.312 F1200.000
G1 X-15.744 Y80.331 F1200.000
G1 X-14.988 Y79.406 F1200.000
G1 X-14.719 Y79.112 F1200.000
G1 X-14.150 Y78.556 F1200.000
G1 X-13.850 Y78.294 F1200.000
G1 X-13.562 Y78.019 F1200.000
G1 X-12.338 Y76.994 F1200.000
G1 X-11.387 Y76.269 F1200.000
G1 X-10.400 Y75.594 F1200.000
G1 X-10.062 Y75.381 F1200.000
G1 X-9.363 Y74.994 F1200.000
G1 X-7.588 Y74.100 F1200.000
G1 X-6.125 Y73.469 F1200.000
G1 X-5.756 Y73.325 F1200.000
G1 X-4.612 Y72.981 F1200.000
G1 X-3.837 Y72.812 F1200.000
G1 X-3.456 Y72.706 F1200.000
G1 X-1.906 Y72.381 F1200.000
G1 X-0.725 Y72.231 F1200.000
G1 X0.056 Y72.175 F1200.000
G1 X1.994 Y72.106 F1200.000
G1 X3.156 Y72.106 F1200.000
G1 X3.931 Y72.162 F1200.000
G1 X5.463 Y72.450 F1200.000
G1 X7.725 Y73.025 F1200.000
G1 X8.838 Y73.388 F1200.000
G1 X9.925 Y73.806 F1200.000
G1 X10.637 Y74.119 F1200.000
G1 X11.681 Y74.644 F1200.000
G1 X12.700 Y75.225 F1200.000
G1 X13.681 Y75.862 F1200.000
G1 X14.625 Y76.556 F1200.000
G1 X15.525 Y77.294 F1200.000
G1 X16.106 Y77.812 F1200.000
G1 X16.663 Y78.356 F1200.000
G1 X16.950 Y78.619 F1200.000
G1 X17.500 Y79.169 F1200.000
G1 X18.269 Y80.044 F1200.000
G1 X18.981 Y80.969 F1200.000
G1 X20.094 Y82.575 F1200.000
G1 X20.700 Y83.575 F1200.000
G1 X21.250 Y84.606 F1200.000
G1 X21.738 Y85.662 F1200.000
G1 X22.169 Y86.744 F1200.000
G1 X22.544 Y87.850 F1200.000
G1 X22.863 Y88.975 F1200.000
G1 X23.081 Y90.119 F1200.000
G1 X23.244 Y91.281 F1200.000
G1 X23.319 Y91.662 F1200.000
G1 X23.438 Y92.438 F1200.000
G1 X23.569 Y93.600 F1200.000
G1 X23.600 Y93.987 F1200.000
G1 X23.606 Y95.150 F1200.000
G1 X23.531 Y96.312 F1200.000
G1 X23.406 Y97.475 F1200.000
G1 X23.294 Y98.250 F1200.000
G1 X22.681 Y100.919 F1200.000
G1 X22.325 Y102.037 F1200.000
G1 X22.050 Y102.775 F1200.000
G1 X21.288 Y104.575 F1200.000
G1 X20.738 Y105.619 F1200.000
G1 X19.750 Y107.312 F1200.000
G1 X19.106 Y108.300 F1200.000
G1 X18.881 Y108.619 F1200.000
G1 X18.381 Y109.225 F1200.000
G1 X18.119 Y109.519 F1200.000
G1 X17.875 Y109.831 F1200.000
G1 X16.831 Y111.013 F1200.000
G1 X15.994 Y111.844 F1200.000
G1 X15.106 Y112.625 F1200.000
G1 X14.181 Y113.356 F1200.000
G1 X13.206 Y114.031 F1200.000
G1 X10.838 Y115.463 F1200.000
G1 X9.775 Y115.994 F1200.000
G1 X8.688 Y116.463 F1200.000
G1 X7.575 Y116.875 F1200.000
G1 X6.438 Y117.219 F1200.000
G1 X5.281 Y117.500 F1200.000
G1 X4.506 Y117.650 F1200.000
G1 X3.325 Y117.819 F1200.000
G1 X2.931 Y117.862 F1200.000
G1 X2.538 Y117.925 F1200.000
G1 X1.356 Y118.062 F1200.000
G1 X0.175 Y118.144 F1200.000
G1 X-0.600 Y118.169 F1200.000
G1 X-1.762 Y118.100 F1200.000
G1 X-2.925 Y117.969 F1200.000
G1 X-4.088 Y117.781 F1200.000
G1 X-4.856 Y117.631 F1200.000
G1 X-5.987 Y117.319 F1200.000
G1 X-6.725 Y117.062 F1200.000
G1 X-8.537 Y116.325 F1200.000
G1 X-9.606 Y115.838 F1200.000
G1 X-9.956 Y115.662 F1200.000
G1 X-10.631 Y115.263 F1200.000
G1 X-11.619 Y114.625 F1200.000
G1 X-11.944 Y114.400 F1200.000
G1 X-12.275 Y114.194 F1200.000
G1 X-13.250 Y113.525 F1200.000
G1 X-14.175 Y112.800 F1200.000
G1 X-15.069 Y112.025 F1200.000
G1 X-15.637 Y111.481 F1200.000
G1 X-16.712 Y110.325 F1200.000
G1 X-17.462 Y109.406 F1200.000
G1 X-18.156 Y108.450 F1200.000
G1 X-19.844 Y105.781 F1200.000
G1 X-20.406 Y104.737 F1200.000
G1 X-20.581 Y104.381 F1200.000
G1 X-20.881 Y103.644 F1200.000
G1 X-21.281 Y102.525 F1200.000
G1 X-21.519 Y101.775 F1200.000
G1 X-21.819 Y100.631 F1200.000
G1 X-21.988 Y99.856 F1200.000
G1 X-22.087 Y99.475 F1200.000
G1 X-22.337 Y98.312 F1200.000
G1 X-22.462 Y97.525 F1200.000
G1 X-22.581 Y95.950 F1200.000
G1 X-22.606 Y94.769 F1200.000
G1 X-22.569 Y93.588 F1200.000
G1 X-22.475 Y92.406 F1200.000
G1 X-22.325 Y91.225 F1200.000
G1 X-22.100 Y90.050 F1200.000
G1 X-21.819 Y88.888 F1200.000
G1 X-21.481 Y87.744 F1200.000
G1 X-21.225 Y86.994 F1200.000
G1 X-20.913 Y86.256 F1200.000
G1 X-20.744 Y85.894 F1200.000
G1 X-20.594 Y85.525 F1200.000
G1 X-19.587 Y83.356 F1200.000
G1 X-18.975 Y82.338 F1200.000
G1 X-18.744 Y82.013 F1200.000
G1 X-18.531 Y81.675 F1200.000
G1 X-17.406 Y80.031 F1200.000
G1 X-16.681 Y79.075 F1200.000
G1 X-16.431 Y78.769 F1200.000
G1 X-15.331 Y77.612 F1200.000
G1 X-14.756 Y77.056 F1200.000
G1 X-13.244 Y75.775 F1200.000
G1 X-12.312 Y75.031 F1200.000
G1 X-10.969 Y74.175 F1200.000
G1 X-9.919 Y73.594 F1200.000
G1 X-9.206 Y73.237 F1200.000
G1 X-8.856 Y73.044 F1200.000
G1 X-8.144 Y72.688 F1200.000
G1 X-7.050 Y72.206 F1200.000
G1 X-6.681 Y72.062 F1200.000
G1 X-5.925 Y71.812 F1200.000
G1 X-4.775 Y71.494 F1200.000
G1 X-4.388 Y71.400 F1200.000
G1 X-4.006 Y71.287 F1200.000
G1 X-3.231 Y71.100 F1200.000
G1 X-2.062 Y70.881 F1200.000
G1 X-0.881 Y70.731 F1200.000
G1 X0.681 Y70.625 F1200.000
G1 X2.619 Y70.569 F1200.000
G1 X3.781 Y70.625 F1200.000
G1 X4.169 Y70.662 F1200.000
G1 X4.944 Y70.794 F1200.000
G1 X7.612 Y71.381 F1200.000
G1 X8.725 Y71.731 F1200.000
G1 X9.450 Y72.006 F1200.000
G1 X9.819 Y72.131 F1200.000
G1 X11.262 Y72.713 F1200.000
G1 X12.306 Y73.237 F1200.000
G1 X12.981 Y73.625 F1200.000
G1 X13.963 Y74.263 F1200.000
G1 X15.562 Y75.375 F1200.000
G1 X15.875 Y75.606 F1200.000
G1 X16.769 Y76.356 F1200.000
G1 X17.337 Y76.888 F1200.000
G1 X17.881 Y77.444 F1200.000
G1 X18.163 Y77.713 F1200.000
G1 X18.700 Y78.275 F1200.000
G1 X19.462 Y79.162 F1200.000
G1 X20.875 Y81.025 F1200.000
G1 X21.506 Y82.006 F1200.000
G1 X22.087 Y83.025 F1200.000
G1 X22.613 Y84.069 F1200.000
G1 X23.694 Y86.581 F1200.000
G1 X24.069 Y87.688 F1200.000
G1 X24.375 Y88.812 F1200.000
G1 X24.587 Y89.956 F1200.000
G1 X24.637 Y90.344 F1200.000
G1 X25.006 Y92.662 F1200.000
G1 X25.087 Y93.825 F1200.000
G1 X25.094 Y94.987 F1200.000
G1 X25.050 Y95.763 F1200.000
G1 X24.969 Y96.537 F1200.000
G1 X24.950 Y96.925 F1200.000
G1 X24.869 Y97.700 F1200.000
G1 X24.694 Y98.862 F1200.000
G1 X24.450 Y100.006 F1200.000
G1 X24.131 Y101.138 F1200.000
G1 X23.756 Y102.250 F1200.000
G1 X23.644 Y102.625 F1200.000
G1 X23.131 Y104.106 F1200.000
G1 X22.656 Y105.181 F1200.000
G1 X22.294 Y105.881 F1200.000
G1 X21.900 Y106.562 F1200.000
G1 X21.719 Y106.912 F1200.000
G1 X20.931 Y108.269 F1200.000
G1 X20.250 Y109.231 F1200.000
G1 X19.762 Y109.850 F1200.000
G1 X19.506 Y110.150 F1200.000
G1 X18.775 Y111.075 F1200.000
G1 X17.988 Y111.950 F1200.000
G1 X17.156 Y112.787 F1200.000
G1 X15.981 Y113.831 F1200.000
G1 X15.050 Y114.562 F1200.000
G1 X14.081 Y115.237 F1200.000
G1 X13.075 Y115.869 F1200.000
G1 X12.037 Y116.450 F1200.000
G1 X9.919 Y117.519 F1200.000
G1 X8.831 Y117.975 F1200.000
G1 X8.094 Y118.250 F1200.000
G1 X6.963 Y118.606 F1200.000
G1 X5.812 Y118.906 F1200.000
G1 X5.425 Y118.994 F1200.000
G1 X4.638 Y119.106 F1200.000
G1 X4.250 Y119.188 F1200.000
G1 X1.100 Y119.594 F1200.000
G1 X-0.075 Y119.631 F1200.000
G1 X-0.850 Y119.600 F1200.000
G1 X-1.238 Y119.600 F1200.000
G1 X-2.788 Y119.500 F1200.000
G1 X-3.562 Y119.394 F1200.000
G1 X-4.713 Y119.156 F1200.000
G1 X-6.606 Y118.662 F1200.000
G1 X-7.713 Y118.263 F1200.000
G1 X-8.075 Y118.106 F1200.000
G1 X-8.444 Y117.975 F1200.000
G1 X-9.531 Y117.519 F1200.000
G1 X-10.244 Y117.194 F1200.000
G1 X-11.269 Y116.612 F1200.000
G1 X-11.919 Y116.175 F1200.000
G1 X-12.912 Y115.550 F1200.000
G1 X-14.525 Y114.425 F1200.000
G1 X-16.019 Y113.144 F1200.000
G1 X-16.881 Y112.344 F1200.000
G1 X-17.413 Y111.763 F1200.000
G1 X-18.406 Y110.544 F1200.000
G1 X-19.581 Y108.963 F1200.000
G1 X-20.681 Y107.325 F1200.000
G1 X-21.069 Y106.638 F1200.000
G1 X-21.794 Y105.237 F1200.000
G1 X-22.106 Y104.513 F1200.000
G1 X-22.637 Y103.019 F1200.000
G1 X-23.087 Y101.494 F1200.000
G1 X-23.469 Y99.956 F1200.000
G1 X-23.775 Y98.406 F1200.000
G1 X-23.956 Y97.225 F1200.000
G1 X-24.038 Y96.044 F1200.000
G1 X-24.056 Y94.862 F1200.000
G1 X-24.038 Y93.681 F1200.000
G1 X-23.975 Y92.500 F1200.000
G1 X-23.825 Y91.319 F1200.000
G1 X-23.681 Y90.537 F1200.000
G1 X-23.244 Y88.600 F1200.000
G1 X-22.931 Y87.456 F1200.000
G1 X-22.669 Y86.706 F1200.000
G1 X-22.056 Y85.237 F1200.000
G1 X-21.550 Y84.150 F1200.000
G1 X-21.069 Y83.056 F1200.000
G1 X-20.512 Y82.000 F1200.000
G1 X-19.906 Y80.975 F1200.000
G1 X-19.012 Y79.662 F1200.000
G1 X-18.069 Y78.381 F1200.000
G1 X-17.294 Y77.469 F1200.000
G1 X-16.462 Y76.612 F1200.000
G1 X-15.881 Y76.069 F1200.000
G1 X-15.581 Y75.806 F1200.000
G1 X-15.294 Y75.531 F1200.000
G1 X-14.088 Y74.487 F1200.000
G1 X-13.137 Y73.769 F1200.000
G1 X-12.806 Y73.544 F1200.000
G1 X-12.119 Y73.138 F1200.000
